hehonglu123/Motion-Primitive-Planning/ILC/recorded_data/realrobot/from_NX/iteration_33/run_0.csv
timestamp, cmd_num, J1, J2, J3, J4, J5, J6
0.001043, -1, 39.628, 32.4456, 11.8317, 12.5438, 113.713, -48.8734
0.005189, -1, 39.6281, 32.4456, 11.8317, 12.5439, 113.713, -48.8735
0.00783, -1, 39.6281, 32.4456, 11.8317, 12.5439, 113.713, -48.8735
0.03005, -1, 39.6281, 32.4456, 11.8317, 12.5439, 113.713, -48.8733
0.031421, -1, 39.6281, 32.4456, 11.8317, 12.5438, 113.713, -48.8733
0.034539, -1, 39.6281, 32.4456, 11.8317, 12.5439, 113.713, -48.8733
0.03976, -1, 39.628, 32.4456, 11.8317, 12.5439, 113.713, -48.8734
0.048738, -1, 39.628, 32.4456, 11.8317, 12.5438, 113.713, -48.8734
0.055762, -1, 39.6276, 32.4456, 11.8317, 12.5438, 113.713, -48.8734
0.06477, -1, 39.6255, 32.4452, 11.8317, 12.5438, 113.713, -48.8734
0.19963, -1, 38.3386, 31.7878, 12.1012, 12.5575, 112.992, -50.715
0.200883, -1, 38.2516, 31.7422, 12.1012, 12.5575, 112.992, -50.715
0.202786, -1, 38.1631, 31.6958, 12.1207, 12.5587, 112.942, -50.8413
0.204182, -1, 38.1631, 31.6958, 12.1207, 12.5587, 112.942, -50.8413
0.205459, -1, 38.1631, 31.6958, 12.1207, 12.5587, 112.942, -50.8413
0.207523, -1, 38.0732, 31.6488, 12.1402, 12.5599, 112.892, -50.9685
0.208798, -1, 38.0732, 31.6488, 12.1402, 12.5599, 112.892, -50.9685
0.211942, -1, 37.982, 31.6013, 12.1596, 12.5612, 112.841, -51.0966
0.213219, -1, 37.982, 31.6013, 12.1596, 12.5612, 112.841, -51.0966
0.215122, -1, 37.8896, 31.5533, 12.179, 12.5624, 112.79, -51.2254
0.216486, -1, 37.8896, 31.5533, 12.179, 12.5624, 112.79, -51.2254
0.217834, -1, 37.8896, 31.5533, 12.179, 12.5624, 112.79, -51.2254
0.219878, -1, 37.7963, 31.505, 12.1984, 12.5636, 112.739, -51.3544
0.221158, -1, 37.7963, 31.505, 12.1984, 12.5636, 112.739, -51.3544
0.222982, -1, 37.702, 31.4563, 12.2177, 12.5649, 112.688, -51.4838
0.225742, -1, 37.702, 31.4563, 12.2177, 12.5649, 112.688, -51.4838
0.227954, -1, 37.6071, 31.4075, 12.2371, 12.5661, 112.637, -51.6136
0.229167, -1, 37.6071, 31.4075, 12.2371, 12.5661, 112.637, -51.6136
0.231031, -1, 37.5117, 31.3586, 12.2565, 12.5674, 112.586, -51.7435
0.23246, -1, 37.5117, 31.3586, 12.2565, 12.5674, 112.586, -51.7435
0.233747, -1, 37.5117, 31.3586, 12.2565, 12.5674, 112.586, -51.7435
0.239169, -1, 37.3201, 31.2605, 12.2952, 12.5698, 112.483, -52.0031
0.2478, -1, 37.1279, 31.1626, 12.3341, 12.5722, 112.38, -52.263
0.255804, -1, 36.9357, 31.0648, 12.3728, 12.5749, 112.277, -52.5231
0.26386, -1, 36.7436, 30.9669, 12.4115, 12.5774, 112.174, -52.7836
0.271795, -1, 36.5519, 30.8691, 12.4504, 12.58, 112.071, -53.044
0.279801, -1, 36.3603, 30.7713, 12.4893, 12.5825, 111.968, -53.3042
0.287912, -1, 36.1687, 30.6735, 12.5282, 12.585, 111.865, -53.5647
0.295719, -1, 35.9772, 30.5755, 12.5671, 12.5875, 111.762, -53.8254
0.30374, -1, 35.7856, 30.4774, 12.606, 12.59, 111.659, -54.0861
0.311834, -1, 35.5938, 30.3794, 12.645, 12.5925, 111.556, -54.3464
0.319785, -1, 35.4017, 30.2811, 12.6838, 12.5951, 111.453, -54.6067
0.327874, -1, 35.2093, 30.1828, 12.7227, 12.5977, 111.35, -54.8673
0.335969, -1, 35.0169, 30.0844, 12.7617, 12.6001, 111.247, -55.1282
0.344086, -1, 34.8246, 29.9859, 12.8006, 12.6027, 111.144, -55.3888
0.35213, -1, 34.6323, 29.8874, 12.8394, 12.6051, 111.041, -55.6496
0.358758, -1, 34.5361, 29.8382, 12.8589, 12.6064, 110.989, -55.78
0.368144, -1, 34.2478, 29.6906, 12.9175, 12.6102, 110.835, -56.1714
0.374701, -1, 34.1518, 29.6415, 12.9369, 12.6115, 110.783, -56.3018
0.384262, -1, 33.864, 29.4941, 12.9955, 12.6154, 110.629, -56.6929
0.393265, -1, 33.6722, 29.3957, 13.0344, 12.618, 110.526, -56.9537
0.400397, -1, 33.4803, 29.2974, 13.0734, 12.6205, 110.422, -57.2148
0.40827, -1, 33.3841, 29.2482, 13.0929, 12.6231, 110.32, -57.4759
0.416214, -1, 33.1915, 29.1496, 13.132, 12.6244, 110.268, -57.6063
0.424401, -1, 32.9987, 29.051, 13.1708, 12.627, 110.165, -57.9979
0.431684, -1, 32.8058, 28.9524, 13.2098, 12.6296, 110.062, -58.1285
0.439683, -1, 32.6124, 28.8538, 13.2488, 12.6322, 109.959, -58.3899
0.447736, -1, 32.4189, 28.7551, 13.2877, 12.6349, 109.856, -58.6511
0.455692, -1, 32.225, 28.6564, 13.3267, 12.6376, 109.753, -58.912
0.463713, -1, 32.0308, 28.5577, 13.3656, 12.6402, 109.649, -59.1731
0.471687, -1, 31.8369, 28.4589, 13.4046, 12.6429, 109.546, -59.4344
0.479712, -1, 31.6433, 28.3602, 13.4437, 12.6455, 109.443, -59.6959
0.48773, -1, 31.4498, 28.2615, 13.4827, 12.6484, 109.34, -59.957
0.495708, -1, 31.2567, 28.1629, 13.5217, 12.6511, 109.237, -60.2184
0.50368, -1, 31.0641, 28.0646, 13.5608, 12.6539, 109.134, -60.4798
0.511743, -1, 30.8718, 27.966, 13.5999, 12.6567, 109.031, -60.7413
0.652823, -1, 27.4916, 26.2377, 14.2827, 12.7021, 107.223, -65.3199
0.654973, -1, 27.3955, 26.1882, 14.3022, 12.7033, 107.172, -65.4508
0.656186, -1, 27.3955, 26.1882, 14.3022, 12.7033, 107.172, -65.4508
0.657546, -1, 27.3955, 26.1882, 14.3022, 12.7033, 107.172, -65.4508
0.660318, -1, 27.2994, 26.1387, 14.3218, 12.7045, 107.12, -65.5815
0.661614, -1, 27.2994, 26.1387, 14.3218, 12.7045, 107.12, -65.5815
0.663739, -1, 27.2033, 26.0892, 14.3413, 12.7056, 107.068, -65.7123
0.666884, -1, 27.107, 26.0398, 14.3608, 12.7067, 107.017, -65.8431
0.668127, -1, 27.107, 26.0398, 14.3608, 12.7067, 107.017, -65.8431
0.669453, -1, 27.107, 26.0398, 14.3608, 12.7067, 107.017, -65.8431
0.671511, -1, 27.0107, 25.9903, 14.3802, 12.7079, 106.965, -65.9739
0.672715, -1, 27.0107, 25.9903, 14.3802, 12.7079, 106.965, -65.9739
0.675419, -1, 26.9145, 25.941, 14.3997, 12.7091, 106.913, -66.1049
0.67668, -1, 26.9145, 25.941, 14.3997, 12.7091, 106.913, -66.1049
0.678702, -1, 26.8181, 25.8916, 14.4192, 12.7102, 106.862, -66.2359
0.680483, -1, 26.8181, 25.8916, 14.4192, 12.7102, 106.862, -66.2359
0.681705, -1, 26.8181, 25.8916, 14.4192, 12.7102, 106.862, -66.2359
0.684741, -1, 26.7217, 25.8421, 14.4387, 12.7114, 106.81, -66.3667
0.686663, -1, 26.6251, 25.7927, 14.4582, 12.7125, 106.758, -66.4975
0.688021, -1, 26.6251, 25.7927, 14.4582, 12.7125, 106.758, -66.4975
0.689215, -1, 26.6251, 25.7927, 14.4582, 12.7125, 106.758, -66.4975
0.691272, -1, 26.5283, 25.7433, 14.4777, 12.7137, 106.707, -66.6284
0.696693, -1, 26.4316, 25.6939, 14.4971, 12.7148, 106.655, -66.7593
0.703681, -1, 26.2377, 25.595, 14.5361, 12.717, 106.552, -67.021
0.711757, -1, 26.0436, 25.4962, 14.5751, 12.7193, 106.449, -67.283
0.719747, -1, 25.8494, 25.3973, 14.614, 12.7216, 106.346, -67.5447
0.727679, -1, 25.6552, 25.2985, 14.6531, 12.7239, 106.243, -67.8062
0.735782, -1, 25.4613, 25.1998, 14.6921, 12.7262, 106.139, -68.0678
0.743729, -1, 25.2675, 25.1011, 14.731, 12.7285, 106.036, -68.3297
0.751775, -1, 25.0741, 25.0024, 14.7702, 12.7308, 105.933, -68.5915
0.759889, -1, 24.8809, 24.9035, 14.8092, 12.7332, 105.829, -68.853
0.767793, -1, 24.688, 24.8048, 14.8481, 12.7356, 105.726, -69.1148
0.775788, -1, 24.4954, 24.7059, 14.8871, 12.738, 105.623, -69.3767
0.783854, -1, 24.303, 24.607, 14.9262, 12.7403, 105.52, -69.6383
0.791769, -1, 24.1105, 24.5082, 14.9652, 12.7427, 105.416, -69.8998
0.799684, -1, 23.9177, 24.4094, 15.0042, 12.745, 105.313, -70.1613
0.807792, -1, 23.7249, 24.3106, 15.0431, 12.7475, 105.209, -70.4229
0.815746, -1, 23.5317, 24.2117, 15.082, 12.7499, 105.106, -70.6848
0.823858, -1, 23.3382, 24.1129, 15.121, 12.7522, 105.003, -70.9463
0.831933, -1, 23.1445, 24.014, 15.1599, 12.7547, 104.899, -71.2083
0.83989, -1, 22.9505, 23.9151, 15.1988, 12.7571, 104.796, -71.4701
0.8481, -1, 22.7565, 23.8163, 15.2378, 12.7596, 104.693, -71.732
0.85469, -1, 22.6595, 23.7669, 15.2573, 12.7608, 104.641, -71.8629
0.86413, -1, 22.369, 23.619, 15.3158, 12.7645, 104.486, -72.255
0.87066, -1, 22.2724, 23.5696, 15.3352, 12.7658, 104.434, -72.3856
0.88023, -1, 21.9827, 23.4216, 15.3936, 12.7696, 104.279, -72.778
0.888252, -1, 21.7898, 23.3228, 15.4327, 12.7722, 104.176, -73.0396
0.896385, -1, 21.5975, 23.2241, 15.4716, 12.7749, 104.073, -73.3007
0.904283, -1, 21.4053, 23.1253, 15.5105, 12.7776, 103.97, -73.5623
0.912264, -1, 21.3092, 23.076, 15.53, 12.7802, 103.867, -73.824
0.920409, -1, 21.1168, 22.9774, 15.5691, 12.7815, 103.763, -74.0855
0.927667, -1, 20.9243, 22.8788, 15.6079, 12.7842, 103.712, -74.2161
0.935666, -1, 20.7319, 22.7802, 15.6469, 12.7869, 103.609, -74.4771
0.943727, -1, 20.5393, 22.6816, 15.6858, 12.7896, 103.505, -74.7384
0.951721, -1, 20.3461, 22.5829, 15.7247, 12.7923, 103.403, -74.9997
0.958741, -1, 20.1525, 22.4842, 15.7637, 12.795, 103.3, -75.2609
0.967715, -1, 19.9588, 22.3855, 15.8026, 12.7978, 103.196, -75.522
0.975672, -1, 19.7653, 22.2868, 15.8413, 12.8006, 103.094, -75.7832
0.98374, -1, 19.5716, 22.1882, 15.8802, 12.8032, 102.991, -76.0445
0.99168, -1, 19.3782, 22.0896, 15.9191, 12.806, 102.887, -76.3057
0.99969, -1, 19.1852, 21.9909, 15.958, 12.8087, 102.785, -76.5665
1.00666, -1, 18.9924, 21.8923, 15.997, 12.8115, 102.681, -76.8273
1.01567, -1, 18.7999, 21.7936, 16.0358, 12.8142, 102.578, -77.0884
1.02379, -1, 18.6078, 21.6949, 16.0745, 12.817, 102.475, -77.3494
1.03177, -1, 18.416, 21.5963, 16.1135, 12.8196, 102.372, -77.6101
1.03966, -1, 18.2241, 21.4978, 16.1524, 12.8223, 102.27, -77.8708
1.05023, -1, 18.0323, 21.3994, 16.2106, 12.8262, 102.115, -78.2621
1.05468, -1, 17.8404, 21.301, 16.2301, 12.8274, 102.064, -78.3926
1.06368, -1, 17.6484, 21.2027, 16.269, 12.83, 101.961, -78.6531
1.07266, -1, 17.456, 21.1044, 16.3078, 12.8324, 101.858, -78.9134
1.07867, -1, 17.2631, 21.0061, 16.3467, 12.8349, 101.755, -79.174
1.08766, -1, 17.07, 20.9078, 16.3854, 12.8373, 101.652, -79.4347
1.09567, -1, 16.877, 20.8096, 16.4243, 12.8397, 101.549, -79.6952
1.10368, -1, 16.6838, 20.7114, 16.4631, 12.8421, 101.446, -79.9557
1.11167, -1, 16.4908, 20.6132, 16.5018, 12.8444, 101.344, -80.2163
1.11975, -1, 16.298, 20.5149, 16.5405, 12.8468, 101.241, -80.4769
1.12768, -1, 16.1057, 20.4166, 16.5793, 12.8491, 101.138, -80.7374
1.13566, -1, 15.9137, 20.3181, 16.6181, 12.8514, 101.036, -80.9975
1.14375, -1, 15.7219, 20.2196, 16.6568, 12.8538, 100.933, -81.2575
1.15168, -1, 15.5306, 20.1213, 16.6954, 12.8561, 100.83, -81.5177
1.15968, -1, 15.3395, 20.023, 16.7341, 12.8584, 100.728, -81.7779
1.16776, -1, 15.1483, 19.9247, 16.7729, 12.8607, 100.625, -82.0378
1.17566, -1, 14.9571, 19.8265, 16.8116, 12.863, 100.523, -82.2976
1.18367, -1, 14.7659, 19.7284, 16.8503, 12.8653, 100.42, -82.5575
1.19174, -1, 14.5744, 19.6303, 16.8891, 12.8676, 100.318, -82.8176
1.1997, -1, 14.3826, 19.5321, 16.9277, 12.8699, 100.215, -83.0773
1.20766, -1, 14.1903, 19.4341, 16.9664, 12.8722, 100.113, -83.3368
1.2159, -1, 13.9979, 19.3361, 17.0052, 12.8744, 100.01, -83.5964
1.22367, -1, 13.8055, 19.2383, 17.0437, 12.8767, 99.9075, -83.8561
1.23173, -1, 13.6131, 19.1405, 17.0824, 12.879, 99.805, -84.1156
1.24055, -1, 13.4208, 19.0426, 17.1211, 12.8813, 99.7024, -84.3748
1.24772, -1, 13.2287, 18.9446, 17.1596, 12.8836, 99.6002, -84.634
1.25581, -1, 13.0371, 18.8468, 17.1982, 12.886, 99.4977, -84.8935
1.26456, -1, 12.8458, 18.7487, 17.2369, 12.8883, 99.3952, -85.153
1.27177, -1, 12.6548, 18.6508, 17.2754, 12.8907, 99.2932, -85.4119
1.27989, -1, 12.4641, 18.553, 17.314, 12.8931, 99.1907, -85.6709
1.28896, -1, 12.2739, 18.4553, 17.3525, 12.8955, 99.0885, -85.9297
1.29569, -1, 12.0838, 18.3576, 17.391, 12.8979, 98.9865, -86.1888
1.30447, -1, 11.8934, 18.26, 17.4297, 12.9003, 98.8843, -86.4475
1.31175, -1, 11.7029, 18.1623, 17.4683, 12.9027, 98.7824, -86.7061
1.31986, -1, 11.5121, 18.0647, 17.5067, 12.9052, 98.6807, -86.9648
1.32861, -1, 11.3211, 17.9671, 17.5453, 12.9076, 98.5786, -87.2235
1.33583, -1, 11.1299, 17.8695, 17.5839, 12.9101, 98.4767, -87.4819
1.34395, -1, 10.9385, 17.772, 17.6224, 12.9125, 98.3748, -87.74
1.35278, -1, 10.7469, 17.6746, 17.6609, 12.9151, 98.2727, -87.9982
1.36028, -1, 10.5553, 17.5771, 17.6993, 12.9176, 98.1709, -88.2566
1.36818, -1, 10.364, 17.4796, 17.7377, 12.9201, 98.0691, -88.515
1.37695, -1, 10.1729, 17.3821, 17.7762, 12.9226, 97.9672, -88.7731
1.38416, -1, 9.9823, 17.2845, 17.8145, 12.9253, 97.8654, -89.0311
1.39223, -1, 9.79203, 17.187, 17.8528, 12.9279, 97.7635, -89.2891
1.4011, -1, 9.6021, 17.0895, 17.8912, 12.9306, 97.6615, -89.5473
1.40671, -1, 9.50735, 17.0408, 17.9104, 12.932, 97.6105, -89.6763
1.41634, -1, 9.318, 16.8948, 17.9679, 12.9361, 97.4577, -90.0627
1.42366, -1, 9.12863, 16.8461, 17.9871, 12.9374, 97.4068, -90.1914
1.43165, -1, 8.93924, 16.7489, 18.0254, 12.94, 97.305, -90.4491
1.43977, -1, 8.74967, 16.6517, 18.0638, 12.9427, 97.2034, -90.7066
1.44765, -1, 8.56006, 16.5545, 18.1022, 12.9453, 97.1017, -90.9638
1.45472, -1, 8.37026, 16.4575, 18.1406, 12.9481, 97.0003, -91.221
1.46372, -1, 8.18004, 16.3605, 18.1788, 12.9507, 96.8987, -91.4782
1.47165, -1, 7.98964, 16.2636, 18.2172, 12.9533, 96.7971, -91.7355
1.47865, -1, 7.79918, 16.1667, 18.2555, 12.9561, 96.6957, -91.9925
1.48767, -1, 7.60859, 16.0698, 18.2937, 12.9586, 96.5942, -92.2491
1.49566, -1, 7.41819, 15.9728, 18.3321, 12.9612, 96.4927, -92.5059
1.50372, -1, 7.22809, 15.8759, 18.3702, 12.9637, 96.3915, -92.7627
1.51165, -1, 7.03827, 15.7789, 18.4084, 12.9663, 96.2901, -93.0194
1.51978, -1, 6.84882, 15.6819, 18.4468, 12.9689, 96.1889, -93.2758
1.52771, -1, 6.65987, 15.5851, 18.4848, 12.9714, 96.0882, -93.5322
1.53565, -1, 6.47132, 15.4882, 18.5229, 12.974, 95.987, -93.7886
1.54366, -1, 6.28309, 15.3914, 18.5611, 12.9765, 95.8859, -94.045
1.55171, -1, 6.09499, 15.2947, 18.5992, 12.979, 95.7852, -94.301
1.5607, -1, 5.90666, 15.1979, 18.6373, 12.9813, 95.6841, -94.5569
1.56765, -1, 5.71823, 15.1012, 18.6755, 12.9837, 95.5831, -94.8128
1.57571, -1, 5.52974, 15.0046, 18.7135, 12.986, 95.4825, -95.0687
1.58365, -1, 5.34098, 14.9081, 18.7516, 12.9883, 95.3816, -95.3243
1.59165, -1, 5.15187, 14.8117, 18.7898, 12.9905, 95.281, -95.5797
1.59975, -1, 4.96247, 14.7154, 18.8278, 12.9928, 95.1804, -95.8353
1.60765, -1, 4.77308, 14.619, 18.8659, 12.9951, 95.0795, -96.0909
1.61575, -1, 4.58363, 14.5227, 18.9039, 12.9972, 94.9788, -96.3461
1.62366, -1, 4.39444, 14.4263, 18.9419, 12.9995, 94.8781, -96.6009
1.63166, -1, 4.20552, 14.3299, 18.9799, 13.0017, 94.7772, -96.8559
1.63978, -1, 4.01687, 14.2335, 19.0179, 13.004, 94.6764, -97.111
1.64765, -1, 3.82884, 14.1373, 19.0558, 13.0062, 94.5756, -97.3662
1.65566, -1, 3.64127, 14.0412, 19.0938, 13.0084, 94.4748, -97.6208
1.66374, -1, 3.45407, 13.945, 19.1317, 13.0108, 94.3742, -97.8755
1.67167, -1, 3.26713, 13.8489, 19.1695, 13.0131, 94.2736, -98.1303
1.67971, -1, 3.08012, 13.7529, 19.2074, 13.0154, 94.1728, -98.385
1.68773, -1, 2.89312, 13.6568, 19.2454, 13.0176, 94.0722, -98.6395
1.69565, -1, 2.70605, 13.5608, 19.2833, 13.0198, 93.9715, -98.8936
1.70365, -1, 2.51879, 13.4649, 19.3212, 13.0221, 93.871, -99.1477
1.71172, -1, 2.33139, 13.369, 19.3589, 13.0244, 93.7708, -99.4019
1.71972, -1, 2.1435, 13.2732, 19.3967, 13.0266, 93.6705, -99.6559
1.72765, -1, 1.95537, 13.1774, 19.4347, 13.0288, 93.5703, -99.9095
1.73583, -1, 1.76725, 13.0815, 19.4724, 13.0312, 93.4705, -100.163
1.74369, -1, 1.57899, 12.9857, 19.5102, 13.0333, 93.3703, -100.417
1.75173, -1, 1.39091, 12.8899, 19.548, 13.0357, 93.2702, -100.67
1.76008, -1, 1.20309, 12.7941, 19.5857, 13.038, 93.1704, -100.924
1.7672, -1, 1.01557, 12.6984, 19.6234, 13.0404, 93.0702, -101.177
1.77576, -1, 0.828803, 12.6028, 19.6612, 13.0428, 92.9703, -101.43
1.78417, -1, 0.642544, 12.5072, 19.6988, 13.0451, 92.8707, -101.683
1.79127, -1, 0.549546, 12.4594, 19.7176, 13.0476, 92.7707, -101.936
1.79982, -1, 0.270951, 12.3164, 19.7741, 13.05, 92.671, -102.189
1.8084, -1, 0.0854886, 12.221, 19.8117, 13.0525, 92.5718, -102.441
1.8157, -1, -0.0999057, 12.1257, 19.8492, 13.0549, 92.4721, -102.694
1.82374, -1, -0.285616, 12.0305, 19.887, 13.0573, 92.3724, -102.946
1.83261, -1, -0.471527, 11.9353, 19.9245, 13.0598, 92.2732, -103.198
1.83991, -1, -0.657717, 11.8403, 19.962, 13.0623, 92.1736, -103.45
1.84796, -1, -0.84414, 11.7453, 19.9996, 13.0648, 92.0741, -103.702
1.85677, -1, -1.03079, 11.6502, 20.0371, 13.0673, 91.9749, -103.954
1.86404, -1, -1.21763, 11.5551, 20.0745, 13.0698, 91.8754, -104.206
1.87068, -1, -1.31114, 11.5076, 20.0933, 13.0711, 91.8258, -104.332
1.88101, -1, -1.59129, 11.3649, 20.1495, 13.0749, 91.6771, -104.709
1.88821, -1, -1.77773, 11.2698, 20.1869, 13.0774, 91.5779, -104.961
1.89624, -1, -1.96379, 11.1748, 20.2244, 13.0801, 91.4787, -105.212
1.90506, -1, -2.14919, 11.0799, 20.2617, 13.0828, 91.3796, -105.463
1.91226, -1, -2.24168, 10.985, 20.2991, 13.0854, 91.2803, -105.714
1.9203, -1, -2.42651, 10.9375, 20.3365, 13.0881, 91.1812, -105.965
1.92764, -1, -2.61093, 10.8428, 20.3551, 13.0894, 91.1318, -106.091
1.93568, -1, -2.79488, 10.748, 20.3923, 13.0921, 91.0327, -106.342
1.94367, -1, -2.97876, 10.6533, 20.4297, 13.0947, 90.9335, -106.592
1.95165, -1, -3.16285, 10.5586, 20.4671, 13.0973, 90.8348, -106.843
1.95866, -1, -3.34716, 10.464, 20.5042, 13.0999, 90.7357, -107.093
1.96765, -1, -3.53181, 10.3695, 20.5415, 13.1024, 90.6368, -107.344
1.97564, -1, -3.71663, 10.2752, 20.5788, 13.1049, 90.5382, -107.594
1.98263, -1, -3.90167, 10.1809, 20.616, 13.1074, 90.4392, -107.844
1.99166, -1, -4.08697, 10.0865, 20.6533, 13.1099, 90.3406, -108.094
1.99966, -1, -4.27246, 9.99221, 20.6905, 13.1124, 90.2421, -108.344
2.00663, -1, -4.45813, 9.89783, 20.7276, 13.1147, 90.1433, -108.594
2.01565, -1, -4.64344, 9.80348, 20.765, 13.1171, 90.0448, -108.843
2.0237, -1, -4.82833, 9.70928, 20.8021, 13.1194, 89.9465, -109.093
2.03065, -1, -5.01285, 9.6152, 20.8391, 13.1219, 89.8479, -109.342
2.03964, -1, -5.19666, 9.52111, 20.8763, 13.1242, 89.7495, -109.592
2.04771, -1, -5.37995, 9.4271, 20.9134, 13.1266, 89.6513, -109.841
2.05667, -1, -5.56292, 9.33318, 20.9504, 13.1289, 89.5528, -110.09
2.06365, -1, -5.74549, 9.23925, 20.9876, 13.1312, 89.4546, -110.338
2.0717, -1, -5.92786, 9.14532, 21.0246, 13.1335, 89.3567, -110.587
2.07964, -1, -6.11025, 9.05148, 21.0615, 13.1357, 89.2584, -110.836
2.08765, -1, -6.293, 8.95766, 21.0987, 13.1379, 89.1603, -111.084
2.0957, -1, -6.47589, 8.86401, 21.1356, 13.1402, 89.0626, -111.332
2.10367, -1, -6.65904, 8.77037, 21.1723, 13.1423, 88.9645, -111.581
2.11164, -1, -6.8426, 8.67669, 21.2093, 13.1445, 88.8665, -111.829
2.1197, -1, -7.02647, 8.58308, 21.2463, 13.1466, 88.7687, -112.077
2.12765, -1, -7.21064, 8.48952, 21.2831, 13.1487, 88.6708, -112.324
2.13567, -1, -7.3949, 8.39585, 21.32, 13.1509, 88.573, -112.572
2.1437, -1, -7.57869, 8.30225, 21.3569, 13.153, 88.4755, -112.82
2.15163, -1, -7.76215, 8.20885, 21.3936, 13.1552, 88.3778, -113.067
2.15966, -1, -7.94528, 8.11544, 21.4305, 13.1574, 88.2805, -113.314
2.16772, -1, -8.12783, 8.0221, 21.4673, 13.1597, 88.1832, -113.561
2.17565, -1, -8.30962, 7.92883, 21.504, 13.1619, 88.0857, -113.808
2.18364, -1, -8.49099, 7.83556, 21.5409, 13.1642, 87.9883, -114.056
2.19171, -1, -8.67209, 7.7424, 21.5776, 13.1664, 87.8911, -114.302
2.19963, -1, -8.85283, 7.64921, 21.6144, 13.1687, 87.7935, -114.549
2.20765, -1, -9.03362, 7.55611, 21.6512, 13.1709, 87.6961, -114.795
2.2157, -1, -9.21462, 7.46313, 21.6879, 13.1732, 87.599, -115.041
2.22363, -1, -9.39594, 7.37032, 21.7245, 13.1754, 87.5018, -115.288
2.23197, -1, -9.5776, 7.27747, 21.7612, 13.1776, 87.4046, -115.534
2.23963, -1, -9.75951, 7.18464, 21.7978, 13.1799, 87.3076, -115.78
2.2477, -1, -9.94185, 7.0919, 21.8343, 13.182, 87.2103, -116.026
2.2565, -1, -10.1244, 6.99916, 21.8709, 13.1843, 87.1131, -116.272
2.26378, -1, -10.307, 6.90637, 21.9076, 13.1865, 87.0161, -116.518
2.27176, -1, -10.4896, 6.81362, 21.9441, 13.1887, 86.919, -116.763
2.28055, -1, -10.6719, 6.72095, 21.9807, 13.1909, 86.8219, -117.008
2.28774, -1, -10.8536, 6.62837, 22.0171, 13.1933, 86.725, -117.254
2.29574, -1, -11.035, 6.53581, 22.0535, 13.1958, 86.6282, -117.499
2.30463, -1, -11.2155, 6.44329, 22.0901, 13.1982, 86.5315, -117.744
2.31166, -1, -11.3954, 6.35083, 22.1266, 13.2006, 86.4349, -117.989
2.31969, -1, -11.575, 6.25838, 22.163, 13.203, 86.3381, -118.234
2.3288, -1, -11.7543, 6.16594, 22.1995, 13.2054, 86.2415, -118.479
2.33578, -1, -11.9335, 6.07366, 22.2359, 13.208, 86.1449, -118.723
2.34406, -1, -12.1127, 5.98141, 22.2723, 13.2104, 86.0483, -118.967
2.35062, -1, -12.2024, 5.93536, 22.2905, 13.2116, 86.0001, -119.089
2.35994, -1, -12.4721, 5.79734, 22.3451, 13.2154, 85.8556, -119.456
2.36808, -1, -12.6523, 5.70532, 22.3812, 13.2178, 85.7592, -119.7
2.37464, -1, -12.7426, 5.65933, 22.3994, 13.219, 85.711, -119.821
2.38415, -1, -13.0141, 5.52145, 22.4539, 13.2227, 85.5672, -120.187
2.39225, -1, -13.1953, 5.42942, 22.4901, 13.2252, 85.4712, -120.431
2.40274, -1, -13.3764, 5.33745, 22.5263, 13.2276, 85.3752, -120.675
2.40816, -1, -13.4669, 5.24554, 22.5626, 13.2301, 85.2795, -120.918
2.41624, -1, -13.6475, 5.1996, 22.5987, 13.2327, 85.1836, -121.161
2.42521, -1, -13.8277, 5.06187, 22.6348, 13.2352, 85.0878, -121.404
2.43162, -1, -14.0073, 5.01596, 22.653, 13.2365, 85.0401, -121.525
2.43966, -1, -14.1861, 4.92423, 22.6891, 13.2391, 84.9445, -121.768
2.44764, -1, -14.3644, 4.83255, 22.7251, 13.2417, 84.8489, -122.011
2.45563, -1, -14.5423, 4.74089, 22.7614, 13.2442, 84.7534, -122.253
2.46366, -1, -14.7199, 4.64927, 22.7976, 13.2468, 84.6577, -122.496
2.47169, -1, -14.8975, 4.55776, 22.8336, 13.2492, 84.562, -122.738
2.47964, -1, -15.0752, 4.46631, 22.8697, 13.2517, 84.4664, -122.981
2.48762, -1, -15.2533, 4.37505, 22.9058, 13.2542, 84.3707, -123.222
2.49578, -1, -15.4317, 4.28372, 22.9418, 13.2565, 84.275, -123.464
2.50265, -1, -15.6106, 4.19242, 22.9779, 13.2589, 84.1795, -123.706
2.51164, -1, -15.7898, 4.10116, 23.0138, 13.2612, 84.084, -123.948
2.51968, -1, -15.969, 4.00991, 23.0497, 13.2635, 83.9885, -124.189
2.52661, -1, -16.1486, 3.91863, 23.0858, 13.2656, 83.8932, -124.431
2.53562, -1, -16.3285, 3.82738, 23.1218, 13.2678, 83.7976, -124.672
2.54261, -1, -16.5078, 3.73617, 23.1575, 13.27, 83.7022, -124.914
2.55162, -1, -16.6868, 3.64502, 23.1933, 13.2723, 83.6068, -125.155
2.55979, -1, -16.8652, 3.55394, 23.2292, 13.2745, 83.5115, -125.396
2.56762, -1, -17.0429, 3.4629, 23.265, 13.2767, 83.416, -125.637
2.57562, -1, -17.2198, 3.37196, 23.3009, 13.2789, 83.3208, -125.877
2.58373, -1, -17.3963, 3.28107, 23.3367, 13.2811, 83.2258, -126.118
2.59162, -1, -17.5725, 3.19023, 23.3724, 13.2833, 83.1306, -126.359
2.59963, -1, -17.7485, 3.09956, 23.4083, 13.2854, 83.0359, -126.599
2.60772, -1, -17.9245, 3.00896, 23.4442, 13.2875, 82.9412, -126.839
2.61562, -1, -18.1007, 2.91849, 23.4799, 13.2896, 82.8462, -127.079
2.62368, -1, -18.2773, 2.82814, 23.5156, 13.2918, 82.7515, -127.32
2.63168, -1, -18.4543, 2.73769, 23.5514, 13.2938, 82.6569, -127.559
2.63964, -1, -18.6317, 2.64727, 23.5871, 13.2959, 82.5621, -127.799
2.64762, -1, -18.8095, 2.55694, 23.6227, 13.298, 82.4676, -128.038
2.65568, -1, -18.9875, 2.46651, 23.6585, 13.2999, 82.3734, -128.278
2.66367, -1, -19.1658, 2.37601, 23.6941, 13.3019, 82.2788, -128.517
2.67163, -1, -19.3439, 2.28567, 23.7297, 13.3039, 82.1844, -128.756
2.67971, -1, -19.5216, 2.19529, 23.7654, 13.306, 82.0906, -128.996
2.68762, -1, -19.6987, 2.10491, 23.8008, 13.3082, 81.9963, -129.235
2.69562, -1, -19.8752, 2.01463, 23.8362, 13.3104, 81.902, -129.474
2.70373, -1, -20.051, 1.92438, 23.8719, 13.3125, 81.8082, -129.712
2.71161, -1, -20.2262, 1.83414, 23.9074, 13.3148, 81.7139, -129.951
2.71963, -1, -20.4011, 1.74404, 23.9428, 13.317, 81.6199, -130.189
2.72769, -1, -20.5757, 1.65395, 23.9784, 13.3192, 81.5261, -130.428
2.73564, -1, -20.7501, 1.56399, 24.0139, 13.3213, 81.4321, -130.666
2.74366, -1, -20.9247, 1.47411, 24.0493, 13.3235, 81.3384, -130.904
2.75172, -1, -21.0997, 1.38439, 24.0848, 13.3257, 81.2448, -131.142
2.7597, -1, -21.2751, 1.29459, 24.1203, 13.328, 81.1509, -131.38
2.76777, -1, -21.4508, 1.20488, 24.1557, 13.3301, 81.057, -131.618
2.77576, -1, -21.6268, 1.11527, 24.1911, 13.3322, 80.9632, -131.855
2.78411, -1, -21.803, 1.02559, 24.2266, 13.3344, 80.8693, -132.093
2.79123, -1, -21.8912, 0.935977, 24.2619, 13.3366, 80.7756, -132.33
2.79968, -1, -22.156, 0.846424, 24.2973, 13.3388, 80.6819, -132.567
2.8084, -1, -22.3325, 0.756907, 24.3327, 13.341, 80.5883, -132.804
2.81567, -1, -22.5086, 0.667428, 24.3679, 13.3432, 80.4946, -133.041
2.82369, -1, -22.6842, 0.577959, 24.4031, 13.3456, 80.401, -133.278
2.83262, -1, -22.8592, 0.488557, 24.4384, 13.3479, 80.3074, -133.515
2.83979, -1, -23.0331, 0.399103, 24.4736, 13.3504, 80.2139, -133.752
2.84784, -1, -23.2067, 0.309738, 24.5087, 13.3528, 80.1203, -133.989
2.85675, -1, -23.38, 0.220379, 24.5439, 13.3552, 80.027, -134.225
2.864, -1, -23.5531, 0.131154, 24.5791, 13.3577, 79.9336, -134.461
2.87063, -1, -23.6397, 0.0865731, 24.5967, 13.3589, 79.8869, -134.579
2.88097, -1, -23.8998, -0.0471109, 24.6495, 13.3625, 79.7472, -134.934
2.88814, -1, -24.0732, -0.136032, 24.6846, 13.3649, 79.654, -135.17
2.89617, -1, -24.2471, -0.225028, 24.7196, 13.3674, 79.5609, -135.405
2.90506, -1, -24.4212, -0.313965, 24.7549, 13.3698, 79.468, -135.641
2.9122, -1, -24.5956, -0.402801, 24.79, 13.3723, 79.3748, -135.876
2.92038, -1, -24.7704, -0.491715, 24.8251, 13.3747, 79.2818, -136.112
2.92902, -1, -24.8579, -0.536153, 24.8426, 13.3759, 79.2353, -136.23
2.93561, -1, -25.033, -0.625016, 24.8778, 13.3782, 79.1424, -136.465
2.94426, -1, -25.2079, -0.713852, 24.9129, 13.3806, 79.0493, -136.7
2.95162, -1, -25.3824, -0.802595, 24.9479, 13.383, 78.9567, -136.935
2.95961, -1, -25.5566, -0.891431, 24.983, 13.3854, 78.864, -137.17
2.96765, -1, -25.7301, -0.980174, 25.0179, 13.388, 78.7712, -137.405
2.97562, -1, -25.903, -1.06886, 25.0528, 13.3903, 78.6786, -137.64
2.98261, -1, -26.0756, -1.15757, 25.0879, 13.3929, 78.5864, -137.874
2.99161, -1, -26.2476, -1.24621, 25.1229, 13.3952, 78.4936, -138.109
2.99962, -1, -26.4194, -1.33471, 25.1577, 13.3976, 78.401, -138.343
3.00664, -1, -26.5912, -1.42317, 25.1927, 13.3999, 78.3088, -138.578
3.01563, -1, -26.7632, -1.51149, 25.2276, 13.4021, 78.2161, -138.812
3.02364, -1, -26.9355, -1.59969, 25.2625, 13.4044, 78.1238, -139.046
3.03061, -1, -27.108, -1.68784, 25.2974, 13.4066, 78.0317, -139.28
3.0396, -1, -27.2805, -1.77606, 25.3323, 13.4088, 77.9395, -139.514
3.04762, -1, -27.4534, -1.86415, 25.3671, 13.411, 77.8474, -139.748
3.0566, -1, -27.6266, -1.95227, 25.4019, 13.4131, 77.7555, -139.981
3.06364, -1, -27.7998, -2.04047, 25.4368, 13.4153, 77.6634, -140.214
3.0726, -1, -27.9731, -2.12852, 25.4716, 13.4173, 77.5714, -140.448
3.07967, -1, -28.1463, -2.21657, 25.5063, 13.4193, 77.4794, -140.681
3.08762, -1, -28.3195, -2.30463, 25.5411, 13.4214, 77.3874, -140.914
3.0956, -1, -28.4922, -2.39273, 25.5759, 13.4235, 77.2953, -141.147
3.10367, -1, -28.6646, -2.4807, 25.6105, 13.4256, 77.2032, -141.38
3.1117, -1, -28.8364, -2.56872, 25.6452, 13.4277, 77.1112, -141.613
3.11961, -1, -29.0074, -2.6567, 25.6799, 13.4299, 77.0193, -141.846
3.12762, -1, -29.1781, -2.74455, 25.7144, 13.4321, 76.9273, -142.078
3.13572, -1, -29.3487, -2.83237, 25.7491, 13.4342, 76.8357, -142.31
3.14367, -1, -29.5195, -2.92006, 25.7839, 13.4363, 76.7437, -142.543
3.15161, -1, -29.6903, -3.00764, 25.8183, 13.4383, 76.6518, -142.776
3.15967, -1, -29.8613, -3.09512, 25.8529, 13.4404, 76.5602, -143.008
3.16762, -1, -30.0322, -3.1826, 25.8876, 13.4425, 76.4682, -143.24
3.17595, -1, -30.2032, -3.2701, 25.9221, 13.4445, 76.3766, -143.472
3.18367, -1, -30.3743, -3.3575, 25.9566, 13.4466, 76.2851, -143.704
3.1916, -1, -30.5458, -3.44493, 25.9912, 13.4486, 76.1934, -143.936
3.2008, -1, -30.7176, -3.53246, 26.0256, 13.4507, 76.102, -144.167
3.2086, -1, -30.8895, -3.61983, 26.0601, 13.4527, 76.0108, -144.399
3.21567, -1, -31.0614, -3.70724, 26.0947, 13.4546, 75.9193, -144.63
3.22367, -1, -31.233, -3.79458, 26.1291, 13.4567, 75.8279, -144.861
3.2316, -1, -31.4043, -3.88192, 26.1635, 13.4589, 75.7366, -145.093
3.23967, -1, -31.5752, -3.9692, 26.198, 13.461, 75.6454, -145.324
3.24789, -1, -31.7457, -4.05645, 26.2324, 13.4631, 75.5541, -145.555
3.25565, -1, -31.9157, -4.1437, 26.2668, 13.4653, 75.4629, -145.786
3.2638, -1, -32.0854, -4.23089, 26.3012, 13.4676, 75.372, -146.017
3.2719, -1, -32.2548, -4.31799, 26.3356, 13.4698, 75.2807, -146.248
3.27973, -1, -32.4242, -4.40506, 26.3699, 13.4719, 75.1897, -146.478
3.28777, -1, -32.5938, -4.49203, 26.4042, 13.4741, 75.0991, -146.708
3.29625, -1, -32.7635, -4.57894, 26.4387, 13.4762, 75.008, -146.939
3.3038, -1, -32.9331, -4.66586, 26.4729, 13.4783, 74.9172, -147.169
3.31176, -1, -33.1028, -4.7528, 26.5071, 13.4805, 74.8268, -147.4
3.32113, -1, -33.2726, -4.83969, 26.5415, 13.4827, 74.7359, -147.63
3.32764, -1, -33.4427, -4.92656, 26.5758, 13.485, 74.6454, -147.859
3.33576, -1, -33.613, -5.01355, 26.61, 13.4871, 74.5548, -148.089
3.34613, -1, -33.7833, -5.10036, 26.6443, 13.4894, 74.4643, -148.319
3.35191, -1, -33.9536, -5.18709, 26.6785, 13.4916, 74.3738, -148.549
3.35987, -1, -34.1238, -5.27388, 26.7126, 13.4939, 74.2833, -148.778
3.36868, -1, -34.294, -5.36062, 26.7469, 13.4961, 74.1928, -149.008
3.37609, -1, -34.464, -5.44719, 26.7811, 13.4984, 74.1021, -149.237
3.38258, -1, -34.5488, -5.49051, 26.7982, 13.4996, 74.0568, -149.352
3.393, -1, -34.8025, -5.6205, 26.8493, 13.5031, 73.9211, -149.696
3.40017, -1, -34.971, -5.70708, 26.8835, 13.5056, 73.8305, -149.925
3.40816, -1, -35.1393, -5.79351, 26.9176, 13.5081, 73.7401, -150.153
3.41695, -1, -35.3075, -5.87995, 26.9517, 13.5105, 73.6499, -150.383
3.42416, -1, -35.3917, -5.92311, 26.9687, 13.5118, 73.5594, -150.612
3.43159, -1, -35.5602, -6.00929, 27.0029, 13.5141, 73.5143, -150.726
3.44119, -1, -35.7287, -6.09553, 27.0368, 13.5165, 73.4239, -150.955
3.44763, -1, -35.8973, -6.1817, 27.0709, 13.5188, 73.3338, -151.183
3.45559, -1, -36.0658, -6.26779, 27.105, 13.5212, 73.2433, -151.412
3.46364, -1, -36.2343, -6.35389, 27.139, 13.5237, 73.1528, -151.64
3.4706, -1, -36.403, -6.44006, 27.1729, 13.526, 73.0626, -151.869
3.47961, -1, -36.5719, -6.52628, 27.2069, 13.5284, 72.9721, -152.097
3.48764, -1, -36.7407, -6.61242, 27.2408, 13.5307, 72.8819, -152.325
3.4986, -1, -36.9942, -6.7416, 27.2916, 13.5342, 72.7468, -152.667
3.5036, -1, -37.0787, -6.78467, 27.3086, 13.5353, 72.7017, -152.781
3.51164, -1, -37.2474, -6.87075, 27.3425, 13.5375, 72.6118, -153.009
3.51963, -1, -37.416, -6.95677, 27.3764, 13.5398, 72.5219, -153.237
3.52759, -1, -37.5842, -7.0428, 27.4103, 13.5421, 72.4321, -153.464
3.53566, -1, -37.7519, -7.12877, 27.4443, 13.5444, 72.3422, -153.692
3.54359, -1, -37.9195, -7.21472, 27.4781, 13.5467, 72.2524, -153.919
3.55159, -1, -38.0869, -7.30063, 27.5119, 13.5488, 72.1627, -154.147
3.55967, -1, -38.2543, -7.38649, 27.5459, 13.551, 72.0729, -154.374
3.56866, -1, -38.4216, -7.47218, 27.5796, 13.5532, 71.9832, -154.601
3.5756, -1, -38.5889, -7.55788, 27.6135, 13.5553, 71.8938, -154.829
3.58365, -1, -38.7562, -7.64359, 27.6474, 13.5573, 71.804, -155.056
3.59262, -1, -38.9235, -7.72926, 27.6811, 13.5594, 71.7145, -155.283
3.59961, -1, -39.0909, -7.81487, 27.7148, 13.5615, 71.6254, -155.51
3.60765, -1, -39.2583, -7.90054, 27.7487, 13.5635, 71.5359, -155.736
3.61562, -1, -39.4258, -7.98624, 27.7824, 13.5654, 71.4465, -155.963
3.62359, -1, -39.5934, -8.07179, 27.816, 13.5675, 71.3573, -156.19
3.63166, -1, -39.7612, -8.15734, 27.8497, 13.5694, 71.2679, -156.417
3.6396, -1, -39.9288, -8.24286, 27.8835, 13.5713, 71.1785, -156.643
3.64761, -1, -40.0964, -8.32833, 27.9171, 13.5733, 71.0891, -156.869
3.65565, -1, -40.2638, -8.41371, 27.9507, 13.5753, 71.0001, -157.095
3.66358, -1, -40.431, -8.49908, 27.9844, 13.5773, 70.9106, -157.322
3.67162, -1, -40.5981, -8.58444, 28.018, 13.5793, 70.8213, -157.548
3.67967, -1, -40.7649, -8.66983, 28.0515, 13.5812, 70.7324, -157.774
3.6876, -1, -40.9315, -8.75518, 28.0853, 13.5833, 70.6431, -158
3.69563, -1, -41.0979, -8.84048, 28.1189, 13.5853, 70.554, -158.225
3.70366, -1, -41.2641, -8.92575, 28.1524, 13.5873, 70.465, -158.451
3.71159, -1, -41.4303, -9.01092, 28.1859, 13.5893, 70.3757, -158.677
3.71962, -1, -41.5967, -9.0961, 28.2196, 13.5913, 70.2865, -158.902
3.72765, -1, -41.763, -9.18124, 28.2531, 13.5933, 70.1975, -159.128
3.73559, -1, -41.9293, -9.26632, 28.2866, 13.5953, 70.1084, -159.353
3.74393, -1, -42.0958, -9.35138, 28.3203, 13.5973, 70.0194, -159.579
3.75166, -1, -42.262, -9.4365, 28.3538, 13.5993, 69.9304, -159.804
3.75977, -1, -42.4282, -9.52149, 28.3873, 13.6014, 69.8417, -160.029
3.76794, -1, -42.5946, -9.60648, 28.4208, 13.6034, 69.7526, -160.254
3.77568, -1, -42.761, -9.69145, 28.4543, 13.6054, 69.6636, -160.48
3.78371, -1, -42.9274, -9.77637, 28.4876, 13.6074, 69.5751, -160.705
3.79175, -1, -43.0938, -9.8613, 28.5211, 13.6095, 69.4861, -160.93
3.80014, -1, -43.26, -9.94625, 28.5546, 13.6115, 69.3975, -161.155
3.80759, -1, -43.4261, -10.0312, 28.588, 13.6137, 69.3089, -161.379
3.81574, -1, -43.5921, -10.1161, 28.6215, 13.6157, 69.2202, -161.604
3.82448, -1, -43.758, -10.201, 28.655, 13.6178, 69.1317, -161.829
3.83165, -1, -43.9238, -10.2858, 28.6883, 13.6201, 69.0433, -162.053
3.83977, -1, -44.0894, -10.3706, 28.7217, 13.6222, 68.9548, -162.278
3.84848, -1, -44.2547, -10.4553, 28.7552, 13.6243, 68.8661, -162.502
3.85582, -1, -44.4199, -10.5399, 28.7886, 13.6266, 68.7774, -162.726
3.86393, -1, -44.5851, -10.6244, 28.8219, 13.6287, 68.689, -162.951
3.87057, -1, -44.6676, -10.6667, 28.8386, 13.6298, 68.6446, -163.063
3.88001, -1, -44.9156, -10.7934, 28.8888, 13.6331, 68.5117, -163.399
3.88817, -1, -45.081, -10.8779, 28.9222, 13.6353, 68.4235, -163.623
3.89617, -1, -45.2463, -10.9625, 28.9556, 13.6375, 68.3349, -163.847
3.90416, -1, -45.4116, -11.047, 28.989, 13.6398, 68.2466, -164.071
3.91224, -1, -45.5768, -11.1314, 29.0222, 13.6421, 68.1584, -164.295
3.92022, -1, -45.7421, -11.2158, 29.0554, 13.6443, 68.07, -164.518
3.92856, -1, -45.9071, -11.3, 29.0888, 13.6466, 67.9816, -164.742
3.9363, -1, -45.9888, -11.3418, 29.1056, 13.6477, 67.8932, -164.966
3.94443, -1, -46.1502, -11.424, 29.139, 13.65, 67.8493, -165.077
3.95248, -1, -46.3071, -11.5414, 29.1895, 13.6537, 67.719, -165.407
3.95963, -1, -46.4573, -11.5783, 29.2061, 13.6548, 67.6768, -165.513
3.96758, -1, -46.5983, -11.6481, 29.2384, 13.6571, 67.5953, -165.719
3.97558, -1, -46.7278, -11.7114, 29.2682, 13.6593, 67.5208, -165.908
3.98365, -1, -46.8426, -11.7674, 29.2946, 13.6613, 67.454, -166.077
3.99158, -1, -46.9411, -11.8165, 29.3166, 13.6631, 67.3984, -166.218
3.99959, -1, -47.0234, -11.8593, 29.3332, 13.6643, 67.3537, -166.331
4.00764, -1, -47.0904, -11.896, 29.3444, 13.6651, 67.3203, -166.415
4.01557, -1, -47.1425, -11.9253, 29.3515, 13.6655, 67.2972, -166.473
4.0236, -1, -47.1812, -11.9474, 29.3554, 13.6657, 67.2822, -166.511
4.0316, -1, -47.2087, -11.9627, 29.3572, 13.6659, 67.2736, -166.533
4.03958, -1, -47.2267, -11.9727, 29.358, 13.6659, 67.2689, -166.545
4.04757, -1, -47.2374, -11.9785, 29.3584, 13.666, 67.2665, -166.55
4.05709, 2, -47.2429, -11.9813, 29.3587, 13.666, 67.2654, -166.553
4.06358, 2, -47.2448, -11.9826, 29.3588, 13.666, 67.2649, -166.554
4.07352, 2, -47.2448, -11.9832, 29.359, 13.666, 67.2646, -166.555
4.07966, 2, -47.2447, -11.9833, 29.359, 13.666, 67.2645, -166.555
4.08757, 2, -47.2446, -11.9834, 29.359, 13.666, 67.2645, -166.555
4.09656, 2, -47.2451, -11.9835, 29.3591, 13.6661, 67.2645, -166.555
4.10365, 2, -47.2459, -11.9838, 29.3591, 13.6661, 67.2645, -166.555
4.11158, 2, -47.2472, -11.9843, 29.3591, 13.6661, 67.2645, -166.555
4.11962, 2, -47.249, -11.9851, 29.3591, 13.6661, 67.2645, -166.555
4.12764, 2, -47.2505, -11.986, 29.3591, 13.6661, 67.2645, -166.555
4.13557, 2, -47.2519, -11.9868, 29.3591, 13.6661, 67.2645, -166.555
4.14358, 2, -47.2529, -11.9874, 29.3591, 13.6661, 67.2645, -166.555
4.15169, 2, -47.2533, -11.9878, 29.3591, 13.6661, 67.2645, -166.555
4.15958, 2, -47.2535, -11.988, 29.3591, 13.6661, 67.2645, -166.555
4.16757, 2, -47.2536, -11.9881, 29.3591, 13.6661, 67.2645, -166.555
4.17566, 2, -47.2533, -11.9881, 29.3591, 13.666, 67.2645, -166.555
4.18358, 2, -47.2528, -11.9881, 29.3592, 13.666, 67.2645, -166.555
4.19159, 2, -47.2523, -11.9881, 29.3592, 13.6661, 67.2645, -166.555
4.19964, 2, -47.2519, -11.988, 29.3592, 13.6661, 67.2645, -166.555
4.20757, 2, -47.2517, -11.9881, 29.3592, 13.6661, 67.2645, -166.555
4.21558, 2, -47.2517, -11.9881, 29.3592, 13.6661, 67.2645, -166.555
4.22365, 2, -47.2519, -11.9883, 29.3592, 13.6661, 67.2645, -166.555
4.23157, 2, -47.2521, -11.9886, 29.3592, 13.666, 67.2645, -166.555
4.23958, 2, -47.2527, -11.989, 29.3592, 13.666, 67.2645, -166.555
4.24766, 2, -47.2532, -11.9893, 29.3592, 13.666, 67.2645, -166.555
4.25561, 2, -47.2536, -11.9894, 29.3592, 13.666, 67.2646, -166.555
4.26366, 2, -47.2537, -11.9895, 29.3592, 13.666, 67.2645, -166.555
4.27172, 2, -47.2537, -11.9895, 29.3592, 13.6661, 67.2645, -166.555
4.27968, 2, -47.2536, -11.9895, 29.3592, 13.6661, 67.2646, -166.555
4.2877, 2, -47.2534, -11.9895, 29.3592, 13.666, 67.2645, -166.555
4.29573, 2, -47.253, -11.9894, 29.3592, 13.666, 67.2646, -166.555
4.3037, 2, -47.2527, -11.9894, 29.3592, 13.666, 67.2645, -166.555
4.31162, 2, -47.2524, -11.9894, 29.3592, 13.666, 67.2645, -166.555
4.3198, 2, -47.2522, -11.9894, 29.3592, 13.666, 67.2645, -166.555
4.3276, 2, -47.2521, -11.9894, 29.3592, 13.666, 67.2645, -166.555
4.33568, 2, -47.252, -11.9895, 29.3592, 13.666, 67.2645, -166.555
4.34385, 2, -47.252, -11.9896, 29.3592, 13.666, 67.2645, -166.555
4.35175, 2, -47.252, -11.9896, 29.3592, 13.666, 67.2646, -166.555
4.36013, 2, -47.252, -11.9896, 29.3592, 13.666, 67.2646, -166.555
4.36656, 2, -47.2521, -11.9896, 29.3592, 13.666, 67.2645, -166.555
4.37592, 2, -47.2521, -11.9896, 29.3592, 13.666, 67.2646, -166.555
4.38407, 2, -47.2521, -11.9896, 29.3592, 13.666, 67.2646, -166.555
4.39211, 2, -47.252, -11.9895, 29.3592, 13.666, 67.2646, -166.555
4.40007, 2, -47.2519, -11.9895, 29.3592, 13.666, 67.2646, -166.555
4.40835, 2, -47.2519, -11.9894, 29.3592, 13.666, 67.2646, -166.555
4.41617, 2, -47.2518, -11.9894, 29.3592, 13.666, 67.2647, -166.555
4.42412, 2, -47.2517, -11.9894, 29.3592, 13.666, 67.2646, -166.555
4.4322, 2, -47.2516, -11.9894, 29.3592, 13.666, 67.2646, -166.555
4.44014, 2, -47.2515, -11.9894, 29.3592, 13.666, 67.2646, -166.555
4.44756, 2, -47.2514, -11.9895, 29.3592, 13.666, 67.2646, -166.555
4.4556, 2, -47.2514, -11.9895, 29.3592, 13.6659, 67.2646, -166.555
4.46362, 2, -47.2513, -11.9895, 29.3592, 13.6659, 67.2646, -166.555
4.47158, 2, -47.2513, -11.9895, 29.3592, 13.666, 67.2646, -166.555
4.47957, 2, -47.2512, -11.9895, 29.3592, 13.666, 67.2646, -166.555
4.48763, 2, -47.2512, -11.9894, 29.3592, 13.666, 67.2646, -166.555
4.49556, 2, -47.2511, -11.9894, 29.3592, 13.666, 67.2646, -166.555
4.50356, 2, -47.251, -11.9893, 29.3592, 13.666, 67.2647, -166.555
4.51163, 2, -47.2509, -11.9893, 29.3592, 13.666, 67.2647, -166.555
4.51957, 2, -47.2509, -11.9892, 29.3592, 13.666, 67.2647, -166.555
4.52759, 2, -47.2508, -11.9892, 29.3592, 13.666, 67.2647, -166.555
4.53563, 2, -47.2507, -11.9892, 29.3592, 13.666, 67.2647, -166.555
4.54357, 2, -47.2506, -11.9892, 29.3592, 13.6659, 67.2647, -166.555
4.55156, 2, -47.2505, -11.9892, 29.3592, 13.6659, 67.2647, -166.555
4.56112, 2, -47.2504, -11.9892, 29.3592, 13.6659, 67.2647, -166.555
4.56756, 2, -47.2503, -11.9892, 29.3592, 13.6659, 67.2647, -166.555
4.57655, 2, -47.2501, -11.9892, 29.3592, 13.6659, 67.2647, -166.555
4.58365, 2, -47.25, -11.9892, 29.3592, 13.6659, 67.2647, -166.555
4.59262, 2, -47.2499, -11.9892, 29.3592, 13.6659, 67.2647, -166.555
4.59957, 2, -47.2498, -11.9891, 29.3592, 13.6659, 67.2647, -166.555
4.60762, 2, -47.2497, -11.989, 29.3592, 13.6659, 67.2647, -166.555
4.61556, 2, -47.2496, -11.989, 29.3592, 13.6659, 67.2647, -166.555
4.6236, 2, -47.2495, -11.989, 29.3592, 13.6659, 67.2647, -166.555
4.63162, 2, -47.2494, -11.9889, 29.3592, 13.6659, 67.2647, -166.555
4.63956, 2, -47.2493, -11.9889, 29.3592, 13.6659, 67.2647, -166.555
4.64756, 2, -47.2492, -11.9889, 29.3592, 13.6659, 67.2647, -166.555
4.65564, 2, -47.2491, -11.9889, 29.3592, 13.6659, 67.2647, -166.555
4.66357, 2, -47.2491, -11.9889, 29.3592, 13.6659, 67.2647, -166.555
4.67156, 2, -47.249, -11.9889, 29.3592, 13.6658, 67.2647, -166.555
4.67964, 2, -47.249, -11.9889, 29.3592, 13.6658, 67.2648, -166.555
4.68755, 2, -47.2489, -11.9889, 29.3592, 13.6658, 67.2648, -166.555
4.69558, 2, -47.2489, -11.9889, 29.3592, 13.6658, 67.2648, -166.555
4.70363, 2, -47.2488, -11.9888, 29.3592, 13.6658, 67.2647, -166.555
4.71156, 2, -47.2488, -11.9888, 29.3592, 13.6658, 67.2647, -166.555
4.71958, 2, -47.2487, -11.9887, 29.3592, 13.6658, 67.2647, -166.555
4.72763, 2, -47.2486, -11.9887, 29.3592, 13.6658, 67.2647, -166.555
4.73556, 2, -47.2485, -11.9886, 29.3592, 13.6658, 67.2648, -166.555
4.74358, 2, -47.2484, -11.9886, 29.3592, 13.6658, 67.2648, -166.555
4.7517, 2, -47.2484, -11.9886, 29.3592, 13.6658, 67.2648, -166.555
4.75959, 2, -47.2483, -11.9886, 29.3592, 13.6658, 67.2648, -166.555
4.76765, 2, -47.2483, -11.9886, 29.3592, 13.6658, 67.2648, -166.555
4.77571, 2, -47.2483, -11.9886, 29.3592, 13.6658, 67.2648, -166.555
4.78366, 2, -47.2482, -11.9886, 29.3592, 13.6657, 67.2648, -166.554
4.7917, 2, -47.2482, -11.9886, 29.3592, 13.6657, 67.2648, -166.554
4.79973, 2, -47.2482, -11.9885, 29.3592, 13.6657, 67.2648, -166.554
4.80762, 2, -47.2482, -11.9885, 29.3592, 13.6657, 67.2648, -166.554
4.81556, 2, -47.2481, -11.9884, 29.3592, 13.6657, 67.2648, -166.554
4.82374, 2, -47.248, -11.9884, 29.3592, 13.6657, 67.2648, -166.554
4.83159, 2, -47.2479, -11.9883, 29.3592, 13.6657, 67.2648, -166.554
4.83967, 2, -47.2479, -11.9883, 29.3592, 13.6656, 67.2649, -166.554
4.84775, 2, -47.2478, -11.9882, 29.3592, 13.6656, 67.2648, -166.554
4.85577, 2, -47.2478, -11.9882, 29.3592, 13.6656, 67.2648, -166.554
4.86416, 2, -47.2477, -11.9882, 29.3592, 13.6656, 67.2648, -166.554
4.87191, 2, -47.2477, -11.9882, 29.3592, 13.6656, 67.2649, -166.554
4.87992, 2, -47.2476, -11.9882, 29.3592, 13.6656, 67.2649, -166.554
4.88835, 2, -47.2476, -11.9882, 29.3592, 13.6656, 67.2649, -166.554
4.89612, 2, -47.2476, -11.9882, 29.3592, 13.6656, 67.2649, -166.554
4.9041, 2, -47.2476, -11.9882, 29.3592, 13.6656, 67.2649, -166.554
4.9125, 2, -47.2476, -11.9881, 29.3592, 13.6656, 67.2649, -166.554
4.92017, 2, -47.2475, -11.9881, 29.3592, 13.6656, 67.2649, -166.554
4.92811, 2, -47.2475, -11.988, 29.3592, 13.6656, 67.2649, -166.554
4.93639, 2, -47.2473, -11.9879, 29.3592, 13.6656, 67.2649, -166.554
4.94413, 2, -47.2473, -11.9879, 29.3592, 13.6656, 67.2649, -166.554
4.95154, 2, -47.2472, -11.9879, 29.3592, 13.6655, 67.2649, -166.554
4.95958, 2, -47.2471, -11.9879, 29.3592, 13.6655, 67.265, -166.554
4.96759, 2, -47.2471, -11.9879, 29.3592, 13.6655, 67.265, -166.554
4.97554, 2, -47.247, -11.9879, 29.3592, 13.6655, 67.265, -166.554
4.98356, 2, -47.247, -11.9879, 29.3592, 13.6654, 67.265, -166.554
4.99161, 2, -47.247, -11.9879, 29.3592, 13.6654, 67.2649, -166.554
4.99955, 2, -47.247, -11.9879, 29.3592, 13.6654, 67.265, -166.554
5.00754, 2, -47.2469, -11.9878, 29.3592, 13.6654, 67.2649, -166.554
5.01561, 2, -47.2469, -11.9878, 29.3592, 13.6654, 67.2649, -166.554
5.02355, 2, -47.2469, -11.9877, 29.3592, 13.6654, 67.265, -166.554
5.03156, 2, -47.2468, -11.9877, 29.3592, 13.6654, 67.265, -166.554
5.03968, 2, -47.2467, -11.9876, 29.3592, 13.6654, 67.265, -166.554
5.04755, 2, -47.2467, -11.9876, 29.3592, 13.6654, 67.265, -166.554
5.0557, 2, -47.2466, -11.9876, 29.3592, 13.6654, 67.265, -166.554
5.06355, 2, -47.2465, -11.9875, 29.3592, 13.6654, 67.265, -166.554
5.07254, 2, -47.2465, -11.9875, 29.3592, 13.6654, 67.265, -166.554
5.07954, 2, -47.2464, -11.9875, 29.3592, 13.6653, 67.265, -166.554
5.08758, 2, -47.2464, -11.9875, 29.3592, 13.6653, 67.265, -166.554
5.0956, 2, -47.2464, -11.9875, 29.3592, 13.6653, 67.265, -166.554
5.10355, 2, -47.2464, -11.9875, 29.3592, 13.6653, 67.265, -166.554
5.11155, 2, -47.2464, -11.9875, 29.3592, 13.6652, 67.265, -166.554
5.11964, 2, -47.2463, -11.9874, 29.3592, 13.6652, 67.265, -166.554
5.12758, 2, -47.2463, -11.9874, 29.3592, 13.6653, 67.265, -166.554
5.13555, 2, -47.2463, -11.9874, 29.3592, 13.6652, 67.265, -166.554
5.14362, 4, -47.2462, -11.9873, 29.3592, 13.6652, 67.2651, -166.554
5.15154, 4, -47.2461, -11.9873, 29.3592, 13.6652, 67.2651, -166.554
5.15957, 4, -47.246, -11.9873, 29.3592, 13.6652, 67.2651, -166.554
5.16761, 4, -47.246, -11.9872, 29.3592, 13.6652, 67.2651, -166.554
5.17554, 4, -47.2459, -11.9872, 29.3592, 13.6651, 67.2651, -166.554
5.18358, 4, -47.2458, -11.9872, 29.3592, 13.6651, 67.2652, -166.554
5.19161, 4, -47.2459, -11.9872, 29.3592, 13.6651, 67.2652, -166.554
5.19956, 4, -47.2458, -11.9872, 29.3592, 13.6651, 67.2652, -166.554
5.20754, 4, -47.2458, -11.9872, 29.3592, 13.6651, 67.2652, -166.553
5.2156, 4, -47.2457, -11.9872, 29.3592, 13.6651, 67.2652, -166.554
5.22355, 4, -47.2457, -11.9871, 29.3592, 13.6651, 67.2652, -166.554
5.23154, 4, -47.2457, -11.9871, 29.3592, 13.6651, 67.2652, -166.554
5.23978, 4, -47.2456, -11.987, 29.3592, 13.665, 67.2653, -166.553
5.25473, 4, -47.2456, -11.987, 29.3592, 13.665, 67.2652, -166.554
5.25683, 4, -47.2456, -11.987, 29.3592, 13.665, 67.2653, -166.553
5.26932, 4, -47.2454, -11.9869, 29.3592, 13.665, 67.2652, -166.553
5.27205, 4, -47.2454, -11.9869, 29.3592, 13.665, 67.2653, -166.553
5.27979, 4, -47.2453, -11.9869, 29.3592, 13.665, 67.2652, -166.553
5.29137, 4, -47.2453, -11.9869, 29.3592, 13.665, 67.2652, -166.553
5.29945, 4, -47.2453, -11.9869, 29.3592, 13.665, 67.2652, -166.553
5.3076, 4, -47.2453, -11.9869, 29.3592, 13.665, 67.2653, -166.553
5.31179, 4, -47.2452, -11.9869, 29.3592, 13.665, 67.2653, -166.553
5.32403, 4, -47.2452, -11.9868, 29.3592, 13.6649, 67.2653, -166.553
5.32996, 4, -47.2452, -11.9868, 29.3592, 13.6649, 67.2653, -166.553
5.33591, 4, -47.2451, -11.9868, 29.3592, 13.665, 67.2653, -166.553
5.34401, 4, -47.2451, -11.9867, 29.3592, 13.6649, 67.2653, -166.553
5.35211, 4, -47.2451, -11.9867, 29.3592, 13.6649, 67.2653, -166.553
5.36015, 4, -47.245, -11.9867, 29.3592, 13.665, 67.2653, -166.553
5.37082, 4, -47.245, -11.9867, 29.3592, 13.6649, 67.2653, -166.553
5.38035, 4, -47.245, -11.9866, 29.3592, 13.6649, 67.2653, -166.553
5.38676, 4, -47.2449, -11.9866, 29.3592, 13.6649, 67.2653, -166.553
5.39303, 4, -47.2449, -11.9866, 29.3592, 13.6649, 67.2653, -166.553
5.40057, 4, -47.245, -11.9867, 29.3592, 13.6649, 67.2653, -166.553
5.40906, 4, -47.2459, -11.9872, 29.3596, 13.665, 67.2654, -166.553
5.41645, 4, -47.2483, -11.9889, 29.3615, 13.6667, 67.266, -166.553
5.42528, 4, -47.2525, -11.9933, 29.3671, 13.6765, 67.2684, -166.552
5.43285, 5, -47.2557, -12.0022, 29.3798, 13.7015, 67.2748, -166.547
5.4409, 5, -47.2714, -12.0173, 29.4046, 13.7507, 67.2884, -166.537
5.45063, 5, -47.2895, -12.0416, 29.4473, 13.8386, 67.3129, -166.517
5.45751, 5, -47.3165, -12.077, 29.5143, 13.979, 67.3527, -166.485
5.46436, 5, -47.3339, -12.0994, 29.559, 14.0736, 67.3789, -166.464
5.47164, 5, -47.3775, -12.1548, 29.6738, 14.3194, 67.4466, -166.407
5.4797, 5, -47.4339, -12.2249, 29.825, 14.6473, 67.5365, -166.332
5.49498, 5, -47.5422, -12.3585, 30.1238, 15.5524, 67.7795, -166.126
5.49835, 5, -47.6298, -12.466, 30.3696, 15.8257, 67.8518, -166.064
5.50373, 5, -47.6777, -12.5248, 30.5047, 16.1144, 67.9279, -165.999
5.51167, 5, -47.7807, -12.6514, 30.7973, 16.7311, 68.0891, -165.86
5.52244, 5, -47.9497, -12.8602, 31.2795, 17.727, 68.3434, -165.641
5.52964, 5, -48.0687, -13.0082, 31.6206, 18.4153, 68.5153, -165.492
5.53777, 5, -48.19, -13.1598, 31.9696, 19.1106, 68.6858, -165.344
5.54366, 5, -48.2509, -13.2359, 32.1458, 19.4576, 68.7698, -165.271
5.55462, 5, -48.4299, -13.4593, 32.6741, 20.4782, 69.0154, -165.05
5.56173, 5, -48.5411, -13.6014, 33.0199, 21.131, 69.1749, -164.894
5.57046, 6, -48.6403, -13.7346, 33.3535, 21.7473, 69.3335, -164.717
5.57575, 6, -48.6841, -13.7974, 33.5144, 22.0391, 69.4131, -164.616
5.58373, 7, -48.7572, -13.916, 33.8219, 22.5879, 69.5749, -164.382
5.59177, 7, -48.809, -14.0266, 34.1098, 23.0866, 69.7415, -164.095
5.60271, 8, -48.845, -14.1772, 34.5048, 23.7492, 70.005, -163.539
5.61366, 8, -48.8435, -14.2658, 34.7475, 24.1458, 70.2893, -162.832
5.61668, 8, -48.8361, -14.3067, 34.8643, 24.3342, 70.2893, -162.832
5.62371, 9, -48.8101, -14.3829, 35.0904, 24.6975, 70.4914, -162.287
5.63179, 9, -48.7714, -14.4538, 35.3094, 25.0509, 70.7031, -161.696
5.64234, 10, -48.6943, -14.554, 35.633, 25.5768, 71.0372, -160.759
5.64768, 10, -48.664, -14.5865, 35.7403, 25.753, 71.1522, -160.438
5.65576, 11, -48.5974, -14.6502, 35.9545, 26.1076, 71.3856, -159.793
5.66657, 11, -48.486, -14.7439, 36.2757, 26.648, 71.7403, -158.828
5.67561, 12, -48.4077, -14.806, 36.4874, 27.0157, 71.9785, -158.186
5.67977, 12, -48.3682, -14.8368, 36.5923, 27.2022, 72.0982, -157.864
5.68769, 13, -48.2884, -14.8974, 36.801, 27.5812, 72.3392, -157.219
5.69574, 13, -48.2083, -14.9561, 37.0079, 27.9681, 72.5826, -156.571
5.70368, 14, -48.1266, -15.014, 37.2125, 28.3624, 72.8285, -155.918
5.71336, 14, -48.0424, -15.0728, 37.4163, 28.7626, 73.0768, -155.262
5.72146, 15, -47.955, -15.1325, 37.6195, 29.1665, 73.3258, -154.607
5.7295, 15, -47.8633, -15.1922, 37.8208, 29.5717, 73.5741, -153.954
5.73569, 16, -47.7664, -15.251, 38.0203, 29.9757, 73.8196, -153.304
5.74394, 16, -47.6627, -15.3099, 38.2185, 30.3771, 74.0613, -152.66
5.75168, 17, -47.5521, -15.3706, 38.4138, 30.7749, 74.2981, -152.022
5.76029, 17, -47.4358, -15.4335, 38.6054, 31.1685, 74.5294, -151.389
5.76773, 18, -47.3142, -15.4977, 38.7943, 31.5577, 74.7546, -150.763
5.77669, 18, -47.1878, -15.5627, 38.9804, 31.9432, 74.9743, -150.143
5.78376, 19, -47.0561, -15.6295, 39.1634, 32.3258, 75.1884, -149.531
5.79535, 19, -46.8481, -15.7354, 39.435, 32.8971, 75.5009, -148.625
5.80145, 20, -46.776, -15.7718, 39.525, 33.087, 75.6029, -148.326
5.80829, 20, -46.6285, -15.8455, 39.7033, 33.4664, 75.804, -147.734
5.81677, 21, -46.4769, -15.9206, 39.8792, 33.845, 76.0008, -147.149
5.82462, 21, -46.3216, -15.9973, 40.0534, 34.223, 76.1938, -146.57
5.83224, 22, -46.1626, -16.0757, 40.226, 34.6002, 76.3827, -145.996
5.8406, 22, -45.9994, -16.1556, 40.3959, 34.9761, 76.5678, -145.43
5.84953, 23, -45.831, -16.2372, 40.5627, 35.3498, 76.7492, -144.868
5.85765, 23, -45.6562, -16.3208, 40.7268, 35.7203, 76.9257, -144.311
5.86938, 24, -45.3798, -16.4508, 40.9663, 36.2671, 77.1805, -143.486
5.87287, 24, -45.2838, -16.4953, 41.0437, 36.4458, 77.2621, -143.214
5.88034, 25, -45.0861, -16.5852, 41.1953, 36.7965, 77.4202, -142.674
5.89099, 25, -44.8815, -16.6758, 41.3426, 37.1378, 77.5703, -142.139
5.89684, 26, -44.6705, -16.7669, 41.4853, 37.4692, 77.7133, -141.609
5.906, 26, -44.4523, -16.8591, 41.6229, 37.7919, 77.8503, -141.083
5.91475, 27, -44.2268, -16.9522, 41.7552, 38.1066, 77.9827, -140.559
5.92409, 27, -43.9946, -17.0456, 41.8818, 38.5651, 78.1747, -139.775
5.9284, 28, -43.7559, -17.1383, 42.0025, 38.7147, 78.2376, -139.514
5.9376, 28, -43.5103, -17.2295, 42.1165, 39.0083, 78.3614, -138.992
5.94569, 29, -43.2576, -17.319, 42.2237, 39.2948, 78.4836, -138.47
5.95318, 29, -42.9985, -17.4065, 42.3239, 39.5739, 78.6037, -137.947
5.95964, 30, -42.8665, -17.4494, 42.3713, 39.7106, 78.6627, -137.686
5.969, 30, -42.5971, -17.533, 42.4606, 39.9778, 78.7793, -137.163
5.97575, 31, -42.3197, -17.6139, 42.5426, 40.2367, 78.8931, -136.642
5.98371, 31, -42.0343, -17.6923, 42.6174, 40.487, 79.0039, -136.12
5.99303, 32, -41.5922, -17.8058, 42.7167, 40.8459, 79.1648, -135.339
6.00197, 32, -41.289, -17.8781, 42.7744, 41.0741, 79.2678, -134.82
6.00971, 33, -40.9792, -17.9473, 42.8248, 41.2939, 79.368, -134.303
6.02159, 33, -40.6622, -18.0138, 42.8872, 41.6081, 79.5126, -133.528
6.02372, 34, -40.5013, -18.046, 42.8872, 41.6081, 79.5126, -133.528
6.03166, 34, -40.1756, -18.1087, 42.9198, 41.8073, 79.6057, -133.013
6.03972, 35, -39.8452, -18.1689, 42.9451, 41.9987, 79.6965, -132.498
6.05009, 35, -39.339, -18.253, 42.97, 42.272, 79.8281, -131.73
6.05862, 36, -38.9932, -18.3048, 42.9778, 42.4446, 79.9135, -131.219
6.06642, 36, -38.6401, -18.3532, 42.979, 42.6096, 79.9968, -130.708
6.07503, 37, -38.2809, -18.3983, 42.9735, 42.7671, 80.0778, -130.2
6.07966, 37, -38.0991, -18.4194, 42.9682, 42.843, 80.1176, -129.946
6.08996, 38, -37.5458, -18.4772, 42.942, 43.0597, 80.2342, -129.187
6.09575, 38, -37.359, -18.4947, 42.93, 43.1282, 80.272, -128.935
6.10367, 39, -36.9819, -18.5273, 42.9009, 43.2596, 80.3461, -128.432
6.11267, 39, -36.6002, -18.5563, 42.8651, 43.3838, 80.4176, -127.931
6.11965, 40, -36.2135, -18.5815, 42.8226, 43.5005, 80.4878, -127.432
6.13169, 40, -35.6222, -18.6121, 42.7467, 43.6623, 80.5894, -126.687
6.13671, 41, -35.4222, -18.6203, 42.718, 43.7126, 80.6223, -126.439
6.1448, 41, -35.0178, -18.634, 42.6559, 43.8074, 80.686, -125.946
6.15163, 42, -34.6089, -18.6443, 42.5874, 43.8957, 80.7488, -125.455
6.16114, 42, -34.1967, -18.6512, 42.5125, 43.9765, 80.8085, -124.966
6.17008, 43, -33.7816, -18.6551, 42.4313, 44.0843, 80.8961, -124.237
6.17662, 43, -33.3627, -18.6558, 42.3442, 44.1167, 80.9241, -123.995
6.18477, 44, -32.9384, -18.6528, 42.2512, 44.1767, 80.9788, -123.513
6.19268, 44, -32.5078, -18.646, 42.1526, 44.2286, 81.0328, -123.034
6.19963, 45, -32.0705, -18.6354, 42.0481, 44.2737, 81.0842, -122.557
6.20765, 45, -31.628, -18.6211, 41.9377, 44.3117, 81.1343, -122.082
6.21572, 46, -31.1821, -18.6034, 41.8212, 44.3419, 81.1833, -121.609
6.22401, 46, -30.7343, -18.5822, 41.6988, 44.3643, 81.2295, -121.139
6.23177, 47, -30.2836, -18.5572, 41.5707, 44.379, 81.2745, -120.671
6.23973, 47, -29.8286, -18.5278, 41.4366, 44.3864, 81.3192, -120.205
6.2514, 48, -29.1338, -18.4754, 41.2241, 44.3843, 81.3828, -119.51
6.25583, 48, -28.8992, -18.4558, 41.1502, 44.3792, 81.4036, -119.279
6.26371, 49, -28.4259, -18.4133, 40.9981, 44.3625, 81.4456, -118.819
6.27275, 49, -27.9495, -18.3664, 40.8401, 44.3369, 81.487, -118.361
6.28362, 50, -27.2303, -18.2874, 40.5911, 44.28, 81.5478, -117.675
6.28872, 50, -26.9887, -18.2584, 40.5047, 44.2567, 81.5685, -117.446
6.30122, 51, -26.5007, -18.1962, 40.3273, 44.2032, 81.6109, -116.763
6.30476, 51, -26.0049, -18.1285, 40.1434, 44.1391, 81.6533, -116.536
6.31588, 52, -25.2484, -18.0165, 39.8536, 44.0252, 81.7179, -115.855
6.32032, 52, -24.9945, -17.9766, 39.7535, 43.9818, 81.7403, -115.628
6.32992, 53, -24.4853, -17.8924, 39.5489, 43.8875, 81.7852, -115.175
6.34168, 54, -23.7153, -17.7546, 39.228, 43.7271, 81.8536, -114.497
6.34462, 54, -23.4555, -17.7055, 39.1169, 43.6681, 81.8779, -114.271
6.35262, 54, -22.9297, -17.6027, 38.8898, 43.5421, 81.9278, -113.819
6.36001, 55, -22.3959, -17.4937, 38.6552, 43.4046, 81.9793, -113.367
6.36885, 55, -21.8571, -17.3785, 38.4126, 43.2553, 82.0344, -112.914
6.37875, 56, -21.3159, -17.2574, 38.1638, 43.0943, 82.091, -112.462
6.38494, 56, -20.7718, -17.1305, 37.908, 42.9221, 82.1487, -112.01
6.39345, 57, -20.2211, -16.9982, 37.6458, 42.7386, 82.2086, -111.559
6.40094, 57, -19.6609, -16.8601, 37.3776, 42.5437, 82.269, -111.108
6.40849, 58, -19.0925, -16.716, 37.1022, 42.3363, 82.3319, -110.658
6.41713, 58, -18.5197, -16.5659, 36.821, 42.1164, 82.3962, -110.208
6.42487, 59, -17.9449, -16.4106, 36.5329, 41.8841, 82.463, -109.759
6.43303, 59, -17.3659, -16.2508, 36.2383, 41.639, 82.5325, -109.309
6.4444, 60, -16.4803, -16.0028, 35.7847, 41.2477, 82.6409, -108.635
6.45073, 60, -16.1803, -15.9173, 35.6311, 41.111, 82.6776, -108.41
6.45633, 61, -15.8788, -15.8304, 35.3202, 40.8277, 82.7521, -107.961
6.46672, 61, -14.9698, -15.5629, 35.0038, 40.5322, 82.8283, -107.514
6.47227, 62, -14.6654, -15.4718, 34.8438, 40.3798, 82.8671, -107.289
6.48052, 62, -14.0519, -15.2864, 34.5196, 40.0651, 82.9869, -106.617
6.48764, 63, -13.4288, -15.0957, 34.1911, 39.7377, 83.028, -106.392
6.49568, 63, -12.7963, -14.898, 33.8573, 39.3967, 83.1121, -105.943
6.50372, 64, -12.1574, -14.6941, 33.5181, 39.0422, 83.1995, -105.493
6.51372, 64, -11.1902, -14.3761, 32.9963, 38.4832, 83.3383, -104.815
6.52288, 65, -10.5338, -14.155, 32.6396, 38.09, 83.4379, -104.361
6.52764, 65, -10.2013, -14.042, 32.4587, 37.8867, 83.4901, -104.133
6.5387, 66, -9.1879, -13.6926, 31.9075, 37.2467, 83.6564, -103.445
6.54364, 66, -8.84628, -13.5724, 31.721, 37.0241, 83.7153, -103.216
6.55184, 67, -8.15962, -13.3264, 31.3431, 36.5642, 83.8379, -102.754
6.55965, 67, -7.46566, -13.0737, 30.9588, 36.0868, 83.9676, -102.29
6.57162, 68, -6.4077, -12.681, 30.3736, 35.3408, 84.1744, -101.59
6.57572, 68, -6.0515, -12.547, 30.177, 35.0856, 84.2464, -101.356
6.58439, 69, -5.33592, -12.2753, 29.7815, 34.567, 84.3945, -100.887
6.59572, 69, -4.25402, -11.8561, 29.1843, 33.7702, 84.6249, -100.181
6.60197, 70, -3.52415, -11.5686, 28.7868, 33.228, 84.7838, -99.7082
6.61258, 70, -2.78698, -11.2723, 28.3901, 32.6744, 84.9471, -99.2345
6.61566, 71, -2.41621, -11.1212, 28.1918, 32.3934, 85.0306, -98.9975
6.62699, 71, -1.29396, -10.6585, 27.5933, 31.5289, 85.2936, -98.2842
6.63167, 72, -0.916697, -10.5013, 27.3926, 31.2329, 85.3859, -98.0453
6.63963, 72, -0.157875, -10.1835, 26.989, 30.6267, 85.5777, -97.5659
6.6476, 73, 0.605962, -9.85924, 26.5829, 30.0064, 85.7789, -97.0841
6.65571, 73, 1.37392, -9.52768, 26.1757, 29.374, 85.9883, -96.6013
6.66363, 74, 2.14627, -9.18971, 25.7685, 28.7316, 86.2059, -96.1167
6.67659, 75, 3.30981, -8.67259, 25.1638, 27.7549, 86.5452, -95.3872
6.68022, 75, 3.69849, -8.49703, 24.9649, 27.4261, 86.6614, -95.1433
6.69211, 75, 4.47793, -8.1405, 24.3746, 26.4352, 87.0183, -94.41
6.69664, 76, 5.2598, -7.7782, 24.1803, 26.1046, 87.1403, -94.1648
6.70376, 76, 6.04325, -7.41015, 23.7953, 25.4411, 87.3886, -93.6728
6.71268, 77, 6.82737, -7.03639, 23.4153, 24.7771, 87.6437, -93.1786
6.72884, 78, 8.40098, -6.26242, 22.6647, 23.4456, 88.1803, -92.1848
6.73156, 78, 8.79555, -6.06249, 22.479, 23.1099, 88.3212, -91.9349
6.74252, 78, 9.58555, -5.65646, 22.1104, 22.4336, 88.6132, -91.1788
6.74512, 79, 9.981, -5.45039, 21.927, 22.0928, 88.7645, -91.1788
6.75148, 79, 10.7728, -5.03327, 21.5621, 21.4063, 89.0775, -90.6686
6.76048, 80, 11.5637, -4.60751, 21.1998, 20.7167, 89.4033, -90.1529
6.76755, 80, 12.3512, -4.171, 20.8423, 20.0255, 89.7399, -89.6311
6.77584, 80, 13.1324, -3.72451, 20.4897, 19.3402, 90.0859, -89.1026
6.78359, 81, 13.9075, -3.27161, 20.1439, 18.6659, 90.4392, -88.5688
6.7918, 82, 14.6759, -2.81256, 19.8063, 18.0066, 90.798, -88.031
6.79966, 82, 15.4364, -2.34545, 19.4799, 17.3636, 91.1604, -87.4909
6.8076, 82, 16.1868, -1.87089, 19.1635, 16.7388, 91.5264, -86.9481
6.81561, 83, 16.9244, -1.39054, 18.8573, 16.1338, 91.8961, -86.4043
6.82367, 83, 17.6487, -0.905226, 18.5603, 15.548, 92.2702, -85.8603
6.83215, 84, 18.3574, -0.416245, 18.2723, 14.9819, 92.6498, -85.3182
6.83955, 84, 19.0488, 0.076088, 17.9917, 14.436, 93.0362, -84.7772
6.8484, 85, 19.7214, 0.573529, 17.7169, 13.9099, 93.4304, -84.2387
6.8556, 85, 20.3752, 1.07581, 17.4487, 13.4037, 93.8321, -83.7032
6.86451, 86, 21.0112, 1.58219, 17.1864, 12.9176, 94.2399, -83.1709
6.87186, 86, 21.632, 2.09391, 16.931, 12.4507, 94.6531, -82.6394
6.88068, 86, 22.2397, 2.6137, 16.6818, 12.0035, 95.0725, -82.1069
6.88787, 87, 22.8363, 3.14339, 16.4369, 11.5747, 95.4986, -81.5713
6.89678, 87, 23.4231, 3.68139, 16.1959, 11.1633, 95.9319, -81.0316
6.904, 88, 23.9999, 4.22483, 15.9573, 10.7671, 96.3721, -80.484
6.91288, 88, 24.5659, 4.77586, 15.7223, 10.387, 96.8184, -79.9272
6.92004, 89, 25.1215, 5.33849, 15.4934, 10.0221, 97.2706, -79.3596
6.92885, 89, 25.6697, 5.91314, 15.2691, 9.67403, 97.7275, -78.7805
6.93605, 90, 25.9425, 6.20467, 15.1586, 9.34158, 98.1886, -78.1876
6.94497, 90, 26.485, 6.79532, 14.9418, 9.18136, 98.6545, -77.5802
6.95151, 91, 27.0185, 7.39571, 14.7311, 8.87355, 98.8896, -77.2709
6.95948, 91, 27.5396, 8.00608, 14.5257, 8.58304, 99.3648, -76.6431
6.96744, 92, 28.0497, 8.62624, 14.3241, 8.31114, 99.8464, -76.0023
6.97553, 92, 28.5524, 9.2555, 14.1259, 8.05925, 100.335, -75.3493
6.98344, 93, 29.0486, 9.89428, 13.9312, 7.82764, 100.828, -74.6877
6.99148, 93, 29.5345, 10.5414, 13.7414, 7.61785, 101.325, -74.0185
6.99949, 94, 30.0073, 11.1955, 13.5582, 7.43063, 101.823, -73.3411
7.0075, 94, 30.4654, 11.8544, 13.3818, 7.26676, 102.319, -72.6578
7.01549, 95, 30.9095, 12.5171, 13.2118, 7.12662, 102.813, -71.9702
7.02347, 95, 31.34, 13.1823, 13.0495, 7.01033, 103.304, -71.2765
7.03154, 96, 31.7569, 13.8497, 12.8948, 6.91738, 103.791, -70.5769
7.03951, 96, 32.1583, 14.5185, 12.7463, 6.84841, 104.275, -69.8731
7.04744, 97, 32.5425, 15.1871, 12.6037, 6.80282, 104.756, -69.1633
7.05555, 97, 32.9101, 15.8534, 12.4677, 6.77796, 105.23, -68.4481
7.06344, 98, 33.2621, 16.5159, 12.3399, 6.77402, 105.698, -67.7322
7.07303, 98, 33.5996, 17.1733, 12.2214, 6.79199, 106.156, -67.0155
7.07954, 99, 33.9226, 17.8232, 12.1128, 6.82948, 106.602, -66.2995
7.08854, 99, 34.2312, 18.4643, 12.0146, 6.8868, 107.033, -65.5892
7.09568, 100, 34.5278, 19.0956, 11.9268, 6.96299, 107.448, -64.8839
7.10448, 100, 34.8131, 19.7171, 11.849, 7.05609, 107.847, -64.1842
7.11151, 100, 35.0856, 20.3271, 11.7801, 7.16559, 108.231, -63.4931
7.12048, 101, 35.344, 20.9239, 11.7186, 7.28928, 108.599, -62.8111
7.12755, 101, 35.5891, 21.5067, 11.6647, 7.42516, 108.954, -62.1378
7.13547, 102, 35.8211, 22.0747, 11.6181, 7.57076, 109.293, -61.4764
7.14347, 102, 36.0406, 22.628, 11.5785, 7.72395, 109.618, -60.8286
7.15156, 103, 36.2494, 23.1663, 11.5459, 7.88302, 109.928, -60.1943
7.15948, 103, 36.4508, 23.6897, 11.521, 8.04755, 110.222, -59.574
7.16755, 103, 36.6466, 24.1994, 11.5045, 8.21817, 110.5, -58.9686
7.17548, 104, 36.8371, 24.6958, 11.496, 8.39588, 110.76, -58.3754
7.18347, 104, 37.0231, 25.1793, 11.494, 8.58243, 111.002, -57.7916
7.19155, 104, 37.2044, 25.6503, 11.4981, 8.7782, 111.226, -57.216
7.19949, 104, 37.3775, 26.1079, 11.5076, 8.98258, 111.432, -56.6482
7.20752, 104, 37.54, 26.5521, 11.5207, 9.19505, 111.623, -56.0875
7.21555, 104, 37.6941, 26.9829, 11.5367, 9.41286, 111.799, -55.5355
7.22348, 104, 37.8442, 27.4016, 11.5551, 9.63333, 111.965, -54.996
7.23148, 104, 37.9928, 27.8066, 11.575, 9.85389, 112.122, -54.473
7.23956, 104, 38.139, 28.1976, 11.5951, 10.0714, 112.27, -53.9685
7.24747, 104, 38.2813, 28.5744, 11.615, 10.285, 112.411, -53.4847
7.25547, 104, 38.4182, 28.9371, 11.6339, 10.4926, 112.545, -53.0239
7.26355, 104, 38.5481, 29.2833, 11.652, 10.6931, 112.67, -52.5867
7.27154, 104, 38.6705, 29.6121, 11.6692, 10.8855, 112.789, -52.1746
7.27959, 104, 38.7849, 29.9218, 11.6851, 11.0692, 112.9, -51.7872
7.28764, 104, 38.8914, 30.2133, 11.6999, 11.2434, 113.002, -51.4243
7.29558, 104, 38.9902, 30.486, 11.7138, 11.4077, 113.098, -51.0871
7.3036, 104, 39.0812, 30.7387, 11.7263, 11.5614, 113.186, -50.7754
7.31166, 104, 39.164, 30.972, 11.7376, 11.7044, 113.267, -50.4886
7.31954, 104, 39.2384, 31.1857, 11.748, 11.8358, 113.34, -50.2271
7.32749, 104, 39.3045, 31.3792, 11.7576, 11.9557, 113.406, -49.991
7.33557, 104, 39.3627, 31.5534, 11.7663, 12.0637, 113.465, -49.78
7.34354, 104, 39.4139, 31.7081, 11.7737, 12.1595, 113.517, -49.5941
7.35163, 104, 39.4587, 31.8438, 11.7805, 12.2435, 113.562, -49.433
7.35991, 104, 39.4976, 31.9615, 11.7866, 12.3145, 113.599, -49.2962
7.3677, 104, 39.5302, 32.0623, 11.7921, 12.3747, 113.631, -49.1827
7.37586, 104, 39.5571, 32.1468, 11.797, 12.4225, 113.656, -49.0913
7.38385, 104, 39.5791, 32.2167, 11.8014, 12.4596, 113.675, -49.0196
7.39189, 104, 39.5968, 32.2736, 11.8053, 12.488, 113.689, -48.9664
7.40003, 104, 39.6106, 32.3192, 11.809, 12.5087, 113.699, -48.9286
7.40835, 104, 39.6215, 32.3543, 11.8122, 12.5232, 113.706, -48.9028
7.41603, 104, 39.6296, 32.3805, 11.8151, 12.5326, 113.71, -48.8862
7.42443, 104, 39.6351, 32.4, 11.8177, 12.5385, 113.712, -48.8766
7.43208, 104, 39.6385, 32.4141, 11.8197, 12.5418, 113.713, -48.8718
7.44005, 104, 39.6397, 32.4192, 11.8212, 12.5435, 113.714, -48.8695
7.44848, 105, 39.6414, 32.429, 11.8224, 12.5443, 113.714, -48.8685
7.4555, 105, 39.6415, 32.431, 11.8229, 12.5446, 113.714, -48.8683
7.46347, 105, 39.6411, 32.4341, 11.8237, 12.5449, 113.714, -48.8681
7.47149, 105, 39.6402, 32.4363, 11.8246, 12.545, 113.714, -48.8682
7.47957, 105, 39.639, 32.4378, 11.8252, 12.5451, 113.714, -48.8684
7.48746, 105, 39.6377, 32.4391, 11.8258, 12.5451, 113.714, -48.8686
7.49547, 105, 39.6364, 32.4404, 11.8263, 12.5451, 113.714, -48.8688
7.5035, 105, 39.6357, 32.4416, 11.8268, 12.5451, 113.714, -48.8691
7.51148, 105, 39.6352, 32.4428, 11.8274, 12.5451, 113.714, -48.8694
7.51947, 105, 39.6349, 32.4439, 11.828, 12.5451, 113.714, -48.8697
7.529, 105, 39.6345, 32.4453, 11.8288, 12.5452, 113.714, -48.87
7.53744, 105, 39.6342, 32.446, 11.8292, 12.5452, 113.714, -48.8703
7.54351, 105, 39.6341, 32.4463, 11.8293, 12.5452, 113.714, -48.8704
7.55148, 105, 39.6338, 32.4467, 11.8296, 12.5452, 113.714, -48.8705
7.55946, 105, 39.6335, 32.447, 11.8299, 12.5451, 113.714, -48.8707
7.569, 105, 39.6332, 32.4471, 11.8301, 12.5451, 113.714, -48.8709
