hehonglu123/Motion-Primitive-Planning/ILC/recorded_data/realrobot/from_NX/iteration_33/run_2.csv
timestamp, cmd_num, J1, J2, J3, J4, J5, J6
0.000407, -1, 39.6292, 32.4471, 11.8315, 12.5437, 113.713, -48.8735
0.004474, -1, 39.6292, 32.4471, 11.8315, 12.5437, 113.713, -48.8735
0.008802, -1, 39.6292, 32.4471, 11.8315, 12.5437, 113.713, -48.8735
0.029664, -1, 39.6292, 32.4471, 11.8315, 12.5436, 113.713, -48.8736
0.031781, -1, 39.6292, 32.4471, 11.8315, 12.5436, 113.713, -48.8736
0.035439, -1, 39.6292, 32.4471, 11.8315, 12.5436, 113.713, -48.8735
0.039916, -1, 39.6292, 32.4471, 11.8315, 12.5437, 113.713, -48.8735
0.047705, -1, 39.6291, 32.447, 11.8315, 12.5437, 113.713, -48.8735
0.055779, -1, 39.6278, 32.4468, 11.8315, 12.5436, 113.713, -48.8735
0.063693, -1, 39.6241, 32.4461, 11.8315, 12.5437, 113.713, -48.8736
0.071694, -1, 39.6171, 32.4441, 11.8314, 12.5436, 113.713, -48.8743
0.079765, -1, 39.6062, 32.4401, 11.8314, 12.5436, 113.712, -48.8769
0.088228, -1, 39.59, 32.4333, 11.8314, 12.5437, 113.71, -48.8842
0.095663, -1, 39.5661, 32.4228, 11.8315, 12.5436, 113.705, -48.8996
0.10376, -1, 39.5326, 32.4079, 11.8326, 12.5436, 113.695, -48.9261
0.112657, -1, 39.4889, 32.3874, 11.836, 12.5436, 113.68, -48.9675
0.11982, -1, 39.4332, 32.3603, 11.8425, 12.5436, 113.657, -49.0281
0.12796, -1, 39.3644, 32.3263, 11.8529, 12.5437, 113.624, -49.111
0.136728, -1, 39.2821, 32.2846, 11.8682, 12.5438, 113.583, -49.2177
0.143943, -1, 39.1861, 32.235, 11.8884, 12.5443, 113.531, -49.3507
0.152148, -1, 39.076, 32.1776, 11.913, 12.545, 113.469, -49.5084
0.160911, -1, 38.952, 32.1124, 11.9417, 12.5464, 113.397, -49.6899
0.16813, -1, 38.8151, 32.0402, 11.9741, 12.5481, 113.317, -49.8923
0.176597, -1, 38.6664, 31.9619, 12.0094, 12.5501, 113.23, -50.1126
0.185001, -1, 38.5068, 31.878, 12.0465, 12.5523, 113.137, -50.3468
0.192193, -1, 38.4235, 31.7896, 12.0849, 12.5547, 113.041, -50.5914
0.200345, -1, 38.2512, 31.7441, 12.1239, 12.5571, 112.941, -50.8425
0.209016, -1, 38.0728, 31.6509, 12.1434, 12.5584, 112.891, -50.9697
0.215593, -1, 37.8892, 31.5556, 12.1823, 12.5608, 112.79, -51.2264
0.223581, -1, 37.7017, 31.4587, 12.2211, 12.5632, 112.688, -51.4848
0.231586, -1, 37.5114, 31.3609, 12.2599, 12.5657, 112.585, -51.7443
0.239737, -1, 37.3198, 31.263, 12.2986, 12.5682, 112.483, -52.0039
0.247686, -1, 37.1276, 31.165, 12.3375, 12.5706, 112.38, -52.2636
0.255576, -1, 36.9353, 31.0672, 12.3762, 12.5732, 112.277, -52.5237
0.263752, -1, 36.7432, 30.9695, 12.415, 12.5758, 112.174, -52.784
0.27158, -1, 36.5516, 30.8717, 12.4539, 12.5784, 112.071, -53.0444
0.279574, -1, 36.3599, 30.774, 12.4927, 12.581, 111.968, -53.3046
0.287639, -1, 36.1683, 30.6761, 12.5315, 12.5836, 111.865, -53.5651
0.295578, -1, 35.9767, 30.5782, 12.5704, 12.5862, 111.762, -53.8256
0.303582, -1, 35.7851, 30.4802, 12.6094, 12.5888, 111.659, -54.0862
0.311641, -1, 35.5933, 30.3822, 12.6483, 12.5912, 111.556, -54.3464
0.319583, -1, 35.4012, 30.284, 12.6871, 12.5939, 111.453, -54.6068
0.327603, -1, 35.2089, 30.1857, 12.7259, 12.5965, 111.35, -54.8674
0.336575, -1, 35.0165, 30.0874, 12.7648, 12.599, 111.247, -55.1283
0.472043, -1, 31.7402, 28.4123, 13.4261, 12.6437, 109.495, -59.5651
0.47337, -1, 31.7402, 28.4123, 13.4261, 12.6437, 109.495, -59.5651
0.475583, -1, 31.6434, 28.363, 13.4457, 12.6451, 109.443, -59.6957
0.476782, -1, 31.6434, 28.363, 13.4457, 12.6451, 109.443, -59.6957
0.478672, -1, 31.5466, 28.3136, 13.4652, 12.6465, 109.392, -59.8262
0.480032, -1, 31.5466, 28.3136, 13.4652, 12.6465, 109.392, -59.8262
0.481369, -1, 31.5466, 28.3136, 13.4652, 12.6465, 109.392, -59.8262
0.48564, -1, 31.4499, 28.2643, 13.4846, 12.6479, 109.34, -59.9569
0.488484, -1, 31.3533, 28.215, 13.5041, 12.6493, 109.289, -60.0876
0.489689, -1, 31.3533, 28.215, 13.5041, 12.6493, 109.289, -60.0876
0.492513, -1, 31.2569, 28.1657, 13.5236, 12.6507, 109.237, -60.2183
0.49372, -1, 31.2569, 28.1657, 13.5236, 12.6507, 109.237, -60.2183
0.495838, -1, 31.1606, 28.1165, 13.5431, 12.6521, 109.186, -60.349
0.497035, -1, 31.1606, 28.1165, 13.5431, 12.6521, 109.186, -60.349
0.498963, -1, 31.0643, 28.0672, 13.5627, 12.6535, 109.134, -60.4798
0.502945, -1, 30.9682, 28.0179, 13.5822, 12.655, 109.083, -60.6106
0.504413, -1, 30.9682, 28.0179, 13.5822, 12.655, 109.083, -60.6106
0.505614, -1, 30.9682, 28.0179, 13.5822, 12.655, 109.083, -60.6106
0.507663, -1, 30.8721, 27.9686, 13.6017, 12.6564, 109.031, -60.7413
0.508887, -1, 30.8721, 27.9686, 13.6017, 12.6564, 109.031, -60.7413
0.51163, -1, 30.7761, 27.9193, 13.6211, 12.6578, 108.979, -60.8719
0.512968, -1, 30.7761, 27.9193, 13.6211, 12.6578, 108.979, -60.8719
0.521622, -1, 30.5841, 27.8207, 13.6602, 12.6606, 108.876, -61.1331
0.527673, -1, 30.3922, 27.7221, 13.6991, 12.6634, 108.773, -61.3944
0.536528, -1, 30.2001, 27.6234, 13.7381, 12.6662, 108.67, -61.656
0.543706, -1, 30.0078, 27.5247, 13.7771, 12.6689, 108.567, -61.9177
0.551748, -1, 29.8151, 27.426, 13.8161, 12.6717, 108.463, -62.1794
0.560477, -1, 29.6218, 27.3273, 13.8549, 12.6743, 108.36, -62.4411
0.567737, -1, 29.4279, 27.2284, 13.8939, 12.6769, 108.257, -62.7029
0.575787, -1, 29.2338, 27.1296, 13.9329, 12.6795, 108.153, -62.9647
0.584905, -1, 29.0395, 27.0308, 13.9718, 12.6821, 108.05, -63.2261
0.591602, -1, 28.8452, 26.9318, 14.0108, 12.6846, 107.947, -63.4876
0.600453, -1, 28.651, 26.8329, 14.0497, 12.6872, 107.843, -63.7493
0.607633, -1, 28.457, 26.7341, 14.0888, 12.6897, 107.74, -64.0111
0.616054, -1, 28.2633, 26.6353, 14.1278, 12.6922, 107.637, -64.2726
0.624668, -1, 28.0701, 26.5365, 14.1668, 12.6946, 107.533, -64.5342
0.631823, -1, 27.8771, 26.4377, 14.2058, 12.697, 107.43, -64.7961
0.766179, -1, 24.6889, 24.8068, 14.8487, 12.7356, 105.726, -69.1146
0.767597, -1, 24.6889, 24.8068, 14.8487, 12.7356, 105.726, -69.1146
0.770439, -1, 24.5925, 24.7574, 14.8682, 12.7368, 105.675, -69.2454
0.771624, -1, 24.5925, 24.7574, 14.8682, 12.7368, 105.675, -69.2454
0.773661, -1, 24.4963, 24.7079, 14.8877, 12.7379, 105.623, -69.3764
0.774928, -1, 24.4963, 24.7079, 14.8877, 12.7379, 105.623, -69.3764
0.77687, -1, 24.4001, 24.6584, 14.9073, 12.7391, 105.571, -69.5074
0.781153, -1, 24.3039, 24.609, 14.9268, 12.7403, 105.52, -69.6381
0.782603, -1, 24.3039, 24.609, 14.9268, 12.7403, 105.52, -69.6381
0.78379, -1, 24.3039, 24.609, 14.9268, 12.7403, 105.52, -69.6381
0.78586, -1, 24.2076, 24.5595, 14.9463, 12.7415, 105.468, -69.7688
0.787052, -1, 24.2076, 24.5595, 14.9463, 12.7415, 105.468, -69.7688
0.788939, -1, 24.2076, 24.5101, 14.9658, 12.7427, 105.416, -69.8995
0.790416, -1, 24.1113, 24.5101, 14.9658, 12.7427, 105.416, -69.8995
0.791614, -1, 24.1113, 24.5101, 14.9658, 12.7427, 105.416, -69.8995
0.794749, -1, 24.015, 24.4608, 14.9853, 12.7438, 105.365, -70.0302
0.796087, -1, 24.015, 24.4608, 14.9853, 12.7438, 105.365, -70.0302
0.798151, -1, 23.9186, 24.4114, 15.0048, 12.7449, 105.313, -70.1609
0.799459, -1, 23.9186, 24.4114, 15.0048, 12.7449, 105.313, -70.1609
0.80212, -1, 23.8222, 24.362, 15.0242, 12.7462, 105.261, -70.2918
0.803499, -1, 23.8222, 24.362, 15.0242, 12.7462, 105.261, -70.2918
0.807578, -1, 23.7257, 24.3125, 15.0437, 12.7475, 105.209, -70.4227
0.815611, -1, 23.5326, 24.2137, 15.0826, 12.7498, 105.106, -70.6845
0.822558, -1, 23.3391, 24.1148, 15.1216, 12.7522, 105.003, -70.9461
0.831557, -1, 23.1454, 24.0159, 15.1605, 12.7546, 104.899, -71.2079
0.840566, -1, 22.9515, 23.917, 15.1993, 12.7571, 104.796, -71.4697
0.847641, -1, 22.7576, 23.8182, 15.2383, 12.7595, 104.693, -71.7316
0.855604, -1, 22.5637, 23.7194, 15.2773, 12.762, 104.589, -71.9933
0.863557, -1, 22.3701, 23.6207, 15.3163, 12.7644, 104.486, -72.2546
0.871628, -1, 22.1769, 23.522, 15.3552, 12.767, 104.382, -72.516
0.879627, -1, 21.9838, 23.4233, 15.3942, 12.7696, 104.279, -72.7776
0.88757, -1, 21.7909, 23.3246, 15.4332, 12.7722, 104.176, -73.0392
0.895608, -1, 21.5986, 23.2258, 15.4722, 12.7749, 104.073, -73.3004
0.903558, -1, 21.4064, 23.1271, 15.5111, 12.7775, 103.97, -73.562
0.911623, -1, 21.214, 23.0284, 15.5501, 12.7801, 103.867, -73.8236
0.919572, -1, 21.0216, 22.9298, 15.589, 12.7828, 103.763, -74.0851
0.927558, -1, 20.8291, 22.8312, 15.6279, 12.7855, 103.66, -74.3462
0.935691, -1, 20.6366, 22.7326, 15.6669, 12.7882, 103.557, -74.6073
0.94355, -1, 20.4438, 22.6339, 15.7057, 12.791, 103.454, -74.8686
0.95167, -1, 20.2504, 22.5353, 15.7447, 12.7937, 103.351, -75.1302
0.959635, -1, 20.0567, 22.4365, 15.7836, 12.7963, 103.248, -75.3912
0.967554, -1, 19.8631, 22.3378, 15.8224, 12.7991, 103.145, -75.6523
0.975624, -1, 19.6695, 22.2391, 15.8612, 12.8017, 103.042, -75.9135
0.98362, -1, 19.476, 22.1406, 15.9001, 12.8045, 102.939, -76.1749
0.991573, -1, 19.2828, 22.0419, 15.9389, 12.8073, 102.836, -76.4359
0.999639, -1, 19.09, 21.9432, 15.9778, 12.8101, 102.733, -76.6967
1.0076, -1, 18.8973, 21.8446, 16.0167, 12.8129, 102.63, -76.9576
1.01563, -1, 18.705, 21.7458, 16.0555, 12.8155, 102.527, -77.2185
1.02379, -1, 18.513, 21.6472, 16.0943, 12.8183, 102.424, -77.4795
1.03159, -1, 18.3212, 21.5487, 16.1332, 12.8209, 102.321, -77.7401
1.03965, -1, 18.1293, 21.4502, 16.172, 12.8235, 102.219, -78.0008
1.04806, -1, 17.9374, 21.3518, 16.2109, 12.8262, 102.116, -78.2618
1.05575, -1, 17.7456, 21.2535, 16.2498, 12.8287, 102.012, -78.5225
1.06366, -1, 17.5534, 21.1551, 16.2886, 12.8312, 101.91, -78.7829
1.07214, -1, 17.3607, 21.0568, 16.3274, 12.8337, 101.807, -79.0433
1.07963, -1, 17.1677, 20.9585, 16.3662, 12.8361, 101.703, -79.3038
1.08756, -1, 16.9746, 20.8602, 16.405, 12.8385, 101.601, -79.5647
1.09644, -1, 16.7816, 20.762, 16.4438, 12.8408, 101.498, -79.825
1.10361, -1, 16.5885, 20.6638, 16.4826, 12.8432, 101.395, -80.0855
1.11202, -1, 16.3956, 20.5655, 16.5212, 12.8456, 101.293, -80.3461
1.12062, -1, 16.203, 20.4672, 16.56, 12.8478, 101.19, -80.6068
1.12777, -1, 16.0109, 20.3688, 16.5987, 12.8502, 101.087, -80.8672
1.13594, -1, 15.8191, 20.2703, 16.6375, 12.8525, 100.985, -81.1273
1.14476, -1, 15.6275, 20.1718, 16.6762, 12.8549, 100.882, -81.3872
1.15196, -1, 15.4362, 20.0735, 16.7147, 12.8572, 100.779, -81.6474
1.16008, -1, 15.245, 19.9753, 16.7535, 12.8595, 100.677, -81.9074
1.16905, -1, 15.0539, 19.877, 16.7923, 12.8618, 100.574, -82.1672
1.17623, -1, 14.8627, 19.7789, 16.8309, 12.8641, 100.472, -82.4272
1.18418, -1, 14.6713, 19.6807, 16.8696, 12.8664, 100.369, -82.6871
1.19299, -1, 14.4797, 19.5826, 16.9083, 12.8686, 100.267, -82.9471
1.20012, -1, 14.3838, 19.5336, 16.9276, 12.871, 100.164, -83.2067
1.2082, -1, 14.1915, 19.4355, 16.9663, 12.8721, 100.061, -83.4661
1.2171, -1, 13.9992, 19.3375, 17.0051, 12.8743, 99.9587, -83.7257
1.22261, -1, 13.8069, 19.2397, 17.0436, 12.8766, 99.9076, -83.8556
1.23259, -1, 13.5182, 19.0929, 17.1017, 12.8801, 99.7538, -84.2446
1.23956, -1, 13.422, 19.0439, 17.121, 12.8813, 99.7025, -84.3743
1.24764, -1, 13.23, 18.946, 17.1594, 12.8835, 99.6004, -84.6336
1.25565, -1, 13.0384, 18.8481, 17.198, 12.886, 99.4979, -84.8931
1.26355, -1, 12.8471, 18.7501, 17.2367, 12.8883, 99.3954, -85.1525
1.27157, -1, 12.6561, 18.6521, 17.2752, 12.8906, 99.2933, -85.4115
1.27959, -1, 12.4654, 18.5544, 17.3138, 12.8931, 99.1909, -85.6704
1.28755, -1, 12.2751, 18.4566, 17.3524, 12.8955, 99.0886, -85.9292
1.29567, -1, 12.085, 18.3589, 17.3908, 12.8979, 98.9867, -86.1883
1.30365, -1, 11.8946, 18.2613, 17.4295, 12.9003, 98.8845, -86.4471
1.31197, -1, 11.7041, 18.1636, 17.4681, 12.9027, 98.7826, -86.7057
1.31955, -1, 11.5133, 18.066, 17.5065, 12.9052, 98.6809, -86.9644
1.32755, -1, 11.3223, 17.9684, 17.5451, 12.9076, 98.5788, -87.2231
1.33656, -1, 11.131, 17.8708, 17.5837, 12.9101, 98.4769, -87.4814
1.34354, -1, 10.9396, 17.7734, 17.6222, 12.9126, 98.375, -87.7396
1.35254, -1, 10.748, 17.6759, 17.6606, 12.915, 98.273, -87.9978
1.36037, -1, 10.5565, 17.5784, 17.699, 12.9175, 98.1712, -88.2562
1.36654, -1, 10.3652, 17.4808, 17.7374, 12.9201, 98.0693, -88.5145
1.37567, -1, 10.1742, 17.3833, 17.7759, 12.9226, 97.9674, -88.7724
1.3844, -1, 9.98358, 17.2857, 17.8142, 12.9253, 97.8656, -89.0305
1.3926, -1, 9.79326, 17.1882, 17.8525, 12.9278, 97.7636, -89.2887
1.39955, -1, 9.60326, 17.0907, 17.8909, 12.9305, 97.6617, -89.5469
1.40834, -1, 9.41382, 16.9934, 17.9292, 12.9333, 97.5599, -89.8046
1.41559, -1, 9.22451, 16.896, 17.9675, 12.936, 97.4579, -90.0622
1.42355, -1, 9.03509, 16.7987, 18.0059, 12.9386, 97.356, -90.3198
1.43235, -1, 8.84563, 16.7015, 18.0442, 12.9413, 97.2544, -90.5774
1.43961, -1, 8.65611, 16.6044, 18.0826, 12.9439, 97.1527, -90.8348
1.44755, -1, 8.46648, 16.5072, 18.121, 12.9466, 97.0511, -91.0919
1.4564, -1, 8.27646, 16.4102, 18.1593, 12.9493, 96.9498, -91.349
1.46354, -1, 8.08608, 16.3133, 18.1976, 12.9519, 96.8481, -91.6063
1.47155, -1, 7.89561, 16.2164, 18.2359, 12.9546, 96.7466, -91.8635
1.48036, -1, 7.70515, 16.1195, 18.2741, 12.9573, 96.6452, -92.1202
1.48755, -1, 7.51461, 16.0225, 18.3125, 12.9598, 96.5436, -92.3769
1.49561, -1, 7.32435, 15.9256, 18.3507, 12.9624, 96.4423, -92.6336
1.50433, -1, 7.13437, 15.8287, 18.3888, 12.965, 96.341, -92.8905
1.51155, -1, 6.94469, 15.7316, 18.4271, 12.9676, 96.2396, -93.1469
1.51969, -1, 6.75546, 15.6348, 18.4653, 12.9701, 96.1386, -93.4033
1.52833, -1, 6.56675, 15.538, 18.5033, 12.9727, 96.0378, -93.6597
1.53564, -1, 6.37839, 15.4412, 18.5415, 12.9752, 95.9366, -93.9162
1.54384, -1, 6.19022, 15.3444, 18.5797, 12.9777, 95.8357, -94.1724
1.55249, -1, 6.002, 15.2477, 18.6178, 12.9801, 95.7348, -94.4283
1.55967, -1, 5.81357, 15.151, 18.656, 12.9825, 95.6338, -94.6841
1.56805, -1, 5.62518, 15.0544, 18.6941, 12.9848, 95.533, -94.9402
1.57649, -1, 5.4366, 14.9578, 18.7321, 12.9872, 95.4323, -95.196
1.58354, -1, 5.24769, 14.8613, 18.7703, 12.9894, 95.3316, -95.4515
1.59228, -1, 5.05839, 14.765, 18.8084, 12.9917, 95.2309, -95.707
1.60045, -1, 4.86906, 14.6686, 18.8464, 12.994, 95.1302, -95.9624
1.60759, -1, 4.67963, 14.5722, 18.8845, 12.9962, 95.0294, -96.218
1.61648, -1, 4.49025, 14.4758, 18.9226, 12.9984, 94.9288, -96.473
1.625, -1, 4.30123, 14.3794, 18.9606, 13.0006, 94.8279, -96.7279
1.63192, -1, 4.1124, 14.283, 18.9986, 13.0028, 94.727, -96.9829
1.64075, -1, 3.92401, 14.1867, 19.0365, 13.0051, 94.6263, -97.2381
1.64787, -1, 3.73624, 14.0905, 19.0745, 13.0074, 94.5254, -97.4929
1.65609, -1, 3.54885, 13.9942, 19.1124, 13.0097, 94.4247, -97.7476
1.66403, -1, 3.36178, 13.8981, 19.1503, 13.012, 94.3243, -98.0023
1.67207, -1, 3.17473, 13.8021, 19.1881, 13.0143, 94.2234, -98.2571
1.6804, -1, 2.98777, 13.7061, 19.2261, 13.0165, 94.1227, -98.5117
1.68815, -1, 2.80078, 13.61, 19.264, 13.0188, 94.0223, -98.7657
1.69615, -1, 2.61358, 13.514, 19.3019, 13.021, 93.9216, -99.0199
1.70253, -1, 2.51988, 13.466, 19.3209, 13.0222, 93.8714, -99.1469
1.71153, -1, 2.33248, 13.3701, 19.3586, 13.0244, 93.771, -99.4013
1.71958, -1, 2.14462, 13.2744, 19.3964, 13.0267, 93.6707, -99.6553
1.72759, -1, 1.95657, 13.1786, 19.4343, 13.0289, 93.5705, -99.9089
1.73559, -1, 1.76845, 13.0827, 19.4721, 13.0312, 93.4707, -100.163
1.74353, -1, 1.58025, 12.9869, 19.5098, 13.0334, 93.3706, -100.416
1.75158, -1, 1.3922, 12.8911, 19.5476, 13.0357, 93.2705, -100.67
1.75953, -1, 1.20445, 12.7952, 19.5853, 13.038, 93.1706, -100.923
1.76753, -1, 1.01706, 12.6995, 19.623, 13.0404, 93.0705, -101.176
1.77566, -1, 0.830272, 12.6039, 19.6608, 13.0427, 92.9705, -101.429
1.78353, -1, 0.643932, 12.5083, 19.6984, 13.0451, 92.8709, -101.682
1.79154, -1, 0.45795, 12.4129, 19.736, 13.0475, 92.7711, -101.935
1.79957, -1, 0.272196, 12.3175, 19.7737, 13.05, 92.6713, -102.188
1.80753, -1, 0.0867119, 12.2221, 19.8112, 13.0525, 92.5721, -102.44
1.81557, -1, -0.0986838, 12.1269, 19.8488, 13.0549, 92.4723, -102.693
1.8253, -1, -0.377248, 11.9841, 19.9053, 13.0586, 92.3231, -103.072
1.83155, -1, -0.470247, 11.9365, 19.924, 13.0598, 92.2734, -103.198
1.83952, -1, -0.656474, 11.8414, 19.9615, 13.0623, 92.1738, -103.45
1.84759, -1, -0.842909, 11.7465, 19.9991, 13.0647, 92.0743, -103.702
1.85658, -1, -1.02955, 11.6514, 20.0366, 13.0673, 91.9751, -103.954
1.86353, -1, -1.21637, 11.5563, 20.0741, 13.0698, 91.8757, -104.206
1.87165, -1, -1.40328, 11.4613, 20.1117, 13.0723, 91.7765, -104.457
1.87953, -1, -1.58997, 11.3661, 20.1491, 13.0749, 91.6774, -104.709
1.88757, -1, -1.77636, 11.271, 20.1865, 13.0775, 91.5781, -104.96
1.89559, -1, -1.9624, 11.176, 20.224, 13.0801, 91.479, -105.212
1.90353, -1, -2.14786, 11.0811, 20.2614, 13.0827, 91.3799, -105.462
1.91159, -1, -2.3328, 10.9861, 20.2987, 13.0853, 91.2806, -105.713
1.91953, -1, -2.51752, 10.8913, 20.3361, 13.088, 91.1815, -105.964
1.92754, -1, -2.70171, 10.7966, 20.3734, 13.0907, 91.0825, -106.215
1.93572, -1, -2.88561, 10.7018, 20.4107, 13.0934, 90.9834, -106.466
1.94354, -1, -3.06955, 10.6071, 20.4481, 13.096, 90.8844, -106.717
1.95153, -1, -3.25371, 10.5124, 20.4854, 13.0986, 90.7856, -106.967
1.95959, -1, -3.4382, 10.4179, 20.5226, 13.1012, 90.6866, -107.218
1.96753, -1, -3.62292, 10.3235, 20.5599, 13.1037, 90.5878, -107.468
1.97559, -1, -3.80779, 10.2292, 20.5972, 13.1062, 90.489, -107.718
1.98359, -1, -3.99301, 10.1347, 20.6344, 13.1087, 90.3903, -107.968
1.99158, -1, -4.17836, 10.0404, 20.6716, 13.1111, 90.2916, -108.218
1.99962, -1, -4.36401, 9.94613, 20.7088, 13.1135, 90.193, -108.468
2.00754, -1, -4.54943, 9.85178, 20.7461, 13.1159, 90.0945, -108.718
2.01564, -1, -4.73452, 9.75752, 20.7833, 13.1182, 89.996, -108.967
2.02365, -1, -4.91932, 9.6633, 20.8204, 13.1207, 89.8976, -109.217
2.03155, -1, -5.10351, 9.5693, 20.8574, 13.1231, 89.7991, -109.466
2.03967, -1, -5.28705, 9.47519, 20.8946, 13.1254, 89.7009, -109.715
2.04778, -1, -5.47023, 9.38122, 20.9317, 13.1277, 89.6024, -109.964
2.05569, -1, -5.65298, 9.28732, 20.9688, 13.13, 89.504, -110.213
2.06374, -1, -5.83536, 9.19342, 21.0059, 13.1323, 89.406, -110.462
2.07197, -1, -6.01775, 9.09953, 21.0428, 13.1346, 89.3077, -110.71
2.07963, -1, -6.20033, 9.00567, 21.0798, 13.1368, 89.2096, -110.959
2.0877, -1, -6.3831, 8.91198, 21.1169, 13.1391, 89.112, -111.207
2.09632, -1, -6.56609, 8.81834, 21.1537, 13.1412, 89.0139, -111.456
2.10358, -1, -6.74944, 8.72467, 21.1906, 13.1434, 88.9158, -111.704
2.11169, -1, -6.93314, 8.63105, 21.2276, 13.1455, 88.8181, -111.952
2.12046, -1, -7.11712, 8.53742, 21.2644, 13.1476, 88.72, -112.2
2.12768, -1, -7.30137, 8.44384, 21.3013, 13.1498, 88.6222, -112.447
2.13606, -1, -7.48535, 8.35018, 21.3382, 13.1519, 88.5247, -112.695
2.1447, -1, -7.66904, 8.25667, 21.375, 13.1541, 88.427, -112.943
2.15188, -1, -7.85227, 8.16326, 21.4118, 13.1562, 88.3295, -113.19
2.16008, -1, -8.03518, 8.06988, 21.4487, 13.1586, 88.2323, -113.437
2.16883, -1, -8.21748, 7.97658, 21.4855, 13.1608, 88.1348, -113.684
2.1761, -1, -8.39914, 7.88329, 21.5223, 13.163, 88.0373, -113.931
2.18426, -1, -8.58039, 7.79004, 21.5592, 13.1653, 87.9401, -114.178
2.19291, -1, -8.76127, 7.69689, 21.5959, 13.1676, 87.8427, -114.424
2.20011, -1, -8.85161, 7.60374, 21.6326, 13.1698, 87.7451, -114.671
2.20821, -1, -9.03235, 7.5572, 21.6694, 13.172, 87.648, -114.917
2.21701, -1, -9.21338, 7.46418, 21.6877, 13.1732, 87.5994, -115.164
2.22356, -1, -9.39463, 7.37136, 21.7244, 13.1754, 87.5022, -115.287
2.23158, -1, -9.57621, 7.27849, 21.7611, 13.1775, 87.4051, -115.533
2.23952, -1, -9.75811, 7.18566, 21.7978, 13.1798, 87.308, -115.779
2.24751, -1, -9.94045, 7.0929, 21.8343, 13.182, 87.2107, -116.025
2.25556, -1, -10.123, 7.00017, 21.8709, 13.1842, 87.1135, -116.271
2.26351, -1, -10.3056, 6.90738, 21.9076, 13.1865, 87.0164, -116.517
2.27156, -1, -10.4881, 6.81462, 21.9442, 13.1887, 86.9193, -116.762
2.27954, -1, -10.6704, 6.72191, 21.9808, 13.191, 86.8222, -117.008
2.28751, -1, -10.8522, 6.62937, 22.0172, 13.1933, 86.7254, -117.253
2.29562, -1, -11.0336, 6.53681, 22.0536, 13.1958, 86.6285, -117.498
2.30352, -1, -11.2141, 6.44431, 22.0903, 13.1981, 86.5319, -117.743
2.31151, -1, -11.3941, 6.35183, 22.1268, 13.2005, 86.4353, -117.988
2.31958, -1, -11.5737, 6.25939, 22.1632, 13.2029, 86.3385, -118.233
2.32751, -1, -11.753, 6.16696, 22.1998, 13.2055, 86.2419, -118.477
2.33557, -1, -11.9322, 6.07463, 22.2363, 13.208, 86.1453, -118.722
2.34451, -1, -12.1114, 5.98236, 22.2726, 13.2104, 86.0487, -118.966
2.35151, -1, -12.2909, 5.89026, 22.3091, 13.2129, 85.9523, -119.21
2.36052, -1, -12.4708, 5.79825, 22.3455, 13.2153, 85.856, -119.454
2.36757, -1, -12.651, 5.70622, 22.3817, 13.2178, 85.7597, -119.698
2.37557, -1, -12.8317, 5.61426, 22.4181, 13.2203, 85.6635, -119.942
2.38351, -1, -13.0126, 5.52241, 22.4544, 13.2227, 85.5677, -120.186
2.39157, -1, -13.1938, 5.43039, 22.4906, 13.2252, 85.4716, -120.43
2.40043, -1, -13.375, 5.33841, 22.5269, 13.2276, 85.3756, -120.673
2.40751, -1, -13.5559, 5.24653, 22.5632, 13.2301, 85.28, -120.917
2.41555, -1, -13.7363, 5.15468, 22.5993, 13.2327, 85.184, -121.16
2.4243, -1, -13.9162, 5.06283, 22.6355, 13.2352, 85.0882, -121.403
2.4315, -1, -14.0954, 4.97108, 22.6717, 13.2378, 84.9929, -121.646
2.43951, -1, -14.2739, 4.87934, 22.7077, 13.2403, 84.8971, -121.889
2.44832, -1, -14.452, 4.78767, 22.7438, 13.2429, 84.8016, -122.131
2.45554, -1, -14.6298, 4.69601, 22.7801, 13.2455, 84.7061, -122.374
2.4635, -1, -14.8074, 4.60445, 22.8162, 13.248, 84.6103, -122.616
2.47231, -1, -14.9851, 4.51294, 22.8522, 13.2505, 84.5145, -122.859
2.47951, -1, -15.1629, 4.42159, 22.8884, 13.2529, 84.419, -123.101
2.48758, -1, -15.3412, 4.33029, 22.9245, 13.2553, 84.3233, -123.342
2.49642, -1, -15.5198, 4.23896, 22.9605, 13.2577, 84.2275, -123.584
2.50351, -1, -15.6989, 4.14767, 22.9965, 13.2601, 84.1322, -123.826
2.51151, -1, -15.878, 4.05647, 23.0324, 13.2624, 84.0367, -124.068
2.52034, -1, -16.0574, 3.96523, 23.0684, 13.2646, 83.9411, -124.309
2.52754, -1, -16.2372, 3.87396, 23.1044, 13.2666, 83.846, -124.551
2.53559, -1, -16.4167, 3.78279, 23.1403, 13.2688, 83.7503, -124.792
2.5451, -1, -16.5961, 3.6916, 23.1761, 13.2711, 83.6548, -125.033
2.5516, -1, -16.7748, 3.6005, 23.212, 13.2733, 83.5597, -125.275
2.55971, -1, -16.9528, 3.50944, 23.2478, 13.2756, 83.464, -125.515
2.56793, -1, -17.13, 3.41844, 23.2836, 13.2778, 83.3688, -125.756
2.57565, -1, -17.3067, 3.32748, 23.3195, 13.2801, 83.2738, -125.997
2.58368, -1, -17.4831, 3.23661, 23.3553, 13.2821, 83.1786, -126.237
2.59211, -1, -17.6593, 3.14587, 23.3911, 13.2843, 83.0836, -126.478
2.5996, -1, -17.8353, 3.05523, 23.427, 13.2865, 82.989, -126.718
2.6076, -1, -18.0114, 2.96466, 23.4628, 13.2885, 82.8941, -126.958
2.61719, -1, -18.1877, 2.87429, 23.4985, 13.2907, 82.7993, -127.198
2.62363, -1, -18.3644, 2.78389, 23.5343, 13.2928, 82.7048, -127.438
2.63173, -1, -18.5416, 2.69345, 23.57, 13.2948, 82.61, -127.678
2.64128, -1, -18.7192, 2.60309, 23.6056, 13.2969, 82.5153, -127.917
2.64796, -1, -18.897, 2.51275, 23.6414, 13.2989, 82.421, -128.157
2.65595, -1, -19.0752, 2.42227, 23.6771, 13.3009, 82.3265, -128.397
2.66553, -1, -19.2535, 2.33185, 23.7126, 13.3029, 82.2321, -128.636
2.67204, -1, -19.4315, 2.24145, 23.7482, 13.3049, 82.138, -128.875
2.68006, -1, -19.6089, 2.15104, 23.7838, 13.3071, 82.0439, -129.114
2.68966, -1, -19.7856, 2.06069, 23.8191, 13.3093, 81.9496, -129.353
2.69631, -1, -19.9618, 1.97039, 23.8547, 13.3115, 81.8554, -129.592
2.70408, -1, -20.0496, 1.92525, 23.8903, 13.3136, 81.7615, -129.831
2.7128, -1, -20.2249, 1.83501, 23.908, 13.3147, 81.7144, -130.069
2.72012, -1, -20.3998, 1.74488, 23.9434, 13.3169, 81.6204, -130.188
2.72752, -1, -20.5744, 1.65483, 23.979, 13.3192, 81.5266, -130.426
2.73556, -1, -20.7488, 1.56486, 24.0145, 13.3213, 81.4325, -130.665
2.74354, -1, -20.9235, 1.475, 24.0499, 13.3235, 81.3388, -130.903
2.7515, -1, -21.0984, 1.38532, 24.0854, 13.3257, 81.2452, -131.14
2.75951, -1, -21.2738, 1.29555, 24.1209, 13.3279, 81.1513, -131.378
2.76755, -1, -21.4495, 1.20582, 24.1562, 13.3301, 81.0574, -131.616
2.77554, -1, -21.6255, 1.1162, 24.1915, 13.3323, 80.9636, -131.854
2.78352, -1, -21.8017, 1.02656, 24.227, 13.3344, 80.8698, -132.091
2.7915, -1, -21.978, 0.936927, 24.2624, 13.3366, 80.776, -132.329
2.79951, -1, -22.1546, 0.847336, 24.2977, 13.3387, 80.6824, -132.566
2.8075, -1, -22.3312, 0.757794, 24.3331, 13.3409, 80.5888, -132.803
2.81555, -1, -22.5072, 0.668332, 24.3682, 13.3432, 80.4952, -133.04
2.82356, -1, -22.6828, 0.578833, 24.4034, 13.3455, 80.4016, -133.277
2.8315, -1, -22.8579, 0.489381, 24.4387, 13.348, 80.3079, -133.514
2.8395, -1, -23.0319, 0.39996, 24.4739, 13.3504, 80.2144, -133.75
2.84913, -1, -23.2055, 0.310595, 24.509, 13.3529, 80.1209, -134.106
2.85555, -1, -23.3788, 0.221245, 24.5442, 13.3553, 80.0275, -134.224
2.86449, -1, -23.5519, 0.132011, 24.5794, 13.3577, 79.934, -134.46
2.87156, -1, -23.7251, 0.0428895, 24.6145, 13.36, 79.8407, -134.696
2.8795, -1, -23.8985, -0.046144, 24.6497, 13.3625, 79.7477, -134.932
2.8875, -1, -24.0719, -0.13508, 24.6848, 13.3649, 79.6544, -135.168
2.89566, -1, -24.2458, -0.224066, 24.7199, 13.3674, 79.5614, -135.404
2.90352, -1, -24.4199, -0.313002, 24.7551, 13.3698, 79.4686, -135.64
2.91156, -1, -24.5943, -0.401869, 24.7902, 13.3723, 79.3753, -135.875
2.9195, -1, -24.7691, -0.490778, 24.8252, 13.3747, 79.2823, -136.111
2.9275, -1, -24.9441, -0.579681, 24.8603, 13.377, 79.1895, -136.346
2.93561, -1, -25.1192, -0.668516, 24.8954, 13.3794, 79.0963, -136.581
2.94349, -1, -25.2939, -0.757289, 24.9303, 13.3818, 79.0035, -136.816
2.95153, -1, -25.4682, -0.846077, 24.9654, 13.3842, 78.911, -137.051
2.95956, -1, -25.6422, -0.934873, 25.0004, 13.3867, 78.8182, -137.287
2.96749, -1, -25.8155, -1.02354, 25.0351, 13.3892, 78.7254, -137.521
2.97556, -1, -25.9881, -1.11229, 25.0701, 13.3915, 78.6331, -137.756
2.98356, -1, -26.1604, -1.20096, 25.1051, 13.394, 78.5404, -137.99
2.99155, -1, -26.3322, -1.28952, 25.1399, 13.3964, 78.4479, -138.225
2.99951, -1, -26.504, -1.37801, 25.1748, 13.3987, 78.3554, -138.459
3.00756, -1, -26.6759, -1.46638, 25.2097, 13.401, 78.263, -138.694
3.01554, -1, -26.848, -1.55466, 25.2446, 13.4033, 78.1705, -138.928
3.02363, -1, -27.0204, -1.64284, 25.2794, 13.4056, 78.0781, -139.161
3.03153, -1, -27.1929, -1.73106, 25.3143, 13.4077, 77.9862, -139.395
3.0396, -1, -27.3655, -1.81927, 25.3491, 13.4099, 77.894, -139.629
3.04775, -1, -27.5386, -1.90729, 25.3838, 13.4121, 77.8019, -139.863
3.05562, -1, -27.7118, -1.99548, 25.4187, 13.4141, 77.71, -140.096
3.0637, -1, -27.8851, -2.08362, 25.4535, 13.4163, 77.6179, -140.329
3.07194, -1, -28.0585, -2.1716, 25.4882, 13.4183, 77.5258, -140.563
3.0796, -1, -28.2316, -2.25966, 25.5229, 13.4203, 77.4339, -140.796
3.0877, -1, -28.4046, -2.34777, 25.5577, 13.4224, 77.3418, -141.029
3.09628, -1, -28.5772, -2.43578, 25.5924, 13.4246, 77.2496, -141.262
3.10352, -1, -28.7494, -2.52372, 25.627, 13.4267, 77.1577, -141.495
3.11158, -1, -28.9207, -2.61175, 25.6617, 13.4289, 77.0657, -141.728
3.12047, -1, -29.0915, -2.69964, 25.6963, 13.4311, 76.9738, -141.96
3.12777, -1, -29.2621, -2.78746, 25.7308, 13.4331, 76.8821, -142.193
3.13572, -1, -29.4327, -2.87524, 25.7655, 13.4352, 76.7901, -142.425
3.14454, -1, -29.6035, -2.96285, 25.8002, 13.4373, 76.6983, -142.658
3.15195, -1, -29.7744, -3.05038, 25.8346, 13.4393, 76.6065, -142.89
3.15986, -1, -29.9455, -3.13788, 25.8693, 13.4414, 76.5147, -143.123
3.16797, -1, -30.1164, -3.22534, 25.9039, 13.4435, 76.423, -143.354
3.17627, -1, -30.2874, -3.3128, 25.9384, 13.4455, 76.3312, -143.586
3.18403, -1, -30.4587, -3.40019, 25.973, 13.4476, 76.2398, -143.818
3.19206, -1, -30.6304, -3.48772, 26.0074, 13.4496, 76.1482, -144.05
3.20015, -1, -30.8023, -3.57515, 26.0419, 13.4517, 76.0568, -144.282
3.20809, -1, -30.8883, -3.66251, 26.0765, 13.4536, 75.9657, -144.513
3.21619, -1, -31.0601, -3.74988, 26.111, 13.4557, 75.8741, -144.744
3.22349, -1, -31.2317, -3.79355, 26.1282, 13.4568, 75.8285, -144.86
3.23153, -1, -31.403, -3.88088, 26.1626, 13.4588, 75.7373, -145.091
3.23955, -1, -31.5739, -3.96815, 26.1971, 13.4609, 75.646, -145.322
3.24752, -1, -31.7444, -4.0554, 26.2315, 13.4631, 75.5547, -145.553
3.25553, -1, -31.9144, -4.14264, 26.2659, 13.4653, 75.4635, -145.784
3.26356, -1, -32.0841, -4.22983, 26.3003, 13.4675, 75.3726, -146.015
3.27148, -1, -32.2535, -4.31693, 26.3347, 13.4697, 75.2813, -146.246
3.27949, -1, -32.4229, -4.40399, 26.3689, 13.4719, 75.1903, -146.477
3.28889, -1, -32.6773, -4.5344, 26.4205, 13.4751, 75.0541, -146.822
3.2956, -1, -32.7621, -4.57785, 26.4377, 13.4761, 75.0086, -146.937
3.3035, -1, -32.9318, -4.66477, 26.472, 13.4783, 74.9178, -147.168
3.31153, -1, -33.1015, -4.75174, 26.5061, 13.4805, 74.8274, -147.398
3.31949, -1, -33.2713, -4.83859, 26.5405, 13.4827, 74.7366, -147.628
3.32757, -1, -33.4413, -4.92545, 26.5748, 13.4849, 74.6459, -147.858
3.33553, -1, -33.6117, -5.01248, 26.609, 13.4871, 74.5554, -148.088
3.34388, -1, -33.782, -5.09931, 26.6433, 13.4894, 74.4649, -148.318
3.35148, -1, -33.9522, -5.18606, 26.6775, 13.4916, 74.3744, -148.547
3.35949, -1, -34.1224, -5.27283, 26.7116, 13.4939, 74.2839, -148.777
3.36827, -1, -34.2925, -5.35958, 26.7458, 13.4961, 74.1934, -149.006
3.37552, -1, -34.4626, -5.44618, 26.7801, 13.4984, 74.1027, -149.236
3.38359, -1, -34.6322, -5.53284, 26.8142, 13.5008, 74.0121, -149.465
3.39161, -1, -34.8011, -5.6195, 26.8483, 13.5031, 73.9217, -149.694
3.39953, -1, -34.9697, -5.7061, 26.8825, 13.5056, 73.8311, -149.923
3.40752, -1, -35.1381, -5.79258, 26.9166, 13.5081, 73.7406, -150.152
3.4167, -1, -35.3062, -5.879, 26.9507, 13.5105, 73.6505, -150.381
3.42348, -1, -35.4746, -5.96529, 26.9849, 13.5129, 73.56, -150.61
3.43155, -1, -35.6432, -6.05152, 27.0189, 13.5152, 73.4696, -150.839
3.4395, -1, -35.8117, -6.13775, 27.0529, 13.5176, 73.3795, -151.067
3.4475, -1, -35.9802, -6.22388, 27.087, 13.52, 73.2889, -151.296
3.45561, -1, -36.1487, -6.31001, 27.1211, 13.5224, 73.1986, -151.524
3.46349, -1, -36.3173, -6.39619, 27.155, 13.5249, 73.1083, -151.753
3.47148, -1, -36.486, -6.48245, 27.1889, 13.5273, 73.0179, -151.981
3.47956, -1, -36.6549, -6.56864, 27.2229, 13.5296, 72.9277, -152.21
3.48751, -1, -36.8238, -6.65488, 27.2568, 13.5319, 72.8374, -152.438
3.49552, -1, -36.9928, -6.74097, 27.2907, 13.5341, 72.7475, -152.666
3.50355, -1, -37.1618, -6.82712, 27.3247, 13.5364, 72.6572, -152.894
3.5115, -1, -37.3305, -6.91321, 27.3586, 13.5387, 72.5674, -153.122
3.5195, -1, -37.4989, -6.99922, 27.3925, 13.5409, 72.4777, -153.349
3.52757, -1, -37.6668, -7.08526, 27.4265, 13.5432, 72.3877, -153.576
3.53555, -1, -37.8345, -7.1713, 27.4603, 13.5454, 72.2979, -153.804
3.54352, -1, -38.002, -7.25721, 27.4941, 13.5477, 72.2083, -154.032
3.55164, -1, -38.1694, -7.34314, 27.528, 13.5499, 72.1183, -154.259
3.55978, -1, -38.3367, -7.42896, 27.5619, 13.5521, 72.0287, -154.486
3.56764, -1, -38.504, -7.51467, 27.5957, 13.5542, 71.9392, -154.713
3.57571, -1, -38.6712, -7.60037, 27.6295, 13.5563, 71.8494, -154.94
3.58358, -1, -38.8386, -7.68611, 27.6634, 13.5583, 71.7599, -155.168
3.59155, -1, -39.0059, -7.77177, 27.6971, 13.5604, 71.6706, -155.395
3.59967, -1, -39.1733, -7.85734, 27.7309, 13.5625, 71.5814, -155.621
3.60753, -1, -39.3408, -7.94304, 27.7648, 13.5645, 71.4919, -155.848
3.61567, -1, -39.5083, -8.02868, 27.7985, 13.5665, 71.4024, -156.075
3.62368, -1, -39.6759, -8.11419, 27.832, 13.5684, 71.3134, -156.302
3.63162, -1, -39.8436, -8.19967, 27.8658, 13.5704, 71.2238, -156.528
3.6397, -1, -40.0112, -8.28515, 27.8995, 13.5723, 71.1344, -156.754
3.64787, -1, -40.1788, -8.37055, 27.9331, 13.5743, 71.0453, -156.981
3.65583, -1, -40.3462, -8.45591, 27.9669, 13.5763, 70.9558, -157.207
3.66401, -1, -40.5134, -8.54129, 28.0007, 13.5782, 70.8666, -157.433
3.67206, -1, -40.6804, -8.62666, 28.0342, 13.5802, 70.7775, -157.659
3.67999, -1, -40.8471, -8.71203, 28.0678, 13.5822, 70.6884, -157.885
3.68804, -1, -41.0135, -8.79738, 28.1016, 13.5843, 70.5992, -158.111
3.69614, -1, -41.1798, -8.88265, 28.1352, 13.5863, 70.5101, -158.337
3.70407, -1, -41.3459, -8.96786, 28.1687, 13.5883, 70.421, -158.563
3.71219, -1, -41.429, -9.01047, 28.1855, 13.5903, 70.3317, -158.788
3.72017, -1, -41.5954, -9.09568, 28.2192, 13.5923, 70.2425, -159.014
3.7281, -1, -41.7617, -9.18075, 28.2528, 13.5933, 70.1981, -159.126
3.73557, -1, -41.928, -9.26579, 28.2863, 13.5952, 70.109, -159.352
3.74354, -1, -42.0944, -9.35081, 28.32, 13.5973, 70.0201, -159.578
3.75148, -1, -42.2606, -9.43588, 28.3536, 13.5993, 69.9311, -159.803
3.75949, -1, -42.4268, -9.52088, 28.3871, 13.6014, 69.8423, -160.028
3.76747, -1, -42.5932, -9.60585, 28.4207, 13.6034, 69.7532, -160.253
3.77553, -1, -42.7597, -9.69079, 28.4542, 13.6054, 69.6643, -160.478
3.78352, -1, -42.9261, -9.77576, 28.4876, 13.6075, 69.5758, -160.703
3.7915, -1, -43.0926, -9.86068, 28.5211, 13.6095, 69.4867, -160.928
3.79948, -1, -43.2588, -9.94565, 28.5546, 13.6116, 69.3981, -161.153
3.80754, -1, -43.4249, -10.0306, 28.5881, 13.6136, 69.3096, -161.378
3.81553, -1, -43.5908, -10.1155, 28.6216, 13.6157, 69.2209, -161.603
3.82348, -1, -43.7567, -10.2005, 28.6551, 13.6178, 69.1324, -161.827
3.83305, -1, -43.9225, -10.3277, 28.7052, 13.6211, 68.9998, -162.164
3.83947, -1, -44.0881, -10.3701, 28.7219, 13.6222, 68.9555, -162.276
3.84748, -1, -44.2534, -10.4548, 28.7555, 13.6243, 68.8668, -162.5
3.85646, -1, -44.4186, -10.5393, 28.7889, 13.6265, 68.7781, -162.725
3.86347, -1, -44.5838, -10.6239, 28.8223, 13.6288, 68.6897, -162.949
3.87149, -1, -44.749, -10.7085, 28.8557, 13.6309, 68.6009, -163.173
3.87954, -1, -44.9143, -10.7929, 28.8892, 13.6331, 68.5124, -163.397
3.88747, -1, -45.0796, -10.8774, 28.9226, 13.6353, 68.4241, -163.621
3.89554, -1, -45.2449, -10.9619, 28.956, 13.6375, 68.3355, -163.845
3.90358, -1, -45.4103, -11.0464, 28.9895, 13.6397, 68.2472, -164.069
3.91147, -1, -45.5755, -11.1308, 29.0227, 13.642, 68.1591, -164.293
3.91947, -1, -45.7408, -11.2153, 29.056, 13.6443, 68.0707, -164.517
3.92754, -1, -45.9058, -11.2996, 29.0894, 13.6466, 67.9823, -164.74
3.93552, -1, -46.0687, -11.3828, 29.1229, 13.6489, 67.8938, -164.964
3.94347, -1, -46.2282, -11.4639, 29.1564, 13.6513, 67.8063, -165.186
3.95154, -1, -46.382, -11.5412, 29.19, 13.6537, 67.7196, -165.405
3.95949, -1, -46.5279, -11.6137, 29.2231, 13.656, 67.636, -165.616
3.96747, -1, -46.6637, -11.6805, 29.2543, 13.6583, 67.5578, -165.815
3.97561, -1, -46.7862, -11.7401, 29.2824, 13.6604, 67.4866, -165.994
3.98346, -1, -46.8931, -11.7926, 29.3068, 13.6623, 67.4251, -166.15
3.9915, -1, -46.9835, -11.8385, 29.3262, 13.6637, 67.3749, -166.277
3.99954, -1, -47.0581, -11.8784, 29.3399, 13.6647, 67.3359, -166.375
4.00747, -1, -47.1178, -11.9115, 29.349, 13.6653, 67.3077, -166.447
4.01552, -1, -47.163, -11.9372, 29.3544, 13.6656, 67.2889, -166.494
4.02365, -1, -47.1959, -11.9558, 29.3571, 13.6658, 67.2773, -166.523
4.03148, -1, -47.2185, -11.9683, 29.3583, 13.6659, 67.2709, -166.54
4.03951, -1, -47.2326, -11.976, 29.3589, 13.6659, 67.2675, -166.548
4.04755, 2, -47.2405, -11.9802, 29.3591, 13.666, 67.2659, -166.552
4.05561, 2, -47.2442, -11.9822, 29.3593, 13.666, 67.2651, -166.554
4.06356, 2, -47.2448, -11.983, 29.3594, 13.6661, 67.2648, -166.554
4.07168, 2, -47.2446, -11.9833, 29.3594, 13.6661, 67.2646, -166.555
4.0796, 2, -47.2445, -11.9834, 29.3595, 13.6661, 67.2645, -166.555
4.08758, 2, -47.2446, -11.9835, 29.3595, 13.6661, 67.2645, -166.555
4.0957, 2, -47.2453, -11.9837, 29.3595, 13.6661, 67.2645, -166.555
4.10354, 2, -47.2464, -11.984, 29.3596, 13.6661, 67.2645, -166.555
4.1115, 2, -47.248, -11.9847, 29.3596, 13.6661, 67.2645, -166.555
4.11957, 2, -47.2497, -11.9855, 29.3596, 13.6661, 67.2645, -166.555
4.12755, 2, -47.2512, -11.9864, 29.3595, 13.6661, 67.2645, -166.555
4.136, 2, -47.2524, -11.9871, 29.3595, 13.666, 67.2645, -166.555
4.144, 2, -47.253, -11.9877, 29.3595, 13.6661, 67.2645, -166.555
4.15176, 2, -47.2533, -11.988, 29.3596, 13.6661, 67.2645, -166.555
4.16012, 2, -47.2535, -11.9881, 29.3595, 13.6661, 67.2645, -166.555
4.16793, 2, -47.2534, -11.9881, 29.3596, 13.666, 67.2645, -166.555
4.17599, 2, -47.2529, -11.9881, 29.3596, 13.666, 67.2645, -166.555
4.18428, 2, -47.2524, -11.9881, 29.3596, 13.666, 67.2645, -166.555
4.19209, 2, -47.252, -11.988, 29.3596, 13.666, 67.2645, -166.555
4.20004, 2, -47.2518, -11.988, 29.3596, 13.6661, 67.2645, -166.555
4.2083, 2, -47.2517, -11.9881, 29.3596, 13.6661, 67.2645, -166.555
4.21618, 2, -47.2517, -11.9882, 29.3596, 13.666, 67.2645, -166.555
4.22396, 2, -47.2518, -11.9883, 29.3596, 13.6661, 67.2645, -166.555
4.23233, 2, -47.2523, -11.9887, 29.3596, 13.6661, 67.2645, -166.555
4.23955, 2, -47.2526, -11.9889, 29.3596, 13.6661, 67.2645, -166.555
4.24746, 2, -47.2532, -11.9892, 29.3596, 13.666, 67.2645, -166.555
4.25631, 2, -47.2536, -11.9894, 29.3596, 13.666, 67.2646, -166.555
4.26351, 2, -47.2537, -11.9895, 29.3596, 13.666, 67.2645, -166.555
4.27146, 2, -47.2537, -11.9895, 29.3596, 13.666, 67.2645, -166.555
4.27946, 2, -47.2536, -11.9895, 29.3596, 13.666, 67.2645, -166.555
4.28751, 2, -47.2534, -11.9895, 29.3596, 13.6661, 67.2645, -166.555
4.29553, 2, -47.2529, -11.9894, 29.3596, 13.6661, 67.2645, -166.555
4.30345, 2, -47.2526, -11.9893, 29.3596, 13.666, 67.2645, -166.555
4.31153, 2, -47.2523, -11.9894, 29.3596, 13.666, 67.2645, -166.555
4.31945, 2, -47.2521, -11.9894, 29.3596, 13.666, 67.2645, -166.555
4.32746, 2, -47.252, -11.9894, 29.3596, 13.666, 67.2645, -166.555
4.33558, 2, -47.252, -11.9894, 29.3596, 13.666, 67.2645, -166.555
4.34346, 2, -47.252, -11.9895, 29.3596, 13.666, 67.2645, -166.555
4.35146, 2, -47.252, -11.9896, 29.3596, 13.666, 67.2645, -166.555
4.35952, 2, -47.252, -11.9896, 29.3596, 13.666, 67.2645, -166.555
4.36851, 2, -47.2521, -11.9896, 29.3596, 13.666, 67.2645, -166.555
4.37553, 2, -47.2521, -11.9896, 29.3596, 13.6661, 67.2646, -166.555
4.38352, 2, -47.2521, -11.9895, 29.3596, 13.666, 67.2646, -166.555
4.39148, 2, -47.2521, -11.9895, 29.3596, 13.666, 67.2646, -166.555
4.39946, 2, -47.252, -11.9894, 29.3596, 13.666, 67.2646, -166.555
4.40757, 2, -47.2519, -11.9894, 29.3596, 13.666, 67.2646, -166.555
4.41551, 2, -47.2517, -11.9893, 29.3596, 13.666, 67.2645, -166.555
4.42346, 2, -47.2516, -11.9893, 29.3596, 13.666, 67.2646, -166.555
4.43153, 2, -47.2515, -11.9893, 29.3596, 13.666, 67.2646, -166.555
4.43945, 2, -47.2514, -11.9894, 29.3596, 13.666, 67.2646, -166.555
4.44747, 2, -47.2513, -11.9894, 29.3596, 13.666, 67.2646, -166.555
4.45557, 2, -47.2513, -11.9894, 29.3596, 13.6659, 67.2646, -166.555
4.46347, 2, -47.2512, -11.9894, 29.3596, 13.666, 67.2646, -166.555
4.47146, 2, -47.2512, -11.9894, 29.3596, 13.666, 67.2646, -166.555
4.47954, 2, -47.2512, -11.9894, 29.3596, 13.666, 67.2646, -166.555
4.48745, 2, -47.2511, -11.9894, 29.3596, 13.666, 67.2646, -166.555
4.4955, 2, -47.251, -11.9893, 29.3596, 13.666, 67.2647, -166.555
4.50352, 2, -47.2509, -11.9893, 29.3596, 13.666, 67.2646, -166.555
4.51146, 2, -47.2509, -11.9892, 29.3596, 13.666, 67.2646, -166.555
4.51945, 2, -47.2508, -11.9892, 29.3596, 13.666, 67.2646, -166.555
4.52752, 2, -47.2507, -11.9891, 29.3596, 13.666, 67.2646, -166.555
4.53551, 2, -47.2506, -11.9891, 29.3596, 13.666, 67.2646, -166.555
4.5435, 2, -47.2505, -11.9891, 29.3596, 13.666, 67.2646, -166.555
4.55159, 2, -47.2504, -11.9892, 29.3596, 13.666, 67.2647, -166.555
4.55954, 2, -47.2503, -11.9892, 29.3595, 13.6659, 67.2647, -166.555
4.56754, 2, -47.2502, -11.9892, 29.3596, 13.6659, 67.2646, -166.555
4.5757, 2, -47.2502, -11.9892, 29.3596, 13.666, 67.2646, -166.555
4.58356, 2, -47.25, -11.9891, 29.3596, 13.6659, 67.2646, -166.555
4.59156, 2, -47.2499, -11.9891, 29.3596, 13.6659, 67.2646, -166.555
4.59963, 2, -47.2498, -11.9891, 29.3596, 13.6659, 67.2646, -166.555
4.60746, 2, -47.2497, -11.989, 29.3596, 13.6659, 67.2647, -166.555
4.61554, 2, -47.2495, -11.9889, 29.3596, 13.6659, 67.2647, -166.555
4.62358, 2, -47.2495, -11.9889, 29.3596, 13.6659, 67.2647, -166.555
4.6317, 2, -47.2494, -11.9888, 29.3596, 13.6659, 67.2647, -166.555
4.63958, 2, -47.2493, -11.9888, 29.3596, 13.6659, 67.2647, -166.555
4.64781, 2, -47.2492, -11.9888, 29.3596, 13.6659, 67.2647, -166.555
4.6558, 2, -47.2491, -11.9888, 29.3596, 13.6659, 67.2647, -166.555
4.66378, 2, -47.249, -11.9888, 29.3596, 13.6659, 67.2647, -166.555
4.67201, 2, -47.249, -11.9888, 29.3596, 13.6659, 67.2647, -166.555
4.68065, 2, -47.249, -11.9888, 29.3596, 13.6659, 67.2647, -166.555
4.68799, 2, -47.2489, -11.9888, 29.3596, 13.6659, 67.2647, -166.555
4.69653, 2, -47.2489, -11.9888, 29.3596, 13.6659, 67.2647, -166.555
4.70401, 2, -47.2488, -11.9887, 29.3596, 13.6659, 67.2647, -166.555
4.71204, 2, -47.2487, -11.9886, 29.3596, 13.6658, 67.2647, -166.555
4.72015, 2, -47.2487, -11.9886, 29.3596, 13.6658, 67.2647, -166.555
4.72832, 2, -47.2486, -11.9886, 29.3596, 13.6658, 67.2647, -166.555
4.7355, 2, -47.2485, -11.9885, 29.3596, 13.6658, 67.2647, -166.555
4.74354, 2, -47.2484, -11.9885, 29.3596, 13.6658, 67.2647, -166.555
4.75145, 2, -47.2484, -11.9885, 29.3596, 13.6658, 67.2647, -166.555
4.75945, 2, -47.2484, -11.9885, 29.3596, 13.6658, 67.2647, -166.555
4.76749, 2, -47.2484, -11.9885, 29.3596, 13.6658, 67.2648, -166.555
4.7755, 2, -47.2483, -11.9885, 29.3596, 13.6658, 67.2648, -166.554
4.78344, 2, -47.2483, -11.9885, 29.3596, 13.6658, 67.2648, -166.554
4.79288, 2, -47.2482, -11.9885, 29.3596, 13.6657, 67.2648, -166.554
4.79946, 2, -47.2482, -11.9885, 29.3596, 13.6657, 67.2648, -166.554
4.80744, 2, -47.2482, -11.9884, 29.3596, 13.6657, 67.2648, -166.554
4.81716, 2, -47.2481, -11.9883, 29.3595, 13.6657, 67.2648, -166.554
4.82344, 2, -47.2481, -11.9883, 29.3595, 13.6657, 67.2648, -166.554
4.83145, 2, -47.248, -11.9882, 29.3596, 13.6657, 67.2648, -166.554
4.83949, 2, -47.2479, -11.9882, 29.3596, 13.6656, 67.2648, -166.554
4.84744, 2, -47.2478, -11.9882, 29.3596, 13.6656, 67.2648, -166.554
4.8555, 2, -47.2477, -11.9882, 29.3595, 13.6656, 67.2648, -166.554
4.86443, 2, -47.2477, -11.9882, 29.3595, 13.6656, 67.2648, -166.554
4.87144, 2, -47.2477, -11.9882, 29.3596, 13.6656, 67.2648, -166.554
4.87944, 2, -47.2476, -11.9882, 29.3596, 13.6656, 67.2648, -166.554
4.88751, 2, -47.2476, -11.9882, 29.3595, 13.6656, 67.2648, -166.554
4.89549, 2, -47.2476, -11.9881, 29.3595, 13.6656, 67.2648, -166.554
4.90344, 2, -47.2476, -11.9881, 29.3596, 13.6656, 67.2648, -166.554
4.91163, 2, -47.2475, -11.9881, 29.3596, 13.6656, 67.2648, -166.554
4.91944, 2, -47.2475, -11.988, 29.3596, 13.6656, 67.2648, -166.554
4.92744, 2, -47.2474, -11.9879, 29.3596, 13.6656, 67.2648, -166.554
4.93558, 2, -47.2474, -11.9879, 29.3595, 13.6656, 67.2648, -166.554
4.94344, 2, -47.2473, -11.9879, 29.3595, 13.6655, 67.2648, -166.554
4.95145, 2, -47.2472, -11.9879, 29.3595, 13.6655, 67.2649, -166.554
4.95951, 2, -47.2471, -11.9878, 29.3595, 13.6655, 67.2649, -166.554
4.96745, 2, -47.2471, -11.9878, 29.3595, 13.6655, 67.265, -166.554
4.9755, 2, -47.247, -11.9878, 29.3595, 13.6654, 67.265, -166.554
4.98352, 2, -47.247, -11.9878, 29.3595, 13.6654, 67.265, -166.554
4.99146, 2, -47.247, -11.9878, 29.3596, 13.6654, 67.265, -166.554
4.99944, 2, -47.2469, -11.9878, 29.3596, 13.6654, 67.2651, -166.554
5.00751, 2, -47.2469, -11.9878, 29.3596, 13.6654, 67.2651, -166.554
5.0155, 2, -47.2469, -11.9877, 29.3596, 13.6654, 67.2651, -166.554
5.02344, 2, -47.2469, -11.9877, 29.3596, 13.6654, 67.2651, -166.554
5.03152, 2, -47.2468, -11.9876, 29.3596, 13.6653, 67.2651, -166.554
5.03944, 2, -47.2467, -11.9875, 29.3596, 13.6653, 67.2651, -166.554
5.04768, 2, -47.2466, -11.9875, 29.3596, 13.6654, 67.2651, -166.554
5.05642, 2, -47.2465, -11.9875, 29.3596, 13.6654, 67.2651, -166.554
5.06353, 2, -47.2465, -11.9875, 29.3596, 13.6654, 67.2651, -166.554
5.07157, 2, -47.2464, -11.9875, 29.3595, 13.6654, 67.2651, -166.554
5.07965, 2, -47.2464, -11.9875, 29.3595, 13.6653, 67.2651, -166.554
5.08755, 2, -47.2464, -11.9875, 29.3595, 13.6652, 67.2651, -166.554
5.09559, 2, -47.2464, -11.9875, 29.3595, 13.6652, 67.2651, -166.554
5.10361, 2, -47.2464, -11.9874, 29.3595, 13.6652, 67.2651, -166.554
5.1118, 2, -47.2463, -11.9874, 29.3595, 13.6652, 67.2651, -166.554
5.11947, 4, -47.2463, -11.9874, 29.3595, 13.6652, 67.2652, -166.554
5.12754, 4, -47.2463, -11.9873, 29.3595, 13.6652, 67.2652, -166.554
5.13608, 4, -47.2462, -11.9873, 29.3595, 13.6651, 67.2651, -166.554
5.14361, 4, -47.2461, -11.9872, 29.3595, 13.6651, 67.2651, -166.554
5.15175, 4, -47.2461, -11.9872, 29.3595, 13.6651, 67.2651, -166.554
5.1601, 4, -47.246, -11.9872, 29.3595, 13.6652, 67.2652, -166.554
5.16779, 4, -47.246, -11.9872, 29.3595, 13.6651, 67.2652, -166.554
5.17597, 4, -47.2459, -11.9872, 29.3595, 13.6651, 67.2652, -166.554
5.18464, 4, -47.2459, -11.9872, 29.3596, 13.6651, 67.2652, -166.554
5.19194, 4, -47.2458, -11.9872, 29.3596, 13.6651, 67.2652, -166.554
5.20054, 4, -47.2458, -11.9872, 29.3595, 13.6651, 67.2652, -166.554
5.20843, 4, -47.2458, -11.9871, 29.3595, 13.6651, 67.2653, -166.554
5.21628, 4, -47.2458, -11.9871, 29.3595, 13.6651, 67.2652, -166.554
5.23088, 4, -47.2458, -11.987, 29.3595, 13.665, 67.2652, -166.554
5.23388, 4, -47.2457, -11.987, 29.3595, 13.6651, 67.2652, -166.554
5.24029, 4, -47.2457, -11.987, 29.3595, 13.665, 67.2653, -166.554
5.24829, 4, -47.2456, -11.987, 29.3595, 13.665, 67.2652, -166.554
5.25635, 4, -47.2456, -11.9869, 29.3595, 13.665, 67.2652, -166.554
5.26357, 4, -47.2455, -11.9869, 29.3595, 13.6651, 67.2652, -166.554
5.27679, 4, -47.2454, -11.9869, 29.3595, 13.665, 67.2653, -166.553
5.28123, 4, -47.2454, -11.9869, 29.3595, 13.665, 67.2653, -166.553
5.28764, 4, -47.2454, -11.9869, 29.3595, 13.665, 67.2653, -166.554
5.29564, 4, -47.2454, -11.9869, 29.3595, 13.665, 67.2653, -166.554
5.30624, 4, -47.2453, -11.9868, 29.3595, 13.6649, 67.2652, -166.553
5.31164, 4, -47.2453, -11.9868, 29.3595, 13.6649, 67.2653, -166.553
5.32154, 4, -47.2453, -11.9868, 29.3595, 13.665, 67.2653, -166.553
5.32924, 4, -47.2452, -11.9868, 29.3595, 13.6649, 67.2652, -166.553
5.33564, 4, -47.2452, -11.9867, 29.3595, 13.6649, 67.2652, -166.553
5.34659, 4, -47.2452, -11.9867, 29.3595, 13.6649, 67.2653, -166.553
5.3517, 4, -47.2451, -11.9867, 29.3595, 13.6649, 67.2652, -166.553
5.35963, 4, -47.2451, -11.9867, 29.3595, 13.6649, 67.2653, -166.553
5.3676, 4, -47.245, -11.9866, 29.3595, 13.6649, 67.2653, -166.553
5.37571, 4, -47.245, -11.9866, 29.3595, 13.6649, 67.2653, -166.553
5.38537, 4, -47.2451, -11.9867, 29.3596, 13.6648, 67.2653, -166.553
5.3948, 4, -47.247, -11.9878, 29.3606, 13.6654, 67.2656, -166.553
5.40203, 4, -47.2501, -11.9907, 29.3639, 13.6701, 67.2669, -166.553
5.40944, 4, -47.2525, -11.9934, 29.3673, 13.6765, 67.2684, -166.552
5.4157, 4, -47.2598, -12.0023, 29.3799, 13.7016, 67.2748, -166.548
5.42423, 4, -47.2715, -12.0175, 29.4046, 13.7506, 67.2884, -166.537
5.43463, 5, -47.3019, -12.058, 29.4772, 13.9013, 67.3308, -166.503
5.44186, 5, -47.3166, -12.0772, 29.5141, 13.979, 67.3527, -166.464
5.44764, 5, -47.3542, -12.1255, 29.6117, 14.1867, 67.4099, -166.438
5.45868, 5, -47.4042, -12.1881, 29.7443, 14.4728, 67.4891, -166.332
5.46682, 5, -47.5031, -12.3103, 30.0137, 15.0597, 67.6477, -166.238
5.47159, 5, -47.5423, -12.3587, 30.1229, 15.2965, 67.7113, -166.184
5.48225, 5, -47.6298, -12.4662, 30.3683, 15.8255, 67.8519, -166.064
5.4876, 5, -47.7281, -12.5869, 30.6461, 16.4169, 68.0074, -165.931
5.49662, 5, -47.8354, -12.719, 30.9516, 17.0556, 68.1725, -165.789
5.50359, 5, -47.9497, -12.8604, 31.2777, 17.7269, 68.3434, -165.642
5.51165, 5, -48.0687, -13.0085, 31.6188, 18.4155, 68.5153, -165.493
5.52244, 5, -48.1901, -13.1602, 31.9677, 19.1106, 68.6858, -165.345
5.52921, 5, -48.3116, -13.3117, 32.3202, 19.8017, 68.8527, -165.198
5.53663, 5, -48.4301, -13.4597, 32.6719, 20.4783, 69.0153, -165.051
5.54493, 5, -48.5413, -13.6018, 33.0175, 21.1309, 69.1749, -164.894
5.5522, 6, -48.6406, -13.735, 33.3511, 21.7473, 69.3335, -164.717
5.55965, 6, -48.7234, -13.8581, 33.6683, 22.3196, 69.4935, -164.506
5.56968, 7, -48.7861, -13.9725, 33.9659, 22.8434, 69.6574, -164.246
5.57573, 7, -48.8268, -14.0792, 34.2438, 23.318, 69.8272, -163.927
5.5846, 8, -48.8452, -14.1773, 34.5023, 23.7491, 70.0049, -163.54
5.59536, 8, -48.8362, -14.3068, 34.8618, 24.3341, 70.2893, -162.833
5.60039, 8, -48.825, -14.3457, 34.976, 24.5175, 70.389, -162.566
5.60924, 9, -48.7922, -14.419, 35.1979, 24.8749, 70.5961, -161.997
5.61655, 9, -48.748, -14.4879, 35.415, 25.2261, 70.8124, -161.389
5.62456, 10, -48.6943, -14.5541, 35.6305, 25.5767, 71.0372, -160.759
5.63448, 10, -48.6316, -14.6186, 35.845, 25.9298, 71.2683, -160.116
5.64653, 11, -48.5243, -14.7129, 36.1662, 26.4665, 71.6216, -159.149
5.64936, 11, -48.486, -14.744, 36.2731, 26.6481, 71.7402, -158.828
5.65704, 12, -48.4078, -14.806, 36.4848, 27.0157, 71.9785, -158.186
5.66417, 12, -48.3284, -14.8673, 36.6941, 27.3906, 72.2183, -157.542
5.67341, 13, -48.2485, -14.9269, 36.902, 27.7737, 72.4605, -156.896
5.68225, 13, -48.1678, -14.985, 37.1078, 28.1644, 72.7052, -156.245
5.68914, 14, -48.0849, -15.0431, 37.3118, 28.5619, 72.9524, -155.591
5.69738, 14, -47.9991, -15.1025, 37.5155, 28.9643, 73.2013, -154.934
5.70488, 15, -47.9097, -15.1624, 37.7179, 29.369, 73.4501, -154.28
5.71221, 15, -47.8155, -15.2216, 37.9182, 29.774, 73.6973, -153.629
5.72044, 16, -47.7153, -15.2802, 38.1172, 30.1768, 73.941, -152.981
5.73225, 16, -47.608, -15.3398, 38.4113, 30.7749, 74.2981, -152.022
5.73674, 17, -47.4944, -15.4017, 38.5075, 30.9723, 74.4145, -151.705
5.74727, 17, -47.3755, -15.4654, 38.6977, 31.3636, 74.6427, -151.075
5.75223, 18, -47.3141, -15.4976, 38.7918, 31.5577, 74.7546, -150.763
5.75955, 18, -47.1878, -15.5626, 38.9781, 31.9432, 74.9742, -150.143
5.7683, 19, -47.056, -15.6294, 39.1612, 32.3258, 75.1884, -149.531
5.77861, 19, -46.848, -15.7352, 39.4325, 32.8972, 75.5009, -148.625
5.78366, 20, -46.7759, -15.7716, 39.5225, 33.0871, 75.603, -148.326
5.79321, 20, -46.553, -15.8827, 39.7893, 33.6557, 75.9029, -147.441
5.79957, 21, -46.4767, -15.9204, 39.877, 33.845, 76.0008, -147.149
5.80938, 21, -46.3214, -15.9971, 40.0512, 34.4117, 76.2888, -146.282
5.81558, 22, -46.1624, -16.0755, 40.2238, 34.6002, 76.3828, -145.996
5.82357, 22, -45.9992, -16.1554, 40.3938, 34.9761, 76.5679, -145.43
5.83591, 23, -45.7444, -16.2785, 40.643, 35.5355, 76.8381, -144.589
5.83954, 23, -45.6561, -16.3206, 40.7247, 35.7203, 76.9257, -144.312
5.85095, 24, -45.4737, -16.4067, 40.8856, 36.0864, 77.0973, -143.487
5.85727, 24, -45.2836, -16.4951, 41.0418, 36.4457, 77.3422, -142.944
5.86567, 25, -44.9846, -16.6303, 41.2677, 36.9683, 77.4962, -142.406
5.87253, 25, -44.8815, -16.6756, 41.3408, 37.1377, 77.5704, -142.139
5.87954, 26, -44.6703, -16.7667, 41.4835, 37.4693, 77.7134, -141.609
5.88763, 26, -44.4521, -16.8589, 41.6212, 37.7918, 77.8503, -141.083
5.89601, 27, -44.2265, -16.952, 41.7536, 38.1066, 77.9827, -140.559
5.90601, 29, -43.8757, -17.092, 41.9414, 38.5652, 78.1746, -139.775
5.92974, 29, -43.2571, -17.3189, 42.2223, 39.2948, 78.544, -138.209
5.93176, 29, -43.1283, -17.3629, 42.2733, 39.4354, 78.544, -138.209
5.93496, 29, -42.998, -17.4065, 42.3225, 39.574, 78.6037, -137.947
5.93858, 30, -42.866, -17.4493, 42.3699, 39.7106, 78.6626, -137.686
5.95485, 31, -42.319, -17.6139, 42.5413, 40.2368, 78.893, -136.642
5.95696, 31, -42.319, -17.6139, 42.5413, 40.2368, 78.893, -136.642
5.96057, 31, -42.1773, -17.6534, 42.5796, 40.3629, 78.9488, -136.381
5.96799, 31, -41.8881, -17.7308, 42.651, 40.6088, 79.0583, -135.86
5.97816, 32, -41.5917, -17.8059, 42.7155, 40.8459, 79.1648, -135.339
5.98723, 32, -41.2886, -17.8781, 42.7994, 41.185, 79.3182, -134.561
5.99167, 33, -40.9787, -17.9474, 42.8238, 41.2939, 79.368, -134.303
6.00103, 33, -40.6618, -18.0138, 42.8672, 41.5054, 79.4651, -133.786
6.00756, 34, -40.3385, -18.0777, 42.9034, 41.7087, 79.5594, -133.27
6.01685, 34, -40.0104, -18.1393, 42.9324, 41.904, 79.6513, -132.755
6.02459, 35, -39.6773, -18.1979, 42.9542, 42.0916, 79.741, -132.242
6.03179, 35, -39.3383, -18.2532, 42.969, 42.272, 79.8281, -131.73
6.0434, 36, -38.8167, -18.3297, 42.9783, 42.5281, 79.9553, -130.963
6.04786, 36, -38.6393, -18.3535, 42.9781, 42.6096, 79.9969, -130.708
6.05561, 37, -38.28, -18.3986, 42.9726, 42.7671, 80.0778, -130.2
6.06454, 37, -37.9151, -18.4399, 42.9603, 42.917, 80.1573, -129.693
6.07166, 38, -37.545, -18.4775, 42.9412, 43.0597, 80.2342, -129.188
6.08005, 38, -37.1703, -18.5118, 42.9156, 43.1948, 80.3095, -128.684
6.09107, 39, -36.7909, -18.5566, 42.8644, 43.3837, 80.4176, -127.931
6.09628, 39, -36.407, -18.5696, 42.844, 43.443, 80.453, -127.681
6.10493, 40, -36.0174, -18.593, 42.7982, 43.5562, 80.5219, -127.183
6.11223, 40, -35.6217, -18.6124, 42.746, 43.6623, 80.5894, -126.687
6.11979, 41, -35.2201, -18.6279, 42.6871, 43.7609, 80.6543, -126.192
6.12851, 41, -34.8132, -18.64, 42.6219, 43.8524, 80.7176, -125.7
6.13662, 42, -34.4025, -18.6485, 42.5501, 43.9369, 80.779, -125.21
6.14391, 42, -33.9889, -18.654, 42.4721, 44.0143, 80.8379, -124.722
6.15459, 43, -33.5721, -18.6562, 42.3879, 44.0843, 80.8961, -124.237
6.16169, 43, -33.1506, -18.6551, 42.2979, 44.1477, 80.9515, -123.753
6.16819, 44, -32.7231, -18.6502, 42.2021, 44.2036, 81.006, -123.273
6.1766, 44, -32.289, -18.6415, 42.1006, 44.252, 81.0588, -122.795
6.18423, 45, -31.8489, -18.629, 41.9932, 44.2937, 81.1093, -122.319
6.19239, 45, -31.4043, -18.6129, 41.8797, 44.3278, 81.1591, -121.845
6.20036, 46, -30.9571, -18.5934, 41.7602, 44.3541, 81.2067, -121.373
6.20846, 46, -30.5082, -18.5704, 41.635, 44.3724, 81.252, -120.905
6.2163, 47, -30.0558, -18.5432, 41.5039, 44.3834, 81.297, -120.438
6.22423, 47, -29.5979, -18.5115, 41.3669, 44.3877, 81.3408, -119.973
6.23441, 48, -29.1332, -18.4755, 41.2238, 44.3843, 81.3829, -119.51
6.24024, 48, -28.8986, -18.4559, 41.0745, 44.3718, 81.4245, -119.049
6.25064, 49, -28.1874, -18.3904, 40.9194, 44.3509, 81.4664, -118.59
6.25633, 49, -27.9489, -18.3664, 40.8396, 44.337, 81.487, -118.132
6.26573, 50, -27.2296, -18.2874, 40.5906, 44.28, 81.5478, -117.674
6.27754, 51, -26.4997, -18.1962, 40.3269, 44.2032, 81.611, -116.99
6.27952, 51, -26.4997, -18.1962, 40.3269, 44.2032, 81.611, -116.99
6.28756, 51, -26.0038, -18.1285, 40.143, 44.1391, 81.6533, -116.536
6.29818, 52, -25.2475, -18.0165, 39.8532, 44.0252, 81.718, -115.855
6.30353, 52, -24.9937, -17.9766, 39.7531, 43.9818, 81.7403, -115.628
6.31306, 53, -24.229, -17.848, 39.4436, 43.8367, 81.8076, -114.949
6.31955, 53, -23.9724, -17.8021, 39.3366, 43.7832, 81.8303, -114.723
6.32761, 54, -23.4546, -17.7055, 39.1165, 43.6682, 81.878, -114.271
6.33563, 54, -22.9288, -17.6027, 38.8894, 43.5421, 81.9279, -113.819
6.34361, 55, -22.3951, -17.4938, 38.6548, 43.4046, 81.9794, -113.367
6.3516, 55, -21.8565, -17.3786, 38.4122, 43.2553, 82.0345, -112.914
6.35956, 56, -21.3156, -17.2574, 38.1634, 43.0943, 82.091, -112.462
6.36761, 56, -20.7716, -17.1306, 37.9078, 42.9221, 82.1486, -112.01
6.37558, 57, -20.2208, -16.9981, 37.6454, 42.7386, 82.2086, -111.559
6.38701, 57, -19.6604, -16.86, 37.377, 42.4416, 82.3001, -110.884
6.39156, 58, -19.092, -16.7159, 37.1017, 42.3364, 82.3319, -110.658
6.40233, 58, -18.2322, -16.4887, 36.6775, 42.0018, 82.429, -109.984
6.40761, 59, -17.9446, -16.4104, 36.5325, 41.8841, 82.463, -109.759
6.41554, 59, -17.3655, -16.2507, 36.2378, 41.639, 82.5325, -109.309
6.42454, 60, -16.7776, -16.0867, 35.9368, 41.3812, 82.6041, -108.86
6.43501, 60, -15.8783, -15.8303, 35.4758, 40.971, 82.7145, -108.186
6.43956, 61, -15.5759, -15.7422, 35.3196, 40.8278, 82.752, -107.961
6.45062, 62, -14.6648, -15.4716, 34.8433, 40.3798, 82.867, -107.289
6.45564, 62, -14.359, -15.3794, 34.6819, 40.224, 82.9066, -107.065
6.46837, 63, -13.4284, -15.0955, 34.1908, 39.7376, 83.0279, -106.392
6.47154, 63, -13.1131, -14.9975, 34.0245, 39.5689, 83.0698, -106.167
6.48313, 64, -12.1569, -14.6939, 33.5176, 39.0422, 83.1995, -105.493
6.48755, 64, -11.8359, -14.5896, 33.3454, 38.8597, 83.2446, -105.267
6.49842, 64, -11.1898, -14.3759, 32.996, 38.2889, 83.3871, -104.588
6.50356, 65, -10.5336, -14.1549, 32.6393, 38.0901, 83.4376, -104.361
6.51161, 65, -9.86567, -13.9271, 32.2761, 37.6782, 83.5436, -103.904
6.52094, 66, -9.18769, -13.6924, 31.9071, 37.2467, 83.6562, -103.445
6.52879, 66, -8.50318, -13.45, 31.5325, 36.7965, 83.7757, -102.985
6.54126, 67, -7.81322, -13.2007, 30.9582, 36.0866, 83.9675, -102.29
6.54402, 67, -7.11426, -12.9445, 30.764, 35.8417, 84.035, -102.057
6.5538, 68, -6.4066, -12.6808, 30.373, 35.3408, 84.1744, -101.59
6.55962, 68, -5.69328, -12.4117, 29.9792, 34.8277, 84.3197, -101.122
6.57085, 69, -4.97601, -12.137, 29.5825, 34.3035, 84.4701, -100.417
6.576, 69, -4.25329, -11.856, 29.184, 33.7702, 84.6249, -100.181
6.58568, 70, -3.52328, -11.5684, 28.7864, 33.2279, 84.7838, -99.7082
6.59181, 70, -2.78647, -11.2722, 28.3898, 32.6745, 84.9471, -99.2345
6.60059, 71, -2.04342, -10.9685, 27.9924, 32.109, 85.1161, -98.7603
6.60838, 71, -1.29333, -10.6585, 27.5929, 31.5289, 85.2935, -98.2843
6.61766, 72, -0.53719, -10.343, 27.1907, 30.9321, 85.4805, -97.8059
6.6244, 72, 0.224147, -10.0223, 26.7859, 30.318, 85.6771, -97.3253
6.63252, 73, 0.98978, -9.6943, 26.379, 29.6917, 85.8827, -96.8429
6.64054, 73, 1.75999, -9.35951, 25.9714, 29.0538, 86.0961, -96.3592
6.64787, 74, 2.53382, -9.01865, 25.5655, 28.4078, 86.3174, -95.874
6.66091, 74, 3.69886, -8.49688, 24.9644, 27.4259, 86.6614, -95.1432
6.66423, 75, 4.08814, -8.31937, 24.7665, 27.0961, 86.779, -94.899
6.67618, 76, 5.26003, -7.77814, 24.1799, 26.1046, 87.1404, -94.1648
6.68249, 76, 5.65155, -7.59477, 23.9867, 25.7732, 87.2638, -93.919
6.68902, 76, 6.43554, -7.22412, 23.6045, 25.109, 87.5153, -93.4257
6.69642, 77, 7.21997, -6.8464, 23.2262, 24.4454, 87.7741, -92.9308
6.71518, 77, 8.79534, -6.06253, 22.4788, 23.1101, 88.3212, -91.9347
6.71782, 78, 9.19018, -5.86057, 22.2942, 22.7728, 88.4654, -91.6837
6.72904, 79, 10.3768, -5.24267, 21.7438, 21.7501, 88.9192, -90.9244
6.73043, 79, 10.3768, -5.24267, 21.7438, 21.7501, 88.9192, -90.9244
6.7365, 79, 11.1685, -4.82166, 21.3802, 21.062, 89.2391, -90.4112
6.74335, 80, 11.5638, -4.60747, 21.1995, 20.7167, 89.4034, -90.1527
6.75243, 80, 12.7426, -3.94866, 20.6651, 19.6818, 89.9119, -89.3675
6.7594, 81, 13.1322, -3.72455, 20.4895, 19.3403, 90.0859, -89.1025
6.76739, 81, 13.9072, -3.2717, 20.1437, 18.666, 90.4392, -88.5688
6.77549, 82, 14.6755, -2.81265, 19.8062, 18.0065, 90.798, -88.0309
6.7847, 82, 15.8127, -2.10907, 19.3203, 17.0486, 91.343, -87.2197
6.79136, 83, 16.1864, -1.87083, 19.1633, 16.7386, 91.5265, -86.9482
6.79955, 83, 16.9243, -1.39048, 18.8571, 16.1338, 91.8961, -86.4043
6.80758, 84, 17.6488, -0.905149, 18.56, 15.548, 92.2703, -85.8602
6.81541, 84, 18.3577, -0.416119, 18.2721, 14.9819, 92.6499, -85.3181
6.82522, 85, 19.3879, 0.324337, 17.8533, 14.1705, 93.2322, -84.5076
6.83146, 85, 19.7217, 0.573712, 17.7167, 13.91, 93.4303, -84.2388
6.83938, 85, 20.3751, 1.07589, 17.4486, 13.4038, 93.8321, -83.7033
6.84896, 86, 21.0108, 1.58222, 17.0578, 12.6817, 94.4457, -82.9052
6.85725, 86, 21.6317, 2.09403, 16.931, 12.2248, 94.8619, -82.3735
6.86338, 87, 22.2394, 2.61377, 16.6818, 12.0035, 95.0724, -82.107
6.87237, 87, 22.8361, 3.14343, 16.4369, 11.5748, 95.4986, -81.5714
6.87939, 87, 23.4231, 3.68145, 16.1959, 11.1633, 95.9319, -81.0316
6.88837, 88, 23.9998, 4.22486, 15.9573, 10.7672, 96.372, -80.4841
6.89551, 88, 24.5656, 4.77582, 15.7223, 10.387, 96.8183, -79.9272
6.90338, 89, 25.121, 5.33837, 15.4934, 10.0221, 97.2706, -79.3596
6.91138, 89, 25.6691, 5.91312, 15.2691, 9.67405, 97.7275, -78.7805
6.91945, 90, 26.214, 6.49878, 15.0495, 9.34155, 98.1886, -78.1877
6.92743, 90, 26.7526, 7.09436, 14.8358, 9.02524, 98.6545, -77.5802
6.93545, 91, 27.2801, 7.6995, 14.628, 8.72616, 99.1263, -76.9587
6.94345, 91, 27.7953, 8.3149, 14.4245, 8.44446, 99.6048, -76.3244
6.95144, 92, 28.3016, 8.93992, 14.2245, 8.18257, 100.09, -75.6771
6.9594, 92, 28.8014, 9.57413, 14.028, 7.94066, 100.581, -75.0195
6.96751, 93, 29.2927, 10.217, 13.8356, 7.71994, 101.077, -74.3543
6.97538, 93, 29.7723, 10.8678, 13.6489, 7.52128, 101.574, -73.6806
6.9834, 94, 30.2378, 11.5246, 13.4692, 7.34577, 102.071, -73
6.99155, 94, 30.6887, 12.1856, 13.296, 7.19377, 102.567, -72.3146
6.9994, 95, 31.1261, 12.8498, 13.1297, 7.06546, 103.059, -71.6241
7.0074, 95, 31.55, 13.5161, 12.9713, 6.96105, 103.548, -70.9274
7.0155, 96, 31.9595, 14.1844, 12.8199, 6.87963, 104.034, -70.2255
7.02338, 96, 32.3523, 14.853, 12.6742, 6.82296, 104.516, -69.519
7.03138, 97, 32.7279, 15.5206, 12.5348, 6.78785, 104.994, -68.806
7.03952, 97, 33.0874, 16.1851, 12.4027, 6.7733, 105.465, -68.0899
7.04837, 98, 33.4321, 16.8456, 12.2795, 6.78039, 105.929, -67.3739
7.05547, 98, 33.7624, 17.4995, 12.1658, 6.80838, 106.381, -66.6571
7.06389, 99, 34.0779, 18.145, 12.0624, 6.85547, 106.819, -65.9436
7.07237, 99, 34.3803, 18.7812, 11.9694, 6.92289, 107.242, -65.2359
7.07952, 100, 34.6713, 19.4078, 11.8867, 7.00734, 107.649, -64.5331
7.08751, 100, 34.9504, 20.0239, 11.8135, 7.10899, 108.041, -63.8374
7.09551, 101, 35.2158, 20.6273, 11.7484, 7.2258, 108.417, -63.1512
7.10356, 101, 35.4674, 21.2174, 11.6906, 7.35588, 108.778, -62.473
7.11138, 101, 35.7059, 21.7928, 11.6404, 7.49692, 109.125, -61.8055
7.11939, 102, 35.9316, 22.3533, 11.5973, 7.64658, 109.458, -61.1507
7.1275, 102, 36.1453, 22.8994, 11.5612, 7.80284, 109.775, -60.5097
7.13544, 103, 36.35, 23.4302, 11.5323, 7.96451, 110.077, -59.8825
7.14353, 103, 36.5484, 23.9464, 11.5115, 8.13204, 110.363, -59.2695
7.15163, 104, 36.7417, 24.4494, 11.4992, 8.306, 110.632, -58.6709
7.16043, 104, 36.9299, 24.9395, 11.4941, 8.48806, 110.884, -58.0824
7.16772, 104, 37.1138, 25.4166, 11.4952, 8.67917, 111.117, -57.503
7.17579, 104, 37.2915, 25.881, 11.5022, 8.87939, 111.331, -56.9312
7.18383, 104, 37.4592, 26.3317, 11.5138, 9.08796, 111.529, -56.367
7.19252, 104, 37.6171, 26.7689, 11.5284, 9.30351, 111.713, -55.8102
7.19995, 104, 37.7687, 27.1939, 11.5457, 9.52297, 111.883, -55.264
7.20854, 104, 37.918, 27.6058, 11.565, 9.74386, 112.044, -54.7321
7.21597, 104, 38.0657, 28.0039, 11.5851, 9.96315, 112.197, -54.2184
7.22447, 104, 38.2103, 28.3878, 11.6052, 10.179, 112.342, -53.7238
7.23197, 104, 38.2809, 28.5746, 11.6151, 10.2852, 112.479, -53.2515
7.23937, 104, 38.4177, 28.9373, 11.634, 10.4927, 112.545, -53.024
7.24742, 104, 38.5477, 29.2834, 11.6521, 10.6931, 112.67, -52.5866
7.25537, 104, 38.6701, 29.6123, 11.6693, 10.8855, 112.789, -52.1746
7.26348, 104, 38.7845, 29.922, 11.6852, 11.0691, 112.9, -51.7871
7.27137, 104, 38.891, 30.2135, 11.7, 11.2433, 113.002, -51.4245
7.27937, 104, 38.9899, 30.486, 11.7138, 11.4077, 113.098, -51.0872
7.28742, 104, 39.0809, 30.7387, 11.7264, 11.5614, 113.186, -50.7753
7.29539, 104, 39.1637, 30.9721, 11.7377, 11.7042, 113.267, -50.4885
7.30338, 104, 39.2382, 31.1858, 11.748, 11.8357, 113.34, -50.2272
7.31142, 104, 39.3042, 31.3792, 11.7577, 11.9556, 113.406, -49.991
7.31938, 104, 39.3625, 31.5534, 11.7663, 12.0636, 113.465, -49.78
7.32891, 104, 39.4369, 31.7783, 11.7772, 12.203, 113.54, -49.5106
7.33714, 104, 39.4787, 31.9049, 11.7837, 12.2806, 113.581, -49.362
7.34337, 104, 39.4974, 31.9616, 11.7867, 12.3146, 113.6, -49.2964
7.35296, 104, 39.5301, 32.1066, 11.7947, 12.4002, 113.644, -49.1347
7.35942, 104, 39.557, 32.1469, 11.7971, 12.4225, 113.656, -49.0914
7.3691, 104, 39.579, 32.2167, 11.8034, 12.4748, 113.683, -48.9912
7.37537, 104, 39.5967, 32.2736, 11.8053, 12.488, 113.689, -48.9667
7.38344, 104, 39.6105, 32.3191, 11.809, 12.5087, 113.699, -48.9287
7.39136, 104, 39.6213, 32.3542, 11.8122, 12.5231, 113.706, -48.9029
7.39937, 104, 39.6294, 32.3804, 11.8151, 12.5327, 113.71, -48.8865
7.40743, 104, 39.635, 32.3999, 11.8177, 12.5387, 113.712, -48.877
7.41536, 104, 39.6384, 32.4139, 11.8197, 12.5419, 113.713, -48.8721
7.42338, 104, 39.6404, 32.4231, 11.8212, 12.5435, 113.714, -48.8699
7.43145, 105, 39.6412, 32.4289, 11.8224, 12.5443, 113.714, -48.8689
7.43938, 105, 39.6413, 32.4326, 11.8233, 12.5447, 113.714, -48.8686
7.44737, 105, 39.6405, 32.4352, 11.8242, 12.5449, 113.714, -48.8685
7.45543, 105, 39.6395, 32.437, 11.8249, 12.5451, 113.714, -48.8686
7.46339, 105, 39.6382, 32.4384, 11.8255, 12.5452, 113.714, -48.8687
7.47136, 105, 39.6369, 32.4397, 11.826, 12.5452, 113.714, -48.8688
7.47943, 105, 39.6359, 32.4409, 11.8265, 12.5452, 113.714, -48.8692
7.48739, 105, 39.6353, 32.4421, 11.8271, 12.5453, 113.715, -48.8694
7.49537, 105, 39.6349, 32.4432, 11.8277, 12.5452, 113.714, -48.8697
7.50347, 105, 39.6346, 32.4443, 11.8283, 12.5452, 113.714, -48.87
7.51136, 105, 39.6344, 32.4452, 11.8288, 12.5452, 113.714, -48.8703
7.51936, 105, 39.6341, 32.4459, 11.8292, 12.5452, 113.714, -48.8704
7.52743, 105, 39.6339, 32.4464, 11.8295, 12.5452, 113.714, -48.8706
7.53536, 105, 39.6336, 32.4467, 11.8297, 12.5452, 113.714, -48.8708
7.54338, 105, 39.6333, 32.4469, 11.83, 12.5452, 113.714, -48.871
