hehonglu123/Motion-Primitive-Planning/simulation/robotstudio_sim/scripts/fitting_output/movej/curve_exe_v50_fine.csv
timestamp, cmd_num, J1, J2, J3, J4, J5, J6
0, 1, -0.913123, 64.054, 9.02799, 44.079, -95.9522, 169.293
0.002, 1, -0.913123, 64.054, 9.02799, 44.079, -95.9522, 169.293
0.004, 1, -0.913123, 64.054, 9.02799, 44.079, -95.9522, 169.293
0.008, 1, -0.913123, 64.054, 9.02799, 44.079, -95.9522, 169.293
0.011, 1, -0.913123, 64.054, 9.02799, 44.079, -95.9522, 169.293
0.016, 1, -0.913123, 64.054, 9.02799, 44.079, -95.9522, 169.293
0.02, 1, -0.913123, 64.054, 9.02799, 44.079, -95.9522, 169.293
0.024, 1, -0.913123, 64.054, 9.02799, 44.079, -95.9522, 169.293
0.028, 1, -0.913123, 64.054, 9.02799, 44.079, -95.9522, 169.293
0.032, 1, -0.913123, 64.054, 9.02799, 44.079, -95.9522, 169.293
0.036, 1, -0.913114, 64.054, 9.02799, 44.079, -95.9522, 169.293
0.04, 1, -0.91305, 64.054, 9.028, 44.079, -95.9522, 169.293
0.044, 1, -0.912828, 64.0539, 9.028, 44.079, -95.9522, 169.293
0.048, 1, -0.912302, 64.0538, 9.02802, 44.0791, -95.9522, 169.293
0.052, 1, -0.91133, 64.0535, 9.02805, 44.0791, -95.9522, 169.293
0.056, 1, -0.909803, 64.053, 9.02808, 44.0792, -95.9521, 169.293
0.06, 1, -0.907647, 64.0522, 9.0281, 44.0794, -95.9519, 169.292
0.064, 1, -0.904811, 64.0512, 9.02806, 44.0799, -95.9515, 169.291
0.068, 1, -0.901261, 64.0497, 9.02791, 44.0807, -95.9508, 169.289
0.072, 1, -0.896948, 64.0479, 9.0276, 44.082, -95.9498, 169.286
0.076, 1, -0.891774, 64.0455, 9.02704, 44.084, -95.9481, 169.281
0.08, 1, -0.885582, 64.0426, 9.02614, 44.0869, -95.9457, 169.275
0.084, 1, -0.878171, 64.0391, 9.02477, 44.091, -95.9422, 169.265
0.088, 1, -0.86934, 64.0348, 9.02281, 44.0966, -95.9375, 169.252
0.092, 1, -0.858929, 64.0297, 9.02011, 44.1041, -95.9313, 169.235
0.096, 1, -0.846831, 64.0238, 9.01649, 44.1137, -95.9232, 169.212
0.1, 1, -0.832962, 64.017, 9.01177, 44.1259, -95.913, 169.184
0.104, 1, -0.817219, 64.0093, 9.00578, 44.141, -95.9002, 169.149
0.108, 1, -0.799471, 64.0006, 8.99834, 44.1595, -95.8846, 169.106
0.112, 1, -0.779587, 63.9909, 8.9893, 44.1817, -95.866, 169.054
0.116, 1, -0.757483, 63.9802, 8.97849, 44.2079, -95.8439, 168.994
0.12, 1, -0.73314, 63.9686, 8.9658, 44.2383, -95.8183, 168.923
0.124, 1, -0.706584, 63.9562, 8.95109, 44.2733, -95.7888, 168.842
0.128, 1, -0.677863, 63.9432, 8.93429, 44.313, -95.7553, 168.751
0.131, 1, -0.647025, 63.9297, 8.91534, 44.3574, -95.7178, 168.648
0.136, 1, -0.614108, 63.9156, 8.89423, 44.4066, -95.6763, 168.534
0.139, 1, -0.579115, 63.9009, 8.87101, 44.4606, -95.6308, 168.41
0.144, 1, -0.542009, 63.8855, 8.84574, 44.519, -95.5815, 168.274
0.148, 1, -0.502752, 63.8693, 8.81855, 44.5818, -95.5285, 168.129
0.152, 1, -0.46136, 63.8521, 8.78959, 44.6486, -95.4721, 167.975
0.156, 1, -0.417928, 63.8339, 8.759, 44.7191, -95.4126, 167.812
0.16, 1, -0.37259, 63.8149, 8.72696, 44.7929, -95.3503, 167.642
0.164, 1, -0.325468, 63.795, 8.69365, 44.8696, -95.2856, 167.464
0.168, 1, -0.276642, 63.7742, 8.65926, 44.9488, -95.2188, 167.281
0.172, 1, -0.226181, 63.7527, 8.624, 45.0302, -95.1501, 167.093
0.176, 1, -0.174178, 63.7303, 8.58804, 45.1132, -95.08, 166.902
0.18, 1, -0.120765, 63.7071, 8.55154, 45.1976, -95.0088, 166.706
0.184, 1, -0.0660817, 63.6833, 8.51465, 45.2831, -94.9367, 166.509
0.188, 1, -0.010276, 63.6588, 8.47747, 45.3694, -94.8639, 166.309
0.192, 1, 0.0464957, 63.6339, 8.44009, 45.4563, -94.7906, 166.109
0.196, 1, 0.104075, 63.6085, 8.40258, 45.5436, -94.7169, 165.907
0.2, 1, 0.162329, 63.5827, 8.36498, 45.6312, -94.643, 165.704
0.204, 1, 0.221168, 63.5568, 8.32732, 45.719, -94.569, 165.501
0.208, 1, 0.280514, 63.5306, 8.28965, 45.8069, -94.4948, 165.298
0.212, 1, 0.340275, 63.5043, 8.25196, 45.8949, -94.4206, 165.095
0.216, 1, 0.400345, 63.4779, 8.21427, 45.9829, -94.3463, 164.891
0.22, 1, 0.460622, 63.4514, 8.17659, 46.0709, -94.2721, 164.688
0.224, 1, 0.521029, 63.4249, 8.13892, 46.1589, -94.1979, 164.484
0.228, 1, 0.581512, 63.3984, 8.10127, 46.2469, -94.1236, 164.281
0.232, 1, 0.642037, 63.3719, 8.06364, 46.3348, -94.0494, 164.077
0.236, 1, 0.702579, 63.3453, 8.02602, 46.4228, -93.9753, 163.874
0.24, 1, 0.76312, 63.3188, 7.98843, 46.5106, -93.9012, 163.671
0.244, 1, 0.82365, 63.2923, 7.95085, 46.5984, -93.8271, 163.468
0.248, 1, 0.884161, 63.2657, 7.9133, 46.6862, -93.753, 163.265
0.252, 1, 0.944648, 63.2392, 7.87577, 46.774, -93.679, 163.062
0.256, 1, 1.00511, 63.2127, 7.83826, 46.8616, -93.6051, 162.859
0.26, 1, 1.06553, 63.1863, 7.80077, 46.9493, -93.5312, 162.657
0.264, 1, 1.12593, 63.1598, 7.7633, 47.0368, -93.4573, 162.454
0.268, 1, 1.18629, 63.1333, 7.72585, 47.1244, -93.3835, 162.252
0.272, 1, 1.24662, 63.1069, 7.68843, 47.2118, -93.3097, 162.05
0.276, 1, 1.30691, 63.0805, 7.65103, 47.2993, -93.2359, 161.847
0.28, 1, 1.36717, 63.0541, 7.61365, 47.3866, -93.1622, 161.645
0.284, 1, 1.42739, 63.0277, 7.57629, 47.4739, -93.0886, 161.444
0.288, 1, 1.48758, 63.0013, 7.53896, 47.5612, -93.015, 161.242
0.292, 1, 1.54773, 62.975, 7.50165, 47.6484, -92.9414, 161.04
0.296, 1, 1.60785, 62.9486, 7.46436, 47.7356, -92.8679, 160.839
0.3, 1, 1.66792, 62.9223, 7.42709, 47.8227, -92.7944, 160.637
0.304, 1, 1.72796, 62.896, 7.38985, 47.9097, -92.721, 160.436
0.308, 1, 1.78797, 62.8697, 7.35263, 47.9967, -92.6476, 160.235
0.312, 1, 1.84793, 62.8434, 7.31543, 48.0837, -92.5743, 160.034
0.316, 1, 1.90786, 62.8172, 7.27826, 48.1706, -92.501, 159.833
0.32, 1, 1.96776, 62.7909, 7.24111, 48.2574, -92.4277, 159.632
0.324, 1, 2.02761, 62.7647, 7.20398, 48.3442, -92.3545, 159.431
0.328, 1, 2.08743, 62.7385, 7.16688, 48.4309, -92.2814, 159.231
0.332, 1, 2.14721, 62.7123, 7.1298, 48.5176, -92.2083, 159.03
0.336, 1, 2.20695, 62.6861, 7.09274, 48.6042, -92.1352, 158.83
0.34, 1, 2.26665, 62.6599, 7.05571, 48.6908, -92.0622, 158.63
0.344, 1, 2.32632, 62.6338, 7.0187, 48.7773, -91.9892, 158.43
0.348, 1, 2.38594, 62.6077, 6.98171, 48.8637, -91.9163, 158.23
0.352, 1, 2.44553, 62.5816, 6.94475, 48.9501, -91.8434, 158.03
0.356, 1, 2.50508, 62.5555, 6.90781, 49.0365, -91.7706, 157.831
0.36, 1, 2.56459, 62.5294, 6.87089, 49.1228, -91.6978, 157.631
0.364, 1, 2.62407, 62.5033, 6.834, 49.209, -91.625, 157.432
0.368, 1, 2.6835, 62.4773, 6.79714, 49.2952, -91.5523, 157.233
0.372, 1, 2.74289, 62.4513, 6.76029, 49.3813, -91.4797, 157.033
0.376, 1, 2.80225, 62.4253, 6.72348, 49.4673, -91.4071, 156.834
0.38, 1, 2.86157, 62.3993, 6.68668, 49.5533, -91.3346, 156.636
0.384, 1, 2.92084, 62.3733, 6.64991, 49.6393, -91.2621, 156.437
0.388, 1, 2.98008, 62.3473, 6.61317, 49.7252, -91.1896, 156.238
0.392, 1, 3.03928, 62.3214, 6.57645, 49.811, -91.1172, 156.04
0.396, 1, 3.09844, 62.2955, 6.53975, 49.8968, -91.0449, 155.841
0.4, 1, 3.15756, 62.2696, 6.50308, 49.9825, -90.9726, 155.643
0.404, 1, 3.21663, 62.2437, 6.46643, 50.0681, -90.9003, 155.445
0.408, 1, 3.27567, 62.2178, 6.42981, 50.1537, -90.8281, 155.247
0.412, 1, 3.33467, 62.192, 6.39321, 50.2393, -90.756, 155.049
0.416, 1, 3.39363, 62.1661, 6.35664, 50.3248, -90.6838, 154.852
0.42, 1, 3.45255, 62.1403, 6.32009, 50.4102, -90.6118, 154.654
0.424, 1, 3.51142, 62.1145, 6.28357, 50.4956, -90.5398, 154.457
0.428, 1, 3.57026, 62.0887, 6.24708, 50.5809, -90.4678, 154.26
0.432, 1, 3.62906, 62.063, 6.21061, 50.6661, -90.3959, 154.063
0.436, 1, 3.68781, 62.0372, 6.17416, 50.7513, -90.324, 153.866
0.44, 1, 3.74653, 62.0115, 6.13774, 50.8364, -90.2522, 153.669
0.444, 1, 3.8052, 61.9858, 6.10135, 50.9215, -90.1805, 153.472
0.448, 1, 3.86383, 61.9601, 6.06498, 51.0065, -90.1088, 153.276
0.452, 1, 3.92242, 61.9344, 6.02863, 51.0915, -90.0371, 153.079
0.456, 1, 3.98097, 61.9088, 5.99232, 51.1763, -89.9655, 152.883
0.46, 1, 4.03947, 61.8831, 5.95602, 51.2612, -89.894, 152.687
0.464, 1, 4.09794, 61.8575, 5.91976, 51.3459, -89.8225, 152.491
0.468, 1, 4.15636, 61.8319, 5.88352, 51.4307, -89.751, 152.295
0.472, 1, 4.21475, 61.8063, 5.84731, 51.5153, -89.6796, 152.099
0.476, 1, 4.27308, 61.7808, 5.81112, 51.5999, -89.6083, 151.904
0.48, 1, 4.33138, 61.7552, 5.77496, 51.6844, -89.537, 151.708
0.484, 1, 4.38964, 61.7297, 5.73882, 51.7689, -89.4657, 151.513
0.488, 1, 4.44785, 61.7042, 5.70271, 51.8533, -89.3945, 151.318
0.492, 1, 4.50602, 61.6787, 5.66663, 51.9376, -89.3234, 151.123
0.496, 1, 4.56415, 61.6532, 5.63057, 52.0219, -89.2523, 150.928
0.5, 1, 4.62223, 61.6278, 5.59455, 52.1061, -89.1812, 150.733
0.504, 1, 4.68028, 61.6023, 5.55854, 52.1903, -89.1103, 150.538
0.508, 1, 4.73828, 61.5769, 5.52257, 52.2743, -89.0393, 150.344
0.512, 1, 4.79623, 61.5515, 5.48662, 52.3584, -88.9684, 150.15
0.516, 1, 4.85415, 61.5262, 5.45069, 52.4423, -88.8976, 149.956
0.52, 1, 4.91202, 61.5008, 5.4148, 52.5262, -88.8268, 149.762
0.524, 1, 4.96984, 61.4755, 5.37893, 52.6101, -88.7561, 149.568
0.528, 1, 5.02763, 61.4501, 5.34309, 52.6939, -88.6855, 149.374
0.532, 1, 5.08537, 61.4248, 5.30727, 52.7776, -88.6148, 149.18
0.536, 1, 5.14307, 61.3996, 5.27148, 52.8612, -88.5443, 148.987
0.54, 1, 5.20072, 61.3743, 5.23572, 52.9448, -88.4738, 148.794
0.544, 1, 5.25833, 61.3491, 5.19999, 53.0283, -88.4033, 148.601
0.548, 1, 5.3159, 61.3238, 5.16428, 53.1118, -88.3329, 148.408
0.552, 1, 5.37342, 61.2986, 5.1286, 53.1952, -88.2626, 148.215
0.556, 1, 5.4309, 61.2734, 5.09294, 53.2785, -88.1923, 148.022
0.56, 1, 5.48833, 61.2483, 5.05732, 53.3618, -88.122, 147.83
0.564, 1, 5.54572, 61.2231, 5.02172, 53.445, -88.0518, 147.637
0.568, 1, 5.60307, 61.198, 4.98615, 53.5282, -87.9817, 147.445
0.572, 1, 5.66037, 61.1729, 4.95061, 53.6112, -87.9116, 147.253
0.576, 1, 5.71763, 61.1478, 4.91509, 53.6943, -87.8416, 147.061
0.58, 1, 5.77484, 61.1227, 4.8796, 53.7772, -87.7716, 146.869
0.584, 1, 5.83201, 61.0977, 4.84414, 53.8601, -87.7017, 146.677
0.588, 1, 5.88913, 61.0727, 4.80871, 53.9429, -87.6318, 146.486
0.592, 1, 5.94621, 61.0476, 4.7733, 54.0257, -87.562, 146.295
0.596, 1, 6.00325, 61.0227, 4.73793, 54.1084, -87.4923, 146.103
0.6, 1, 6.06024, 60.9977, 4.70258, 54.191, -87.4226, 145.912
0.604, 1, 6.11718, 60.9727, 4.66726, 54.2736, -87.3529, 145.721
0.608, 1, 6.17408, 60.9478, 4.63196, 54.356, -87.2834, 145.531
0.612, 1, 6.23094, 60.9229, 4.5967, 54.4385, -87.2138, 145.34
0.616, 1, 6.28774, 60.898, 4.56146, 54.5208, -87.1443, 145.15
0.62, 1, 6.34451, 60.8731, 4.52625, 54.6031, -87.0749, 144.959
0.624, 1, 6.40123, 60.8483, 4.49107, 54.6854, -87.0056, 144.769
0.628, 1, 6.4579, 60.8234, 4.45591, 54.7675, -86.9363, 144.579
0.632, 1, 6.51453, 60.7986, 4.42079, 54.8496, -86.867, 144.389
0.636, 1, 6.57111, 60.7738, 4.38569, 54.9317, -86.7978, 144.2
0.64, 1, 6.62765, 60.7491, 4.35063, 55.0136, -86.7287, 144.01
0.644, 1, 6.68414, 60.7243, 4.31559, 55.0955, -86.6596, 143.821
0.648, 1, 6.74058, 60.6996, 4.28057, 55.1774, -86.5905, 143.632
0.652, 1, 6.79698, 60.6749, 4.24559, 55.2592, -86.5216, 143.443
0.656, 1, 6.85333, 60.6502, 4.21064, 55.3409, -86.4526, 143.254
0.66, 1, 6.90964, 60.6255, 4.17571, 55.4225, -86.3838, 143.065
0.664, 1, 6.9659, 60.6008, 4.14081, 55.5041, -86.315, 142.876
0.668, 1, 7.02212, 60.5762, 4.10595, 55.5856, -86.2462, 142.688
0.672, 1, 7.07828, 60.5516, 4.07111, 55.667, -86.1775, 142.5
0.676, 1, 7.13441, 60.527, 4.03629, 55.7484, -86.1089, 142.311
0.68, 1, 7.19048, 60.5024, 4.00151, 55.8297, -86.0403, 142.123
0.684, 1, 7.24651, 60.4779, 3.96676, 55.9109, -85.9718, 141.936
0.688, 1, 7.30249, 60.4534, 3.93203, 55.9921, -85.9033, 141.748
0.692, 1, 7.35843, 60.4289, 3.89734, 56.0732, -85.8349, 141.56
0.696, 1, 7.41432, 60.4044, 3.86267, 56.1542, -85.7666, 141.373
0.7, 1, 7.47016, 60.3799, 3.82803, 56.2351, -85.6983, 141.186
0.704, 1, 7.52596, 60.3555, 3.79343, 56.316, -85.6301, 140.999
0.708, 1, 7.58171, 60.331, 3.75885, 56.3969, -85.5619, 140.812
0.712, 1, 7.63741, 60.3066, 3.7243, 56.4776, -85.4938, 140.625
0.716, 1, 7.69307, 60.2822, 3.68977, 56.5583, -85.4257, 140.439
0.72, 1, 7.74868, 60.2579, 3.65528, 56.6389, -85.3577, 140.252
0.724, 1, 7.80424, 60.2335, 3.62082, 56.7195, -85.2897, 140.066
0.728, 1, 7.85975, 60.2092, 3.58639, 56.8, -85.2218, 139.88
0.732, 1, 7.91522, 60.1849, 3.55198, 56.8804, -85.154, 139.694
0.736, 1, 7.97064, 60.1606, 3.51761, 56.9607, -85.0862, 139.508
0.74, 1, 8.02601, 60.1363, 3.48326, 57.041, -85.0185, 139.322
0.744, 1, 8.08134, 60.1121, 3.44895, 57.1212, -84.9509, 139.137
0.748, 1, 8.13662, 60.0879, 3.41466, 57.2014, -84.8832, 138.952
0.752, 1, 8.19185, 60.0637, 3.3804, 57.2814, -84.8157, 138.767
0.756, 1, 8.24703, 60.0395, 3.34617, 57.3615, -84.7482, 138.582
0.76, 1, 8.30217, 60.0153, 3.31197, 57.4414, -84.6808, 138.397
0.764, 1, 8.35725, 59.9912, 3.27781, 57.5213, -84.6134, 138.212
0.768, 1, 8.4123, 59.9671, 3.24367, 57.6011, -84.5461, 138.028
0.772, 1, 8.46729, 59.943, 3.20956, 57.6808, -84.4789, 137.843
0.776, 1, 8.52224, 59.9189, 3.17548, 57.7604, -84.4117, 137.659
0.78, 1, 8.57714, 59.8949, 3.14143, 57.84, -84.3445, 137.475
0.784, 1, 8.63199, 59.8708, 3.1074, 57.9195, -84.2775, 137.291
0.788, 1, 8.68679, 59.8468, 3.07341, 57.999, -84.2104, 137.107
0.792, 1, 8.74154, 59.8228, 3.03945, 58.0784, -84.1435, 136.924
0.796, 1, 8.79625, 59.7989, 3.00552, 58.1577, -84.0766, 136.74
0.8, 1, 8.85091, 59.7749, 2.97162, 58.2369, -84.0097, 136.557
0.804, 1, 8.90552, 59.751, 2.93775, 58.3161, -83.9429, 136.374
0.808, 1, 8.96009, 59.7271, 2.9039, 58.3952, -83.8762, 136.191
0.812, 1, 9.0146, 59.7032, 2.87009, 58.4742, -83.8095, 136.009
0.816, 1, 9.06907, 59.6793, 2.83631, 58.5532, -83.7429, 135.826
0.82, 1, 9.12349, 59.6555, 2.80255, 58.6321, -83.6764, 135.644
0.824, 1, 9.17786, 59.6317, 2.76883, 58.7109, -83.6099, 135.461
0.828, 1, 9.23218, 59.6079, 2.73514, 58.7897, -83.5435, 135.279
0.832, 1, 9.28646, 59.5841, 2.70147, 58.8684, -83.4771, 135.097
0.836, 1, 9.34069, 59.5603, 2.66784, 58.947, -83.4108, 134.915
0.84, 1, 9.39487, 59.5366, 2.63424, 59.0255, -83.3445, 134.734
0.844, 1, 9.449, 59.5129, 2.60066, 59.104, -83.2783, 134.552
0.848, 1, 9.50308, 59.4892, 2.56712, 59.1824, -83.2122, 134.371
0.852, 1, 9.55711, 59.4655, 2.5336, 59.2608, -83.1461, 134.19
0.856, 1, 9.6111, 59.4418, 2.50012, 59.339, -83.0801, 134.009
0.86, 1, 9.66504, 59.4182, 2.46666, 59.4172, -83.0141, 133.828
0.864, 1, 9.71893, 59.3946, 2.43324, 59.4953, -82.9482, 133.648
0.868, 1, 9.77277, 59.371, 2.39985, 59.5734, -82.8824, 133.467
0.872, 1, 9.82656, 59.3474, 2.36648, 59.6514, -82.8166, 133.287
0.876, 1, 9.88031, 59.3239, 2.33315, 59.7293, -82.7509, 133.107
0.88, 1, 9.934, 59.3004, 2.29984, 59.8071, -82.6852, 132.927
0.884, 1, 9.98765, 59.2768, 2.26657, 59.8849, -82.6196, 132.747
0.888, 1, 10.0413, 59.2534, 2.23332, 59.9626, -82.5541, 132.567
0.892, 1, 10.0948, 59.2299, 2.20011, 60.0403, -82.4886, 132.388
0.896, 1, 10.1483, 59.2065, 2.16692, 60.1178, -82.4231, 132.208
0.9, 1, 10.2018, 59.183, 2.13377, 60.1953, -82.3578, 132.029
0.904, 1, 10.2552, 59.1596, 2.10064, 60.2728, -82.2925, 131.85
0.908, 1, 10.3085, 59.1363, 2.06755, 60.3501, -82.2272, 131.671
0.912, 1, 10.3618, 59.1129, 2.03449, 60.4274, -82.162, 131.492
0.916, 1, 10.4151, 59.0896, 2.00145, 60.5046, -82.0969, 131.314
0.92, 1, 10.4683, 59.0662, 1.96845, 60.5817, -82.0318, 131.136
0.924, 1, 10.5215, 59.043, 1.93547, 60.6588, -81.9668, 130.957
0.928, 1, 10.5746, 59.0197, 1.90253, 60.7358, -81.9018, 130.779
0.932, 1, 10.6277, 58.9964, 1.86961, 60.8128, -81.837, 130.601
0.936, 1, 10.6807, 58.9732, 1.83673, 60.8896, -81.7721, 130.424
0.94, 1, 10.7336, 58.95, 1.80388, 60.9664, -81.7073, 130.246
0.944, 1, 10.7866, 58.9268, 1.77105, 61.0431, -81.6426, 130.069
0.948, 1, 10.8394, 58.9036, 1.73826, 61.1198, -81.578, 129.891
0.952, 1, 10.8923, 58.8805, 1.7055, 61.1964, -81.5134, 129.714
0.956, 1, 10.945, 58.8574, 1.67276, 61.2729, -81.4488, 129.538
0.96, 1, 10.9978, 58.8343, 1.64006, 61.3493, -81.3843, 129.361
0.964, 1, 11.0505, 58.8112, 1.60739, 61.4257, -81.3199, 129.184
0.968, 1, 11.1031, 58.7881, 1.57474, 61.502, -81.2556, 129.008
0.972, 1, 11.1557, 58.7651, 1.54213, 61.5782, -81.1913, 128.831
0.976, 1, 11.2082, 58.7421, 1.50955, 61.6544, -81.127, 128.655
0.98, 1, 11.2607, 58.7191, 1.477, 61.7305, -81.0628, 128.479
0.984, 1, 11.3131, 58.6961, 1.44447, 61.8065, -80.9987, 128.304
0.988, 1, 11.3655, 58.6731, 1.41198, 61.8824, -80.9346, 128.128
0.992, 1, 11.4179, 58.6502, 1.37952, 61.9583, -80.8706, 127.953
0.996, 1, 11.4701, 58.6273, 1.34709, 62.0341, -80.8067, 127.777
1, 1, 11.5224, 58.6044, 1.31468, 62.1099, -80.7428, 127.602
1.004, 1, 11.5746, 58.5815, 1.28231, 62.1855, -80.679, 127.427
1.008, 1, 11.6267, 58.5587, 1.24997, 62.2611, -80.6152, 127.252
1.012, 1, 11.6788, 58.5359, 1.21766, 62.3367, -80.5515, 127.078
1.016, 1, 11.7309, 58.5131, 1.18538, 62.4121, -80.4879, 126.903
1.02, 1, 11.7829, 58.4903, 1.15312, 62.4875, -80.4243, 126.729
1.024, 1, 11.8348, 58.4675, 1.1209, 62.5628, -80.3607, 126.555
1.027, 1, 11.8867, 58.4448, 1.08871, 62.6381, -80.2973, 126.381
1.032, 1, 11.9386, 58.4221, 1.05655, 62.7132, -80.2339, 126.207
1.036, 1, 11.9904, 58.3994, 1.02442, 62.7883, -80.1705, 126.033
1.04, 1, 12.0422, 58.3767, 0.992316, 62.8634, -80.1072, 125.86
1.044, 1, 12.0939, 58.354, 0.960245, 62.9383, -80.044, 125.687
1.048, 1, 12.1455, 58.3314, 0.928203, 63.0132, -79.9808, 125.513
1.052, 1, 12.1971, 58.3088, 0.896192, 63.0881, -79.9177, 125.34
1.055, 1, 12.2487, 58.2862, 0.864211, 63.1628, -79.8546, 125.168
1.06, 1, 12.3002, 58.2636, 0.83226, 63.2375, -79.7916, 124.995
1.064, 1, 12.3517, 58.2411, 0.800339, 63.3121, -79.7287, 124.822
1.068, 1, 12.4031, 58.2185, 0.768447, 63.3866, -79.6658, 124.65
1.072, 1, 12.4545, 58.196, 0.736586, 63.4611, -79.603, 124.478
1.076, 1, 12.5058, 58.1735, 0.704755, 63.5355, -79.5402, 124.306
1.08, 1, 12.5571, 58.1511, 0.672954, 63.6098, -79.4775, 124.134
1.084, 1, 12.6083, 58.1286, 0.641183, 63.6841, -79.4149, 123.962
1.088, 1, 12.6595, 58.1062, 0.609442, 63.7583, -79.3523, 123.791
1.091, 1, 12.7106, 58.0838, 0.57773, 63.8324, -79.2898, 123.619
1.096, 1, 12.7617, 58.0614, 0.546049, 63.9065, -79.2273, 123.448
1.1, 1, 12.8127, 58.0391, 0.514397, 63.9805, -79.1649, 123.277
1.104, 1, 12.8637, 58.0167, 0.482776, 64.0544, -79.1026, 123.106
1.108, 1, 12.9147, 57.9944, 0.451184, 64.1282, -79.0403, 122.935
1.112, 1, 12.9656, 57.9721, 0.419622, 64.202, -78.9781, 122.765
1.116, 1, 13.0164, 57.9498, 0.38809, 64.2757, -78.9159, 122.594
1.119, 1, 13.0672, 57.9276, 0.356588, 64.3493, -78.8538, 122.424
1.124, 1, 13.1179, 57.9053, 0.325115, 64.4229, -78.7917, 122.254
1.128, 1, 13.1686, 57.8831, 0.293672, 64.4964, -78.7297, 122.084
1.132, 1, 13.2193, 57.8609, 0.262259, 64.5698, -78.6678, 121.914
1.136, 1, 13.2699, 57.8388, 0.230876, 64.6432, -78.6059, 121.745
1.14, 1, 13.3205, 57.8166, 0.199522, 64.7165, -78.5441, 121.575
1.144, 1, 13.371, 57.7945, 0.168198, 64.7897, -78.4823, 121.406
1.147, 1, 13.4214, 57.7724, 0.136903, 64.8628, -78.4206, 121.237
1.152, 1, 13.4718, 57.7503, 0.105639, 64.9359, -78.359, 121.068
1.156, 1, 13.5222, 57.7282, 0.0744032, 65.0089, -78.2974, 120.899
1.16, 1, 13.5725, 57.7062, 0.0431975, 65.0818, -78.2359, 120.73
1.164, 1, 13.6228, 57.6842, 0.0120212, 65.1547, -78.1744, 120.562
1.168, 1, 13.673, 57.6622, -0.0191256, 65.2275, -78.113, 120.394
1.172, 1, 13.7232, 57.6402, -0.0502429, 65.3003, -78.0516, 120.225
1.175, 1, 13.7733, 57.6182, -0.0813307, 65.3729, -77.9903, 120.057
1.18, 1, 13.8234, 57.5963, -0.112389, 65.4455, -77.9291, 119.89
1.184, 1, 13.8734, 57.5743, -0.143418, 65.518, -77.8679, 119.722
1.188, 1, 13.9234, 57.5524, -0.174418, 65.5905, -77.8068, 119.554
1.192, 1, 13.9733, 57.5306, -0.205388, 65.6629, -77.7457, 119.387
1.196, 1, 14.0232, 57.5087, -0.236329, 65.7352, -77.6847, 119.22
1.2, 1, 14.0731, 57.4869, -0.267241, 65.8075, -77.6238, 119.053
1.204, 1, 14.1229, 57.4651, -0.298123, 65.8797, -77.5629, 118.886
1.208, 1, 14.1726, 57.4433, -0.328976, 65.9518, -77.5021, 118.719
1.212, 1, 14.2223, 57.4215, -0.3598, 66.0238, -77.4413, 118.552
1.216, 1, 14.272, 57.3997, -0.390595, 66.0958, -77.3806, 118.386
1.22, 1, 14.3216, 57.378, -0.421361, 66.1677, -77.3199, 118.22
1.224, 1, 14.3712, 57.3563, -0.452097, 66.2396, -77.2593, 118.054
1.228, 1, 14.4207, 57.3346, -0.482805, 66.3113, -77.1988, 117.888
1.232, 1, 14.4701, 57.3129, -0.513483, 66.383, -77.1383, 117.722
1.236, 1, 14.5196, 57.2913, -0.544132, 66.4547, -77.0778, 117.556
1.24, 1, 14.5689, 57.2696, -0.574752, 66.5263, -77.0175, 117.391
1.244, 1, 14.6183, 57.248, -0.605344, 66.5978, -76.9572, 117.225
1.248, 1, 14.6675, 57.2264, -0.635906, 66.6692, -76.8969, 117.06
1.252, 1, 14.7168, 57.2049, -0.666439, 66.7406, -76.8367, 116.895
1.256, 1, 14.766, 57.1833, -0.696943, 66.8119, -76.7766, 116.73
1.26, 1, 14.8151, 57.1618, -0.727419, 66.8831, -76.7165, 116.566
1.264, 1, 14.8642, 57.1403, -0.757866, 66.9543, -76.6564, 116.401
1.267, 1, 14.9132, 57.1188, -0.788283, 67.0254, -76.5965, 116.237
1.272, 1, 14.9622, 57.0973, -0.818672, 67.0964, -76.5365, 116.072
1.276, 1, 15.0112, 57.0759, -0.849032, 67.1674, -76.4767, 115.908
1.28, 1, 15.0601, 57.0544, -0.879364, 67.2383, -76.4169, 115.744
1.284, 1, 15.109, 57.033, -0.909667, 67.3091, -76.3571, 115.581
1.288, 1, 15.1578, 57.0116, -0.939941, 67.3799, -76.2974, 115.417
1.292, 1, 15.2066, 56.9903, -0.970186, 67.4506, -76.2378, 115.253
1.295, 1, 15.2553, 56.9689, -1.0004, 67.5212, -76.1782, 115.09
1.3, 1, 15.304, 56.9476, -1.03059, 67.5917, -76.1187, 114.927
1.304, 1, 15.3526, 56.9263, -1.06075, 67.6622, -76.0592, 114.764
1.308, 1, 15.4012, 56.905, -1.09088, 67.7327, -75.9998, 114.601
1.312, 1, 15.4497, 56.8837, -1.12098, 67.803, -75.9405, 114.438
1.316, 1, 15.4982, 56.8625, -1.15106, 67.8733, -75.8812, 114.276
1.32, 1, 15.5466, 56.8413, -1.1811, 67.9436, -75.8219, 114.114
1.324, 1, 15.5951, 56.8201, -1.21112, 68.0137, -75.7628, 113.951
1.328, 1, 15.6434, 56.7989, -1.24111, 68.0838, -75.7036, 113.789
1.332, 1, 15.6917, 56.7777, -1.27107, 68.1538, -75.6446, 113.627
1.336, 1, 15.74, 56.7566, -1.301, 68.2238, -75.5855, 113.466
1.34, 1, 15.7882, 56.7354, -1.33091, 68.2937, -75.5266, 113.304
1.344, 1, 15.8364, 56.7143, -1.36078, 68.3635, -75.4677, 113.142
1.348, 1, 15.8845, 56.6933, -1.39063, 68.4333, -75.4088, 112.981
1.352, 1, 15.9326, 56.6722, -1.42045, 68.503, -75.35, 112.82
1.356, 1, 15.9806, 56.6511, -1.45024, 68.5726, -75.2913, 112.659
1.36, 1, 16.0286, 56.6301, -1.48, 68.6422, -75.2326, 112.498
1.364, 1, 16.0766, 56.6091, -1.50974, 68.7117, -75.174, 112.337
1.368, 1, 16.1245, 56.5881, -1.53945, 68.7811, -75.1154, 112.177
1.372, 1, 16.1723, 56.5672, -1.56912, 68.8505, -75.0569, 112.016
1.376, 1, 16.2201, 56.5462, -1.59877, 68.9198, -74.9984, 111.856
1.38, 1, 16.2679, 56.5253, -1.6284, 68.9891, -74.94, 111.696
1.384, 1, 16.3156, 56.5044, -1.65799, 69.0582, -74.8817, 111.536
1.388, 1, 16.3633, 56.4835, -1.68756, 69.1273, -74.8234, 111.376
1.392, 1, 16.4109, 56.4626, -1.71709, 69.1964, -74.7652, 111.217
1.396, 1, 16.4585, 56.4418, -1.74661, 69.2654, -74.707, 111.057
1.4, 1, 16.506, 56.421, -1.77609, 69.3343, -74.6488, 110.898
1.404, 1, 16.5535, 56.4001, -1.80554, 69.4031, -74.5908, 110.739
1.408, 1, 16.601, 56.3794, -1.83497, 69.4719, -74.5327, 110.58
1.412, 1, 16.6484, 56.3586, -1.86437, 69.5406, -74.4748, 110.421
1.416, 1, 16.6958, 56.3378, -1.89374, 69.6093, -74.4169, 110.262
1.42, 1, 16.7431, 56.3171, -1.92308, 69.6779, -74.359, 110.103
1.424, 1, 16.7904, 56.2964, -1.9524, 69.7464, -74.3012, 109.945
1.428, 1, 16.8376, 56.2757, -1.98169, 69.8149, -74.2434, 109.787
1.432, 1, 16.8848, 56.255, -2.01095, 69.8833, -74.1858, 109.629
1.436, 1, 16.9319, 56.2344, -2.04019, 69.9516, -74.1281, 109.471
1.44, 1, 16.979, 56.2137, -2.06939, 70.0199, -74.0705, 109.313
1.444, 1, 17.0261, 56.1931, -2.09857, 70.0881, -74.013, 109.155
1.448, 1, 17.0731, 56.1725, -2.12772, 70.1562, -73.9555, 108.997
1.452, 1, 17.12, 56.152, -2.15685, 70.2243, -73.8981, 108.84
1.456, 1, 17.167, 56.1314, -2.18595, 70.2923, -73.8407, 108.683
1.46, 1, 17.2138, 56.1109, -2.21502, 70.3602, -73.7834, 108.526
1.464, 1, 17.2607, 56.0903, -2.24406, 70.4281, -73.7261, 108.369
1.468, 1, 17.3075, 56.0698, -2.27308, 70.496, -73.6689, 108.212
1.472, 1, 17.3542, 56.0494, -2.30206, 70.5637, -73.6118, 108.055
1.476, 1, 17.4009, 56.0289, -2.33103, 70.6314, -73.5547, 107.899
1.48, 1, 17.4476, 56.0085, -2.35996, 70.6991, -73.4976, 107.742
1.484, 1, 17.4942, 55.988, -2.38887, 70.7666, -73.4406, 107.586
1.488, 1, 17.5408, 55.9676, -2.41775, 70.8341, -73.3837, 107.43
1.492, 1, 17.5873, 55.9472, -2.44661, 70.9016, -73.3268, 107.274
1.496, 1, 17.6338, 55.9269, -2.47543, 70.969, -73.2699, 107.118
1.5, 1, 17.6802, 55.9065, -2.50423, 71.0363, -73.2132, 106.963
1.504, 1, 17.7266, 55.8862, -2.53301, 71.1035, -73.1564, 106.807
1.508, 1, 17.773, 55.8659, -2.56176, 71.1707, -73.0997, 106.652
1.512, 1, 17.8193, 55.8456, -2.59048, 71.2379, -73.0431, 106.496
1.516, 1, 17.8656, 55.8253, -2.61917, 71.3049, -72.9865, 106.341
1.52, 1, 17.9118, 55.8051, -2.64784, 71.3719, -72.93, 106.186
1.524, 1, 17.958, 55.7848, -2.67648, 71.4389, -72.8735, 106.032
1.528, 1, 18.0041, 55.7646, -2.7051, 71.5058, -72.8171, 105.877
1.532, 1, 18.0502, 55.7444, -2.73368, 71.5726, -72.7607, 105.722
1.536, 1, 18.0963, 55.7243, -2.76225, 71.6394, -72.7044, 105.568
1.54, 1, 18.1423, 55.7041, -2.79078, 71.7061, -72.6482, 105.414
1.544, 1, 18.1883, 55.684, -2.81929, 71.7727, -72.592, 105.26
1.548, 1, 18.2342, 55.6638, -2.84777, 71.8393, -72.5358, 105.106
1.552, 1, 18.2801, 55.6437, -2.87623, 71.9058, -72.4797, 104.952
1.556, 1, 18.3259, 55.6236, -2.90466, 71.9723, -72.4236, 104.798
1.56, 1, 18.3717, 55.6036, -2.93307, 72.0387, -72.3676, 104.645
1.564, 1, 18.4175, 55.5835, -2.96145, 72.105, -72.3117, 104.491
1.568, 1, 18.4632, 55.5635, -2.9898, 72.1713, -72.2558, 104.338
1.572, 1, 18.5089, 55.5435, -3.01813, 72.2375, -72.1999, 104.185
1.576, 1, 18.5545, 55.5235, -3.04643, 72.3036, -72.1441, 104.032
1.58, 1, 18.6001, 55.5035, -3.0747, 72.3697, -72.0884, 103.879
1.584, 1, 18.6457, 55.4836, -3.10295, 72.4357, -72.0327, 103.727
1.588, 1, 18.6912, 55.4636, -3.13117, 72.5017, -71.977, 103.574
1.592, 1, 18.7367, 55.4437, -3.15937, 72.5676, -71.9214, 103.422
1.596, 1, 18.7821, 55.4238, -3.18754, 72.6335, -71.8659, 103.269
1.6, 1, 18.8275, 55.4039, -3.21569, 72.6993, -71.8104, 103.117
1.604, 1, 18.8728, 55.384, -3.24381, 72.765, -71.7549, 102.965
1.608, 1, 18.9181, 55.3642, -3.2719, 72.8307, -71.6995, 102.813
1.612, 1, 18.9634, 55.3444, -3.29997, 72.8963, -71.6442, 102.662
1.616, 1, 19.0086, 55.3245, -3.32802, 72.9618, -71.5889, 102.51
1.62, 1, 19.0538, 55.3048, -3.35604, 73.0273, -71.5337, 102.359
1.624, 1, 19.0989, 55.285, -3.38403, 73.0928, -71.4785, 102.208
1.628, 1, 19.144, 55.2652, -3.412, 73.1581, -71.4233, 102.056
1.632, 1, 19.1891, 55.2455, -3.43994, 73.2234, -71.3682, 101.905
1.636, 1, 19.2341, 55.2258, -3.46785, 73.2887, -71.3132, 101.754
1.64, 1, 19.2791, 55.2061, -3.49575, 73.3539, -71.2582, 101.604
1.644, 1, 19.324, 55.1864, -3.52361, 73.419, -71.2033, 101.453
1.648, 1, 19.3689, 55.1667, -3.55145, 73.4841, -71.1484, 101.303
1.652, 1, 19.4138, 55.147, -3.57927, 73.5491, -71.0935, 101.152
1.656, 1, 19.4586, 55.1274, -3.60706, 73.6141, -71.0387, 101.002
1.66, 1, 19.5034, 55.1078, -3.63483, 73.679, -70.984, 100.852
1.664, 1, 19.5481, 55.0882, -3.66257, 73.7438, -70.9293, 100.702
1.668, 1, 19.5928, 55.0686, -3.69028, 73.8086, -70.8746, 100.552
1.672, 1, 19.6374, 55.049, -3.71797, 73.8733, -70.82, 100.403
1.676, 1, 19.6821, 55.0295, -3.74564, 73.938, -70.7655, 100.253
1.68, 1, 19.7266, 55.01, -3.77328, 74.0026, -70.711, 100.104
1.684, 1, 19.7712, 54.9905, -3.8009, 74.0672, -70.6565, 99.9545
1.688, 1, 19.8156, 54.971, -3.82849, 74.1317, -70.6021, 99.8054
1.692, 1, 19.8601, 54.9515, -3.85605, 74.1961, -70.5478, 99.6564
1.696, 1, 19.9045, 54.932, -3.8836, 74.2605, -70.4935, 99.5075
1.7, 1, 19.9489, 54.9126, -3.91111, 74.3248, -70.4392, 99.3588
1.704, 1, 19.9932, 54.8932, -3.93861, 74.389, -70.385, 99.2102
1.708, 1, 20.0375, 54.8738, -3.96608, 74.4533, -70.3308, 99.0617
1.712, 1, 20.0818, 54.8544, -3.99352, 74.5174, -70.2767, 98.9134
1.716, 1, 20.126, 54.835, -4.02094, 74.5815, -70.2227, 98.7652
1.72, 1, 20.1702, 54.8157, -4.04833, 74.6455, -70.1687, 98.6172
1.724, 1, 20.2143, 54.7963, -4.07571, 74.7095, -70.1147, 98.4692
1.728, 1, 20.2584, 54.777, -4.10305, 74.7734, -70.0608, 98.3214
1.732, 1, 20.3025, 54.7577, -4.13037, 74.8373, -70.0069, 98.1738
1.736, 1, 20.3465, 54.7384, -4.15767, 74.9011, -69.9531, 98.0262
1.74, 1, 20.3904, 54.7192, -4.18494, 74.9648, -69.8993, 97.8788
1.744, 1, 20.4344, 54.6999, -4.21219, 75.0285, -69.8456, 97.7316
1.748, 1, 20.4783, 54.6807, -4.23942, 75.0922, -69.7919, 97.5844
1.752, 1, 20.5222, 54.6615, -4.26662, 75.1557, -69.7383, 97.4374
1.756, 1, 20.566, 54.6423, -4.2938, 75.2193, -69.6847, 97.2905
1.76, 1, 20.6098, 54.6231, -4.32095, 75.2827, -69.6312, 97.1438
1.764, 1, 20.6535, 54.6039, -4.34808, 75.3462, -69.5777, 96.9972
1.768, 1, 20.6972, 54.5848, -4.37518, 75.4095, -69.5242, 96.8507
1.772, 1, 20.7409, 54.5656, -4.40226, 75.4728, -69.4708, 96.7043
1.776, 1, 20.7845, 54.5465, -4.42932, 75.536, -69.4175, 96.5581
1.78, 1, 20.8281, 54.5274, -4.45635, 75.5992, -69.3642, 96.412
1.784, 1, 20.8717, 54.5083, -4.48336, 75.6624, -69.3109, 96.266
1.788, 1, 20.9152, 54.4893, -4.51035, 75.7254, -69.2577, 96.1202
1.792, 1, 20.9587, 54.4702, -4.53731, 75.7885, -69.2046, 95.9744
1.796, 1, 21.0021, 54.4512, -4.56425, 75.8514, -69.1514, 95.8288
1.8, 1, 21.0455, 54.4322, -4.59117, 75.9144, -69.0984, 95.6834
1.804, 1, 21.0889, 54.4132, -4.61806, 75.9772, -69.0454, 95.538
1.808, 1, 21.1322, 54.3942, -4.64493, 76.04, -68.9924, 95.3928
1.812, 1, 21.1755, 54.3752, -4.67177, 76.1028, -68.9394, 95.2477
1.816, 1, 21.2188, 54.3563, -4.69859, 76.1655, -68.8866, 95.1028
1.82, 1, 21.262, 54.3373, -4.72539, 76.2281, -68.8337, 94.9579
1.824, 1, 21.3052, 54.3184, -4.75217, 76.2907, -68.7809, 94.8132
1.828, 1, 21.3483, 54.2995, -4.77892, 76.3532, -68.7282, 94.6686
1.832, 1, 21.3914, 54.2806, -4.80565, 76.4157, -68.6755, 94.5242
1.836, 1, 21.4345, 54.2618, -4.83235, 76.4781, -68.6228, 94.3798
1.84, 1, 21.4775, 54.2429, -4.85904, 76.5405, -68.5702, 94.2356
1.844, 1, 21.5205, 54.2241, -4.8857, 76.6028, -68.5176, 94.0915
1.848, 1, 21.5634, 54.2053, -4.91233, 76.6651, -68.4651, 93.9476
1.852, 1, 21.6064, 54.1865, -4.93895, 76.7273, -68.4127, 93.8037
1.856, 1, 21.6492, 54.1677, -4.96554, 76.7894, -68.3602, 93.66
1.86, 1, 21.6921, 54.1489, -4.99211, 76.8515, -68.3078, 93.5164
1.864, 1, 21.7349, 54.1302, -5.01865, 76.9136, -68.2555, 93.3729
1.868, 1, 21.7777, 54.1114, -5.04518, 76.9756, -68.2032, 93.2296
1.872, 1, 21.8204, 54.0927, -5.07168, 77.0375, -68.151, 93.0864
1.876, 1, 21.8631, 54.074, -5.09815, 77.0994, -68.0987, 92.9433
1.88, 1, 21.9058, 54.0553, -5.12461, 77.1613, -68.0466, 92.8003
1.884, 1, 21.9484, 54.0366, -5.15104, 77.223, -67.9945, 92.6574
1.888, 1, 21.991, 54.018, -5.17745, 77.2848, -67.9424, 92.5147
1.892, 1, 22.0335, 53.9993, -5.20384, 77.3465, -67.8904, 92.3721
1.896, 1, 22.076, 53.9807, -5.23021, 77.4081, -67.8384, 92.2296
1.9, 1, 22.1185, 53.9621, -5.25655, 77.4697, -67.7864, 92.0872
1.904, 1, 22.161, 53.9435, -5.28287, 77.5312, -67.7345, 91.9449
1.908, 1, 22.2034, 53.9249, -5.30917, 77.5927, -67.6827, 91.8028
1.912, 1, 22.2457, 53.9064, -5.33544, 77.6541, -67.6309, 91.6608
1.916, 1, 22.2881, 53.8878, -5.3617, 77.7154, -67.5791, 91.5189
1.92, 1, 22.3304, 53.8693, -5.38793, 77.7768, -67.5274, 91.3771
1.924, 1, 22.3726, 53.8508, -5.41414, 77.838, -67.4757, 91.2355
1.928, 1, 22.4149, 53.8323, -5.44033, 77.8992, -67.4241, 91.0939
1.932, 1, 22.4571, 53.8138, -5.46649, 77.9604, -67.3725, 90.9525
1.936, 1, 22.4992, 53.7953, -5.49264, 78.0215, -67.3209, 90.8112
1.94, 1, 22.5414, 53.7768, -5.51876, 78.0826, -67.2694, 90.67
1.944, 1, 22.5834, 53.7584, -5.54486, 78.1436, -67.218, 90.529
1.948, 1, 22.6255, 53.74, -5.57094, 78.2045, -67.1666, 90.388
1.952, 1, 22.6675, 53.7216, -5.597, 78.2654, -67.1152, 90.2472
1.956, 1, 22.7095, 53.7032, -5.62303, 78.3263, -67.0639, 90.1065
1.96, 1, 22.7514, 53.6848, -5.64904, 78.3871, -67.0126, 89.9659
1.964, 1, 22.7934, 53.6664, -5.67503, 78.4479, -66.9613, 89.8254
1.968, 1, 22.8352, 53.6481, -5.70101, 78.5086, -66.9101, 89.685
1.972, 1, 22.8771, 53.6298, -5.72695, 78.5692, -66.8589, 89.5448
1.976, 1, 22.9189, 53.6114, -5.75288, 78.6298, -66.8078, 89.4047
1.98, 1, 22.9607, 53.5931, -5.77879, 78.6904, -66.7567, 89.2647
1.984, 1, 23.0024, 53.5749, -5.80467, 78.7509, -66.7057, 89.1248
1.988, 1, 23.0441, 53.5566, -5.83053, 78.8113, -66.6547, 88.985
1.992, 1, 23.0858, 53.5383, -5.85637, 78.8717, -66.6038, 88.8453
1.996, 1, 23.1274, 53.5201, -5.88219, 78.9321, -66.5529, 88.7058
1.999, 1, 23.169, 53.5019, -5.90799, 78.9924, -66.502, 88.5663
2.004, 1, 23.2106, 53.4836, -5.93377, 79.0526, -66.4512, 88.427
2.008, 1, 23.2521, 53.4655, -5.95953, 79.1128, -66.4004, 88.2878
2.012, 1, 23.2936, 53.4473, -5.98526, 79.173, -66.3496, 88.1487
2.015, 1, 23.3351, 53.4291, -6.01098, 79.2331, -66.2989, 88.0098
2.019, 1, 23.3765, 53.411, -6.03667, 79.2931, -66.2483, 87.8709
2.024, 1, 23.4179, 53.3928, -6.06234, 79.3532, -66.1977, 87.7321
2.028, 1, 23.4593, 53.3747, -6.08799, 79.4131, -66.1471, 87.5935
2.031, 1, 23.5006, 53.3566, -6.11362, 79.473, -66.0965, 87.455
2.036, 1, 23.5419, 53.3385, -6.13923, 79.5329, -66.0461, 87.3166
2.04, 1, 23.5832, 53.3204, -6.16482, 79.5927, -65.9956, 87.1783
2.044, 1, 23.6244, 53.3024, -6.19039, 79.6525, -65.9452, 87.0401
2.048, 1, 23.6656, 53.2843, -6.21593, 79.7122, -65.8948, 86.902
2.051, 1, 23.7068, 53.2663, -6.24146, 79.7718, -65.8445, 86.7641
2.055, 1, 23.7479, 53.2483, -6.26696, 79.8315, -65.7942, 86.6262
2.06, 1, 23.789, 53.2302, -6.29245, 79.891, -65.744, 86.4885
2.064, 1, 23.8301, 53.2123, -6.31791, 79.9505, -65.6937, 86.3509
2.068, 1, 23.8711, 53.1943, -6.34336, 80.01, -65.6436, 86.2133
2.071, 1, 23.9121, 53.1763, -6.36878, 80.0694, -65.5935, 86.0759
2.076, 1, 23.953, 53.1584, -6.39418, 80.1288, -65.5434, 85.9386
2.08, 1, 23.994, 53.1404, -6.41956, 80.1881, -65.4933, 85.8015
2.084, 1, 24.0349, 53.1225, -6.44492, 80.2474, -65.4433, 85.6644
2.087, 1, 24.0757, 53.1046, -6.47027, 80.3067, -65.3934, 85.5274
2.092, 1, 24.1166, 53.0867, -6.49559, 80.3659, -65.3434, 85.3906
2.096, 1, 24.1574, 53.0689, -6.52089, 80.425, -65.2935, 85.2538
2.1, 1, 24.1981, 53.051, -6.54617, 80.4841, -65.2437, 85.1172
2.104, 1, 24.2389, 53.0332, -6.57143, 80.5431, -65.1939, 84.9807
2.107, 1, 24.2796, 53.0153, -6.59667, 80.6021, -65.1441, 84.8443
2.111, 1, 24.3202, 52.9975, -6.62189, 80.6611, -65.0944, 84.708
2.116, 1, 24.3609, 52.9797, -6.64709, 80.72, -65.0447, 84.5718
2.12, 1, 24.4015, 52.9619, -6.67226, 80.7788, -64.9951, 84.4357
2.124, 1, 24.4421, 52.9441, -6.69742, 80.8376, -64.9455, 84.2997
2.127, 1, 24.4826, 52.9264, -6.72256, 80.8964, -64.8959, 84.1638
2.132, 1, 24.5231, 52.9086, -6.74768, 80.9551, -64.8464, 84.0281
2.136, 1, 24.5636, 52.8909, -6.77278, 81.0138, -64.7969, 83.8924
2.14, 1, 24.604, 52.8732, -6.79786, 81.0724, -64.7474, 83.7569
2.143, 1, 24.6444, 52.8555, -6.82292, 81.131, -64.698, 83.6214
2.148, 1, 24.6848, 52.8378, -6.84797, 81.1895, -64.6486, 83.4861
2.152, 1, 24.7252, 52.8201, -6.87299, 81.248, -64.5993, 83.3508
2.156, 1, 24.7655, 52.8024, -6.89799, 81.3064, -64.55, 83.2157
2.16, 1, 24.8058, 52.7848, -6.92297, 81.3648, -64.5008, 83.0807
2.163, 1, 24.846, 52.7672, -6.94793, 81.4232, -64.4515, 82.9458
2.168, 1, 24.8863, 52.7495, -6.97288, 81.4815, -64.4024, 82.811
2.172, 1, 24.9265, 52.7319, -6.9978, 81.5398, -64.3532, 82.6763
2.176, 1, 24.9666, 52.7143, -7.0227, 81.598, -64.3041, 82.5417
2.179, 1, 25.0067, 52.6968, -7.04759, 81.6561, -64.255, 82.4072
2.184, 1, 25.0468, 52.6792, -7.07245, 81.7142, -64.206, 82.2728
2.188, 1, 25.0869, 52.6616, -7.0973, 81.7723, -64.157, 82.1385
2.192, 1, 25.1269, 52.6441, -7.12213, 81.8304, -64.1081, 82.0043
2.196, 1, 25.1669, 52.6266, -7.14693, 81.8884, -64.0592, 81.8702
2.199, 1, 25.2069, 52.6091, -7.17172, 81.9463, -64.0103, 81.7363
2.204, 1, 25.2469, 52.5916, -7.19649, 82.0042, -63.9614, 81.6024
2.208, 1, 25.2868, 52.5741, -7.22124, 82.062, -63.9126, 81.4686
2.212, 1, 25.3267, 52.5566, -7.24598, 82.1199, -63.8639, 81.3349
2.216, 1, 25.3665, 52.5391, -7.27069, 82.1776, -63.8152, 81.2014
2.219, 1, 25.4063, 52.5217, -7.29538, 82.2353, -63.7665, 81.0679
2.224, 1, 25.4461, 52.5043, -7.32006, 82.293, -63.7178, 80.9346
2.228, 1, 25.4859, 52.4868, -7.34471, 82.3507, -63.6692, 80.8013
2.232, 1, 25.5256, 52.4694, -7.36935, 82.4082, -63.6206, 80.6682
2.235, 1, 25.5653, 52.452, -7.39397, 82.4658, -63.5721, 80.5351
2.24, 1, 25.605, 52.4347, -7.41857, 82.5233, -63.5236, 80.4021
2.244, 1, 25.6446, 52.4173, -7.44315, 82.5807, -63.4751, 80.2693
2.248, 1, 25.6842, 52.3999, -7.46771, 82.6382, -63.4267, 80.1365
2.252, 1, 25.7238, 52.3826, -7.49226, 82.6955, -63.3783, 80.0039
2.255, 1, 25.7634, 52.3653, -7.51678, 82.7529, -63.3299, 79.8713
2.259, 1, 25.8029, 52.348, -7.54129, 82.8101, -63.2816, 79.7389
2.264, 1, 25.8424, 52.3307, -7.56578, 82.8674, -63.2333, 79.6065
2.268, 1, 25.8818, 52.3134, -7.59025, 82.9246, -63.1851, 79.4743
2.272, 1, 25.9213, 52.2961, -7.6147, 82.9817, -63.1369, 79.3421
2.275, 1, 25.9607, 52.2788, -7.63913, 83.0388, -63.0887, 79.2101
2.28, 1, 26, 52.2616, -7.66355, 83.0959, -63.0406, 79.0781
2.284, 1, 26.0394, 52.2444, -7.68794, 83.1529, -62.9925, 78.9463
2.288, 1, 26.0787, 52.2271, -7.71232, 83.2099, -62.9444, 78.8145
2.291, 1, 26.118, 52.2099, -7.73668, 83.2669, -62.8964, 78.6828
2.296, 1, 26.1572, 52.1927, -7.76102, 83.3238, -62.8484, 78.5513
2.3, 1, 26.1965, 52.1755, -7.78535, 83.3806, -62.8004, 78.4198
2.304, 1, 26.2357, 52.1584, -7.80965, 83.4374, -62.7525, 78.2884
2.308, 1, 26.2748, 52.1412, -7.83394, 83.4942, -62.7046, 78.1572
2.311, 1, 26.314, 52.1241, -7.85821, 83.5509, -62.6567, 78.026
2.316, 1, 26.3531, 52.1069, -7.88246, 83.6076, -62.6089, 77.8949
2.32, 1, 26.3921, 52.0898, -7.9067, 83.6643, -62.5611, 77.7639
2.324, 1, 26.4312, 52.0727, -7.93091, 83.7209, -62.5134, 77.6331
2.328, 1, 26.4702, 52.0556, -7.95511, 83.7774, -62.4657, 77.5023
2.331, 1, 26.5092, 52.0385, -7.97929, 83.834, -62.418, 77.3716
2.336, 1, 26.5482, 52.0214, -8.00345, 83.8904, -62.3704, 77.241
2.34, 1, 26.5871, 52.0044, -8.0276, 83.9469, -62.3227, 77.1105
2.344, 1, 26.626, 51.9873, -8.05173, 84.0033, -62.2752, 76.9801
2.347, 1, 26.6649, 51.9703, -8.07584, 84.0596, -62.2276, 76.8498
2.352, 1, 26.7037, 51.9533, -8.09993, 84.1159, -62.1801, 76.7196
2.356, 1, 26.7426, 51.9363, -8.124, 84.1722, -62.1327, 76.5895
2.36, 1, 26.7814, 51.9193, -8.14806, 84.2284, -62.0852, 76.4595
2.364, 1, 26.8201, 51.9023, -8.1721, 84.2846, -62.0378, 76.3295
2.367, 1, 26.8589, 51.8853, -8.19612, 84.3408, -61.9905, 76.1997
2.372, 1, 26.8976, 51.8684, -8.22012, 84.3969, -61.9431, 76.07
2.376, 1, 26.9363, 51.8514, -8.24411, 84.453, -61.8958, 75.9403
2.38, 1, 26.9749, 51.8345, -8.26808, 84.509, -61.8486, 75.8108
2.383, 1, 27.0135, 51.8176, -8.29203, 84.565, -61.8014, 75.6813
2.388, 1, 27.0521, 51.8007, -8.31597, 84.6209, -61.7542, 75.5519
2.392, 1, 27.0907, 51.7838, -8.33989, 84.6768, -61.707, 75.4227
2.396, 1, 27.1292, 51.7669, -8.36379, 84.7327, -61.6599, 75.2935
2.4, 1, 27.1678, 51.75, -8.38767, 84.7885, -61.6128, 75.1644
2.403, 1, 27.2063, 51.7331, -8.41154, 84.8443, -61.5657, 75.0354
2.408, 1, 27.2447, 51.7163, -8.43539, 84.9001, -61.5187, 74.9065
2.412, 1, 27.2831, 51.6995, -8.45922, 84.9558, -61.4717, 74.7777
2.416, 1, 27.3215, 51.6826, -8.48303, 85.0114, -61.4248, 74.649
2.42, 1, 27.3599, 51.6658, -8.50683, 85.0671, -61.3778, 74.5204
2.423, 1, 27.3983, 51.649, -8.53061, 85.1227, -61.3309, 74.3919
2.428, 1, 27.4366, 51.6322, -8.55438, 85.1782, -61.2841, 74.2634
2.432, 1, 27.4749, 51.6154, -8.57812, 85.2337, -61.2373, 74.1351
2.436, 1, 27.5132, 51.5987, -8.60185, 85.2892, -61.1905, 74.0068
2.439, 1, 27.5514, 51.5819, -8.62557, 85.3446, -61.1437, 73.8787
2.444, 1, 27.5896, 51.5652, -8.64926, 85.4, -61.097, 73.7506
2.448, 1, 27.6278, 51.5485, -8.67294, 85.4553, -61.0503, 73.6226
2.452, 1, 27.666, 51.5317, -8.69661, 85.5107, -61.0037, 73.4947
2.456, 1, 27.7041, 51.515, -8.72025, 85.5659, -60.957, 73.3669
2.459, 1, 27.7422, 51.4983, -8.74388, 85.6212, -60.9104, 73.2392
2.464, 1, 27.7803, 51.4817, -8.7675, 85.6764, -60.8639, 73.1116
2.468, 1, 27.8183, 51.465, -8.79109, 85.7315, -60.8173, 72.984
2.472, 1, 27.8563, 51.4483, -8.81467, 85.7866, -60.7709, 72.8566
2.476, 1, 27.8943, 51.4317, -8.83824, 85.8417, -60.7244, 72.7292
2.479, 1, 27.9323, 51.415, -8.86178, 85.8968, -60.678, 72.602
2.484, 1, 27.9703, 51.3984, -8.88532, 85.9518, -60.6316, 72.4748
2.488, 1, 28.0082, 51.3818, -8.90883, 86.0067, -60.5852, 72.3477
2.492, 1, 28.0461, 51.3652, -8.93233, 86.0616, -60.5389, 72.2207
2.495, 1, 28.0839, 51.3486, -8.95581, 86.1165, -60.4926, 72.0938
2.5, 1, 28.1218, 51.332, -8.97927, 86.1714, -60.4463, 71.967
2.504, 1, 28.1596, 51.3155, -9.00272, 86.2262, -60.4001, 71.8402
2.508, 1, 28.1974, 51.2989, -9.02616, 86.281, -60.3539, 71.7136
2.512, 1, 28.2352, 51.2824, -9.04957, 86.3357, -60.3077, 71.587
2.515, 1, 28.2729, 51.2658, -9.07297, 86.3904, -60.2616, 71.4605
2.52, 1, 28.3106, 51.2493, -9.09636, 86.4451, -60.2155, 71.3342
2.524, 1, 28.3483, 51.2328, -9.11973, 86.4997, -60.1694, 71.2079
2.528, 1, 28.3859, 51.2163, -9.14308, 86.5543, -60.1233, 71.0816
2.531, 1, 28.4236, 51.1998, -9.16642, 86.6088, -60.0773, 70.9555
2.536, 1, 28.4612, 51.1833, -9.18974, 86.6633, -60.0313, 70.8295
2.54, 1, 28.4988, 51.1669, -9.21304, 86.7178, -59.9854, 70.7035
2.544, 1, 28.5363, 51.1504, -9.23633, 86.7722, -59.9395, 70.5777
2.548, 1, 28.5738, 51.134, -9.2596, 86.8266, -59.8936, 70.4519
2.551, 1, 28.6114, 51.1176, -9.28286, 86.881, -59.8477, 70.3262
2.556, 1, 28.6488, 51.1011, -9.3061, 86.9353, -59.8019, 70.2006
2.56, 1, 28.6863, 51.0847, -9.32933, 86.9896, -59.7561, 70.075
2.564, 1, 28.7237, 51.0683, -9.35254, 87.0439, -59.7104, 69.9496
2.568, 1, 28.7611, 51.0519, -9.37573, 87.0981, -59.6646, 69.8242
2.571, 1, 28.7985, 51.0356, -9.39891, 87.1523, -59.6189, 69.699
2.576, 1, 28.8358, 51.0192, -9.42207, 87.2064, -59.5732, 69.5738
2.58, 1, 28.8732, 51.0028, -9.44522, 87.2605, -59.5276, 69.4487
2.584, 1, 28.9105, 50.9865, -9.46835, 87.3146, -59.482, 69.3236
2.587, 1, 28.9478, 50.9702, -9.49147, 87.3686, -59.4364, 69.1987
2.592, 1, 28.985, 50.9539, -9.51457, 87.4226, -59.3909, 69.0739
2.596, 1, 29.0222, 50.9375, -9.53765, 87.4766, -59.3453, 68.9491
2.6, 1, 29.0594, 50.9212, -9.56073, 87.5305, -59.2999, 68.8244
2.604, 1, 29.0966, 50.905, -9.58378, 87.5844, -59.2544, 68.6998
2.607, 1, 29.1338, 50.8887, -9.60682, 87.6382, -59.209, 68.5753
2.612, 1, 29.1709, 50.8724, -9.62984, 87.6921, -59.1636, 68.4508
2.616, 1, 29.208, 50.8562, -9.65285, 87.7458, -59.1182, 68.3265
2.62, 1, 29.2451, 50.8399, -9.67585, 87.7996, -59.0729, 68.2022
2.624, 1, 29.2821, 50.8237, -9.69883, 87.8533, -59.0276, 68.078
2.627, 1, 29.3192, 50.8075, -9.72179, 87.907, -58.9823, 67.9539
2.632, 1, 29.3562, 50.7912, -9.74474, 87.9606, -58.937, 67.8298
2.636, 1, 29.3932, 50.775, -9.76767, 88.0142, -58.8918, 67.7059
2.64, 1, 29.4301, 50.7588, -9.79059, 88.0678, -58.8466, 67.582
2.643, 1, 29.4671, 50.7427, -9.8135, 88.1213, -58.8015, 67.4582
2.648, 1, 29.504, 50.7265, -9.83638, 88.1749, -58.7563, 67.3345
2.652, 1, 29.5409, 50.7103, -9.85926, 88.2283, -58.7112, 67.2109
2.656, 1, 29.5777, 50.6942, -9.88212, 88.2817, -58.6662, 67.0874
2.66, 1, 29.6146, 50.678, -9.90496, 88.3351, -58.6211, 66.9639
2.663, 1, 29.6514, 50.6619, -9.92779, 88.3885, -58.5761, 66.8405
2.668, 1, 29.6882, 50.6458, -9.9506, 88.4418, -58.5311, 66.7172
2.672, 1, 29.7249, 50.6297, -9.9734, 88.4951, -58.4862, 66.594
2.676, 1, 29.7617, 50.6136, -9.99619, 88.5484, -58.4412, 66.4708
2.679, 1, 29.7984, 50.5975, -10.019, 88.6016, -58.3964, 66.3478
2.684, 1, 29.8351, 50.5814, -10.0417, 88.6548, -58.3515, 66.2248
2.688, 1, 29.8718, 50.5654, -10.0645, 88.708, -58.3066, 66.1019
2.692, 1, 29.9084, 50.5493, -10.0872, 88.7611, -58.2618, 65.979
2.696, 1, 29.945, 50.5333, -10.1099, 88.8142, -58.2171, 65.8563
2.699, 1, 29.9816, 50.5172, -10.1326, 88.8672, -58.1723, 65.7336
2.704, 1, 30.0182, 50.5012, -10.1553, 88.9202, -58.1276, 65.611
2.708, 1, 30.0548, 50.4852, -10.1779, 88.9732, -58.0829, 65.4885
2.712, 1, 30.0913, 50.4692, -10.2006, 89.0262, -58.0382, 65.3661
2.716, 1, 30.1278, 50.4532, -10.2232, 89.0791, -57.9936, 65.2437
2.719, 1, 30.1643, 50.4372, -10.2459, 89.132, -57.949, 65.1214
2.724, 1, 30.2008, 50.4212, -10.2685, 89.1849, -57.9044, 64.9992
2.728, 1, 30.2372, 50.4053, -10.2911, 89.2377, -57.8598, 64.8771
2.732, 1, 30.2736, 50.3893, -10.3137, 89.2905, -57.8153, 64.755
2.735, 1, 30.31, 50.3734, -10.3362, 89.3432, -57.7708, 64.6331
2.74, 1, 30.3464, 50.3574, -10.3588, 89.3959, -57.7263, 64.5112
2.744, 1, 30.3827, 50.3415, -10.3813, 89.4486, -57.6819, 64.3893
2.748, 1, 30.419, 50.3256, -10.4038, 89.5013, -57.6375, 64.2676
2.752, 1, 30.4553, 50.3097, -10.4263, 89.5539, -57.5931, 64.1459
2.755, 1, 30.4916, 50.2938, -10.4488, 89.6065, -57.5487, 64.0243
2.76, 1, 30.5279, 50.2779, -10.4713, 89.659, -57.5044, 63.9028
2.764, 1, 30.5641, 50.262, -10.4938, 89.7115, -57.4601, 63.7814
2.768, 1, 30.6003, 50.2462, -10.5163, 89.764, -57.4158, 63.66
2.772, 1, 30.6365, 50.2303, -10.5387, 89.8165, -57.3716, 63.5387
2.775, 1, 30.6727, 50.2145, -10.5611, 89.8689, -57.3274, 63.4175
2.78, 1, 30.7088, 50.1986, -10.5835, 89.9213, -57.2832, 63.2964
2.784, 1, 30.7449, 50.1828, -10.6059, 89.9737, -57.239, 63.1753
2.788, 1, 30.781, 50.167, -10.6283, 90.026, -57.1949, 63.0543
2.791, 1, 30.8171, 50.1512, -10.6507, 90.0783, -57.1508, 62.9334
2.796, 1, 30.8532, 50.1354, -10.673, 90.1305, -57.1067, 62.8126
2.8, 1, 30.8892, 50.1196, -10.6954, 90.1828, -57.0626, 62.6918
2.804, 1, 30.9252, 50.1038, -10.7177, 90.235, -57.0186, 62.5711
2.808, 1, 30.9612, 50.0881, -10.74, 90.2871, -56.9746, 62.4505
2.811, 1, 30.9972, 50.0723, -10.7623, 90.3393, -56.9306, 62.33
2.816, 1, 31.0331, 50.0566, -10.7846, 90.3914, -56.8867, 62.2095
2.82, 1, 31.069, 50.0408, -10.8069, 90.4434, -56.8427, 62.0891
2.824, 1, 31.1049, 50.0251, -10.8292, 90.4955, -56.7988, 61.9688
2.828, 1, 31.1408, 50.0094, -10.8514, 90.5475, -56.755, 61.8485
2.831, 1, 31.1767, 49.9937, -10.8737, 90.5994, -56.7111, 61.7284
2.836, 1, 31.2125, 49.978, -10.8959, 90.6514, -56.6673, 61.6083
2.84, 1, 31.2483, 49.9623, -10.9181, 90.7033, -56.6235, 61.4882
2.844, 1, 31.2841, 49.9466, -10.9403, 90.7552, -56.5798, 61.3683
2.847, 1, 31.3199, 49.9309, -10.9625, 90.807, -56.536, 61.2484
2.852, 1, 31.3556, 49.9153, -10.9846, 90.8588, -56.4923, 61.1286
2.856, 1, 31.3913, 49.8996, -11.0068, 90.9106, -56.4486, 61.0088
2.86, 1, 31.427, 49.884, -11.0289, 90.9624, -56.405, 60.8892
2.864, 1, 31.4627, 49.8683, -11.0511, 91.0141, -56.3614, 60.7696
2.867, 1, 31.4984, 49.8527, -11.0732, 91.0658, -56.3177, 60.6501
2.872, 1, 31.534, 49.8371, -11.0953, 91.1175, -56.2742, 60.5306
2.876, 1, 31.5697, 49.8215, -11.1174, 91.1691, -56.2306, 60.4112
2.88, 1, 31.6053, 49.8059, -11.1394, 91.2207, -56.1871, 60.2919
2.883, 1, 31.6408, 49.7903, -11.1615, 91.2723, -56.1436, 60.1727
2.888, 1, 31.6764, 49.7747, -11.1835, 91.3238, -56.1001, 60.0535
2.892, 1, 31.7119, 49.7592, -11.2056, 91.3753, -56.0567, 59.9344
2.896, 1, 31.7474, 49.7436, -11.2276, 91.4268, -56.0133, 59.8154
2.9, 1, 31.7829, 49.7281, -11.2496, 91.4782, -55.9699, 59.6964
2.903, 1, 31.8184, 49.7125, -11.2716, 91.5296, -55.9265, 59.5776
2.908, 1, 31.8538, 49.697, -11.2936, 91.581, -55.8831, 59.4587
2.912, 1, 31.8893, 49.6815, -11.3156, 91.6324, -55.8398, 59.34
2.916, 1, 31.9247, 49.666, -11.3375, 91.6837, -55.7965, 59.2213
2.92, 1, 31.9601, 49.6504, -11.3595, 91.735, -55.7533, 59.1027
2.923, 1, 31.9954, 49.635, -11.3814, 91.7863, -55.71, 58.9842
2.928, 1, 32.0308, 49.6195, -11.4033, 91.8375, -55.6668, 58.8657
2.932, 1, 32.0661, 49.604, -11.4252, 91.8887, -55.6236, 58.7473
2.936, 1, 32.1014, 49.5885, -11.4471, 91.9399, -55.5804, 58.629
2.939, 1, 32.1367, 49.5731, -11.469, 91.991, -55.5373, 58.5107
2.944, 1, 32.172, 49.5576, -11.4909, 92.0421, -55.4942, 58.3925
2.948, 1, 32.2072, 49.5422, -11.5127, 92.0932, -55.4511, 58.2744
2.952, 1, 32.2424, 49.5267, -11.5346, 92.1443, -55.408, 58.1564
2.956, 1, 32.2776, 49.5113, -11.5564, 92.1953, -55.365, 58.0384
2.959, 1, 32.3128, 49.4959, -11.5782, 92.2463, -55.322, 57.9205
2.964, 1, 32.348, 49.4805, -11.6, 92.2973, -55.279, 57.8026
2.968, 1, 32.3831, 49.4651, -11.6218, 92.3482, -55.236, 57.6848
2.972, 1, 32.4182, 49.4497, -11.6436, 92.3991, -55.1931, 57.5671
2.976, 1, 32.4533, 49.4343, -11.6653, 92.45, -55.1501, 57.4495
2.98, 1, 32.4884, 49.419, -11.6871, 92.5009, -55.1072, 57.3319
2.984, 1, 32.5235, 49.4036, -11.7088, 92.5517, -55.0644, 57.2144
2.988, 1, 32.5585, 49.3883, -11.7306, 92.6025, -55.0215, 57.097
2.992, 1, 32.5935, 49.3729, -11.7523, 92.6532, -54.9787, 56.9796
2.995, 1, 32.6285, 49.3576, -11.774, 92.704, -54.9359, 56.8623
3, 1, 32.6635, 49.3423, -11.7957, 92.7547, -54.8931, 56.745
3.004, 1, 32.6985, 49.3269, -11.8174, 92.8054, -54.8504, 56.6278
3.008, 1, 32.7334, 49.3116, -11.839, 92.856, -54.8077, 56.5107
3.012, 1, 32.7684, 49.2963, -11.8607, 92.9066, -54.765, 56.3937
3.015, 1, 32.8033, 49.281, -11.8823, 92.9572, -54.7223, 56.2767
3.02, 1, 32.8381, 49.2658, -11.904, 93.0078, -54.6796, 56.1598
3.024, 1, 32.873, 49.2505, -11.9256, 93.0583, -54.637, 56.0429
3.028, 1, 32.9079, 49.2352, -11.9472, 93.1088, -54.5944, 55.9262
3.031, 1, 32.9427, 49.22, -11.9688, 93.1593, -54.5518, 55.8094
3.036, 1, 32.9775, 49.2047, -11.9904, 93.2098, -54.5093, 55.6928
3.04, 1, 33.0123, 49.1895, -12.0119, 93.2602, -54.4667, 55.5762
3.044, 1, 33.047, 49.1742, -12.0335, 93.3106, -54.4242, 55.4597
3.048, 1, 33.0818, 49.159, -12.0551, 93.3609, -54.3817, 55.3432
3.051, 1, 33.1165, 49.1438, -12.0766, 93.4113, -54.3393, 55.2268
3.056, 1, 33.1512, 49.1286, -12.0981, 93.4616, -54.2968, 55.1105
3.06, 1, 33.1859, 49.1134, -12.1196, 93.5119, -54.2544, 54.9942
3.064, 1, 33.2206, 49.0982, -12.1411, 93.5621, -54.212, 54.878
3.068, 1, 33.2552, 49.083, -12.1626, 93.6124, -54.1697, 54.7619
3.071, 1, 33.2899, 49.0679, -12.1841, 93.6626, -54.1273, 54.6458
3.076, 1, 33.3245, 49.0527, -12.2056, 93.7127, -54.085, 54.5298
3.08, 1, 33.3591, 49.0375, -12.227, 93.7629, -54.0427, 54.4139
3.084, 1, 33.3936, 49.0224, -12.2484, 93.813, -54.0004, 54.298
3.087, 1, 33.4282, 49.0072, -12.2699, 93.8631, -53.9582, 54.1822
3.092, 1, 33.4627, 48.9921, -12.2913, 93.9131, -53.916, 54.0664
3.096, 1, 33.4972, 48.977, -12.3127, 93.9632, -53.8737, 53.9507
3.1, 1, 33.5317, 48.9619, -12.3341, 94.0132, -53.8316, 53.8351
3.104, 1, 33.5662, 48.9468, -12.3555, 94.0632, -53.7894, 53.7195
3.107, 1, 33.6007, 48.9317, -12.3768, 94.1131, -53.7473, 53.604
3.112, 1, 33.6351, 48.9166, -12.3982, 94.163, -53.7052, 53.4886
3.116, 1, 33.6696, 48.9015, -12.4196, 94.213, -53.6631, 53.3732
3.12, 1, 33.704, 48.8864, -12.4409, 94.2628, -53.621, 53.2579
3.124, 1, 33.7384, 48.8714, -12.4622, 94.3127, -53.5789, 53.1426
3.128, 1, 33.7727, 48.8563, -12.4835, 94.3625, -53.5369, 53.0274
3.132, 1, 33.8071, 48.8412, -12.5048, 94.4123, -53.4949, 52.9123
3.136, 1, 33.8414, 48.8262, -12.5261, 94.462, -53.4529, 52.7972
3.14, 1, 33.8757, 48.8112, -12.5474, 94.5118, -53.411, 52.6822
3.143, 1, 33.91, 48.7961, -12.5687, 94.5615, -53.369, 52.5673
3.148, 1, 33.9443, 48.7811, -12.5899, 94.6112, -53.3271, 52.4524
3.152, 1, 33.9786, 48.7661, -12.6112, 94.6608, -53.2852, 52.3376
3.156, 1, 34.0128, 48.7511, -12.6324, 94.7105, -53.2434, 52.2228
3.16, 1, 34.047, 48.7361, -12.6536, 94.7601, -53.2015, 52.1081
3.163, 1, 34.0812, 48.7211, -12.6748, 94.8097, -53.1597, 51.9935
3.168, 1, 34.1154, 48.7062, -12.696, 94.8592, -53.1179, 51.8789
3.172, 1, 34.1496, 48.6912, -12.7172, 94.9087, -53.0761, 51.7644
3.176, 1, 34.1837, 48.6762, -12.7384, 94.9582, -53.0344, 51.6499
3.179, 1, 34.2179, 48.6613, -12.7596, 95.0077, -52.9926, 51.5355
3.184, 1, 34.252, 48.6463, -12.7807, 95.0572, -52.9509, 51.4212
3.188, 1, 34.2861, 48.6314, -12.8019, 95.1066, -52.9092, 51.3069
3.192, 1, 34.3202, 48.6165, -12.823, 95.156, -52.8676, 51.1927
3.196, 1, 34.3542, 48.6015, -12.8441, 95.2054, -52.8259, 51.0785
3.199, 1, 34.3883, 48.5866, -12.8652, 95.2547, -52.7843, 50.9644
3.204, 1, 34.4223, 48.5717, -12.8863, 95.304, -52.7427, 50.8504
3.208, 1, 34.4563, 48.5568, -12.9074, 95.3533, -52.7011, 50.7364
3.212, 1, 34.4903, 48.5419, -12.9285, 95.4026, -52.6596, 50.6225
3.216, 1, 34.5243, 48.527, -12.9496, 95.4518, -52.618, 50.5086
3.22, 1, 34.5582, 48.5122, -12.9706, 95.5011, -52.5765, 50.3948
3.224, 1, 34.5921, 48.4973, -12.9917, 95.5502, -52.535, 50.2811
3.228, 1, 34.6261, 48.4824, -13.0127, 95.5994, -52.4935, 50.1674
3.232, 1, 34.66, 48.4676, -13.0337, 95.6486, -52.4521, 50.0538
3.235, 1, 34.6938, 48.4527, -13.0547, 95.6977, -52.4106, 49.9402
3.24, 1, 34.7277, 48.4379, -13.0757, 95.7468, -52.3692, 49.8267
3.244, 1, 34.7616, 48.4231, -13.0967, 95.7958, -52.3278, 49.7132
3.248, 1, 34.7954, 48.4082, -13.1177, 95.8449, -52.2865, 49.5998
3.252, 1, 34.8292, 48.3934, -13.1387, 95.8939, -52.2451, 49.4865
3.255, 1, 34.863, 48.3786, -13.1596, 95.9429, -52.2038, 49.3732
3.26, 1, 34.8968, 48.3638, -13.1806, 95.9918, -52.1625, 49.26
3.264, 1, 34.9306, 48.349, -13.2015, 96.0408, -52.1212, 49.1469
3.268, 1, 34.9643, 48.3342, -13.2224, 96.0897, -52.08, 49.0337
3.272, 1, 34.998, 48.3195, -13.2434, 96.1386, -52.0387, 48.9207
3.276, 1, 35.0317, 48.3047, -13.2643, 96.1875, -51.9975, 48.8077
3.28, 1, 35.0654, 48.2899, -13.2852, 96.2363, -51.9563, 48.6948
3.284, 1, 35.0991, 48.2752, -13.306, 96.2851, -51.9151, 48.5819
3.288, 1, 35.1328, 48.2604, -13.3269, 96.3339, -51.874, 48.4691
3.291, 1, 35.1664, 48.2457, -13.3478, 96.3827, -51.8328, 48.3563
3.296, 1, 35.2001, 48.231, -13.3686, 96.4314, -51.7917, 48.2436
3.3, 1, 35.2337, 48.2162, -13.3895, 96.4801, -51.7506, 48.131
3.304, 1, 35.2672, 48.2015, -13.4103, 96.5288, -51.7095, 48.0184
3.308, 1, 35.3007, 48.1869, -13.4311, 96.5775, -51.6685, 47.9058
3.312, 1, 35.3339, 48.1723, -13.452, 96.6262, -51.6275, 47.7934
3.316, 1, 35.3665, 48.158, -13.4729, 96.6747, -51.5865, 47.681
3.32, 1, 35.3983, 48.1441, -13.4938, 96.7232, -51.5456, 47.5688
3.324, 1, 35.429, 48.1308, -13.5148, 96.7716, -51.5049, 47.457
3.328, 1, 35.4584, 48.1181, -13.5358, 96.8196, -51.4644, 47.3458
3.332, 1, 35.4865, 48.1061, -13.5568, 96.8672, -51.4243, 47.2356
3.336, 1, 35.5134, 48.0948, -13.5777, 96.9142, -51.3848, 47.1269
3.34, 1, 35.5391, 48.0842, -13.5983, 96.9602, -51.3461, 47.0204
3.344, 1, 35.5638, 48.0741, -13.6184, 97.005, -51.3085, 46.9167
3.347, 1, 35.5875, 48.0644, -13.6378, 97.0482, -51.2721, 46.8166
3.352, 1, 35.6103, 48.0551, -13.6564, 97.0895, -51.2374, 46.7209
3.356, 1, 35.632, 48.0463, -13.674, 97.1287, -51.2044, 46.6302
3.36, 1, 35.6526, 48.0379, -13.6904, 97.1653, -51.1736, 46.5453
3.364, 1, 35.6721, 48.0299, -13.7056, 97.1992, -51.145, 46.4667
3.368, 1, 35.6907, 48.0221, -13.7193, 97.2302, -51.119, 46.3951
3.372, 1, 35.7085, 48.0145, -13.7314, 97.2581, -51.0955, 46.3306
3.376, 1, 35.7256, 48.007, -13.742, 97.2828, -51.0747, 46.2735
3.38, 1, 35.7422, 47.9995, -13.7509, 97.3043, -51.0565, 46.2238
3.383, 1, 35.758, 47.9922, -13.7583, 97.3228, -51.0408, 46.1812
3.388, 1, 35.773, 47.985, -13.7643, 97.3383, -51.0276, 46.1454
3.392, 1, 35.7868, 47.9783, -13.769, 97.3512, -51.0167, 46.1157
3.396, 1, 35.7993, 47.9722, -13.7726, 97.3617, -51.0077, 46.0916
3.4, 2, 35.8103, 47.9666, -13.7754, 97.3701, -51.0005, 46.0723
3.403, 2, 35.8201, 47.9617, -13.7774, 97.3767, -50.9949, 46.0573
3.408, 2, 35.8288, 47.9574, -13.7788, 97.3817, -50.9905, 46.0457
3.412, 2, 35.8364, 47.9536, -13.7797, 97.3855, -50.9872, 46.037
3.416, 2, 35.8429, 47.9504, -13.7803, 97.3884, -50.9848, 46.0306
3.42, 2, 35.8486, 47.9477, -13.7806, 97.3904, -50.983, 46.026
3.424, 2, 35.8532, 47.9455, -13.7808, 97.3918, -50.9817, 46.0228
3.428, 2, 35.8569, 47.9438, -13.7809, 97.3928, -50.9808, 46.0206
3.432, 2, 35.8597, 47.9426, -13.7809, 97.3935, -50.9802, 46.019
3.436, 2, 35.8617, 47.9417, -13.7809, 97.3939, -50.9798, 46.018
3.439, 2, 35.8631, 47.9411, -13.7809, 97.3943, -50.9795, 46.0173
3.444, 2, 35.864, 47.9407, -13.7809, 97.3945, -50.9794, 46.0168
3.448, 2, 35.8647, 47.9404, -13.7809, 97.3946, -50.9792, 46.0165
3.452, 2, 35.8651, 47.9402, -13.7809, 97.3947, -50.9791, 46.0163
3.456, 2, 35.8654, 47.9401, -13.7809, 97.3948, -50.9791, 46.0161
3.46, 2, 35.8656, 47.94, -13.7809, 97.3948, -50.979, 46.016
3.464, 2, 35.8657, 47.9399, -13.7809, 97.3948, -50.979, 46.016
3.468, 2, 35.8658, 47.9399, -13.7809, 97.3949, -50.979, 46.0159
3.472, 2, 35.8659, 47.9399, -13.7809, 97.3949, -50.979, 46.0159
3.476, 2, 35.8659, 47.9399, -13.7809, 97.3949, -50.979, 46.0159
3.48, 2, 35.8659, 47.9399, -13.7809, 97.3949, -50.979, 46.0159
3.484, 2, 35.866, 47.9398, -13.7809, 97.3949, -50.979, 46.0159
3.488, 2, 35.866, 47.9398, -13.7809, 97.3949, -50.979, 46.0159
3.492, 2, 35.866, 47.9398, -13.7809, 97.3949, -50.979, 46.0158
3.495, 2, 35.866, 47.9398, -13.7809, 97.3949, -50.979, 46.0158
3.5, 2, 35.866, 47.9398, -13.7809, 97.3949, -50.979, 46.0158
3.504, 2, 35.866, 47.9398, -13.7809, 97.3949, -50.979, 46.0158
3.508, 2, 35.866, 47.9398, -13.7809, 97.3949, -50.979, 46.0158
3.512, 2, 35.866, 47.9398, -13.7809, 97.3949, -50.979, 46.0158
3.516, 2, 35.866, 47.9398, -13.7809, 97.3949, -50.979, 46.0158
3.52, 2, 35.866, 47.9398, -13.7809, 97.3949, -50.979, 46.0158
3.524, 2, 35.866, 47.9398, -13.7809, 97.3949, -50.979, 46.0158
3.528, 2, 35.866, 47.9398, -13.7809, 97.3949, -50.979, 46.0158
3.531, 2, 35.866, 47.9398, -13.7809, 97.3949, -50.979, 46.0158
3.536, 2, 35.866, 47.9398, -13.7809, 97.3949, -50.979, 46.0158
3.54, 2, 35.866, 47.9398, -13.7809, 97.3949, -50.979, 46.0158
3.544, 2, 35.866, 47.9398, -13.7809, 97.3949, -50.979, 46.0158
3.548, 2, 35.866, 47.9398, -13.7809, 97.3949, -50.979, 46.0158
3.552, 2, 35.866, 47.9398, -13.7809, 97.3949, -50.979, 46.0158
3.556, 2, 35.866, 47.9398, -13.7809, 97.3949, -50.979, 46.0158
3.56, 2, 35.866, 47.9398, -13.7809, 97.3949, -50.979, 46.0158
3.564, 2, 35.866, 47.9398, -13.7809, 97.3949, -50.979, 46.0158
3.568, 2, 35.866, 47.9398, -13.7809, 97.3949, -50.979, 46.0158
3.572, 2, 35.866, 47.9398, -13.7809, 97.3949, -50.979, 46.0158
3.576, 2, 35.866, 47.9398, -13.7809, 97.3949, -50.979, 46.0158
3.58, 2, 35.866, 47.9398, -13.7809, 97.3949, -50.979, 46.0158
3.584, 2, 35.866, 47.9398, -13.7809, 97.3949, -50.979, 46.0158
3.587, 2, 35.866, 47.9398, -13.7809, 97.3949, -50.979, 46.0158
3.592, 2, 35.866, 47.9398, -13.7809, 97.3949, -50.979, 46.0158
3.596, 2, 35.866, 47.9398, -13.7809, 97.3949, -50.979, 46.0158
3.6, 2, 35.866, 47.9398, -13.7809, 97.3949, -50.979, 46.0158
3.604, 2, 35.866, 47.9398, -13.7809, 97.3949, -50.979, 46.0158
3.608, 2, 35.866, 47.9398, -13.7809, 97.3949, -50.979, 46.0158
3.612, 2, 35.866, 47.9398, -13.7809, 97.3949, -50.979, 46.0158
3.616, 2, 35.866, 47.9398, -13.7809, 97.3949, -50.979, 46.0158
3.62, 2, 35.866, 47.9398, -13.7809, 97.3949, -50.979, 46.0158
3.624, 2, 35.866, 47.9398, -13.7809, 97.3949, -50.979, 46.0158
3.628, 2, 35.866, 47.9398, -13.7809, 97.3949, -50.979, 46.0158
3.632, 2, 35.866, 47.9398, -13.7809, 97.3949, -50.979, 46.0158
3.636, 2, 35.866, 47.9398, -13.7809, 97.3949, -50.979, 46.0158
3.64, 2, 35.866, 47.9398, -13.7809, 97.3949, -50.979, 46.0158
3.644, 2, 35.866, 47.9398, -13.7809, 97.3949, -50.979, 46.0158
3.648, 2, 35.866, 47.9398, -13.7809, 97.3949, -50.979, 46.0158
3.652, 2, 35.866, 47.9398, -13.7809, 97.3949, -50.979, 46.0158
3.656, 2, 35.866, 47.9398, -13.7809, 97.3949, -50.979, 46.0158
3.66, 2, 35.866, 47.9398, -13.7809, 97.3949, -50.979, 46.0158
3.664, 2, 35.866, 47.9398, -13.7809, 97.3949, -50.979, 46.0158
3.668, 2, 35.866, 47.9398, -13.7809, 97.3949, -50.979, 46.0158
3.672, 2, 35.866, 47.9398, -13.7809, 97.3949, -50.979, 46.0158
3.676, 2, 35.866, 47.9398, -13.7809, 97.3949, -50.979, 46.0158
3.679, 2, 35.866, 47.9398, -13.7809, 97.3949, -50.979, 46.0158
3.684, 2, 35.866, 47.9398, -13.7809, 97.3949, -50.979, 46.0158
3.688, 2, 35.866, 47.9398, -13.7809, 97.3949, -50.979, 46.0158
3.692, 2, 35.866, 47.9398, -13.7809, 97.3949, -50.979, 46.0158
3.696, 2, 35.866, 47.9398, -13.7809, 97.3949, -50.979, 46.0158
3.7, 2, 35.866, 47.9398, -13.7809, 97.3949, -50.979, 46.0158
3.704, 2, 35.866, 47.9398, -13.7809, 97.3949, -50.979, 46.0158
3.708, 2, 35.866, 47.9398, -13.7809, 97.3949, -50.979, 46.0158
3.712, 2, 35.866, 47.9398, -13.7809, 97.3949, -50.979, 46.0158
3.716, 2, 35.866, 47.9398, -13.7809, 97.3949, -50.979, 46.0158
3.72, 2, 35.866, 47.9398, -13.7809, 97.3949, -50.979, 46.0158
3.724, 2, 35.866, 47.9398, -13.7809, 97.3949, -50.979, 46.0158
3.728, 2, 35.866, 47.9398, -13.7809, 97.3949, -50.979, 46.0158
3.732, 2, 35.866, 47.9398, -13.7809, 97.3949, -50.979, 46.0158
3.735, 2, 35.866, 47.9398, -13.7809, 97.3949, -50.979, 46.0158
3.74, 2, 35.866, 47.9398, -13.7809, 97.3949, -50.979, 46.0158
3.744, 2, 35.866, 47.9398, -13.7809, 97.3949, -50.979, 46.0158
3.748, 2, 35.866, 47.9398, -13.7809, 97.3949, -50.979, 46.0158
3.752, 2, 35.866, 47.9398, -13.7809, 97.3949, -50.979, 46.0158
3.756, 2, 35.866, 47.9398, -13.7809, 97.3949, -50.979, 46.0158
3.76, 2, 35.866, 47.9398, -13.7809, 97.3949, -50.979, 46.0158
3.764, 2, 35.866, 47.9398, -13.7809, 97.3949, -50.979, 46.0158
3.768, 2, 35.866, 47.9398, -13.7809, 97.3949, -50.979, 46.0158
3.772, 2, 35.866, 47.9398, -13.7809, 97.3949, -50.979, 46.0158
3.776, 2, 35.866, 47.9398, -13.7809, 97.3949, -50.979, 46.0158
3.78, 2, 35.866, 47.9398, -13.7809, 97.3949, -50.979, 46.0158
3.784, 2, 35.866, 47.9398, -13.7809, 97.3949, -50.979, 46.0158
3.788, 2, 35.866, 47.9398, -13.7809, 97.3949, -50.979, 46.0158
3.792, 2, 35.866, 47.9398, -13.7809, 97.3949, -50.979, 46.0158
3.796, 2, 35.866, 47.9398, -13.7809, 97.3949, -50.979, 46.0158
3.8, 2, 35.866, 47.9398, -13.7809, 97.3949, -50.979, 46.0158
3.804, 2, 35.866, 47.9398, -13.7809, 97.3949, -50.979, 46.0158
3.808, 2, 35.866, 47.9398, -13.7809, 97.3949, -50.979, 46.0158
3.812, 2, 35.866, 47.9398, -13.7809, 97.3949, -50.979, 46.0158
3.816, 2, 35.866, 47.9398, -13.7809, 97.3949, -50.979, 46.0158
3.82, 2, 35.866, 47.9398, -13.7809, 97.3949, -50.979, 46.0158
3.824, 2, 35.866, 47.9398, -13.7809, 97.3949, -50.979, 46.0158
3.828, 2, 35.866, 47.9398, -13.7809, 97.3949, -50.979, 46.0158
3.832, 2, 35.866, 47.9398, -13.7809, 97.3949, -50.979, 46.0158
3.836, 2, 35.866, 47.9398, -13.7809, 97.3949, -50.979, 46.0158
3.84, 2, 35.866, 47.9398, -13.7809, 97.3949, -50.979, 46.0158
3.844, 2, 35.866, 47.9398, -13.7809, 97.3949, -50.979, 46.0158
3.848, 2, 35.866, 47.9398, -13.7809, 97.3949, -50.979, 46.0158
3.852, 2, 35.866, 47.9398, -13.7809, 97.3949, -50.979, 46.0158
3.856, 2, 35.866, 47.9398, -13.7809, 97.3949, -50.979, 46.0158
3.86, 2, 35.866, 47.9398, -13.7809, 97.3949, -50.979, 46.0158
3.864, 2, 35.866, 47.9398, -13.7809, 97.3949, -50.979, 46.0158
3.868, 2, 35.866, 47.9398, -13.7809, 97.3949, -50.979, 46.0158
3.872, 2, 35.866, 47.9398, -13.7809, 97.3949, -50.979, 46.0158
3.876, 2, 35.866, 47.9398, -13.7809, 97.3949, -50.979, 46.0158
3.88, 2, 35.866, 47.9398, -13.7809, 97.3949, -50.979, 46.0158
3.884, 2, 35.866, 47.9398, -13.7809, 97.3949, -50.979, 46.0158
3.888, 2, 35.866, 47.9398, -13.7809, 97.3949, -50.979, 46.0158
3.892, 2, 35.866, 47.9398, -13.7809, 97.3949, -50.979, 46.0158
3.896, 2, 35.866, 47.9398, -13.7809, 97.3949, -50.979, 46.0158
3.9, 2, 35.866, 47.9398, -13.7809, 97.3949, -50.979, 46.0158
3.904, 2, 35.866, 47.9398, -13.7809, 97.3949, -50.979, 46.0158
3.908, 2, 35.866, 47.9398, -13.7809, 97.3949, -50.979, 46.0158
3.912, 2, 35.866, 47.9398, -13.7809, 97.3949, -50.979, 46.0158
3.916, 2, 35.866, 47.9398, -13.7809, 97.3949, -50.979, 46.0158
3.92, 2, 35.866, 47.9398, -13.7809, 97.3949, -50.979, 46.0158
3.924, 2, 35.866, 47.9398, -13.7809, 97.3949, -50.979, 46.0158
3.928, 2, 35.866, 47.9398, -13.7809, 97.3949, -50.979, 46.0158
3.932, 2, 35.866, 47.9398, -13.7809, 97.3949, -50.979, 46.0158
3.936, 2, 35.866, 47.9398, -13.7809, 97.3949, -50.979, 46.0158
3.94, 2, 35.866, 47.9398, -13.7809, 97.3949, -50.979, 46.0158
3.944, 2, 35.866, 47.9398, -13.7809, 97.3949, -50.979, 46.0158
3.948, 2, 35.866, 47.9398, -13.7809, 97.3949, -50.979, 46.0158
3.952, 2, 35.866, 47.9398, -13.7809, 97.3949, -50.979, 46.0158
3.956, 2, 35.866, 47.9398, -13.7809, 97.3949, -50.979, 46.0158
3.96, 2, 35.866, 47.9398, -13.7809, 97.3949, -50.979, 46.0158
3.964, 2, 35.866, 47.9398, -13.7809, 97.3949, -50.979, 46.0158
3.968, 2, 35.866, 47.9398, -13.7809, 97.3949, -50.979, 46.0158
3.972, 2, 35.866, 47.9398, -13.7809, 97.3949, -50.979, 46.0158
3.976, 2, 35.866, 47.9398, -13.7809, 97.3949, -50.979, 46.0158
3.98, 2, 35.866, 47.9398, -13.7809, 97.3949, -50.979, 46.0158
3.984, 2, 35.866, 47.9398, -13.7809, 97.3949, -50.979, 46.0158
3.988, 2, 35.866, 47.9398, -13.7809, 97.3949, -50.979, 46.0158
3.992, 2, 35.866, 47.9398, -13.7809, 97.3949, -50.979, 46.0158
3.996, 2, 35.866, 47.9398, -13.7809, 97.3949, -50.979, 46.0158
3.999, 2, 35.866, 47.9398, -13.7809, 97.3949, -50.979, 46.0158
4.004, 2, 35.866, 47.9398, -13.7809, 97.3949, -50.979, 46.0158
4.008, 2, 35.866, 47.9398, -13.7809, 97.3949, -50.979, 46.0158
4.012, 2, 35.866, 47.9398, -13.7809, 97.3949, -50.979, 46.0158
4.016, 2, 35.866, 47.9398, -13.7809, 97.3949, -50.979, 46.0158
4.02, 2, 35.866, 47.9398, -13.7809, 97.3949, -50.979, 46.0158
4.024, 2, 35.866, 47.9398, -13.7809, 97.3949, -50.979, 46.0158
4.028, 2, 35.866, 47.9398, -13.7809, 97.3949, -50.979, 46.0158
4.032, 2, 35.866, 47.9398, -13.7809, 97.3949, -50.979, 46.0158
4.036, 2, 35.866, 47.9398, -13.7809, 97.3949, -50.979, 46.0158
4.04, 2, 35.866, 47.9398, -13.7809, 97.3949, -50.979, 46.0158
4.044, 2, 35.866, 47.9398, -13.7809, 97.3949, -50.979, 46.0158
4.048, 2, 35.866, 47.9398, -13.7809, 97.3949, -50.979, 46.0158
4.052, 2, 35.866, 47.9398, -13.7809, 97.3949, -50.979, 46.0158
4.056, 2, 35.866, 47.9398, -13.7809, 97.3949, -50.979, 46.0158
4.06, 2, 35.866, 47.9398, -13.7809, 97.3949, -50.979, 46.0158
4.064, 2, 35.866, 47.9398, -13.7809, 97.3949, -50.979, 46.0158
4.068, 2, 35.866, 47.9398, -13.7809, 97.3949, -50.979, 46.0158
4.072, 2, 35.866, 47.9398, -13.7809, 97.3949, -50.979, 46.0158
4.076, 2, 35.866, 47.9398, -13.7809, 97.3949, -50.979, 46.0158
4.08, 2, 35.866, 47.9398, -13.7809, 97.3949, -50.979, 46.0158
4.084, 2, 35.866, 47.9398, -13.7809, 97.3949, -50.979, 46.0158
4.088, 2, 35.866, 47.9398, -13.7809, 97.3949, -50.979, 46.0158
4.092, 2, 35.866, 47.9398, -13.7809, 97.3949, -50.979, 46.0158
4.096, 2, 35.866, 47.9398, -13.7809, 97.3949, -50.979, 46.0158
4.1, 2, 35.866, 47.9398, -13.7809, 97.3949, -50.979, 46.0158
4.104, 2, 35.866, 47.9398, -13.7809, 97.3949, -50.979, 46.0158
4.108, 2, 35.866, 47.9398, -13.7809, 97.3949, -50.979, 46.0158
4.112, 2, 35.866, 47.9398, -13.7809, 97.3949, -50.979, 46.0158
4.116, 2, 35.866, 47.9398, -13.7809, 97.3949, -50.979, 46.0158
4.12, 2, 35.866, 47.9398, -13.7809, 97.3949, -50.979, 46.0158
4.124, 2, 35.866, 47.9398, -13.7809, 97.3949, -50.979, 46.0158
4.128, 2, 35.866, 47.9398, -13.7809, 97.3949, -50.979, 46.0158
4.132, 2, 35.866, 47.9398, -13.7809, 97.3949, -50.979, 46.0158
4.136, 2, 35.866, 47.9398, -13.7809, 97.3949, -50.979, 46.0158
4.14, 2, 35.866, 47.9398, -13.7809, 97.3949, -50.979, 46.0158
4.144, 2, 35.866, 47.9398, -13.7809, 97.3949, -50.979, 46.0158
4.148, 2, 35.866, 47.9398, -13.7809, 97.3949, -50.979, 46.0158
4.152, 2, 35.866, 47.9398, -13.7809, 97.3949, -50.979, 46.0158
4.156, 2, 35.866, 47.9398, -13.7809, 97.3949, -50.979, 46.0158
4.16, 2, 35.866, 47.9398, -13.7809, 97.3949, -50.979, 46.0158
4.164, 2, 35.866, 47.9398, -13.7809, 97.3949, -50.979, 46.0158
4.168, 2, 35.866, 47.9398, -13.7809, 97.3949, -50.979, 46.0158
4.172, 2, 35.866, 47.9398, -13.7809, 97.3949, -50.979, 46.0158
4.176, 2, 35.866, 47.9398, -13.7809, 97.3949, -50.979, 46.0158
4.18, 2, 35.866, 47.9398, -13.7809, 97.3949, -50.979, 46.0158
4.184, 2, 35.866, 47.9398, -13.7809, 97.3949, -50.979, 46.0158
4.188, 2, 35.866, 47.9398, -13.7809, 97.3949, -50.979, 46.0158
4.192, 2, 35.866, 47.9398, -13.7809, 97.3949, -50.979, 46.0158
4.196, 2, 35.866, 47.9398, -13.7809, 97.3949, -50.979, 46.0158
4.2, 2, 35.866, 47.9398, -13.7809, 97.3949, -50.979, 46.0158
4.204, 2, 35.866, 47.9398, -13.7809, 97.3949, -50.979, 46.0158
4.208, 2, 35.866, 47.9398, -13.7809, 97.3949, -50.979, 46.0158
4.212, 2, 35.866, 47.9398, -13.7809, 97.3949, -50.979, 46.0158
4.216, 2, 35.866, 47.9398, -13.7809, 97.3949, -50.979, 46.0158
4.22, 2, 35.866, 47.9398, -13.7809, 97.3949, -50.979, 46.0158
4.224, 2, 35.866, 47.9398, -13.7809, 97.3949, -50.979, 46.0158
4.228, 2, 35.866, 47.9398, -13.7809, 97.3949, -50.979, 46.0158
4.232, 2, 35.866, 47.9398, -13.7809, 97.3949, -50.979, 46.0158
4.236, 2, 35.866, 47.9398, -13.7809, 97.3949, -50.979, 46.0158
4.24, 2, 35.866, 47.9398, -13.7809, 97.3949, -50.979, 46.0158
4.244, 2, 35.866, 47.9398, -13.7809, 97.3949, -50.979, 46.0158
4.248, 2, 35.866, 47.9398, -13.7809, 97.3949, -50.979, 46.0158
4.252, 2, 35.866, 47.9398, -13.7809, 97.3949, -50.979, 46.0158
4.256, 2, 35.866, 47.9398, -13.7809, 97.3949, -50.979, 46.0158
4.26, 2, 35.866, 47.9398, -13.7809, 97.3949, -50.979, 46.0158
4.264, 2, 35.866, 47.9398, -13.7809, 97.3949, -50.979, 46.0158
4.268, 2, 35.866, 47.9398, -13.7809, 97.3949, -50.979, 46.0158
4.272, 2, 35.866, 47.9398, -13.7809, 97.3949, -50.979, 46.0158
4.276, 2, 35.866, 47.9398, -13.7809, 97.3949, -50.979, 46.0158
4.28, 2, 35.866, 47.9398, -13.7809, 97.3949, -50.979, 46.0158
4.284, 2, 35.866, 47.9398, -13.7809, 97.3949, -50.979, 46.0158
4.288, 2, 35.866, 47.9398, -13.7809, 97.3949, -50.979, 46.0158
4.292, 2, 35.866, 47.9398, -13.7809, 97.3949, -50.979, 46.0158
4.296, 2, 35.866, 47.9398, -13.7809, 97.3949, -50.979, 46.0158
4.3, 2, 35.866, 47.9398, -13.7809, 97.3949, -50.979, 46.0158
4.304, 2, 35.866, 47.9398, -13.7809, 97.3949, -50.979, 46.0158
4.308, 2, 35.866, 47.9398, -13.7809, 97.3949, -50.979, 46.0158
4.312, 2, 35.866, 47.9398, -13.7809, 97.3949, -50.979, 46.0158
4.316, 2, 35.866, 47.9398, -13.7809, 97.3949, -50.979, 46.0158
4.32, 2, 35.866, 47.9398, -13.7809, 97.3949, -50.979, 46.0158
4.324, 2, 35.866, 47.9398, -13.7809, 97.3949, -50.979, 46.0158
4.328, 2, 35.866, 47.9398, -13.7809, 97.3949, -50.979, 46.0158
4.332, 2, 35.866, 47.9398, -13.7809, 97.3949, -50.979, 46.0158
4.336, 2, 35.866, 47.9398, -13.7809, 97.3949, -50.979, 46.0158
4.34, 2, 35.866, 47.9398, -13.7809, 97.3949, -50.979, 46.0158
4.344, 2, 35.866, 47.9398, -13.7809, 97.3949, -50.979, 46.0158
4.348, 2, 35.866, 47.9398, -13.7809, 97.3949, -50.979, 46.0158
4.352, 2, 35.866, 47.9398, -13.7809, 97.3949, -50.979, 46.0158
4.356, 2, 35.866, 47.9398, -13.7809, 97.3949, -50.979, 46.0158
4.36, 2, 35.866, 47.9398, -13.7809, 97.3949, -50.979, 46.0158
4.364, 2, 35.866, 47.9398, -13.7809, 97.3949, -50.979, 46.0158
4.368, 2, 35.866, 47.9398, -13.7809, 97.3949, -50.979, 46.0158
4.372, 2, 35.866, 47.9398, -13.7809, 97.3949, -50.979, 46.0158
4.376, 2, 35.866, 47.9398, -13.7809, 97.3949, -50.979, 46.0158
4.38, 2, 35.866, 47.9398, -13.7809, 97.3949, -50.979, 46.0158
4.384, 2, 35.866, 47.9398, -13.7809, 97.3949, -50.979, 46.0158
4.388, 2, 35.866, 47.9398, -13.7809, 97.3949, -50.979, 46.0158
4.392, 2, 35.866, 47.9398, -13.7809, 97.3949, -50.979, 46.0158
4.396, 2, 35.866, 47.9398, -13.7809, 97.3949, -50.979, 46.0158
4.4, 3, 35.866, 47.9398, -13.7809, 97.3949, -50.979, 46.0158
4.404, 3, 35.866, 47.9398, -13.7809, 97.3949, -50.979, 46.0158
4.408, 3, 35.866, 47.9398, -13.7809, 97.3949, -50.979, 46.0158
4.412, 3, 35.866, 47.9398, -13.7809, 97.3949, -50.979, 46.0158
4.416, 3, 35.866, 47.9398, -13.7809, 97.3949, -50.979, 46.0158
4.42, 3, 35.866, 47.9398, -13.7809, 97.3949, -50.979, 46.0158
4.424, 3, 35.866, 47.9398, -13.7809, 97.3949, -50.979, 46.0158
4.428, 3, 35.866, 47.9398, -13.7809, 97.3949, -50.979, 46.0158
4.432, 3, 35.866, 47.9398, -13.7809, 97.3949, -50.979, 46.0158
4.436, 4, 35.866, 47.9398, -13.7809, 97.3949, -50.979, 46.0158
4.44, 4, 35.866, 47.9398, -13.7809, 97.3949, -50.979, 46.0158
4.444, 4, 35.866, 47.9398, -13.7809, 97.3949, -50.979, 46.0158
4.448, 4, 35.866, 47.9398, -13.7809, 97.3949, -50.979, 46.0158
4.452, 4, 35.866, 47.9398, -13.7809, 97.3949, -50.979, 46.0158
4.456, 4, 35.866, 47.9398, -13.7809, 97.3949, -50.979, 46.0158
4.46, 4, 35.866, 47.9398, -13.7809, 97.3949, -50.979, 46.0158
4.464, 4, 35.866, 47.9398, -13.7809, 97.3949, -50.979, 46.0158
4.468, 4, 35.866, 47.9398, -13.7809, 97.3949, -50.979, 46.0158
4.472, 4, 35.866, 47.9398, -13.7809, 97.3949, -50.979, 46.0158
4.476, 4, 35.866, 47.9398, -13.7809, 97.3949, -50.979, 46.0158
4.48, 4, 35.866, 47.9398, -13.7809, 97.3949, -50.979, 46.0158
4.484, 4, 35.866, 47.9398, -13.7809, 97.3949, -50.979, 46.0158
4.488, 4, 35.866, 47.9398, -13.7809, 97.3949, -50.979, 46.0158
4.492, 4, 35.866, 47.9398, -13.7809, 97.3949, -50.979, 46.0158
4.496, 4, 35.866, 47.9398, -13.7809, 97.3949, -50.979, 46.0158
4.5, 4, 35.866, 47.9398, -13.7809, 97.3949, -50.979, 46.0158
4.504, 4, 35.866, 47.9398, -13.7809, 97.3949, -50.979, 46.0158
4.508, 4, 35.866, 47.9398, -13.7809, 97.3949, -50.979, 46.0158
4.512, 4, 35.866, 47.9398, -13.7809, 97.3949, -50.979, 46.0158
4.516, 4, 35.866, 47.9398, -13.7809, 97.3949, -50.979, 46.0158
4.52, 4, 35.866, 47.9398, -13.7809, 97.3949, -50.979, 46.0158
4.524, 4, 35.866, 47.9398, -13.7809, 97.3949, -50.979, 46.0158
4.528, 4, 35.866, 47.9398, -13.7809, 97.3949, -50.979, 46.0158
4.532, 4, 35.866, 47.9398, -13.7809, 97.3949, -50.979, 46.0158
4.536, 5, 35.866, 47.9398, -13.7809, 97.3949, -50.979, 46.0158
4.54, 5, 35.866, 47.9398, -13.7809, 97.3949, -50.979, 46.0158
4.544, 5, 35.866, 47.9398, -13.7809, 97.3949, -50.979, 46.0158
4.548, 5, 35.866, 47.9398, -13.7809, 97.3949, -50.979, 46.0158
4.552, 5, 35.866, 47.9398, -13.7809, 97.3949, -50.979, 46.0158
4.556, 5, 35.866, 47.9398, -13.7809, 97.3949, -50.979, 46.0158
4.56, 5, 35.866, 47.9398, -13.7809, 97.3949, -50.979, 46.0158
4.564, 5, 35.866, 47.9398, -13.7809, 97.3949, -50.979, 46.0158
4.568, 5, 35.866, 47.9398, -13.7809, 97.3949, -50.979, 46.0158
4.572, 5, 35.866, 47.9398, -13.7809, 97.3949, -50.979, 46.0158
4.576, 5, 35.866, 47.9399, -13.7809, 97.3949, -50.979, 46.0158
4.58, 5, 35.866, 47.94, -13.7809, 97.3949, -50.979, 46.0158
4.584, 5, 35.866, 47.9404, -13.7809, 97.3949, -50.979, 46.0158
4.588, 5, 35.8659, 47.9411, -13.7809, 97.3949, -50.9791, 46.0158
4.592, 5, 35.8658, 47.9421, -13.781, 97.3949, -50.9794, 46.0157
4.596, 5, 35.8657, 47.9435, -13.7811, 97.3948, -50.98, 46.0155
4.6, 5, 35.8656, 47.9452, -13.7812, 97.3947, -50.9811, 46.0151
4.604, 5, 35.8654, 47.9472, -13.7814, 97.3944, -50.9829, 46.0146
4.608, 5, 35.8653, 47.9493, -13.7818, 97.3941, -50.9855, 46.0138
4.612, 5, 35.8652, 47.9516, -13.7822, 97.3937, -50.9892, 46.0126
4.616, 5, 35.8651, 47.954, -13.7828, 97.393, -50.9941, 46.0111
4.62, 5, 35.8651, 47.9566, -13.7836, 97.3923, -51.0003, 46.0091
4.624, 5, 35.865, 47.9594, -13.7845, 97.3913, -51.0079, 46.0067
4.628, 5, 35.865, 47.9625, -13.7856, 97.3902, -51.017, 46.0039
4.632, 5, 35.865, 47.9659, -13.7869, 97.3888, -51.0276, 46.0006
4.636, 5, 35.865, 47.9693, -13.7884, 97.3873, -51.0396, 45.9968
4.64, 5, 35.8651, 47.9729, -13.79, 97.3856, -51.053, 45.9926
4.644, 5, 35.8652, 47.9766, -13.7918, 97.3838, -51.0677, 45.988
4.648, 5, 35.8653, 47.9805, -13.7937, 97.3818, -51.0834, 45.983
4.652, 5, 35.8654, 47.9846, -13.7957, 97.3797, -51.1001, 45.9778
4.656, 5, 35.8655, 47.989, -13.7978, 97.3775, -51.1174, 45.9723
4.66, 5, 35.8656, 47.9938, -13.8, 97.3753, -51.1354, 45.9667
4.664, 5, 35.8656, 47.999, -13.8022, 97.373, -51.1536, 45.961
4.668, 5, 35.8657, 48.0046, -13.8044, 97.3706, -51.1722, 45.9552
4.672, 5, 35.8657, 48.0103, -13.8067, 97.3683, -51.1909, 45.9493
4.676, 5, 35.8657, 48.0163, -13.809, 97.3659, -51.2097, 45.9434
4.68, 5, 35.8657, 48.0223, -13.8113, 97.3635, -51.2287, 45.9374
4.684, 5, 35.8657, 48.0284, -13.8136, 97.3611, -51.2477, 45.9315
4.688, 5, 35.8657, 48.0346, -13.8159, 97.3587, -51.2667, 45.9255
4.692, 5, 35.8657, 48.0408, -13.8183, 97.3563, -51.2858, 45.9195
4.696, 5, 35.8656, 48.0471, -13.8206, 97.354, -51.3049, 45.9135
4.7, 5, 35.8656, 48.0533, -13.8229, 97.3515, -51.324, 45.9075
4.704, 5, 35.8656, 48.0596, -13.8252, 97.3491, -51.3431, 45.9015
4.708, 5, 35.8656, 48.0658, -13.8276, 97.3467, -51.3622, 45.8955
4.712, 5, 35.8656, 48.0721, -13.8299, 97.3443, -51.3813, 45.8895
4.716, 5, 35.8655, 48.0784, -13.8322, 97.3419, -51.4005, 45.8835
4.72, 5, 35.8655, 48.0847, -13.8345, 97.3395, -51.4196, 45.8775
4.724, 5, 35.8655, 48.091, -13.8369, 97.3371, -51.4387, 45.8715
4.728, 5, 35.8655, 48.0973, -13.8392, 97.3347, -51.4579, 45.8655
4.732, 5, 35.8655, 48.1036, -13.8415, 97.3323, -51.4771, 45.8594
4.736, 5, 35.8654, 48.1099, -13.8439, 97.3299, -51.4962, 45.8534
4.74, 5, 35.8654, 48.1162, -13.8462, 97.3275, -51.5154, 45.8474
4.744, 5, 35.8654, 48.1225, -13.8485, 97.3251, -51.5346, 45.8414
4.748, 5, 35.8654, 48.1288, -13.8509, 97.3227, -51.5537, 45.8354
4.752, 5, 35.8654, 48.1351, -13.8532, 97.3203, -51.5729, 45.8294
4.756, 5, 35.8653, 48.1414, -13.8555, 97.3178, -51.5921, 45.8233
4.76, 5, 35.8653, 48.1477, -13.8579, 97.3154, -51.6113, 45.8173
4.764, 5, 35.8653, 48.154, -13.8602, 97.313, -51.6305, 45.8113
4.768, 5, 35.8653, 48.1603, -13.8625, 97.3106, -51.6497, 45.8053
4.772, 5, 35.8652, 48.1666, -13.8649, 97.3082, -51.6689, 45.7992
4.776, 5, 35.8652, 48.1729, -13.8672, 97.3058, -51.6881, 45.7932
4.78, 5, 35.8652, 48.1793, -13.8696, 97.3034, -51.7073, 45.7872
4.784, 5, 35.8652, 48.1856, -13.8719, 97.3009, -51.7265, 45.7811
4.788, 5, 35.8652, 48.1919, -13.8742, 97.2985, -51.7457, 45.7751
4.792, 5, 35.8651, 48.1982, -13.8766, 97.2961, -51.7649, 45.7691
4.796, 5, 35.8651, 48.2045, -13.8789, 97.2937, -51.7842, 45.763
4.8, 5, 35.8651, 48.2109, -13.8813, 97.2913, -51.8034, 45.757
4.804, 5, 35.8651, 48.2172, -13.8836, 97.2889, -51.8226, 45.7509
4.808, 5, 35.8651, 48.2235, -13.8859, 97.2864, -51.8419, 45.7449
4.812, 5, 35.865, 48.2298, -13.8883, 97.284, -51.8611, 45.7389
4.816, 5, 35.865, 48.2362, -13.8906, 97.2816, -51.8804, 45.7328
4.82, 5, 35.865, 48.2425, -13.893, 97.2792, -51.8996, 45.7268
4.824, 5, 35.865, 48.2488, -13.8953, 97.2768, -51.9189, 45.7207
4.828, 5, 35.865, 48.2551, -13.8977, 97.2743, -51.9381, 45.7147
4.832, 5, 35.8649, 48.2615, -13.9, 97.2719, -51.9574, 45.7086
4.836, 5, 35.8649, 48.2678, -13.9023, 97.2695, -51.9767, 45.7026
4.84, 5, 35.8649, 48.2741, -13.9047, 97.2671, -51.9959, 45.6965
4.844, 5, 35.8649, 48.2805, -13.907, 97.2647, -52.0152, 45.6905
4.848, 5, 35.8648, 48.2868, -13.9094, 97.2622, -52.0345, 45.6844
4.852, 5, 35.8648, 48.2932, -13.9117, 97.2598, -52.0538, 45.6784
4.856, 5, 35.8648, 48.2995, -13.9141, 97.2574, -52.0731, 45.6723
4.86, 5, 35.8648, 48.3058, -13.9164, 97.255, -52.0924, 45.6663
4.864, 5, 35.8648, 48.3122, -13.9188, 97.2525, -52.1117, 45.6602
4.868, 5, 35.8647, 48.3185, -13.9211, 97.2501, -52.131, 45.6541
4.872, 5, 35.8647, 48.3249, -13.9235, 97.2477, -52.1503, 45.6481
4.876, 5, 35.8647, 48.3312, -13.9258, 97.2452, -52.1696, 45.642
4.88, 5, 35.8647, 48.3376, -13.9282, 97.2428, -52.1889, 45.636
4.884, 5, 35.8647, 48.3439, -13.9305, 97.2404, -52.2082, 45.6299
4.888, 5, 35.8646, 48.3503, -13.9329, 97.238, -52.2276, 45.6238
4.892, 5, 35.8646, 48.3566, -13.9352, 97.2355, -52.2469, 45.6177
4.896, 5, 35.8646, 48.363, -13.9376, 97.2331, -52.2662, 45.6117
4.9, 5, 35.8646, 48.3693, -13.9399, 97.2307, -52.2856, 45.6056
4.904, 5, 35.8646, 48.3757, -13.9423, 97.2282, -52.3049, 45.5995
4.908, 5, 35.8645, 48.3821, -13.9447, 97.2258, -52.3242, 45.5935
4.912, 5, 35.8645, 48.3884, -13.947, 97.2234, -52.3436, 45.5874
4.916, 5, 35.8645, 48.3948, -13.9494, 97.2209, -52.3629, 45.5813
4.92, 5, 35.8645, 48.4011, -13.9517, 97.2185, -52.3823, 45.5752
4.924, 5, 35.8644, 48.4075, -13.9541, 97.2161, -52.4017, 45.5691
4.928, 5, 35.8644, 48.4139, -13.9564, 97.2136, -52.421, 45.5631
4.932, 5, 35.8644, 48.4202, -13.9588, 97.2112, -52.4404, 45.557
4.936, 5, 35.8644, 48.4266, -13.9612, 97.2088, -52.4598, 45.5509
4.94, 5, 35.8644, 48.433, -13.9635, 97.2063, -52.4792, 45.5448
4.944, 5, 35.8643, 48.4394, -13.9659, 97.2039, -52.4986, 45.5387
4.948, 5, 35.8643, 48.4457, -13.9682, 97.2015, -52.518, 45.5326
4.952, 5, 35.8643, 48.4521, -13.9706, 97.199, -52.5373, 45.5266
4.956, 5, 35.8643, 48.4585, -13.973, 97.1966, -52.5568, 45.5205
4.96, 5, 35.8643, 48.4649, -13.9753, 97.1941, -52.5762, 45.5144
4.964, 5, 35.8642, 48.4712, -13.9777, 97.1917, -52.5956, 45.5083
4.968, 5, 35.8642, 48.4776, -13.98, 97.1893, -52.615, 45.5022
4.972, 5, 35.8642, 48.484, -13.9824, 97.1868, -52.6344, 45.4961
4.976, 5, 35.8642, 48.4904, -13.9848, 97.1844, -52.6538, 45.49
4.98, 5, 35.8642, 48.4968, -13.9871, 97.1819, -52.6732, 45.4839
4.984, 5, 35.8641, 48.5032, -13.9895, 97.1795, -52.6927, 45.4778
4.988, 5, 35.8641, 48.5096, -13.9919, 97.1771, -52.7121, 45.4717
4.992, 5, 35.8641, 48.5159, -13.9942, 97.1746, -52.7315, 45.4656
4.996, 5, 35.8641, 48.5223, -13.9966, 97.1722, -52.751, 45.4595
5, 5, 35.864, 48.5287, -13.999, 97.1697, -52.7704, 45.4534
5.004, 5, 35.864, 48.5351, -14.0013, 97.1673, -52.7899, 45.4473
5.008, 5, 35.864, 48.5415, -14.0037, 97.1648, -52.8093, 45.4412
5.012, 5, 35.864, 48.5479, -14.0061, 97.1624, -52.8288, 45.435
5.016, 5, 35.864, 48.5543, -14.0084, 97.1599, -52.8483, 45.4289
5.02, 5, 35.8639, 48.5607, -14.0108, 97.1575, -52.8677, 45.4228
5.024, 5, 35.8639, 48.5671, -14.0132, 97.155, -52.8872, 45.4167
5.028, 5, 35.8639, 48.5735, -14.0155, 97.1526, -52.9067, 45.4106
5.032, 5, 35.8639, 48.5799, -14.0179, 97.1502, -52.9262, 45.4045
5.036, 5, 35.8639, 48.5863, -14.0203, 97.1477, -52.9457, 45.3984
5.04, 5, 35.8638, 48.5927, -14.0227, 97.1452, -52.9652, 45.3922
5.044, 5, 35.8638, 48.5991, -14.025, 97.1428, -52.9846, 45.3861
5.048, 5, 35.8638, 48.6056, -14.0274, 97.1404, -53.0042, 45.38
5.052, 5, 35.8638, 48.612, -14.0298, 97.1379, -53.0237, 45.3739
5.056, 5, 35.8638, 48.6184, -14.0322, 97.1354, -53.0432, 45.3677
5.06, 5, 35.8637, 48.6248, -14.0345, 97.133, -53.0627, 45.3616
5.064, 5, 35.8637, 48.6312, -14.0369, 97.1305, -53.0822, 45.3555
5.068, 5, 35.8637, 48.6376, -14.0393, 97.1281, -53.1017, 45.3494
5.072, 5, 35.8637, 48.644, -14.0417, 97.1256, -53.1213, 45.3432
5.076, 5, 35.8636, 48.6505, -14.044, 97.1232, -53.1408, 45.3371
5.08, 5, 35.8636, 48.6569, -14.0464, 97.1207, -53.1603, 45.331
5.084, 5, 35.8636, 48.6633, -14.0488, 97.1183, -53.1799, 45.3248
5.088, 5, 35.8636, 48.6697, -14.0512, 97.1158, -53.1994, 45.3187
5.092, 5, 35.8636, 48.6762, -14.0536, 97.1133, -53.219, 45.3125
5.096, 5, 35.8635, 48.6826, -14.0559, 97.1109, -53.2385, 45.3064
5.1, 5, 35.8635, 48.689, -14.0583, 97.1084, -53.2581, 45.3003
5.104, 5, 35.8635, 48.6954, -14.0607, 97.106, -53.2776, 45.2941
5.108, 5, 35.8635, 48.7019, -14.0631, 97.1035, -53.2972, 45.288
5.112, 5, 35.8634, 48.7083, -14.0655, 97.1011, -53.3168, 45.2818
5.116, 5, 35.8634, 48.7148, -14.0678, 97.0986, -53.3364, 45.2757
5.12, 5, 35.8634, 48.7212, -14.0702, 97.0961, -53.3559, 45.2695
5.124, 5, 35.8634, 48.7276, -14.0726, 97.0937, -53.3755, 45.2634
5.128, 5, 35.8634, 48.7341, -14.075, 97.0912, -53.3951, 45.2572
5.132, 5, 35.8633, 48.7405, -14.0774, 97.0887, -53.4147, 45.2511
5.136, 5, 35.8633, 48.7469, -14.0798, 97.0863, -53.4343, 45.2449
5.14, 5, 35.8633, 48.7534, -14.0822, 97.0838, -53.4539, 45.2388
5.144, 5, 35.8633, 48.7598, -14.0845, 97.0813, -53.4735, 45.2326
5.148, 5, 35.8633, 48.7663, -14.0869, 97.0789, -53.4931, 45.2265
5.152, 5, 35.8632, 48.7727, -14.0893, 97.0764, -53.5128, 45.2203
5.156, 5, 35.8632, 48.7792, -14.0917, 97.074, -53.5324, 45.2141
5.16, 5, 35.8632, 48.7856, -14.0941, 97.0715, -53.552, 45.208
5.164, 5, 35.8632, 48.7921, -14.0965, 97.069, -53.5716, 45.2018
5.168, 5, 35.8632, 48.7985, -14.0989, 97.0666, -53.5913, 45.1957
5.172, 5, 35.8631, 48.805, -14.1013, 97.0641, -53.6109, 45.1895
5.176, 5, 35.8631, 48.8115, -14.1037, 97.0616, -53.6306, 45.1833
5.18, 5, 35.8631, 48.8179, -14.1061, 97.0591, -53.6502, 45.1771
5.184, 5, 35.8631, 48.8244, -14.1084, 97.0567, -53.6699, 45.171
5.188, 5, 35.863, 48.8308, -14.1108, 97.0542, -53.6895, 45.1648
5.192, 5, 35.863, 48.8373, -14.1132, 97.0517, -53.7092, 45.1586
5.196, 5, 35.863, 48.8438, -14.1156, 97.0493, -53.7289, 45.1525
5.2, 5, 35.863, 48.8502, -14.118, 97.0468, -53.7485, 45.1463
5.204, 5, 35.863, 48.8567, -14.1204, 97.0443, -53.7682, 45.1401
5.208, 5, 35.8629, 48.8632, -14.1228, 97.0418, -53.7879, 45.1339
5.212, 5, 35.8629, 48.8697, -14.1252, 97.0394, -53.8076, 45.1277
5.216, 5, 35.8629, 48.8761, -14.1276, 97.0369, -53.8273, 45.1216
5.22, 5, 35.8629, 48.8826, -14.13, 97.0344, -53.847, 45.1154
5.224, 5, 35.8629, 48.8891, -14.1324, 97.0319, -53.8667, 45.1092
5.228, 5, 35.8628, 48.8955, -14.1348, 97.0295, -53.8864, 45.103
5.232, 5, 35.8628, 48.902, -14.1372, 97.027, -53.9061, 45.0968
5.236, 5, 35.8628, 48.9085, -14.1396, 97.0245, -53.9258, 45.0906
5.24, 5, 35.8628, 48.915, -14.142, 97.022, -53.9455, 45.0844
5.244, 5, 35.8627, 48.9215, -14.1444, 97.0195, -53.9653, 45.0782
5.248, 5, 35.8627, 48.928, -14.1468, 97.0171, -53.985, 45.072
5.252, 5, 35.8627, 48.9344, -14.1492, 97.0146, -54.0047, 45.0658
5.256, 5, 35.8627, 48.9409, -14.1516, 97.0121, -54.0245, 45.0597
5.26, 5, 35.8627, 48.9474, -14.154, 97.0096, -54.0442, 45.0535
5.264, 5, 35.8626, 48.9539, -14.1564, 97.0071, -54.0639, 45.0473
5.268, 5, 35.8626, 48.9604, -14.1588, 97.0047, -54.0837, 45.041
5.272, 5, 35.8626, 48.9669, -14.1612, 97.0022, -54.1035, 45.0348
5.276, 5, 35.8626, 48.9734, -14.1636, 96.9997, -54.1232, 45.0286
5.28, 5, 35.8625, 48.9799, -14.166, 96.9972, -54.143, 45.0224
5.284, 5, 35.8625, 48.9864, -14.1684, 96.9947, -54.1628, 45.0162
5.288, 5, 35.8625, 48.9929, -14.1708, 96.9922, -54.1825, 45.01
5.292, 5, 35.8625, 48.9994, -14.1732, 96.9897, -54.2023, 45.0038
5.296, 5, 35.8625, 49.0059, -14.1757, 96.9873, -54.2221, 44.9976
5.3, 5, 35.8624, 49.0124, -14.1781, 96.9848, -54.2419, 44.9914
5.304, 5, 35.8624, 49.0189, -14.1805, 96.9823, -54.2617, 44.9852
5.308, 5, 35.8624, 49.0254, -14.1829, 96.9798, -54.2815, 44.979
5.312, 5, 35.8624, 49.0319, -14.1853, 96.9773, -54.3013, 44.9727
5.316, 5, 35.8624, 49.0384, -14.1877, 96.9748, -54.3211, 44.9665
5.32, 5, 35.8623, 49.045, -14.1901, 96.9723, -54.3409, 44.9603
5.324, 5, 35.8623, 49.0515, -14.1925, 96.9698, -54.3607, 44.9541
5.328, 5, 35.8623, 49.058, -14.1949, 96.9673, -54.3805, 44.9478
5.332, 5, 35.8623, 49.0645, -14.1974, 96.9648, -54.4004, 44.9416
5.336, 5, 35.8622, 49.071, -14.1998, 96.9624, -54.4202, 44.9354
5.34, 5, 35.8622, 49.0775, -14.2022, 96.9599, -54.44, 44.9292
5.344, 5, 35.8622, 49.0841, -14.2046, 96.9574, -54.4599, 44.9229
5.348, 5, 35.8622, 49.0906, -14.207, 96.9549, -54.4797, 44.9167
5.352, 5, 35.8622, 49.0971, -14.2094, 96.9524, -54.4996, 44.9105
5.356, 5, 35.8621, 49.1036, -14.2118, 96.9499, -54.5194, 44.9042
5.36, 5, 35.8621, 49.1102, -14.2143, 96.9474, -54.5393, 44.898
5.364, 5, 35.8621, 49.1167, -14.2167, 96.9449, -54.5592, 44.8918
5.368, 5, 35.8621, 49.1232, -14.2191, 96.9424, -54.579, 44.8855
5.372, 5, 35.8621, 49.1298, -14.2215, 96.9399, -54.5989, 44.8793
5.376, 5, 35.862, 49.1363, -14.2239, 96.9374, -54.6188, 44.8731
5.38, 5, 35.862, 49.1428, -14.2264, 96.9349, -54.6387, 44.8668
5.384, 5, 35.862, 49.1494, -14.2288, 96.9324, -54.6585, 44.8606
5.388, 5, 35.862, 49.1559, -14.2312, 96.9299, -54.6784, 44.8543
5.392, 5, 35.8619, 49.1624, -14.2336, 96.9274, -54.6983, 44.8481
5.396, 5, 35.8619, 49.169, -14.236, 96.9249, -54.7182, 44.8418
5.4, 5, 35.8619, 49.1755, -14.2385, 96.9224, -54.7381, 44.8356
5.404, 5, 35.8619, 49.1821, -14.2409, 96.9199, -54.7581, 44.8293
5.408, 5, 35.8619, 49.1886, -14.2433, 96.9174, -54.778, 44.8231
5.412, 5, 35.8618, 49.1952, -14.2457, 96.9149, -54.7979, 44.8168
5.416, 5, 35.8618, 49.2017, -14.2482, 96.9124, -54.8178, 44.8106
5.42, 5, 35.8618, 49.2083, -14.2506, 96.9099, -54.8377, 44.8043
5.424, 5, 35.8618, 49.2148, -14.253, 96.9074, -54.8577, 44.798
5.428, 5, 35.8617, 49.2214, -14.2554, 96.9049, -54.8776, 44.7918
5.432, 5, 35.8617, 49.2279, -14.2579, 96.9024, -54.8976, 44.7855
5.436, 5, 35.8617, 49.2345, -14.2603, 96.8998, -54.9175, 44.7793
5.44, 5, 35.8617, 49.2411, -14.2627, 96.8973, -54.9375, 44.773
5.444, 5, 35.8617, 49.2476, -14.2652, 96.8948, -54.9574, 44.7667
5.448, 5, 35.8616, 49.2542, -14.2676, 96.8923, -54.9774, 44.7605
5.452, 5, 35.8616, 49.2607, -14.27, 96.8898, -54.9974, 44.7542
5.456, 5, 35.8616, 49.2673, -14.2725, 96.8873, -55.0173, 44.7479
5.46, 5, 35.8616, 49.2739, -14.2749, 96.8848, -55.0373, 44.7416
5.464, 5, 35.8616, 49.2804, -14.2773, 96.8823, -55.0573, 44.7354
5.468, 5, 35.8615, 49.287, -14.2797, 96.8798, -55.0773, 44.7291
5.472, 5, 35.8615, 49.2936, -14.2822, 96.8773, -55.0973, 44.7228
5.476, 5, 35.8615, 49.3002, -14.2846, 96.8747, -55.1173, 44.7165
5.48, 5, 35.8615, 49.3067, -14.2871, 96.8722, -55.1373, 44.7103
5.484, 5, 35.8614, 49.3133, -14.2895, 96.8697, -55.1573, 44.704
5.488, 5, 35.8614, 49.3199, -14.2919, 96.8672, -55.1773, 44.6977
5.492, 5, 35.8614, 49.3265, -14.2944, 96.8647, -55.1973, 44.6914
5.496, 5, 35.8614, 49.333, -14.2968, 96.8622, -55.2173, 44.6851
5.5, 5, 35.8614, 49.3396, -14.2992, 96.8596, -55.2374, 44.6788
5.504, 5, 35.8613, 49.3462, -14.3017, 96.8571, -55.2574, 44.6725
5.508, 5, 35.8613, 49.3528, -14.3041, 96.8546, -55.2774, 44.6663
5.512, 5, 35.8613, 49.3594, -14.3066, 96.8521, -55.2975, 44.66
5.516, 5, 35.8613, 49.366, -14.309, 96.8496, -55.3175, 44.6537
5.52, 5, 35.8612, 49.3726, -14.3114, 96.847, -55.3376, 44.6474
5.524, 5, 35.8612, 49.3792, -14.3139, 96.8445, -55.3576, 44.6411
5.528, 5, 35.8612, 49.3858, -14.3163, 96.842, -55.3777, 44.6348
5.532, 5, 35.8612, 49.3923, -14.3188, 96.8395, -55.3977, 44.6285
5.536, 5, 35.8612, 49.3989, -14.3212, 96.837, -55.4178, 44.6222
5.54, 5, 35.8611, 49.4055, -14.3236, 96.8344, -55.4379, 44.6159
5.544, 5, 35.8611, 49.4121, -14.3261, 96.8319, -55.458, 44.6096
5.548, 5, 35.8611, 49.4187, -14.3285, 96.8294, -55.4781, 44.6033
5.552, 5, 35.8611, 49.4254, -14.331, 96.8269, -55.4981, 44.597
5.556, 5, 35.861, 49.432, -14.3334, 96.8243, -55.5182, 44.5907
5.56, 5, 35.861, 49.4386, -14.3359, 96.8218, -55.5383, 44.5843
5.564, 5, 35.861, 49.4452, -14.3383, 96.8193, -55.5584, 44.578
5.568, 5, 35.861, 49.4518, -14.3408, 96.8168, -55.5785, 44.5717
5.572, 5, 35.861, 49.4584, -14.3432, 96.8142, -55.5987, 44.5654
5.576, 5, 35.8609, 49.465, -14.3457, 96.8117, -55.6188, 44.5591
5.58, 5, 35.8609, 49.4716, -14.3481, 96.8092, -55.6389, 44.5528
5.584, 5, 35.8609, 49.4782, -14.3506, 96.8066, -55.659, 44.5465
5.588, 5, 35.8609, 49.4849, -14.353, 96.8041, -55.6792, 44.5401
5.592, 5, 35.8609, 49.4915, -14.3555, 96.8016, -55.6993, 44.5338
5.596, 5, 35.8608, 49.4981, -14.3579, 96.799, -55.7194, 44.5275
5.6, 5, 35.8608, 49.5047, -14.3604, 96.7965, -55.7396, 44.5212
5.604, 5, 35.8608, 49.5113, -14.3628, 96.794, -55.7597, 44.5148
5.608, 5, 35.8608, 49.518, -14.3653, 96.7915, -55.7799, 44.5085
5.612, 5, 35.8607, 49.5246, -14.3677, 96.7889, -55.8, 44.5022
5.616, 5, 35.8607, 49.5312, -14.3702, 96.7864, -55.8202, 44.4958
5.62, 5, 35.8607, 49.5378, -14.3726, 96.7838, -55.8404, 44.4895
5.624, 5, 35.8607, 49.5445, -14.3751, 96.7813, -55.8606, 44.4832
5.628, 5, 35.8607, 49.5511, -14.3775, 96.7788, -55.8807, 44.4768
5.632, 5, 35.8606, 49.5577, -14.38, 96.7762, -55.9009, 44.4705
5.636, 5, 35.8606, 49.5644, -14.3825, 96.7737, -55.9211, 44.4642
5.64, 5, 35.8606, 49.571, -14.3849, 96.7712, -55.9413, 44.4578
5.644, 5, 35.8606, 49.5777, -14.3874, 96.7686, -55.9615, 44.4515
5.648, 5, 35.8605, 49.5843, -14.3898, 96.7661, -55.9817, 44.4451
5.652, 5, 35.8605, 49.591, -14.3923, 96.7635, -56.0019, 44.4388
5.656, 5, 35.8605, 49.5976, -14.3948, 96.761, -56.0221, 44.4324
5.66, 5, 35.8605, 49.6042, -14.3972, 96.7585, -56.0424, 44.4261
5.664, 5, 35.8605, 49.6109, -14.3997, 96.7559, -56.0626, 44.4197
5.668, 5, 35.8604, 49.6175, -14.4021, 96.7534, -56.0828, 44.4134
5.672, 5, 35.8604, 49.6242, -14.4046, 96.7508, -56.1031, 44.407
5.676, 5, 35.8604, 49.6308, -14.4071, 96.7483, -56.1233, 44.4007
5.68, 5, 35.8604, 49.6375, -14.4095, 96.7457, -56.1435, 44.3943
5.684, 5, 35.8603, 49.6442, -14.412, 96.7432, -56.1638, 44.388
5.688, 5, 35.8603, 49.6508, -14.4145, 96.7406, -56.184, 44.3816
5.692, 5, 35.8603, 49.6575, -14.4169, 96.7381, -56.2043, 44.3753
5.696, 5, 35.8603, 49.6641, -14.4194, 96.7355, -56.2246, 44.3689
5.7, 5, 35.8603, 49.6708, -14.4219, 96.733, -56.2448, 44.3625
5.704, 5, 35.8602, 49.6775, -14.4243, 96.7305, -56.2651, 44.3562
5.708, 5, 35.8602, 49.6841, -14.4268, 96.7279, -56.2854, 44.3498
5.712, 5, 35.8602, 49.6908, -14.4293, 96.7254, -56.3057, 44.3434
5.716, 5, 35.8602, 49.6975, -14.4317, 96.7228, -56.326, 44.3371
5.72, 5, 35.8601, 49.7041, -14.4342, 96.7203, -56.3463, 44.3307
5.724, 5, 35.8601, 49.7108, -14.4367, 96.7177, -56.3666, 44.3243
5.728, 5, 35.8601, 49.7175, -14.4391, 96.7152, -56.3869, 44.3179
5.732, 5, 35.8601, 49.7242, -14.4416, 96.7126, -56.4072, 44.3116
5.736, 5, 35.8601, 49.7308, -14.4441, 96.71, -56.4275, 44.3052
5.74, 5, 35.86, 49.7375, -14.4466, 96.7075, -56.4478, 44.2988
5.744, 5, 35.86, 49.7442, -14.449, 96.7049, -56.4681, 44.2924
5.748, 5, 35.86, 49.7509, -14.4515, 96.7024, -56.4884, 44.286
5.752, 5, 35.86, 49.7576, -14.454, 96.6998, -56.5088, 44.2797
5.756, 5, 35.8599, 49.7642, -14.4565, 96.6973, -56.5291, 44.2733
5.76, 5, 35.8599, 49.7709, -14.4589, 96.6947, -56.5495, 44.2669
5.764, 5, 35.8599, 49.7776, -14.4614, 96.6922, -56.5698, 44.2605
5.768, 5, 35.8599, 49.7843, -14.4639, 96.6896, -56.5902, 44.2541
5.772, 5, 35.8599, 49.791, -14.4664, 96.687, -56.6105, 44.2477
5.776, 5, 35.8598, 49.7977, -14.4689, 96.6845, -56.6309, 44.2413
5.78, 5, 35.8598, 49.8044, -14.4713, 96.6819, -56.6513, 44.2349
5.784, 5, 35.8598, 49.8111, -14.4738, 96.6794, -56.6716, 44.2285
5.788, 5, 35.8598, 49.8178, -14.4763, 96.6768, -56.692, 44.2221
5.792, 5, 35.8597, 49.8245, -14.4788, 96.6742, -56.7124, 44.2157
5.796, 5, 35.8597, 49.8312, -14.4813, 96.6717, -56.7328, 44.2093
5.8, 5, 35.8597, 49.8379, -14.4837, 96.6691, -56.7532, 44.2029
5.804, 5, 35.8597, 49.8446, -14.4862, 96.6665, -56.7736, 44.1965
5.808, 5, 35.8597, 49.8513, -14.4887, 96.664, -56.794, 44.1901
5.812, 5, 35.8596, 49.858, -14.4912, 96.6614, -56.8144, 44.1837
5.816, 5, 35.8596, 49.8647, -14.4937, 96.6589, -56.8348, 44.1773
5.82, 5, 35.8596, 49.8714, -14.4962, 96.6563, -56.8552, 44.1709
5.824, 5, 35.8596, 49.8781, -14.4986, 96.6537, -56.8756, 44.1645
5.828, 5, 35.8595, 49.8849, -14.5011, 96.6512, -56.8961, 44.1581
5.832, 5, 35.8595, 49.8916, -14.5036, 96.6486, -56.9165, 44.1516
5.836, 5, 35.8595, 49.8983, -14.5061, 96.646, -56.9369, 44.1452
5.84, 5, 35.8595, 49.905, -14.5086, 96.6434, -56.9574, 44.1388
5.844, 5, 35.8595, 49.9117, -14.5111, 96.6409, -56.9778, 44.1324
5.848, 5, 35.8594, 49.9185, -14.5136, 96.6383, -56.9983, 44.126
5.852, 5, 35.8594, 49.9252, -14.5161, 96.6357, -57.0187, 44.1195
5.856, 5, 35.8594, 49.9319, -14.5185, 96.6332, -57.0392, 44.1131
5.86, 5, 35.8594, 49.9386, -14.521, 96.6306, -57.0597, 44.1067
5.864, 5, 35.8593, 49.9454, -14.5235, 96.628, -57.0801, 44.1003
5.868, 5, 35.8593, 49.9521, -14.526, 96.6254, -57.1006, 44.0938
5.872, 5, 35.8593, 49.9588, -14.5285, 96.6229, -57.1211, 44.0874
5.876, 5, 35.8593, 49.9656, -14.531, 96.6203, -57.1416, 44.081
5.88, 5, 35.8593, 49.9723, -14.5335, 96.6177, -57.1621, 44.0745
5.884, 5, 35.8592, 49.979, -14.536, 96.6151, -57.1826, 44.0681
5.888, 5, 35.8592, 49.9858, -14.5385, 96.6125, -57.2031, 44.0617
5.892, 5, 35.8592, 49.9925, -14.541, 96.61, -57.2236, 44.0552
5.896, 5, 35.8592, 49.9993, -14.5435, 96.6074, -57.2441, 44.0488
5.9, 5, 35.8591, 50.006, -14.546, 96.6048, -57.2646, 44.0423
5.904, 5, 35.8591, 50.0128, -14.5485, 96.6022, -57.2851, 44.0359
5.908, 5, 35.8591, 50.0195, -14.551, 96.5997, -57.3057, 44.0295
5.912, 5, 35.8591, 50.0262, -14.5535, 96.5971, -57.3262, 44.023
5.916, 5, 35.8591, 50.033, -14.556, 96.5945, -57.3467, 44.0166
5.92, 5, 35.859, 50.0398, -14.5585, 96.5919, -57.3673, 44.0101
5.924, 5, 35.859, 50.0465, -14.561, 96.5893, -57.3878, 44.0037
5.928, 5, 35.859, 50.0533, -14.5635, 96.5867, -57.4084, 43.9972
5.932, 5, 35.859, 50.06, -14.566, 96.5842, -57.4289, 43.9908
5.936, 5, 35.8589, 50.0668, -14.5685, 96.5816, -57.4495, 43.9843
5.94, 5, 35.8589, 50.0735, -14.571, 96.579, -57.4701, 43.9778
5.944, 5, 35.8589, 50.0803, -14.5735, 96.5764, -57.4907, 43.9714
5.948, 5, 35.8589, 50.0871, -14.576, 96.5738, -57.5112, 43.9649
5.952, 5, 35.8589, 50.0938, -14.5785, 96.5712, -57.5318, 43.9585
5.956, 5, 35.8588, 50.1006, -14.581, 96.5686, -57.5524, 43.952
5.96, 5, 35.8588, 50.1074, -14.5835, 96.5661, -57.573, 43.9455
5.964, 5, 35.8588, 50.1141, -14.586, 96.5635, -57.5936, 43.9391
5.968, 5, 35.8588, 50.1209, -14.5885, 96.5609, -57.6142, 43.9326
5.972, 5, 35.8587, 50.1277, -14.591, 96.5583, -57.6348, 43.9261
5.976, 5, 35.8587, 50.1345, -14.5936, 96.5557, -57.6554, 43.9196
5.98, 5, 35.8587, 50.1413, -14.5961, 96.5531, -57.6761, 43.9132
5.984, 5, 35.8587, 50.148, -14.5986, 96.5505, -57.6967, 43.9067
5.988, 5, 35.8587, 50.1548, -14.6011, 96.5479, -57.7173, 43.9002
5.992, 5, 35.8586, 50.1616, -14.6036, 96.5453, -57.7379, 43.8937
5.996, 5, 35.8586, 50.1684, -14.6061, 96.5427, -57.7586, 43.8873
6, 5, 35.8586, 50.1752, -14.6086, 96.5401, -57.7792, 43.8808
6.004, 5, 35.8586, 50.182, -14.6111, 96.5375, -57.7999, 43.8743
6.008, 5, 35.8585, 50.1887, -14.6137, 96.5349, -57.8205, 43.8678
6.012, 5, 35.8585, 50.1955, -14.6162, 96.5323, -57.8412, 43.8613
6.016, 5, 35.8585, 50.2023, -14.6187, 96.5297, -57.8619, 43.8548
6.02, 5, 35.8585, 50.2091, -14.6212, 96.5272, -57.8825, 43.8483
6.024, 5, 35.8584, 50.2159, -14.6237, 96.5245, -57.9032, 43.8419
6.028, 5, 35.8584, 50.2227, -14.6262, 96.5219, -57.9239, 43.8354
6.032, 5, 35.8584, 50.2295, -14.6288, 96.5193, -57.9446, 43.8289
6.036, 5, 35.8584, 50.2363, -14.6313, 96.5167, -57.9653, 43.8224
6.04, 5, 35.8584, 50.2431, -14.6338, 96.5141, -57.986, 43.8159
6.044, 5, 35.8583, 50.2499, -14.6363, 96.5116, -58.0067, 43.8094
6.048, 5, 35.8583, 50.2567, -14.6388, 96.5089, -58.0274, 43.8029
6.052, 5, 35.8583, 50.2635, -14.6414, 96.5063, -58.0481, 43.7964
6.056, 5, 35.8583, 50.2704, -14.6439, 96.5037, -58.0688, 43.7899
6.06, 5, 35.8582, 50.2772, -14.6464, 96.5011, -58.0895, 43.7834
6.064, 5, 35.8582, 50.284, -14.6489, 96.4985, -58.1103, 43.7768
6.068, 5, 35.8582, 50.2908, -14.6514, 96.4959, -58.131, 43.7703
