hehonglu123/Motion-Primitive-Planning/simulation/robotstudio_sim/scripts/fitting_output/movej/curve_exe_v500_fine.csv
timestamp, cmd_num, J1, J2, J3, J4, J5, J6
0, 1, -0.913123, 64.054, 9.02799, 44.079, -95.9522, 169.293
0.002, 1, -0.913123, 64.054, 9.02799, 44.079, -95.9522, 169.293
0.004, 1, -0.913123, 64.054, 9.02799, 44.079, -95.9522, 169.293
0.008, 1, -0.913123, 64.054, 9.02799, 44.079, -95.9522, 169.293
0.011, 1, -0.913123, 64.054, 9.02799, 44.079, -95.9522, 169.293
0.016, 1, -0.913123, 64.054, 9.02799, 44.079, -95.9522, 169.293
0.02, 1, -0.913123, 64.054, 9.02799, 44.079, -95.9522, 169.293
0.024, 1, -0.913123, 64.054, 9.02799, 44.079, -95.9522, 169.293
0.028, 1, -0.913123, 64.054, 9.02799, 44.079, -95.9522, 169.293
0.032, 1, -0.913123, 64.054, 9.02799, 44.079, -95.9522, 169.293
0.036, 1, -0.913114, 64.054, 9.02799, 44.079, -95.9522, 169.293
0.04, 1, -0.91305, 64.054, 9.028, 44.079, -95.9522, 169.293
0.044, 1, -0.912828, 64.0539, 9.028, 44.079, -95.9522, 169.293
0.048, 1, -0.912302, 64.0538, 9.02802, 44.0791, -95.9522, 169.293
0.052, 1, -0.91133, 64.0535, 9.02805, 44.0791, -95.9522, 169.293
0.056, 1, -0.909803, 64.053, 9.02808, 44.0792, -95.9521, 169.293
0.06, 1, -0.907647, 64.0522, 9.0281, 44.0794, -95.9519, 169.292
0.064, 1, -0.904811, 64.0511, 9.02806, 44.0799, -95.9515, 169.291
0.068, 1, -0.901261, 64.0497, 9.02791, 44.0807, -95.9508, 169.289
0.072, 1, -0.896948, 64.0479, 9.0276, 44.082, -95.9498, 169.286
0.076, 1, -0.891774, 64.0455, 9.02705, 44.084, -95.9481, 169.281
0.08, 1, -0.885582, 64.0426, 9.02614, 44.0869, -95.9457, 169.275
0.084, 1, -0.878171, 64.0391, 9.02477, 44.091, -95.9422, 169.265
0.088, 1, -0.86934, 64.0348, 9.02281, 44.0966, -95.9375, 169.252
0.092, 1, -0.858929, 64.0297, 9.02011, 44.1041, -95.9313, 169.235
0.096, 1, -0.846831, 64.0238, 9.01649, 44.1137, -95.9232, 169.212
0.1, 1, -0.832962, 64.017, 9.01177, 44.1259, -95.913, 169.184
0.104, 1, -0.81722, 64.0093, 9.00578, 44.141, -95.9002, 169.149
0.108, 1, -0.799471, 64.0006, 8.99834, 44.1595, -95.8846, 169.106
0.112, 1, -0.779587, 63.9909, 8.9893, 44.1817, -95.866, 169.054
0.116, 1, -0.757483, 63.9802, 8.97849, 44.2079, -95.8439, 168.994
0.12, 1, -0.733139, 63.9686, 8.9658, 44.2383, -95.8183, 168.923
0.124, 1, -0.706585, 63.9562, 8.95109, 44.2733, -95.7888, 168.842
0.128, 1, -0.677864, 63.9432, 8.93429, 44.313, -95.7553, 168.751
0.131, 1, -0.647025, 63.9297, 8.91534, 44.3574, -95.7178, 168.648
0.136, 1, -0.614108, 63.9156, 8.89423, 44.4066, -95.6763, 168.534
0.139, 1, -0.579115, 63.9009, 8.87101, 44.4606, -95.6308, 168.41
0.144, 1, -0.542009, 63.8855, 8.84574, 44.519, -95.5815, 168.274
0.148, 1, -0.502751, 63.8693, 8.81855, 44.5818, -95.5285, 168.129
0.152, 1, -0.46136, 63.8521, 8.78959, 44.6486, -95.4721, 167.975
0.156, 1, -0.417928, 63.8339, 8.759, 44.7191, -95.4126, 167.812
0.16, 1, -0.37259, 63.8149, 8.72696, 44.7929, -95.3503, 167.642
0.164, 1, -0.325468, 63.795, 8.69365, 44.8696, -95.2856, 167.464
0.168, 1, -0.276642, 63.7742, 8.65926, 44.9488, -95.2188, 167.281
0.172, 1, -0.22618, 63.7526, 8.624, 45.0302, -95.1501, 167.093
0.176, 1, -0.174178, 63.7303, 8.58804, 45.1132, -95.08, 166.902
0.18, 1, -0.120764, 63.7071, 8.55154, 45.1976, -95.0088, 166.706
0.184, 1, -0.0660816, 63.6833, 8.51465, 45.2831, -94.9367, 166.509
0.188, 1, -0.0102759, 63.6588, 8.47747, 45.3694, -94.8639, 166.309
0.192, 1, 0.0464957, 63.6339, 8.44009, 45.4563, -94.7906, 166.109
0.196, 1, 0.104075, 63.6085, 8.40258, 45.5436, -94.7169, 165.907
0.2, 1, 0.162329, 63.5827, 8.36498, 45.6312, -94.643, 165.704
0.204, 1, 0.221168, 63.5568, 8.32732, 45.719, -94.569, 165.501
0.208, 1, 0.280514, 63.5306, 8.28965, 45.8069, -94.4948, 165.298
0.212, 1, 0.340275, 63.5043, 8.25196, 45.8949, -94.4206, 165.095
0.216, 1, 0.400345, 63.4779, 8.21427, 45.9829, -94.3463, 164.891
0.22, 1, 0.460622, 63.4514, 8.17659, 46.0709, -94.2721, 164.688
0.224, 1, 0.521029, 63.4249, 8.13892, 46.1589, -94.1979, 164.484
0.228, 1, 0.581513, 63.3984, 8.10127, 46.2469, -94.1236, 164.281
0.232, 1, 0.642037, 63.3718, 8.06364, 46.3349, -94.0494, 164.077
0.236, 1, 0.702579, 63.3453, 8.02602, 46.4228, -93.9753, 163.874
0.24, 1, 0.76312, 63.3188, 7.98843, 46.5106, -93.9012, 163.671
0.244, 1, 0.82365, 63.2922, 7.95085, 46.5984, -93.8271, 163.468
0.248, 1, 0.884161, 63.2657, 7.9133, 46.6862, -93.753, 163.265
0.252, 1, 0.944648, 63.2392, 7.87577, 46.774, -93.679, 163.062
0.256, 1, 1.00511, 63.2127, 7.83826, 46.8616, -93.6051, 162.859
0.26, 1, 1.06553, 63.1862, 7.80077, 46.9493, -93.5312, 162.657
0.264, 1, 1.12593, 63.1598, 7.7633, 47.0368, -93.4573, 162.454
0.268, 1, 1.18629, 63.1333, 7.72585, 47.1244, -93.3835, 162.252
0.272, 1, 1.24662, 63.1069, 7.68843, 47.2118, -93.3097, 162.05
0.276, 1, 1.30691, 63.0805, 7.65103, 47.2993, -93.2359, 161.847
0.28, 1, 1.36717, 63.0541, 7.61365, 47.3866, -93.1622, 161.645
0.284, 1, 1.42739, 63.0277, 7.57629, 47.4739, -93.0886, 161.444
0.288, 1, 1.48758, 63.0013, 7.53896, 47.5612, -93.015, 161.242
0.292, 1, 1.54773, 62.9749, 7.50165, 47.6484, -92.9414, 161.04
0.296, 1, 1.60785, 62.9486, 7.46436, 47.7356, -92.8679, 160.839
0.3, 1, 1.66792, 62.9223, 7.42709, 47.8227, -92.7944, 160.637
0.304, 1, 1.72796, 62.896, 7.38985, 47.9097, -92.721, 160.436
0.308, 1, 1.78797, 62.8697, 7.35263, 47.9967, -92.6476, 160.235
0.312, 1, 1.84793, 62.8434, 7.31543, 48.0837, -92.5743, 160.034
0.316, 1, 1.90786, 62.8172, 7.27826, 48.1706, -92.501, 159.833
0.32, 1, 1.96776, 62.7909, 7.24111, 48.2574, -92.4277, 159.632
0.324, 1, 2.02761, 62.7647, 7.20398, 48.3442, -92.3545, 159.431
0.328, 1, 2.08743, 62.7385, 7.16688, 48.4309, -92.2814, 159.231
0.332, 1, 2.14721, 62.7123, 7.1298, 48.5176, -92.2083, 159.03
0.336, 1, 2.20695, 62.6861, 7.09274, 48.6042, -92.1352, 158.83
0.34, 1, 2.26665, 62.6599, 7.05571, 48.6908, -92.0622, 158.63
0.344, 1, 2.32632, 62.6338, 7.0187, 48.7773, -91.9892, 158.43
0.348, 1, 2.38594, 62.6077, 6.98171, 48.8637, -91.9163, 158.23
0.352, 1, 2.44553, 62.5816, 6.94475, 48.9501, -91.8434, 158.03
0.356, 1, 2.50508, 62.5555, 6.90781, 49.0365, -91.7706, 157.831
0.36, 1, 2.56459, 62.5294, 6.87089, 49.1228, -91.6978, 157.631
0.364, 1, 2.62407, 62.5033, 6.834, 49.209, -91.625, 157.432
0.368, 1, 2.6835, 62.4773, 6.79714, 49.2952, -91.5523, 157.233
0.372, 1, 2.74289, 62.4513, 6.76029, 49.3813, -91.4797, 157.033
0.376, 1, 2.80225, 62.4252, 6.72348, 49.4673, -91.4071, 156.834
0.38, 1, 2.86157, 62.3993, 6.68668, 49.5533, -91.3346, 156.636
0.384, 1, 2.92084, 62.3733, 6.64991, 49.6393, -91.2621, 156.437
0.388, 1, 2.98008, 62.3473, 6.61317, 49.7252, -91.1896, 156.238
0.392, 1, 3.03928, 62.3214, 6.57645, 49.811, -91.1172, 156.04
0.396, 1, 3.09844, 62.2955, 6.53975, 49.8968, -91.0449, 155.841
0.4, 1, 3.15756, 62.2696, 6.50308, 49.9825, -90.9726, 155.643
0.404, 1, 3.21663, 62.2437, 6.46643, 50.0681, -90.9003, 155.445
0.408, 1, 3.27567, 62.2178, 6.42981, 50.1537, -90.8281, 155.247
0.412, 1, 3.33467, 62.1919, 6.39321, 50.2393, -90.756, 155.049
0.416, 1, 3.39363, 62.1661, 6.35664, 50.3248, -90.6838, 154.852
0.42, 1, 3.45255, 62.1403, 6.32009, 50.4102, -90.6118, 154.654
0.424, 1, 3.51142, 62.1145, 6.28357, 50.4956, -90.5398, 154.457
0.428, 1, 3.57026, 62.0887, 6.24708, 50.5809, -90.4678, 154.26
0.432, 1, 3.62906, 62.063, 6.21061, 50.6661, -90.3959, 154.063
0.436, 1, 3.68781, 62.0372, 6.17416, 50.7513, -90.324, 153.866
0.44, 1, 3.74653, 62.0115, 6.13774, 50.8364, -90.2522, 153.669
0.444, 1, 3.8052, 61.9858, 6.10135, 50.9215, -90.1805, 153.472
0.448, 1, 3.86383, 61.9601, 6.06498, 51.0065, -90.1088, 153.276
0.452, 1, 3.92242, 61.9344, 6.02863, 51.0915, -90.0371, 153.079
0.456, 1, 3.98097, 61.9087, 5.99232, 51.1763, -89.9655, 152.883
0.46, 1, 4.03947, 61.8831, 5.95602, 51.2612, -89.894, 152.687
0.464, 1, 4.09794, 61.8575, 5.91976, 51.3459, -89.8225, 152.491
0.468, 1, 4.15636, 61.8319, 5.88352, 51.4307, -89.751, 152.295
0.472, 1, 4.21475, 61.8063, 5.84731, 51.5153, -89.6796, 152.099
0.476, 1, 4.27308, 61.7808, 5.81112, 51.5999, -89.6083, 151.904
0.48, 1, 4.33138, 61.7552, 5.77496, 51.6844, -89.537, 151.708
0.484, 1, 4.38964, 61.7297, 5.73882, 51.7689, -89.4657, 151.513
0.488, 1, 4.44785, 61.7042, 5.70271, 51.8533, -89.3945, 151.318
0.492, 1, 4.50602, 61.6787, 5.66663, 51.9376, -89.3234, 151.123
0.496, 1, 4.56415, 61.6532, 5.63057, 52.0219, -89.2523, 150.928
0.5, 1, 4.62223, 61.6278, 5.59454, 52.1061, -89.1812, 150.733
0.504, 1, 4.68028, 61.6023, 5.55854, 52.1903, -89.1103, 150.538
0.508, 1, 4.73828, 61.5769, 5.52257, 52.2743, -89.0393, 150.344
0.512, 1, 4.79623, 61.5515, 5.48662, 52.3584, -88.9684, 150.15
0.516, 1, 4.85415, 61.5261, 5.45069, 52.4423, -88.8976, 149.956
0.52, 1, 4.91202, 61.5008, 5.4148, 52.5262, -88.8268, 149.762
0.524, 1, 4.96985, 61.4754, 5.37893, 52.6101, -88.7561, 149.568
0.528, 1, 5.02763, 61.4501, 5.34308, 52.6939, -88.6855, 149.374
0.532, 1, 5.08537, 61.4248, 5.30727, 52.7776, -88.6148, 149.18
0.536, 1, 5.14307, 61.3995, 5.27148, 52.8612, -88.5443, 148.987
0.54, 1, 5.20072, 61.3743, 5.23572, 52.9448, -88.4738, 148.794
0.544, 1, 5.25833, 61.349, 5.19998, 53.0283, -88.4033, 148.601
0.548, 1, 5.3159, 61.3238, 5.16428, 53.1118, -88.3329, 148.408
0.552, 1, 5.37342, 61.2986, 5.1286, 53.1952, -88.2626, 148.215
0.556, 1, 5.4309, 61.2734, 5.09294, 53.2785, -88.1923, 148.022
0.56, 1, 5.48834, 61.2483, 5.05732, 53.3618, -88.122, 147.83
0.564, 1, 5.54572, 61.2231, 5.02172, 53.445, -88.0518, 147.637
0.568, 1, 5.60307, 61.198, 4.98615, 53.5282, -87.9817, 147.445
0.572, 1, 5.66037, 61.1729, 4.95061, 53.6112, -87.9116, 147.253
0.576, 1, 5.71763, 61.1478, 4.91509, 53.6943, -87.8416, 147.061
0.58, 1, 5.77484, 61.1227, 4.8796, 53.7772, -87.7716, 146.869
0.584, 1, 5.83201, 61.0977, 4.84414, 53.8601, -87.7017, 146.677
0.588, 1, 5.88913, 61.0726, 4.80871, 53.9429, -87.6318, 146.486
0.592, 1, 5.94621, 61.0476, 4.7733, 54.0257, -87.562, 146.295
0.596, 1, 6.00325, 61.0226, 4.73793, 54.1084, -87.4923, 146.103
0.6, 1, 6.06024, 60.9977, 4.70258, 54.191, -87.4226, 145.912
0.604, 1, 6.11718, 60.9727, 4.66725, 54.2736, -87.3529, 145.721
0.608, 1, 6.17408, 60.9478, 4.63196, 54.356, -87.2834, 145.531
0.612, 1, 6.23094, 60.9229, 4.5967, 54.4385, -87.2138, 145.34
0.616, 1, 6.28774, 60.898, 4.56146, 54.5208, -87.1443, 145.15
0.62, 1, 6.34451, 60.8731, 4.52625, 54.6031, -87.0749, 144.959
0.624, 1, 6.40123, 60.8483, 4.49107, 54.6854, -87.0056, 144.769
0.628, 1, 6.4579, 60.8234, 4.45591, 54.7675, -86.9363, 144.579
0.632, 1, 6.51453, 60.7986, 4.42079, 54.8496, -86.867, 144.389
0.636, 1, 6.57111, 60.7738, 4.38569, 54.9317, -86.7978, 144.2
0.64, 1, 6.62765, 60.749, 4.35062, 55.0136, -86.7287, 144.01
0.644, 1, 6.68414, 60.7243, 4.31558, 55.0955, -86.6596, 143.821
0.648, 1, 6.74058, 60.6996, 4.28057, 55.1774, -86.5905, 143.632
0.652, 1, 6.79698, 60.6749, 4.24559, 55.2592, -86.5216, 143.443
0.656, 1, 6.85333, 60.6502, 4.21064, 55.3409, -86.4526, 143.254
0.66, 1, 6.90964, 60.6255, 4.17571, 55.4225, -86.3838, 143.065
0.664, 1, 6.9659, 60.6008, 4.14081, 55.5041, -86.315, 142.876
0.668, 1, 7.02212, 60.5762, 4.10595, 55.5856, -86.2462, 142.688
0.672, 1, 7.07829, 60.5516, 4.07111, 55.667, -86.1775, 142.5
0.676, 1, 7.13441, 60.527, 4.03629, 55.7484, -86.1089, 142.311
0.68, 1, 7.19048, 60.5024, 4.00151, 55.8297, -86.0403, 142.123
0.684, 1, 7.24651, 60.4779, 3.96676, 55.9109, -85.9718, 141.936
0.688, 1, 7.3025, 60.4534, 3.93203, 55.9921, -85.9033, 141.748
0.692, 1, 7.35843, 60.4288, 3.89734, 56.0732, -85.8349, 141.56
0.696, 1, 7.41432, 60.4044, 3.86267, 56.1542, -85.7666, 141.373
0.7, 1, 7.47016, 60.3799, 3.82803, 56.2351, -85.6983, 141.186
0.704, 1, 7.52596, 60.3554, 3.79343, 56.316, -85.6301, 140.999
0.708, 1, 7.58171, 60.331, 3.75885, 56.3969, -85.5619, 140.812
0.712, 1, 7.63741, 60.3066, 3.7243, 56.4776, -85.4938, 140.625
0.716, 1, 7.69307, 60.2822, 3.68977, 56.5583, -85.4257, 140.439
0.72, 1, 7.74868, 60.2579, 3.65528, 56.6389, -85.3577, 140.252
0.724, 1, 7.80424, 60.2335, 3.62082, 56.7195, -85.2897, 140.066
0.728, 1, 7.85975, 60.2092, 3.58639, 56.8, -85.2218, 139.88
0.732, 1, 7.91522, 60.1849, 3.55198, 56.8804, -85.154, 139.694
0.736, 1, 7.97064, 60.1606, 3.51761, 56.9607, -85.0862, 139.508
0.74, 1, 8.02602, 60.1363, 3.48326, 57.041, -85.0185, 139.322
0.744, 1, 8.08134, 60.1121, 3.44895, 57.1212, -84.9508, 139.137
0.748, 1, 8.13662, 60.0879, 3.41466, 57.2014, -84.8832, 138.952
0.752, 1, 8.19185, 60.0637, 3.3804, 57.2814, -84.8157, 138.767
0.756, 1, 8.24703, 60.0395, 3.34617, 57.3615, -84.7482, 138.582
0.76, 1, 8.30217, 60.0153, 3.31197, 57.4414, -84.6808, 138.397
0.764, 1, 8.35726, 59.9912, 3.2778, 57.5213, -84.6134, 138.212
0.768, 1, 8.4123, 59.9671, 3.24367, 57.6011, -84.5461, 138.028
0.772, 1, 8.46729, 59.943, 3.20956, 57.6808, -84.4789, 137.843
0.776, 1, 8.52224, 59.9189, 3.17548, 57.7604, -84.4117, 137.659
0.78, 1, 8.57714, 59.8949, 3.14142, 57.84, -84.3445, 137.475
0.784, 1, 8.63199, 59.8708, 3.1074, 57.9195, -84.2775, 137.291
0.788, 1, 8.68679, 59.8468, 3.07341, 57.999, -84.2104, 137.107
0.792, 1, 8.74154, 59.8228, 3.03945, 58.0784, -84.1435, 136.924
0.796, 1, 8.79625, 59.7989, 3.00552, 58.1577, -84.0766, 136.74
0.8, 1, 8.85091, 59.7749, 2.97162, 58.2369, -84.0097, 136.557
0.804, 1, 8.90552, 59.751, 2.93775, 58.3161, -83.9429, 136.374
0.808, 1, 8.96009, 59.7271, 2.9039, 58.3952, -83.8762, 136.191
0.812, 1, 9.0146, 59.7032, 2.87009, 58.4743, -83.8095, 136.009
0.816, 1, 9.06907, 59.6793, 2.83631, 58.5532, -83.7429, 135.826
0.82, 1, 9.12349, 59.6555, 2.80255, 58.6321, -83.6764, 135.644
0.824, 1, 9.17786, 59.6316, 2.76883, 58.7109, -83.6099, 135.461
0.828, 1, 9.23218, 59.6078, 2.73514, 58.7897, -83.5435, 135.279
0.832, 1, 9.28646, 59.5841, 2.70147, 58.8684, -83.4771, 135.097
0.836, 1, 9.34069, 59.5603, 2.66784, 58.947, -83.4108, 134.915
0.84, 1, 9.39487, 59.5366, 2.63424, 59.0255, -83.3445, 134.734
0.844, 1, 9.449, 59.5129, 2.60066, 59.104, -83.2783, 134.552
0.848, 1, 9.50308, 59.4892, 2.56712, 59.1824, -83.2122, 134.371
0.852, 1, 9.55711, 59.4655, 2.5336, 59.2608, -83.1461, 134.19
0.856, 1, 9.6111, 59.4418, 2.50012, 59.339, -83.0801, 134.009
0.86, 1, 9.66504, 59.4182, 2.46666, 59.4172, -83.0141, 133.828
0.864, 1, 9.71893, 59.3946, 2.43324, 59.4953, -82.9482, 133.648
0.868, 1, 9.77277, 59.371, 2.39984, 59.5734, -82.8824, 133.467
0.872, 1, 9.82656, 59.3474, 2.36648, 59.6514, -82.8166, 133.287
0.876, 1, 9.88031, 59.3239, 2.33315, 59.7293, -82.7509, 133.107
0.88, 1, 9.934, 59.3003, 2.29984, 59.8072, -82.6852, 132.927
0.884, 1, 9.98765, 59.2768, 2.26657, 59.8849, -82.6196, 132.747
0.888, 1, 10.0413, 59.2534, 2.23332, 59.9626, -82.5541, 132.567
0.892, 1, 10.0948, 59.2299, 2.20011, 60.0403, -82.4886, 132.388
0.896, 1, 10.1483, 59.2064, 2.16692, 60.1178, -82.4231, 132.208
0.9, 1, 10.2018, 59.183, 2.13377, 60.1953, -82.3578, 132.029
0.904, 1, 10.2552, 59.1596, 2.10064, 60.2728, -82.2925, 131.85
0.908, 1, 10.3085, 59.1362, 2.06755, 60.3501, -82.2272, 131.671
0.912, 1, 10.3618, 59.1129, 2.03448, 60.4274, -82.162, 131.492
0.916, 1, 10.4151, 59.0896, 2.00145, 60.5046, -82.0969, 131.314
0.92, 1, 10.4683, 59.0662, 1.96845, 60.5818, -82.0318, 131.136
0.924, 1, 10.5215, 59.0429, 1.93547, 60.6588, -81.9668, 130.957
0.928, 1, 10.5746, 59.0197, 1.90253, 60.7358, -81.9018, 130.779
0.932, 1, 10.6277, 58.9964, 1.86961, 60.8128, -81.8369, 130.601
0.936, 1, 10.6807, 58.9732, 1.83673, 60.8896, -81.7721, 130.424
0.94, 1, 10.7336, 58.95, 1.80388, 60.9664, -81.7073, 130.246
0.944, 1, 10.7866, 58.9268, 1.77105, 61.0431, -81.6426, 130.069
0.948, 1, 10.8394, 58.9036, 1.73826, 61.1198, -81.578, 129.891
0.952, 1, 10.8923, 58.8805, 1.7055, 61.1964, -81.5134, 129.714
0.956, 1, 10.945, 58.8574, 1.67276, 61.2729, -81.4488, 129.538
0.96, 1, 10.9978, 58.8343, 1.64006, 61.3493, -81.3843, 129.361
0.964, 1, 11.0505, 58.8112, 1.60739, 61.4257, -81.3199, 129.184
0.968, 1, 11.1031, 58.7881, 1.57474, 61.502, -81.2556, 129.008
0.972, 1, 11.1557, 58.7651, 1.54213, 61.5782, -81.1913, 128.831
0.976, 1, 11.2082, 58.7421, 1.50955, 61.6544, -81.127, 128.655
0.98, 1, 11.2607, 58.7191, 1.47699, 61.7305, -81.0628, 128.479
0.984, 1, 11.3131, 58.6961, 1.44447, 61.8065, -80.9987, 128.304
0.988, 1, 11.3655, 58.6731, 1.41198, 61.8824, -80.9346, 128.128
0.992, 1, 11.4179, 58.6502, 1.37952, 61.9583, -80.8706, 127.953
0.996, 1, 11.4701, 58.6273, 1.34708, 62.0341, -80.8067, 127.777
1, 1, 11.5224, 58.6044, 1.31468, 62.1099, -80.7428, 127.602
1.004, 1, 11.5746, 58.5815, 1.28231, 62.1855, -80.679, 127.427
1.008, 1, 11.6267, 58.5587, 1.24997, 62.2611, -80.6152, 127.252
1.012, 1, 11.6788, 58.5359, 1.21766, 62.3367, -80.5515, 127.078
1.016, 1, 11.7309, 58.5131, 1.18537, 62.4121, -80.4879, 126.903
1.02, 1, 11.7829, 58.4903, 1.15312, 62.4875, -80.4243, 126.729
1.024, 1, 11.8348, 58.4675, 1.1209, 62.5628, -80.3607, 126.555
1.027, 1, 11.8867, 58.4448, 1.08871, 62.6381, -80.2973, 126.381
1.032, 1, 11.9386, 58.422, 1.05655, 62.7132, -80.2339, 126.207
1.036, 1, 11.9904, 58.3993, 1.02442, 62.7883, -80.1705, 126.033
1.04, 1, 12.0422, 58.3767, 0.992315, 62.8634, -80.1072, 125.86
1.044, 1, 12.0939, 58.354, 0.960244, 62.9383, -80.044, 125.687
1.048, 1, 12.1455, 58.3314, 0.928203, 63.0132, -79.9808, 125.513
1.052, 1, 12.1971, 58.3088, 0.896191, 63.0881, -79.9177, 125.34
1.055, 1, 12.2487, 58.2862, 0.86421, 63.1628, -79.8546, 125.168
1.06, 1, 12.3002, 58.2636, 0.832259, 63.2375, -79.7916, 124.995
1.064, 1, 12.3517, 58.2411, 0.800338, 63.3121, -79.7287, 124.822
1.068, 1, 12.4031, 58.2185, 0.768447, 63.3866, -79.6658, 124.65
1.072, 1, 12.4545, 58.196, 0.736586, 63.4611, -79.603, 124.478
1.076, 1, 12.5058, 58.1735, 0.704755, 63.5355, -79.5402, 124.306
1.08, 1, 12.5571, 58.1511, 0.672953, 63.6098, -79.4775, 124.134
1.084, 1, 12.6083, 58.1286, 0.641182, 63.6841, -79.4149, 123.962
1.088, 1, 12.6595, 58.1062, 0.609441, 63.7583, -79.3523, 123.791
1.091, 1, 12.7106, 58.0838, 0.57773, 63.8324, -79.2898, 123.619
1.096, 1, 12.7617, 58.0614, 0.546048, 63.9065, -79.2273, 123.448
1.1, 1, 12.8127, 58.0391, 0.514397, 63.9805, -79.1649, 123.277
1.104, 1, 12.8637, 58.0167, 0.482775, 64.0544, -79.1026, 123.106
1.108, 1, 12.9147, 57.9944, 0.451183, 64.1282, -79.0403, 122.935
1.112, 1, 12.9656, 57.9721, 0.419622, 64.202, -78.9781, 122.765
1.116, 1, 13.0164, 57.9498, 0.388089, 64.2757, -78.9159, 122.594
1.119, 1, 13.0672, 57.9276, 0.356587, 64.3493, -78.8538, 122.424
1.124, 1, 13.1179, 57.9053, 0.325115, 64.4229, -78.7917, 122.254
1.128, 1, 13.1686, 57.8831, 0.293672, 64.4964, -78.7297, 122.084
1.132, 1, 13.2193, 57.8609, 0.262259, 64.5698, -78.6678, 121.914
1.136, 1, 13.2699, 57.8388, 0.230875, 64.6432, -78.6059, 121.745
1.14, 1, 13.3205, 57.8166, 0.199521, 64.7165, -78.5441, 121.575
1.144, 1, 13.371, 57.7945, 0.168197, 64.7897, -78.4823, 121.406
1.147, 1, 13.4214, 57.7724, 0.136903, 64.8628, -78.4206, 121.237
1.152, 1, 13.4718, 57.7503, 0.105638, 64.9359, -78.359, 121.068
1.156, 1, 13.5222, 57.7282, 0.0744026, 65.0089, -78.2974, 120.899
1.16, 1, 13.5725, 57.7062, 0.0431968, 65.0818, -78.2359, 120.73
1.164, 1, 13.6228, 57.6842, 0.0120206, 65.1547, -78.1744, 120.562
1.168, 1, 13.673, 57.6621, -0.0191262, 65.2275, -78.113, 120.394
1.172, 1, 13.7232, 57.6402, -0.0502435, 65.3003, -78.0516, 120.225
1.175, 1, 13.7733, 57.6182, -0.0813314, 65.3729, -77.9903, 120.057
1.18, 1, 13.8234, 57.5963, -0.11239, 65.4455, -77.9291, 119.89
1.184, 1, 13.8734, 57.5743, -0.143419, 65.518, -77.8679, 119.722
1.188, 1, 13.9234, 57.5524, -0.174418, 65.5905, -77.8068, 119.554
1.192, 1, 13.9733, 57.5306, -0.205389, 65.6629, -77.7457, 119.387
1.196, 1, 14.0232, 57.5087, -0.23633, 65.7352, -77.6847, 119.22
1.2, 1, 14.0731, 57.4869, -0.267241, 65.8075, -77.6238, 119.053
1.204, 1, 14.1229, 57.465, -0.298124, 65.8797, -77.5629, 118.886
1.208, 1, 14.1726, 57.4433, -0.328977, 65.9518, -77.5021, 118.719
1.212, 1, 14.2223, 57.4215, -0.359801, 66.0238, -77.4413, 118.552
1.216, 1, 14.272, 57.3997, -0.390596, 66.0958, -77.3806, 118.386
1.22, 1, 14.3216, 57.378, -0.421361, 66.1677, -77.3199, 118.22
1.224, 1, 14.3712, 57.3563, -0.452098, 66.2396, -77.2593, 118.054
1.228, 1, 14.4207, 57.3346, -0.482805, 66.3113, -77.1988, 117.888
1.232, 1, 14.4701, 57.3129, -0.513484, 66.383, -77.1383, 117.722
1.236, 1, 14.5196, 57.2913, -0.544133, 66.4547, -77.0778, 117.556
1.24, 1, 14.5689, 57.2696, -0.574753, 66.5263, -77.0175, 117.391
1.244, 1, 14.6183, 57.248, -0.605344, 66.5978, -76.9572, 117.225
1.248, 1, 14.6675, 57.2264, -0.635907, 66.6692, -76.8969, 117.06
1.252, 1, 14.7168, 57.2049, -0.66644, 66.7406, -76.8367, 116.895
1.256, 1, 14.766, 57.1833, -0.696944, 66.8119, -76.7766, 116.73
1.26, 1, 14.8151, 57.1618, -0.72742, 66.8831, -76.7165, 116.566
1.264, 1, 14.8642, 57.1403, -0.757866, 66.9543, -76.6564, 116.401
1.267, 1, 14.9132, 57.1188, -0.788284, 67.0254, -76.5965, 116.237
1.272, 1, 14.9622, 57.0973, -0.818673, 67.0964, -76.5365, 116.072
1.276, 1, 15.0112, 57.0759, -0.849033, 67.1674, -76.4767, 115.908
1.28, 1, 15.0601, 57.0544, -0.879365, 67.2383, -76.4169, 115.744
1.284, 1, 15.109, 57.033, -0.909667, 67.3091, -76.3571, 115.581
1.288, 1, 15.1578, 57.0116, -0.939941, 67.3799, -76.2974, 115.417
1.292, 1, 15.2066, 56.9903, -0.970187, 67.4506, -76.2378, 115.253
1.295, 1, 15.2553, 56.9689, -1.0004, 67.5212, -76.1782, 115.09
1.3, 1, 15.304, 56.9476, -1.03059, 67.5917, -76.1187, 114.927
1.304, 1, 15.3526, 56.9263, -1.06075, 67.6622, -76.0592, 114.764
1.308, 1, 15.4012, 56.905, -1.09088, 67.7327, -75.9998, 114.601
1.312, 1, 15.4497, 56.8837, -1.12098, 67.803, -75.9405, 114.438
1.316, 1, 15.4982, 56.8625, -1.15106, 67.8733, -75.8812, 114.276
1.32, 1, 15.5466, 56.8413, -1.1811, 67.9436, -75.8219, 114.114
1.324, 1, 15.5951, 56.8201, -1.21112, 68.0137, -75.7628, 113.951
1.328, 1, 15.6434, 56.7989, -1.24111, 68.0838, -75.7036, 113.789
1.332, 1, 15.6917, 56.7777, -1.27107, 68.1538, -75.6446, 113.627
1.336, 1, 15.74, 56.7566, -1.301, 68.2238, -75.5855, 113.466
1.34, 1, 15.7882, 56.7354, -1.33091, 68.2937, -75.5266, 113.304
1.344, 1, 15.8364, 56.7143, -1.36079, 68.3635, -75.4677, 113.142
1.348, 1, 15.8845, 56.6932, -1.39063, 68.4333, -75.4088, 112.981
1.352, 1, 15.9326, 56.6722, -1.42045, 68.503, -75.35, 112.82
1.356, 1, 15.9806, 56.6511, -1.45024, 68.5726, -75.2913, 112.659
1.36, 1, 16.0286, 56.6301, -1.48001, 68.6422, -75.2326, 112.498
1.364, 1, 16.0766, 56.6091, -1.50974, 68.7117, -75.174, 112.337
1.368, 1, 16.1245, 56.5881, -1.53945, 68.7811, -75.1154, 112.177
1.372, 1, 16.1723, 56.5672, -1.56912, 68.8505, -75.0569, 112.016
1.376, 1, 16.2201, 56.5462, -1.59877, 68.9198, -74.9984, 111.856
1.38, 1, 16.2679, 56.5253, -1.6284, 68.9891, -74.94, 111.696
1.384, 1, 16.3156, 56.5044, -1.65799, 69.0582, -74.8817, 111.536
1.388, 1, 16.3633, 56.4835, -1.68756, 69.1273, -74.8234, 111.376
1.392, 1, 16.4109, 56.4626, -1.7171, 69.1964, -74.7652, 111.217
1.396, 1, 16.4585, 56.4418, -1.74661, 69.2654, -74.707, 111.057
1.4, 1, 16.5061, 56.4209, -1.77609, 69.3343, -74.6488, 110.898
1.404, 1, 16.5535, 56.4001, -1.80554, 69.4031, -74.5908, 110.739
1.408, 1, 16.601, 56.3793, -1.83497, 69.4719, -74.5327, 110.58
1.412, 1, 16.6484, 56.3586, -1.86437, 69.5406, -74.4748, 110.421
1.416, 1, 16.6958, 56.3378, -1.89374, 69.6093, -74.4169, 110.262
1.42, 1, 16.7431, 56.3171, -1.92309, 69.6779, -74.359, 110.103
1.424, 1, 16.7904, 56.2964, -1.9524, 69.7464, -74.3012, 109.945
1.428, 1, 16.8376, 56.2757, -1.98169, 69.8149, -74.2434, 109.787
1.432, 1, 16.8848, 56.255, -2.01095, 69.8833, -74.1858, 109.629
1.436, 1, 16.9319, 56.2344, -2.04019, 69.9516, -74.1281, 109.471
1.44, 1, 16.979, 56.2137, -2.06939, 70.0199, -74.0705, 109.313
1.444, 1, 17.0261, 56.1931, -2.09857, 70.0881, -74.013, 109.155
1.448, 1, 17.0731, 56.1725, -2.12772, 70.1562, -73.9555, 108.997
1.452, 1, 17.12, 56.1519, -2.15685, 70.2243, -73.8981, 108.84
1.456, 1, 17.167, 56.1314, -2.18595, 70.2923, -73.8407, 108.683
1.46, 1, 17.2138, 56.1109, -2.21502, 70.3602, -73.7834, 108.526
1.464, 1, 17.2607, 56.0903, -2.24406, 70.4281, -73.7261, 108.369
1.468, 1, 17.3075, 56.0698, -2.27308, 70.496, -73.6689, 108.212
1.472, 1, 17.3542, 56.0494, -2.30207, 70.5637, -73.6118, 108.055
1.476, 1, 17.4009, 56.0289, -2.33103, 70.6314, -73.5547, 107.899
1.48, 1, 17.4476, 56.0084, -2.35996, 70.6991, -73.4976, 107.742
1.484, 1, 17.4942, 55.988, -2.38887, 70.7666, -73.4406, 107.586
1.488, 1, 17.5408, 55.9676, -2.41775, 70.8341, -73.3837, 107.43
1.492, 1, 17.5873, 55.9472, -2.44661, 70.9016, -73.3268, 107.274
1.496, 1, 17.6338, 55.9269, -2.47543, 70.969, -73.2699, 107.118
1.5, 1, 17.6802, 55.9065, -2.50423, 71.0363, -73.2132, 106.962
1.504, 1, 17.7266, 55.8862, -2.53301, 71.1035, -73.1564, 106.807
1.508, 1, 17.773, 55.8659, -2.56176, 71.1707, -73.0997, 106.652
1.512, 1, 17.8193, 55.8456, -2.59048, 71.2379, -73.0431, 106.496
1.516, 1, 17.8656, 55.8253, -2.61917, 71.3049, -72.9865, 106.341
1.52, 1, 17.9118, 55.8051, -2.64784, 71.3719, -72.93, 106.186
1.524, 1, 17.958, 55.7848, -2.67648, 71.4389, -72.8735, 106.032
1.528, 1, 18.0041, 55.7646, -2.7051, 71.5058, -72.8171, 105.877
1.532, 1, 18.0502, 55.7444, -2.73368, 71.5726, -72.7607, 105.722
1.536, 1, 18.0963, 55.7242, -2.76225, 71.6394, -72.7044, 105.568
1.54, 1, 18.1423, 55.7041, -2.79078, 71.7061, -72.6482, 105.414
1.544, 1, 18.1883, 55.6839, -2.81929, 71.7727, -72.592, 105.26
1.548, 1, 18.2342, 55.6638, -2.84777, 71.8393, -72.5358, 105.106
1.552, 1, 18.2801, 55.6437, -2.87623, 71.9058, -72.4797, 104.952
1.556, 1, 18.3259, 55.6236, -2.90466, 71.9723, -72.4236, 104.798
1.56, 1, 18.3717, 55.6036, -2.93307, 72.0387, -72.3676, 104.645
1.564, 1, 18.4175, 55.5835, -2.96145, 72.105, -72.3117, 104.491
1.568, 1, 18.4632, 55.5635, -2.9898, 72.1713, -72.2558, 104.338
1.572, 1, 18.5089, 55.5435, -3.01813, 72.2375, -72.1999, 104.185
1.576, 1, 18.5545, 55.5235, -3.04643, 72.3036, -72.1441, 104.032
1.58, 1, 18.6001, 55.5035, -3.0747, 72.3697, -72.0884, 103.879
1.584, 1, 18.6457, 55.4835, -3.10295, 72.4357, -72.0327, 103.727
1.588, 1, 18.6912, 55.4636, -3.13117, 72.5017, -71.977, 103.574
1.592, 1, 18.7367, 55.4437, -3.15937, 72.5676, -71.9214, 103.422
1.596, 1, 18.7821, 55.4238, -3.18754, 72.6335, -71.8659, 103.269
1.6, 1, 18.8275, 55.4039, -3.21569, 72.6993, -71.8104, 103.117
1.604, 1, 18.8728, 55.384, -3.24381, 72.765, -71.7549, 102.965
1.608, 1, 18.9181, 55.3642, -3.2719, 72.8307, -71.6995, 102.813
1.612, 1, 18.9634, 55.3444, -3.29997, 72.8963, -71.6442, 102.662
1.616, 1, 19.0086, 55.3245, -3.32802, 72.9618, -71.5889, 102.51
1.62, 1, 19.0538, 55.3047, -3.35604, 73.0273, -71.5337, 102.359
1.624, 1, 19.0989, 55.285, -3.38403, 73.0928, -71.4785, 102.208
1.628, 1, 19.144, 55.2652, -3.412, 73.1581, -71.4233, 102.056
1.632, 1, 19.1891, 55.2455, -3.43994, 73.2234, -71.3682, 101.905
1.636, 1, 19.2341, 55.2257, -3.46786, 73.2887, -71.3132, 101.754
1.64, 1, 19.2791, 55.206, -3.49575, 73.3539, -71.2582, 101.604
1.644, 1, 19.324, 55.1864, -3.52361, 73.419, -71.2033, 101.453
1.648, 1, 19.3689, 55.1667, -3.55145, 73.4841, -71.1484, 101.303
1.652, 1, 19.4138, 55.147, -3.57927, 73.5491, -71.0935, 101.152
1.656, 1, 19.4586, 55.1274, -3.60706, 73.6141, -71.0387, 101.002
1.66, 1, 19.5034, 55.1078, -3.63483, 73.679, -70.984, 100.852
1.664, 1, 19.5481, 55.0882, -3.66257, 73.7438, -70.9293, 100.702
1.668, 1, 19.5928, 55.0686, -3.69028, 73.8086, -70.8746, 100.552
1.672, 1, 19.6374, 55.049, -3.71797, 73.8733, -70.82, 100.403
1.676, 1, 19.6821, 55.0295, -3.74564, 73.938, -70.7655, 100.253
1.68, 1, 19.7266, 55.01, -3.77328, 74.0026, -70.711, 100.104
1.684, 1, 19.7712, 54.9905, -3.8009, 74.0672, -70.6565, 99.9545
1.688, 1, 19.8157, 54.971, -3.82849, 74.1317, -70.6021, 99.8053
1.692, 1, 19.8601, 54.9515, -3.85606, 74.1961, -70.5478, 99.6564
1.696, 1, 19.9045, 54.932, -3.8836, 74.2605, -70.4935, 99.5075
1.7, 1, 19.9489, 54.9126, -3.91111, 74.3248, -70.4392, 99.3588
1.704, 1, 19.9932, 54.8932, -3.93861, 74.3891, -70.385, 99.2102
1.708, 1, 20.0375, 54.8738, -3.96608, 74.4533, -70.3308, 99.0617
1.712, 1, 20.0818, 54.8544, -3.99352, 74.5174, -70.2767, 98.9134
1.716, 1, 20.126, 54.835, -4.02094, 74.5815, -70.2227, 98.7652
1.72, 1, 20.1702, 54.8157, -4.04834, 74.6455, -70.1687, 98.6172
1.724, 1, 20.2143, 54.7963, -4.07571, 74.7095, -70.1147, 98.4692
1.728, 1, 20.2584, 54.777, -4.10305, 74.7734, -70.0608, 98.3214
1.732, 1, 20.3025, 54.7577, -4.13037, 74.8373, -70.0069, 98.1738
1.736, 1, 20.3465, 54.7384, -4.15767, 74.9011, -69.9531, 98.0262
1.74, 1, 20.3905, 54.7192, -4.18495, 74.9648, -69.8993, 97.8788
1.744, 1, 20.4344, 54.6999, -4.21219, 75.0285, -69.8456, 97.7316
1.748, 1, 20.4783, 54.6807, -4.23942, 75.0922, -69.7919, 97.5844
1.752, 1, 20.5222, 54.6615, -4.26662, 75.1557, -69.7383, 97.4374
1.756, 1, 20.566, 54.6423, -4.2938, 75.2193, -69.6847, 97.2905
1.76, 1, 20.6098, 54.6231, -4.32095, 75.2827, -69.6312, 97.1438
1.764, 1, 20.6535, 54.6039, -4.34808, 75.3462, -69.5777, 96.9972
1.768, 1, 20.6972, 54.5848, -4.37518, 75.4095, -69.5242, 96.8507
1.772, 1, 20.7409, 54.5656, -4.40226, 75.4728, -69.4708, 96.7043
1.776, 1, 20.7845, 54.5465, -4.42932, 75.5361, -69.4175, 96.5581
1.78, 1, 20.8281, 54.5274, -4.45635, 75.5992, -69.3642, 96.412
1.784, 1, 20.8717, 54.5083, -4.48336, 75.6624, -69.3109, 96.266
1.788, 1, 20.9152, 54.4893, -4.51035, 75.7254, -69.2577, 96.1201
1.792, 1, 20.9587, 54.4702, -4.53731, 75.7885, -69.2046, 95.9744
1.796, 1, 21.0021, 54.4512, -4.56425, 75.8514, -69.1514, 95.8288
1.8, 1, 21.0455, 54.4322, -4.59117, 75.9144, -69.0984, 95.6834
1.804, 1, 21.0889, 54.4132, -4.61806, 75.9772, -69.0453, 95.538
1.808, 1, 21.1322, 54.3942, -4.64493, 76.04, -68.9924, 95.3928
1.812, 1, 21.1755, 54.3752, -4.67177, 76.1028, -68.9394, 95.2477
1.816, 1, 21.2188, 54.3563, -4.69859, 76.1655, -68.8866, 95.1028
1.82, 1, 21.262, 54.3373, -4.72539, 76.2281, -68.8337, 94.9579
1.824, 1, 21.3052, 54.3184, -4.75217, 76.2907, -68.7809, 94.8132
1.828, 1, 21.3483, 54.2995, -4.77892, 76.3532, -68.7282, 94.6686
1.832, 1, 21.3914, 54.2806, -4.80565, 76.4157, -68.6755, 94.5242
1.836, 1, 21.4345, 54.2618, -4.83235, 76.4781, -68.6228, 94.3798
1.84, 1, 21.4775, 54.2429, -4.85904, 76.5405, -68.5702, 94.2356
1.844, 1, 21.5205, 54.2241, -4.8857, 76.6028, -68.5176, 94.0915
1.848, 1, 21.5634, 54.2053, -4.91233, 76.6651, -68.4651, 93.9476
1.852, 1, 21.6064, 54.1865, -4.93895, 76.7273, -68.4127, 93.8037
1.856, 1, 21.6492, 54.1677, -4.96554, 76.7894, -68.3602, 93.66
1.86, 1, 21.6921, 54.1489, -4.99211, 76.8515, -68.3078, 93.5164
1.864, 1, 21.7349, 54.1302, -5.01865, 76.9136, -68.2555, 93.3729
1.868, 1, 21.7777, 54.1114, -5.04518, 76.9756, -68.2032, 93.2296
1.872, 1, 21.8204, 54.0927, -5.07168, 77.0375, -68.151, 93.0864
1.876, 1, 21.8631, 54.074, -5.09815, 77.0994, -68.0987, 92.9433
1.88, 1, 21.9058, 54.0553, -5.12461, 77.1613, -68.0466, 92.8003
1.884, 1, 21.9484, 54.0366, -5.15104, 77.223, -67.9945, 92.6574
1.888, 1, 21.991, 54.018, -5.17745, 77.2848, -67.9424, 92.5147
1.892, 1, 22.0335, 53.9993, -5.20384, 77.3465, -67.8904, 92.3721
1.896, 1, 22.076, 53.9807, -5.23021, 77.4081, -67.8384, 92.2296
1.9, 1, 22.1185, 53.9621, -5.25655, 77.4697, -67.7864, 92.0872
1.904, 1, 22.161, 53.9435, -5.28287, 77.5312, -67.7345, 91.9449
1.908, 1, 22.2034, 53.9249, -5.30917, 77.5927, -67.6827, 91.8028
1.912, 1, 22.2457, 53.9063, -5.33544, 77.6541, -67.6309, 91.6608
1.916, 1, 22.2881, 53.8878, -5.3617, 77.7154, -67.5791, 91.5189
1.92, 1, 22.3304, 53.8693, -5.38793, 77.7768, -67.5274, 91.3771
1.924, 1, 22.3726, 53.8507, -5.41414, 77.838, -67.4757, 91.2355
1.928, 1, 22.4149, 53.8322, -5.44033, 77.8992, -67.4241, 91.0939
1.932, 1, 22.4571, 53.8138, -5.4665, 77.9604, -67.3725, 90.9525
1.936, 1, 22.4992, 53.7953, -5.49264, 78.0215, -67.3209, 90.8112
1.94, 1, 22.5414, 53.7768, -5.51876, 78.0826, -67.2694, 90.67
1.944, 1, 22.5834, 53.7584, -5.54486, 78.1436, -67.218, 90.5289
1.948, 1, 22.6255, 53.74, -5.57094, 78.2045, -67.1666, 90.388
1.952, 1, 22.6675, 53.7216, -5.597, 78.2654, -67.1152, 90.2472
1.956, 1, 22.7095, 53.7032, -5.62303, 78.3263, -67.0639, 90.1065
1.96, 1, 22.7514, 53.6848, -5.64904, 78.3871, -67.0126, 89.9659
1.964, 1, 22.7934, 53.6664, -5.67504, 78.4479, -66.9613, 89.8254
1.968, 1, 22.8352, 53.6481, -5.70101, 78.5086, -66.9101, 89.685
1.972, 1, 22.8771, 53.6298, -5.72695, 78.5692, -66.8589, 89.5448
1.976, 1, 22.9189, 53.6114, -5.75288, 78.6298, -66.8078, 89.4047
1.98, 1, 22.9607, 53.5931, -5.77879, 78.6904, -66.7567, 89.2647
1.984, 1, 23.0024, 53.5749, -5.80467, 78.7509, -66.7057, 89.1248
1.988, 1, 23.0441, 53.5566, -5.83053, 78.8113, -66.6547, 88.985
1.992, 1, 23.0858, 53.5383, -5.85637, 78.8717, -66.6038, 88.8453
1.996, 1, 23.1274, 53.5201, -5.88219, 78.9321, -66.5529, 88.7058
1.999, 1, 23.169, 53.5019, -5.90799, 78.9924, -66.502, 88.5663
2.004, 1, 23.2106, 53.4836, -5.93377, 79.0526, -66.4512, 88.427
2.008, 1, 23.2521, 53.4654, -5.95953, 79.1128, -66.4004, 88.2878
2.012, 1, 23.2936, 53.4473, -5.98526, 79.173, -66.3496, 88.1487
2.015, 1, 23.3351, 53.4291, -6.01098, 79.2331, -66.2989, 88.0097
2.019, 1, 23.3765, 53.4109, -6.03667, 79.2932, -66.2483, 87.8709
2.024, 1, 23.4179, 53.3928, -6.06234, 79.3532, -66.1977, 87.7321
2.028, 1, 23.4593, 53.3747, -6.08799, 79.4131, -66.1471, 87.5935
2.031, 1, 23.5006, 53.3566, -6.11362, 79.473, -66.0965, 87.455
2.036, 1, 23.5419, 53.3385, -6.13923, 79.5329, -66.0461, 87.3166
2.04, 1, 23.5832, 53.3204, -6.16482, 79.5927, -65.9956, 87.1783
2.044, 1, 23.6244, 53.3023, -6.19039, 79.6525, -65.9452, 87.0401
2.048, 1, 23.6656, 53.2843, -6.21593, 79.7122, -65.8948, 86.902
2.051, 1, 23.7068, 53.2663, -6.24146, 79.7718, -65.8445, 86.7641
2.055, 1, 23.7479, 53.2482, -6.26696, 79.8315, -65.7942, 86.6262
2.06, 1, 23.789, 53.2302, -6.29245, 79.891, -65.7439, 86.4885
2.064, 1, 23.8301, 53.2123, -6.31791, 79.9505, -65.6937, 86.3508
2.068, 1, 23.8711, 53.1943, -6.34336, 80.01, -65.6436, 86.2133
2.071, 1, 23.9121, 53.1763, -6.36878, 80.0694, -65.5935, 86.0759
2.076, 1, 23.953, 53.1584, -6.39418, 80.1288, -65.5434, 85.9386
2.08, 1, 23.994, 53.1404, -6.41956, 80.1882, -65.4933, 85.8015
2.084, 1, 24.0349, 53.1225, -6.44492, 80.2474, -65.4433, 85.6644
2.087, 1, 24.0757, 53.1046, -6.47027, 80.3067, -65.3933, 85.5274
2.092, 1, 24.1166, 53.0867, -6.49559, 80.3659, -65.3434, 85.3906
2.096, 1, 24.1574, 53.0689, -6.52089, 80.425, -65.2935, 85.2538
2.1, 1, 24.1981, 53.051, -6.54617, 80.4841, -65.2437, 85.1172
2.104, 1, 24.2389, 53.0331, -6.57143, 80.5431, -65.1939, 84.9807
2.107, 1, 24.2796, 53.0153, -6.59667, 80.6021, -65.1441, 84.8443
2.111, 1, 24.3202, 52.9975, -6.62189, 80.6611, -65.0944, 84.708
2.116, 1, 24.3609, 52.9797, -6.64709, 80.72, -65.0447, 84.5718
2.12, 1, 24.4015, 52.9619, -6.67227, 80.7788, -64.9951, 84.4357
2.124, 1, 24.4421, 52.9441, -6.69743, 80.8376, -64.9455, 84.2997
2.127, 1, 24.4826, 52.9264, -6.72257, 80.8964, -64.8959, 84.1638
2.132, 1, 24.5231, 52.9086, -6.74768, 80.9551, -64.8464, 84.0281
2.136, 1, 24.5636, 52.8909, -6.77278, 81.0138, -64.7969, 83.8924
2.14, 1, 24.604, 52.8732, -6.79786, 81.0724, -64.7474, 83.7569
2.143, 1, 24.6444, 52.8555, -6.82293, 81.131, -64.698, 83.6214
2.148, 1, 24.6848, 52.8378, -6.84797, 81.1895, -64.6486, 83.4861
2.152, 1, 24.7252, 52.8201, -6.87299, 81.248, -64.5993, 83.3508
2.156, 1, 24.7655, 52.8024, -6.89799, 81.3064, -64.55, 83.2157
2.16, 1, 24.8058, 52.7848, -6.92297, 81.3648, -64.5008, 83.0807
2.163, 1, 24.846, 52.7672, -6.94793, 81.4232, -64.4515, 82.9458
2.168, 1, 24.8863, 52.7495, -6.97288, 81.4815, -64.4024, 82.811
2.172, 1, 24.9265, 52.7319, -6.9978, 81.5398, -64.3532, 82.6763
2.176, 1, 24.9666, 52.7143, -7.0227, 81.598, -64.3041, 82.5417
2.179, 1, 25.0067, 52.6968, -7.04759, 81.6561, -64.255, 82.4072
2.184, 1, 25.0468, 52.6792, -7.07245, 81.7143, -64.206, 82.2728
2.188, 1, 25.0869, 52.6616, -7.0973, 81.7723, -64.157, 82.1385
2.192, 1, 25.1269, 52.6441, -7.12213, 81.8304, -64.1081, 82.0043
2.196, 1, 25.167, 52.6266, -7.14693, 81.8884, -64.0592, 81.8702
2.199, 1, 25.2069, 52.6091, -7.17172, 81.9463, -64.0103, 81.7363
2.204, 1, 25.2469, 52.5915, -7.19649, 82.0042, -63.9614, 81.6024
2.208, 1, 25.2868, 52.5741, -7.22124, 82.062, -63.9126, 81.4686
2.212, 1, 25.3267, 52.5566, -7.24598, 82.1199, -63.8639, 81.3349
2.216, 1, 25.3665, 52.5391, -7.27069, 82.1776, -63.8152, 81.2014
2.219, 1, 25.4063, 52.5217, -7.29538, 82.2353, -63.7665, 81.0679
2.224, 1, 25.4461, 52.5043, -7.32006, 82.293, -63.7178, 80.9346
2.228, 1, 25.4859, 52.4868, -7.34471, 82.3507, -63.6692, 80.8013
2.232, 1, 25.5256, 52.4694, -7.36935, 82.4082, -63.6206, 80.6681
2.235, 1, 25.5653, 52.452, -7.39397, 82.4658, -63.5721, 80.5351
2.24, 1, 25.605, 52.4347, -7.41857, 82.5233, -63.5236, 80.4021
2.244, 1, 25.6446, 52.4173, -7.44315, 82.5807, -63.4751, 80.2693
2.248, 1, 25.6842, 52.3999, -7.46771, 82.6382, -63.4267, 80.1365
2.252, 1, 25.7238, 52.3826, -7.49226, 82.6955, -63.3783, 80.0039
2.255, 1, 25.7634, 52.3653, -7.51678, 82.7529, -63.3299, 79.8713
2.259, 1, 25.8029, 52.348, -7.54129, 82.8101, -63.2816, 79.7389
2.264, 1, 25.8424, 52.3307, -7.56578, 82.8674, -63.2333, 79.6065
2.268, 1, 25.8818, 52.3134, -7.59025, 82.9246, -63.1851, 79.4743
2.272, 1, 25.9213, 52.2961, -7.6147, 82.9817, -63.1369, 79.3421
2.275, 1, 25.9607, 52.2788, -7.63913, 83.0388, -63.0887, 79.2101
2.28, 1, 26, 52.2616, -7.66355, 83.0959, -63.0406, 79.0781
2.284, 1, 26.0394, 52.2443, -7.68794, 83.1529, -62.9925, 78.9463
2.288, 1, 26.0787, 52.2271, -7.71232, 83.2099, -62.9444, 78.8145
2.291, 1, 26.118, 52.2099, -7.73668, 83.2669, -62.8964, 78.6828
2.296, 1, 26.1572, 52.1927, -7.76102, 83.3238, -62.8484, 78.5513
2.3, 1, 26.1965, 52.1755, -7.78535, 83.3806, -62.8004, 78.4198
2.304, 1, 26.2357, 52.1584, -7.80965, 83.4374, -62.7525, 78.2884
2.308, 1, 26.2748, 52.1412, -7.83394, 83.4942, -62.7046, 78.1572
2.311, 1, 26.314, 52.1241, -7.85821, 83.5509, -62.6567, 78.026
2.316, 1, 26.3531, 52.1069, -7.88246, 83.6076, -62.6089, 77.8949
2.32, 1, 26.3921, 52.0898, -7.9067, 83.6643, -62.5611, 77.7639
2.324, 1, 26.4312, 52.0727, -7.93091, 83.7209, -62.5134, 77.6331
2.328, 1, 26.4702, 52.0556, -7.95511, 83.7774, -62.4657, 77.5023
2.331, 1, 26.5092, 52.0385, -7.97929, 83.834, -62.418, 77.3716
2.336, 1, 26.5482, 52.0214, -8.00345, 83.8904, -62.3704, 77.241
2.34, 1, 26.5871, 52.0044, -8.0276, 83.9469, -62.3227, 77.1105
2.344, 1, 26.626, 51.9873, -8.05173, 84.0033, -62.2752, 76.9801
2.347, 1, 26.6649, 51.9703, -8.07584, 84.0596, -62.2276, 76.8498
2.352, 1, 26.7038, 51.9533, -8.09993, 84.1159, -62.1801, 76.7196
2.356, 1, 26.7426, 51.9363, -8.124, 84.1722, -62.1327, 76.5895
2.36, 1, 26.7814, 51.9193, -8.14806, 84.2284, -62.0852, 76.4594
2.364, 1, 26.8201, 51.9023, -8.1721, 84.2846, -62.0378, 76.3295
2.367, 1, 26.8589, 51.8853, -8.19612, 84.3408, -61.9905, 76.1997
2.372, 1, 26.8976, 51.8684, -8.22013, 84.3969, -61.9431, 76.07
2.376, 1, 26.9363, 51.8514, -8.24411, 84.453, -61.8958, 75.9403
2.38, 1, 26.9749, 51.8345, -8.26808, 84.509, -61.8486, 75.8108
2.383, 1, 27.0135, 51.8176, -8.29204, 84.565, -61.8014, 75.6813
2.388, 1, 27.0521, 51.8007, -8.31597, 84.6209, -61.7542, 75.5519
2.392, 1, 27.0907, 51.7838, -8.33989, 84.6768, -61.707, 75.4227
2.396, 1, 27.1292, 51.7669, -8.36379, 84.7327, -61.6599, 75.2935
2.4, 1, 27.1678, 51.75, -8.38767, 84.7885, -61.6128, 75.1644
2.403, 1, 27.2063, 51.7331, -8.41154, 84.8443, -61.5657, 75.0354
2.408, 1, 27.2447, 51.7163, -8.43539, 84.9001, -61.5187, 74.9065
2.412, 1, 27.2831, 51.6994, -8.45922, 84.9558, -61.4717, 74.7777
2.416, 1, 27.3215, 51.6826, -8.48304, 85.0114, -61.4248, 74.649
2.42, 1, 27.3599, 51.6658, -8.50683, 85.0671, -61.3778, 74.5204
2.423, 1, 27.3983, 51.649, -8.53061, 85.1227, -61.3309, 74.3919
2.428, 1, 27.4366, 51.6322, -8.55438, 85.1782, -61.2841, 74.2634
2.432, 1, 27.4749, 51.6154, -8.57812, 85.2337, -61.2373, 74.1351
2.436, 1, 27.5132, 51.5987, -8.60186, 85.2892, -61.1905, 74.0068
2.439, 1, 27.5514, 51.5819, -8.62557, 85.3446, -61.1437, 73.8786
2.444, 1, 27.5896, 51.5652, -8.64927, 85.4, -61.097, 73.7506
2.448, 1, 27.6278, 51.5485, -8.67295, 85.4553, -61.0503, 73.6226
2.452, 1, 27.666, 51.5317, -8.69661, 85.5107, -61.0037, 73.4947
2.456, 1, 27.7041, 51.515, -8.72025, 85.5659, -60.957, 73.3669
2.459, 1, 27.7422, 51.4983, -8.74389, 85.6212, -60.9104, 73.2392
2.464, 1, 27.7803, 51.4817, -8.7675, 85.6764, -60.8639, 73.1116
2.468, 1, 27.8183, 51.465, -8.7911, 85.7315, -60.8173, 72.984
2.472, 1, 27.8563, 51.4483, -8.81468, 85.7866, -60.7709, 72.8566
2.476, 1, 27.8944, 51.4317, -8.83824, 85.8417, -60.7244, 72.7292
2.479, 1, 27.9323, 51.415, -8.86179, 85.8968, -60.678, 72.602
2.484, 1, 27.9703, 51.3984, -8.88532, 85.9518, -60.6316, 72.4748
2.488, 1, 28.0082, 51.3818, -8.90883, 86.0067, -60.5852, 72.3477
2.492, 1, 28.0461, 51.3652, -8.93233, 86.0616, -60.5389, 72.2207
2.495, 1, 28.0839, 51.3486, -8.95581, 86.1165, -60.4926, 72.0938
2.5, 1, 28.1218, 51.332, -8.97928, 86.1714, -60.4463, 71.967
2.504, 1, 28.1596, 51.3155, -9.00273, 86.2262, -60.4001, 71.8402
2.508, 1, 28.1974, 51.2989, -9.02616, 86.281, -60.3539, 71.7136
2.512, 1, 28.2352, 51.2824, -9.04957, 86.3357, -60.3077, 71.587
2.515, 1, 28.2729, 51.2658, -9.07298, 86.3904, -60.2616, 71.4605
2.52, 1, 28.3106, 51.2493, -9.09636, 86.4451, -60.2155, 71.3342
2.524, 1, 28.3483, 51.2328, -9.11973, 86.4997, -60.1694, 71.2079
2.528, 1, 28.3859, 51.2163, -9.14308, 86.5543, -60.1233, 71.0816
2.531, 1, 28.4236, 51.1998, -9.16642, 86.6088, -60.0773, 70.9555
2.536, 1, 28.4612, 51.1833, -9.18974, 86.6633, -60.0313, 70.8295
2.54, 1, 28.4988, 51.1669, -9.21304, 86.7178, -59.9854, 70.7035
2.544, 1, 28.5363, 51.1504, -9.23633, 86.7722, -59.9395, 70.5777
2.548, 1, 28.5738, 51.134, -9.2596, 86.8266, -59.8936, 70.4519
2.551, 1, 28.6114, 51.1175, -9.28286, 86.881, -59.8477, 70.3262
2.556, 1, 28.6488, 51.1011, -9.3061, 86.9353, -59.8019, 70.2006
2.56, 1, 28.6863, 51.0847, -9.32933, 86.9896, -59.7561, 70.075
2.564, 1, 28.7237, 51.0683, -9.35254, 87.0439, -59.7104, 69.9496
2.568, 1, 28.7611, 51.0519, -9.37573, 87.0981, -59.6646, 69.8242
2.571, 1, 28.7985, 51.0356, -9.39891, 87.1523, -59.6189, 69.699
2.576, 1, 28.8358, 51.0192, -9.42207, 87.2064, -59.5732, 69.5738
2.58, 1, 28.8732, 51.0028, -9.44522, 87.2605, -59.5276, 69.4487
2.584, 1, 28.9105, 50.9865, -9.46835, 87.3146, -59.482, 69.3236
2.587, 1, 28.9478, 50.9702, -9.49147, 87.3686, -59.4364, 69.1987
2.592, 1, 28.985, 50.9539, -9.51457, 87.4226, -59.3909, 69.0738
2.596, 1, 29.0222, 50.9375, -9.53765, 87.4766, -59.3453, 68.9491
2.6, 1, 29.0594, 50.9212, -9.56073, 87.5305, -59.2999, 68.8244
2.604, 1, 29.0966, 50.905, -9.58378, 87.5844, -59.2544, 68.6998
2.607, 1, 29.1338, 50.8887, -9.60682, 87.6382, -59.209, 68.5753
2.612, 1, 29.1709, 50.8724, -9.62985, 87.6921, -59.1636, 68.4508
2.616, 1, 29.208, 50.8562, -9.65285, 87.7458, -59.1182, 68.3265
2.62, 1, 29.2451, 50.8399, -9.67585, 87.7996, -59.0729, 68.2022
2.624, 1, 29.2821, 50.8237, -9.69883, 87.8533, -59.0276, 68.078
2.627, 1, 29.3192, 50.8075, -9.72179, 87.907, -58.9823, 67.9539
2.632, 1, 29.3562, 50.7912, -9.74474, 87.9606, -58.937, 67.8298
2.636, 1, 29.3932, 50.775, -9.76767, 88.0142, -58.8918, 67.7059
2.64, 1, 29.4301, 50.7588, -9.79059, 88.0678, -58.8466, 67.582
2.643, 1, 29.4671, 50.7427, -9.8135, 88.1213, -58.8015, 67.4582
2.648, 1, 29.504, 50.7265, -9.83638, 88.1749, -58.7563, 67.3345
2.652, 1, 29.5409, 50.7103, -9.85926, 88.2283, -58.7112, 67.2109
2.656, 1, 29.5777, 50.6942, -9.88212, 88.2817, -58.6662, 67.0874
2.66, 1, 29.6146, 50.678, -9.90496, 88.3351, -58.6211, 66.9639
2.663, 1, 29.6514, 50.6619, -9.92779, 88.3885, -58.5761, 66.8405
2.668, 1, 29.6882, 50.6458, -9.9506, 88.4418, -58.5311, 66.7172
2.672, 1, 29.7249, 50.6297, -9.9734, 88.4951, -58.4862, 66.594
2.676, 1, 29.7617, 50.6136, -9.99619, 88.5484, -58.4412, 66.4708
2.679, 1, 29.7984, 50.5975, -10.019, 88.6016, -58.3964, 66.3478
2.684, 1, 29.8351, 50.5814, -10.0417, 88.6548, -58.3515, 66.2248
2.688, 1, 29.8718, 50.5654, -10.0645, 88.708, -58.3066, 66.1019
2.692, 1, 29.9084, 50.5493, -10.0872, 88.7611, -58.2618, 65.979
2.696, 1, 29.945, 50.5333, -10.1099, 88.8142, -58.2171, 65.8563
2.699, 1, 29.9816, 50.5172, -10.1326, 88.8672, -58.1723, 65.7336
2.704, 1, 30.0182, 50.5012, -10.1553, 88.9202, -58.1276, 65.611
2.708, 1, 30.0548, 50.4852, -10.1779, 88.9732, -58.0829, 65.4885
2.712, 1, 30.0913, 50.4692, -10.2006, 89.0262, -58.0382, 65.3661
2.716, 1, 30.1278, 50.4532, -10.2232, 89.0791, -57.9936, 65.2437
2.719, 1, 30.1643, 50.4372, -10.2459, 89.132, -57.949, 65.1214
2.724, 1, 30.2008, 50.4212, -10.2685, 89.1849, -57.9044, 64.9992
2.728, 1, 30.2372, 50.4053, -10.2911, 89.2377, -57.8598, 64.8771
2.732, 1, 30.2736, 50.3893, -10.3137, 89.2905, -57.8153, 64.755
2.735, 1, 30.31, 50.3734, -10.3362, 89.3432, -57.7708, 64.6331
2.74, 1, 30.3464, 50.3574, -10.3588, 89.3959, -57.7263, 64.5112
2.744, 1, 30.3827, 50.3415, -10.3813, 89.4486, -57.6819, 64.3893
2.748, 1, 30.419, 50.3256, -10.4038, 89.5013, -57.6375, 64.2676
2.752, 1, 30.4553, 50.3097, -10.4263, 89.5539, -57.5931, 64.1459
2.755, 1, 30.4916, 50.2938, -10.4488, 89.6065, -57.5487, 64.0243
2.76, 1, 30.5279, 50.2779, -10.4713, 89.659, -57.5044, 63.9028
2.764, 1, 30.5641, 50.262, -10.4938, 89.7115, -57.4601, 63.7814
2.768, 1, 30.6003, 50.2462, -10.5163, 89.764, -57.4158, 63.66
2.772, 1, 30.6365, 50.2303, -10.5387, 89.8165, -57.3716, 63.5387
2.775, 1, 30.6727, 50.2145, -10.5611, 89.8689, -57.3274, 63.4175
2.78, 1, 30.7088, 50.1986, -10.5835, 89.9213, -57.2832, 63.2964
2.784, 1, 30.7449, 50.1828, -10.6059, 89.9737, -57.239, 63.1753
2.788, 1, 30.781, 50.167, -10.6283, 90.026, -57.1949, 63.0543
2.791, 1, 30.8171, 50.1512, -10.6507, 90.0783, -57.1507, 62.9334
2.796, 1, 30.8532, 50.1354, -10.6731, 90.1305, -57.1067, 62.8126
2.8, 1, 30.8892, 50.1196, -10.6954, 90.1828, -57.0626, 62.6918
2.804, 1, 30.9252, 50.1038, -10.7177, 90.235, -57.0186, 62.5711
2.808, 1, 30.9612, 50.0881, -10.74, 90.2871, -56.9746, 62.4505
2.811, 1, 30.9972, 50.0723, -10.7623, 90.3393, -56.9306, 62.33
2.816, 1, 31.0331, 50.0566, -10.7846, 90.3914, -56.8867, 62.2095
2.82, 1, 31.069, 50.0408, -10.8069, 90.4434, -56.8427, 62.0891
2.824, 1, 31.1049, 50.0251, -10.8292, 90.4955, -56.7988, 61.9688
2.828, 1, 31.1408, 50.0094, -10.8514, 90.5475, -56.755, 61.8485
2.831, 1, 31.1767, 49.9937, -10.8737, 90.5995, -56.7111, 61.7284
2.836, 1, 31.2125, 49.978, -10.8959, 90.6514, -56.6673, 61.6083
2.84, 1, 31.2483, 49.9623, -10.9181, 90.7033, -56.6235, 61.4882
2.844, 1, 31.2841, 49.9466, -10.9403, 90.7552, -56.5798, 61.3683
2.847, 1, 31.3199, 49.9309, -10.9625, 90.807, -56.536, 61.2484
2.852, 1, 31.3556, 49.9153, -10.9846, 90.8588, -56.4923, 61.1286
2.856, 1, 31.3913, 49.8996, -11.0068, 90.9106, -56.4486, 61.0088
2.86, 1, 31.4271, 49.884, -11.0289, 90.9624, -56.405, 60.8892
2.864, 1, 31.4627, 49.8683, -11.0511, 91.0141, -56.3614, 60.7696
2.867, 1, 31.4984, 49.8527, -11.0732, 91.0658, -56.3177, 60.65
2.872, 1, 31.534, 49.8371, -11.0953, 91.1175, -56.2742, 60.5306
2.876, 1, 31.5697, 49.8215, -11.1174, 91.1691, -56.2306, 60.4112
2.88, 1, 31.6053, 49.8059, -11.1394, 91.2207, -56.1871, 60.2919
2.883, 1, 31.6408, 49.7903, -11.1615, 91.2723, -56.1436, 60.1727
2.888, 1, 31.6764, 49.7747, -11.1835, 91.3238, -56.1001, 60.0535
2.892, 1, 31.7119, 49.7592, -11.2056, 91.3753, -56.0567, 59.9344
2.896, 1, 31.7474, 49.7436, -11.2276, 91.4268, -56.0133, 59.8154
2.9, 1, 31.7829, 49.7281, -11.2496, 91.4782, -55.9699, 59.6964
2.903, 1, 31.8184, 49.7125, -11.2716, 91.5296, -55.9265, 59.5775
2.908, 1, 31.8538, 49.697, -11.2936, 91.581, -55.8831, 59.4587
2.912, 1, 31.8893, 49.6815, -11.3156, 91.6324, -55.8398, 59.34
2.916, 1, 31.9247, 49.666, -11.3375, 91.6837, -55.7965, 59.2213
2.92, 1, 31.9601, 49.6504, -11.3595, 91.735, -55.7533, 59.1027
2.923, 1, 31.9954, 49.635, -11.3814, 91.7863, -55.71, 58.9842
2.928, 1, 32.0308, 49.6195, -11.4033, 91.8375, -55.6668, 58.8657
2.932, 1, 32.0661, 49.604, -11.4252, 91.8887, -55.6236, 58.7473
2.936, 1, 32.1014, 49.5885, -11.4471, 91.9399, -55.5804, 58.629
2.939, 1, 32.1367, 49.5731, -11.469, 91.991, -55.5373, 58.5107
2.944, 1, 32.172, 49.5576, -11.4909, 92.0421, -55.4942, 58.3925
2.948, 1, 32.2072, 49.5422, -11.5127, 92.0932, -55.4511, 58.2744
2.952, 1, 32.2424, 49.5267, -11.5346, 92.1443, -55.408, 58.1564
2.956, 1, 32.2776, 49.5113, -11.5564, 92.1953, -55.365, 58.0384
2.959, 1, 32.3128, 49.4959, -11.5782, 92.2463, -55.322, 57.9205
2.964, 1, 32.348, 49.4805, -11.6, 92.2973, -55.279, 57.8026
2.968, 1, 32.3831, 49.4651, -11.6218, 92.3482, -55.236, 57.6848
2.972, 1, 32.4182, 49.4497, -11.6436, 92.3991, -55.1931, 57.5671
2.976, 1, 32.4533, 49.4343, -11.6653, 92.45, -55.1501, 57.4495
2.98, 1, 32.4884, 49.419, -11.6871, 92.5009, -55.1072, 57.3319
2.984, 1, 32.5235, 49.4036, -11.7088, 92.5517, -55.0644, 57.2144
2.988, 1, 32.5585, 49.3883, -11.7306, 92.6025, -55.0215, 57.097
2.992, 1, 32.5935, 49.3729, -11.7523, 92.6532, -54.9787, 56.9796
2.995, 1, 32.6286, 49.3576, -11.774, 92.704, -54.9359, 56.8623
3, 1, 32.6635, 49.3423, -11.7957, 92.7547, -54.8931, 56.745
3.004, 1, 32.6985, 49.3269, -11.8174, 92.8054, -54.8504, 56.6278
3.008, 1, 32.7334, 49.3116, -11.839, 92.856, -54.8077, 56.5107
3.012, 1, 32.7684, 49.2963, -11.8607, 92.9066, -54.765, 56.3937
3.015, 1, 32.8033, 49.281, -11.8823, 92.9572, -54.7223, 56.2767
3.02, 1, 32.8381, 49.2658, -11.904, 93.0078, -54.6796, 56.1598
3.024, 1, 32.873, 49.2505, -11.9256, 93.0583, -54.637, 56.0429
3.028, 1, 32.9079, 49.2352, -11.9472, 93.1088, -54.5944, 55.9262
3.031, 1, 32.9427, 49.22, -11.9688, 93.1593, -54.5518, 55.8094
3.036, 1, 32.9775, 49.2047, -11.9904, 93.2098, -54.5093, 55.6928
3.04, 1, 33.0123, 49.1895, -12.0119, 93.2602, -54.4667, 55.5762
3.044, 1, 33.047, 49.1742, -12.0335, 93.3106, -54.4242, 55.4597
3.048, 1, 33.0818, 49.159, -12.0551, 93.3609, -54.3817, 55.3432
3.051, 1, 33.1165, 49.1438, -12.0766, 93.4113, -54.3393, 55.2268
3.056, 1, 33.1512, 49.1286, -12.0981, 93.4616, -54.2968, 55.1105
3.06, 1, 33.1859, 49.1134, -12.1196, 93.5119, -54.2544, 54.9942
3.064, 1, 33.2206, 49.0982, -12.1411, 93.5621, -54.212, 54.878
3.068, 1, 33.2552, 49.083, -12.1626, 93.6124, -54.1697, 54.7619
3.071, 1, 33.2899, 49.0678, -12.1841, 93.6626, -54.1273, 54.6458
3.076, 1, 33.3245, 49.0527, -12.2056, 93.7127, -54.085, 54.5298
3.08, 1, 33.3591, 49.0375, -12.227, 93.7629, -54.0427, 54.4139
3.084, 1, 33.3936, 49.0224, -12.2484, 93.813, -54.0004, 54.298
3.087, 1, 33.4282, 49.0072, -12.2699, 93.8631, -53.9582, 54.1822
3.092, 1, 33.4627, 48.9921, -12.2913, 93.9131, -53.9159, 54.0664
3.096, 1, 33.4973, 48.977, -12.3127, 93.9632, -53.8737, 53.9507
3.1, 1, 33.5318, 48.9619, -12.3341, 94.0132, -53.8316, 53.8351
3.104, 1, 33.5662, 48.9468, -12.3555, 94.0632, -53.7894, 53.7195
3.107, 1, 33.6007, 48.9317, -12.3768, 94.1131, -53.7473, 53.604
3.112, 1, 33.6351, 48.9166, -12.3982, 94.1631, -53.7051, 53.4886
3.116, 1, 33.6696, 48.9015, -12.4196, 94.213, -53.6631, 53.3732
3.12, 1, 33.704, 48.8864, -12.4409, 94.2628, -53.621, 53.2579
3.124, 1, 33.7384, 48.8714, -12.4622, 94.3127, -53.5789, 53.1426
3.128, 1, 33.7727, 48.8563, -12.4835, 94.3625, -53.5369, 53.0274
3.132, 1, 33.8071, 48.8412, -12.5048, 94.4123, -53.4949, 52.9123
3.136, 1, 33.8414, 48.8262, -12.5261, 94.462, -53.4529, 52.7972
3.14, 1, 33.8757, 48.8112, -12.5474, 94.5118, -53.411, 52.6822
3.143, 1, 33.91, 48.7961, -12.5687, 94.5615, -53.369, 52.5673
3.148, 1, 33.9443, 48.7811, -12.5899, 94.6112, -53.3271, 52.4524
3.152, 1, 33.9786, 48.7661, -12.6112, 94.6608, -53.2852, 52.3376
3.156, 1, 34.0128, 48.7511, -12.6324, 94.7105, -53.2434, 52.2228
3.16, 1, 34.047, 48.7361, -12.6536, 94.7601, -53.2015, 52.1081
3.163, 1, 34.0812, 48.7211, -12.6748, 94.8097, -53.1597, 51.9935
3.168, 1, 34.1154, 48.7062, -12.696, 94.8592, -53.1179, 51.8789
3.172, 1, 34.1496, 48.6912, -12.7172, 94.9087, -53.0761, 51.7644
3.176, 1, 34.1837, 48.6762, -12.7384, 94.9583, -53.0344, 51.6499
3.179, 1, 34.2179, 48.6613, -12.7596, 95.0077, -52.9926, 51.5355
3.184, 1, 34.252, 48.6463, -12.7807, 95.0572, -52.9509, 51.4212
3.188, 1, 34.2861, 48.6314, -12.8019, 95.1066, -52.9092, 51.3069
3.192, 1, 34.3202, 48.6165, -12.823, 95.156, -52.8676, 51.1927
3.196, 1, 34.3542, 48.6015, -12.8441, 95.2054, -52.8259, 51.0785
3.199, 1, 34.3883, 48.5866, -12.8652, 95.2547, -52.7843, 50.9644
3.204, 1, 34.4223, 48.5717, -12.8863, 95.304, -52.7427, 50.8504
3.208, 1, 34.4563, 48.5568, -12.9074, 95.3533, -52.7011, 50.7364
3.212, 1, 34.4903, 48.5419, -12.9285, 95.4026, -52.6596, 50.6225
3.216, 1, 34.5243, 48.527, -12.9496, 95.4518, -52.618, 50.5086
3.22, 1, 34.5582, 48.5122, -12.9706, 95.5011, -52.5765, 50.3948
3.224, 1, 34.5921, 48.4973, -12.9917, 95.5502, -52.535, 50.2811
3.228, 1, 34.6261, 48.4824, -13.0127, 95.5994, -52.4935, 50.1674
3.232, 1, 34.66, 48.4676, -13.0337, 95.6486, -52.4521, 50.0538
3.235, 1, 34.6938, 48.4527, -13.0547, 95.6977, -52.4106, 49.9402
3.24, 1, 34.7277, 48.4379, -13.0757, 95.7468, -52.3692, 49.8267
3.244, 1, 34.7616, 48.4231, -13.0967, 95.7958, -52.3278, 49.7132
3.248, 1, 34.7954, 48.4082, -13.1177, 95.8449, -52.2865, 49.5998
3.252, 1, 34.8292, 48.3934, -13.1387, 95.8939, -52.2451, 49.4865
3.255, 1, 34.863, 48.3786, -13.1596, 95.9429, -52.2038, 49.3732
3.26, 1, 34.8968, 48.3638, -13.1806, 95.9919, -52.1625, 49.26
3.264, 1, 34.9306, 48.349, -13.2015, 96.0408, -52.1212, 49.1468
3.268, 1, 34.9643, 48.3342, -13.2224, 96.0897, -52.08, 49.0337
3.272, 1, 34.998, 48.3195, -13.2434, 96.1386, -52.0387, 48.9207
3.276, 1, 35.0317, 48.3047, -13.2643, 96.1875, -51.9975, 48.8077
3.28, 1, 35.0654, 48.2899, -13.2852, 96.2363, -51.9563, 48.6948
3.284, 1, 35.0991, 48.2752, -13.3061, 96.2851, -51.9151, 48.5819
3.288, 1, 35.1328, 48.2604, -13.3269, 96.3339, -51.874, 48.4691
3.291, 1, 35.1664, 48.2457, -13.3478, 96.3827, -51.8328, 48.3563
3.296, 1, 35.2001, 48.231, -13.3686, 96.4314, -51.7917, 48.2436
3.3, 1, 35.2337, 48.2162, -13.3895, 96.4801, -51.7506, 48.131
3.304, 1, 35.2672, 48.2015, -13.4103, 96.5288, -51.7095, 48.0184
3.308, 1, 35.3007, 48.1869, -13.4311, 96.5775, -51.6685, 47.9058
3.312, 1, 35.3339, 48.1723, -13.452, 96.6262, -51.6275, 47.7934
3.316, 1, 35.3665, 48.158, -13.4729, 96.6747, -51.5865, 47.681
3.32, 1, 35.3983, 48.1441, -13.4938, 96.7232, -51.5456, 47.5688
3.324, 1, 35.429, 48.1308, -13.5148, 96.7716, -51.5049, 47.457
3.328, 1, 35.4584, 48.1181, -13.5358, 96.8196, -51.4644, 47.3458
3.332, 1, 35.4865, 48.1061, -13.5568, 96.8672, -51.4243, 47.2356
3.336, 1, 35.5134, 48.0948, -13.5777, 96.9142, -51.3848, 47.1269
3.34, 1, 35.5391, 48.0842, -13.5983, 96.9602, -51.3461, 47.0204
3.344, 1, 35.5638, 48.0741, -13.6184, 97.005, -51.3085, 46.9167
3.347, 1, 35.5875, 48.0644, -13.6378, 97.0482, -51.2721, 46.8166
3.352, 1, 35.6103, 48.0551, -13.6564, 97.0895, -51.2373, 46.7209
3.356, 1, 35.632, 48.0463, -13.674, 97.1287, -51.2044, 46.6302
3.36, 1, 35.6526, 48.0379, -13.6904, 97.1653, -51.1736, 46.5453
3.364, 1, 35.6721, 48.0299, -13.7056, 97.1992, -51.145, 46.4667
3.368, 1, 35.6907, 48.0221, -13.7193, 97.2302, -51.119, 46.3951
3.372, 1, 35.7085, 48.0145, -13.7314, 97.2581, -51.0955, 46.3306
3.376, 1, 35.7256, 48.007, -13.742, 97.2828, -51.0747, 46.2735
3.38, 1, 35.7422, 47.9995, -13.7509, 97.3043, -51.0565, 46.2238
3.383, 1, 35.758, 47.9922, -13.7583, 97.3228, -51.0408, 46.1812
3.388, 1, 35.773, 47.985, -13.7643, 97.3383, -51.0276, 46.1454
3.392, 1, 35.7868, 47.9783, -13.769, 97.3512, -51.0167, 46.1157
3.396, 1, 35.7993, 47.9722, -13.7726, 97.3617, -51.0077, 46.0916
3.4, 2, 35.8103, 47.9666, -13.7754, 97.3701, -51.0005, 46.0723
3.403, 2, 35.8201, 47.9617, -13.7774, 97.3767, -50.9949, 46.0573
3.408, 2, 35.8288, 47.9574, -13.7788, 97.3817, -50.9905, 46.0457
3.412, 2, 35.8364, 47.9536, -13.7797, 97.3855, -50.9872, 46.037
3.416, 2, 35.8429, 47.9504, -13.7803, 97.3884, -50.9848, 46.0306
3.42, 2, 35.8486, 47.9477, -13.7806, 97.3904, -50.983, 46.026
3.424, 2, 35.8532, 47.9455, -13.7808, 97.3918, -50.9817, 46.0228
3.428, 2, 35.8569, 47.9438, -13.7809, 97.3928, -50.9808, 46.0206
3.432, 2, 35.8597, 47.9426, -13.7809, 97.3935, -50.9802, 46.019
3.436, 2, 35.8617, 47.9417, -13.7809, 97.3939, -50.9798, 46.018
3.439, 2, 35.8631, 47.9411, -13.7809, 97.3943, -50.9795, 46.0173
3.444, 2, 35.864, 47.9407, -13.7809, 97.3945, -50.9794, 46.0168
3.448, 2, 35.8647, 47.9404, -13.7809, 97.3946, -50.9792, 46.0165
3.452, 2, 35.8651, 47.9402, -13.7809, 97.3947, -50.9791, 46.0163
3.456, 2, 35.8654, 47.9401, -13.7809, 97.3948, -50.9791, 46.0161
3.46, 2, 35.8656, 47.94, -13.7809, 97.3948, -50.979, 46.016
3.464, 2, 35.8657, 47.9399, -13.7809, 97.3948, -50.979, 46.016
3.468, 2, 35.8658, 47.9399, -13.7809, 97.3949, -50.979, 46.0159
3.472, 2, 35.8659, 47.9399, -13.7809, 97.3949, -50.979, 46.0159
3.476, 2, 35.8659, 47.9399, -13.7809, 97.3949, -50.979, 46.0159
3.48, 2, 35.8659, 47.9399, -13.7809, 97.3949, -50.979, 46.0159
3.484, 2, 35.866, 47.9398, -13.7809, 97.3949, -50.979, 46.0159
3.488, 2, 35.866, 47.9398, -13.7809, 97.3949, -50.979, 46.0159
3.492, 2, 35.866, 47.9398, -13.7809, 97.3949, -50.979, 46.0158
3.495, 2, 35.866, 47.9398, -13.7809, 97.3949, -50.979, 46.0158
3.5, 2, 35.866, 47.9398, -13.7809, 97.3949, -50.979, 46.0158
3.504, 2, 35.866, 47.9398, -13.7809, 97.3949, -50.979, 46.0158
3.508, 2, 35.866, 47.9398, -13.7809, 97.3949, -50.979, 46.0158
3.512, 2, 35.866, 47.9398, -13.7809, 97.3949, -50.979, 46.0158
3.516, 2, 35.866, 47.9398, -13.7809, 97.3949, -50.979, 46.0158
3.52, 2, 35.866, 47.9398, -13.7809, 97.3949, -50.979, 46.0158
3.524, 2, 35.866, 47.9398, -13.7809, 97.3949, -50.979, 46.0158
3.528, 2, 35.866, 47.9398, -13.7809, 97.3949, -50.979, 46.0158
3.531, 2, 35.866, 47.9398, -13.7809, 97.3949, -50.979, 46.0158
3.536, 2, 35.866, 47.9398, -13.7809, 97.3949, -50.979, 46.0158
3.54, 2, 35.866, 47.9398, -13.7809, 97.3949, -50.979, 46.0158
3.544, 2, 35.866, 47.9398, -13.7809, 97.3949, -50.979, 46.0158
3.548, 2, 35.866, 47.9398, -13.7809, 97.3949, -50.979, 46.0158
3.552, 2, 35.866, 47.9398, -13.7809, 97.3949, -50.979, 46.0158
3.556, 2, 35.866, 47.9398, -13.7809, 97.3949, -50.979, 46.0158
3.56, 2, 35.866, 47.9398, -13.7809, 97.3949, -50.979, 46.0158
3.564, 2, 35.866, 47.9398, -13.7809, 97.3949, -50.979, 46.0158
3.568, 2, 35.866, 47.9398, -13.7809, 97.3949, -50.979, 46.0158
3.572, 2, 35.866, 47.9398, -13.7809, 97.3949, -50.979, 46.0158
3.576, 2, 35.866, 47.9398, -13.7809, 97.3949, -50.979, 46.0158
3.58, 2, 35.866, 47.9398, -13.7809, 97.3949, -50.979, 46.0158
3.584, 2, 35.866, 47.9398, -13.7809, 97.3949, -50.979, 46.0158
3.587, 2, 35.866, 47.9398, -13.7809, 97.3949, -50.979, 46.0158
3.592, 2, 35.866, 47.9398, -13.7809, 97.3949, -50.979, 46.0158
3.596, 2, 35.866, 47.9398, -13.7809, 97.3949, -50.979, 46.0158
3.6, 2, 35.866, 47.9398, -13.7809, 97.3949, -50.979, 46.0158
3.604, 2, 35.866, 47.9398, -13.7809, 97.3949, -50.979, 46.0158
3.608, 2, 35.866, 47.9398, -13.7809, 97.3949, -50.979, 46.0158
3.612, 2, 35.866, 47.9398, -13.7809, 97.3949, -50.979, 46.0158
3.616, 2, 35.866, 47.9398, -13.7809, 97.3949, -50.979, 46.0158
3.62, 2, 35.866, 47.9398, -13.7809, 97.3949, -50.979, 46.0158
3.624, 2, 35.866, 47.9398, -13.7809, 97.3949, -50.979, 46.0158
3.628, 2, 35.866, 47.9398, -13.7809, 97.3949, -50.979, 46.0158
3.632, 2, 35.866, 47.9398, -13.7809, 97.3949, -50.979, 46.0158
3.636, 2, 35.866, 47.9398, -13.7809, 97.3949, -50.979, 46.0158
3.64, 2, 35.866, 47.9398, -13.7809, 97.3949, -50.979, 46.0158
3.644, 2, 35.866, 47.9398, -13.7809, 97.3949, -50.979, 46.0158
3.648, 2, 35.866, 47.9398, -13.7809, 97.3949, -50.979, 46.0158
3.652, 2, 35.866, 47.9398, -13.7809, 97.3949, -50.979, 46.0158
3.656, 2, 35.866, 47.9398, -13.7809, 97.3949, -50.979, 46.0158
3.66, 2, 35.866, 47.9398, -13.7809, 97.3949, -50.979, 46.0158
3.664, 2, 35.866, 47.9398, -13.7809, 97.3949, -50.979, 46.0158
3.668, 2, 35.866, 47.9398, -13.7809, 97.3949, -50.979, 46.0158
3.672, 2, 35.866, 47.9398, -13.7809, 97.3949, -50.979, 46.0158
3.676, 2, 35.866, 47.9398, -13.7809, 97.3949, -50.979, 46.0158
3.679, 2, 35.866, 47.9398, -13.7809, 97.3949, -50.979, 46.0158
3.684, 2, 35.866, 47.9398, -13.7809, 97.3949, -50.979, 46.0158
3.688, 2, 35.866, 47.9398, -13.7809, 97.3949, -50.979, 46.0158
3.692, 2, 35.866, 47.9398, -13.7809, 97.3949, -50.979, 46.0158
3.696, 2, 35.866, 47.9398, -13.7809, 97.3949, -50.979, 46.0158
3.7, 2, 35.866, 47.9398, -13.7809, 97.3949, -50.979, 46.0158
3.704, 2, 35.866, 47.9398, -13.7809, 97.3949, -50.979, 46.0158
3.708, 2, 35.866, 47.9398, -13.7809, 97.3949, -50.979, 46.0158
3.712, 2, 35.866, 47.9398, -13.7809, 97.3949, -50.979, 46.0158
3.716, 2, 35.866, 47.9398, -13.7809, 97.3949, -50.979, 46.0158
3.72, 2, 35.866, 47.9398, -13.7809, 97.3949, -50.979, 46.0158
3.724, 2, 35.866, 47.9398, -13.7809, 97.3949, -50.979, 46.0158
3.728, 2, 35.866, 47.9398, -13.7809, 97.3949, -50.979, 46.0158
3.732, 2, 35.866, 47.9398, -13.7809, 97.3949, -50.979, 46.0158
3.735, 2, 35.866, 47.9398, -13.7809, 97.3949, -50.979, 46.0158
3.74, 2, 35.866, 47.9398, -13.7809, 97.3949, -50.979, 46.0158
3.744, 2, 35.866, 47.9398, -13.7809, 97.3949, -50.979, 46.0158
3.748, 2, 35.866, 47.9398, -13.7809, 97.3949, -50.979, 46.0158
3.752, 2, 35.866, 47.9398, -13.7809, 97.3949, -50.979, 46.0158
3.756, 2, 35.866, 47.9398, -13.7809, 97.3949, -50.979, 46.0158
3.76, 2, 35.866, 47.9398, -13.7809, 97.3949, -50.979, 46.0158
3.764, 2, 35.866, 47.9398, -13.7809, 97.3949, -50.979, 46.0158
3.768, 2, 35.866, 47.9398, -13.7809, 97.3949, -50.979, 46.0158
3.772, 2, 35.866, 47.9398, -13.7809, 97.3949, -50.979, 46.0158
3.776, 2, 35.866, 47.9398, -13.7809, 97.3949, -50.979, 46.0158
3.78, 2, 35.866, 47.9398, -13.7809, 97.3949, -50.979, 46.0158
3.784, 2, 35.866, 47.9398, -13.7809, 97.3949, -50.979, 46.0158
3.788, 2, 35.866, 47.9398, -13.7809, 97.3949, -50.979, 46.0158
3.792, 2, 35.866, 47.9398, -13.7809, 97.3949, -50.979, 46.0158
3.796, 2, 35.866, 47.9398, -13.7809, 97.3949, -50.979, 46.0158
3.8, 2, 35.866, 47.9398, -13.7809, 97.3949, -50.979, 46.0158
3.804, 2, 35.866, 47.9398, -13.7809, 97.3949, -50.979, 46.0158
3.808, 2, 35.866, 47.9398, -13.7809, 97.3949, -50.979, 46.0158
3.812, 2, 35.866, 47.9398, -13.7809, 97.3949, -50.979, 46.0158
3.816, 2, 35.866, 47.9398, -13.7809, 97.3949, -50.979, 46.0158
3.82, 2, 35.866, 47.9398, -13.7809, 97.3949, -50.979, 46.0158
3.824, 2, 35.866, 47.9398, -13.7809, 97.3949, -50.979, 46.0158
3.828, 2, 35.866, 47.9398, -13.7809, 97.3949, -50.979, 46.0158
3.832, 2, 35.866, 47.9398, -13.7809, 97.3949, -50.979, 46.0158
3.836, 2, 35.866, 47.9398, -13.7809, 97.3949, -50.979, 46.0158
3.84, 2, 35.866, 47.9398, -13.7809, 97.3949, -50.979, 46.0158
3.844, 2, 35.866, 47.9398, -13.7809, 97.3949, -50.979, 46.0158
3.848, 2, 35.866, 47.9398, -13.7809, 97.3949, -50.979, 46.0158
3.852, 2, 35.866, 47.9398, -13.7809, 97.3949, -50.979, 46.0158
3.856, 2, 35.866, 47.9398, -13.7809, 97.3949, -50.979, 46.0158
3.86, 2, 35.866, 47.9398, -13.7809, 97.3949, -50.979, 46.0158
3.864, 2, 35.866, 47.9398, -13.7809, 97.3949, -50.979, 46.0158
3.868, 2, 35.866, 47.9398, -13.7809, 97.3949, -50.979, 46.0158
3.872, 2, 35.866, 47.9398, -13.7809, 97.3949, -50.979, 46.0158
3.876, 2, 35.866, 47.9398, -13.7809, 97.3949, -50.979, 46.0158
3.88, 2, 35.866, 47.9398, -13.7809, 97.3949, -50.979, 46.0158
3.884, 2, 35.866, 47.9398, -13.7809, 97.3949, -50.979, 46.0158
3.888, 2, 35.866, 47.9398, -13.7809, 97.3949, -50.979, 46.0158
3.892, 2, 35.866, 47.9398, -13.7809, 97.3949, -50.979, 46.0158
3.896, 2, 35.866, 47.9398, -13.7809, 97.3949, -50.979, 46.0158
3.9, 2, 35.866, 47.9398, -13.7809, 97.3949, -50.979, 46.0158
3.904, 2, 35.866, 47.9398, -13.7809, 97.3949, -50.979, 46.0158
3.908, 2, 35.866, 47.9398, -13.7809, 97.3949, -50.979, 46.0158
3.912, 2, 35.866, 47.9398, -13.7809, 97.3949, -50.979, 46.0158
3.916, 2, 35.866, 47.9398, -13.7809, 97.3949, -50.979, 46.0158
3.92, 2, 35.866, 47.9398, -13.7809, 97.3949, -50.979, 46.0158
3.924, 2, 35.866, 47.9398, -13.7809, 97.3949, -50.979, 46.0158
3.928, 2, 35.866, 47.9398, -13.7809, 97.3949, -50.979, 46.0158
3.932, 2, 35.866, 47.9398, -13.7809, 97.3949, -50.979, 46.0158
3.936, 2, 35.866, 47.9398, -13.7809, 97.3949, -50.979, 46.0158
3.94, 2, 35.866, 47.9398, -13.7809, 97.3949, -50.979, 46.0158
3.944, 2, 35.866, 47.9398, -13.7809, 97.3949, -50.979, 46.0158
3.948, 2, 35.866, 47.9398, -13.7809, 97.3949, -50.979, 46.0158
3.952, 2, 35.866, 47.9398, -13.7809, 97.3949, -50.979, 46.0158
3.956, 2, 35.866, 47.9398, -13.7809, 97.3949, -50.979, 46.0158
3.96, 2, 35.866, 47.9398, -13.7809, 97.3949, -50.979, 46.0158
3.964, 2, 35.866, 47.9398, -13.7809, 97.3949, -50.979, 46.0158
3.968, 2, 35.866, 47.9398, -13.7809, 97.3949, -50.979, 46.0158
3.972, 2, 35.866, 47.9398, -13.7809, 97.3949, -50.979, 46.0158
3.976, 2, 35.866, 47.9398, -13.7809, 97.3949, -50.979, 46.0158
3.98, 2, 35.866, 47.9398, -13.7809, 97.3949, -50.979, 46.0158
3.984, 2, 35.866, 47.9398, -13.7809, 97.3949, -50.979, 46.0158
3.988, 2, 35.866, 47.9398, -13.7809, 97.3949, -50.979, 46.0158
3.992, 2, 35.866, 47.9398, -13.7809, 97.3949, -50.979, 46.0158
3.996, 2, 35.866, 47.9398, -13.7809, 97.3949, -50.979, 46.0158
3.999, 2, 35.866, 47.9398, -13.7809, 97.3949, -50.979, 46.0158
4.004, 2, 35.866, 47.9398, -13.7809, 97.3949, -50.979, 46.0158
4.008, 2, 35.866, 47.9398, -13.7809, 97.3949, -50.979, 46.0158
4.012, 2, 35.866, 47.9398, -13.7809, 97.3949, -50.979, 46.0158
4.016, 2, 35.866, 47.9398, -13.7809, 97.3949, -50.979, 46.0158
4.02, 2, 35.866, 47.9398, -13.7809, 97.3949, -50.979, 46.0158
4.024, 2, 35.866, 47.9398, -13.7809, 97.3949, -50.979, 46.0158
4.028, 2, 35.866, 47.9398, -13.7809, 97.3949, -50.979, 46.0158
4.032, 2, 35.866, 47.9398, -13.7809, 97.3949, -50.979, 46.0158
4.036, 2, 35.866, 47.9398, -13.7809, 97.3949, -50.979, 46.0158
4.04, 2, 35.866, 47.9398, -13.7809, 97.3949, -50.979, 46.0158
4.044, 2, 35.866, 47.9398, -13.7809, 97.3949, -50.979, 46.0158
4.048, 2, 35.866, 47.9398, -13.7809, 97.3949, -50.979, 46.0158
4.052, 2, 35.866, 47.9398, -13.7809, 97.3949, -50.979, 46.0158
4.056, 2, 35.866, 47.9398, -13.7809, 97.3949, -50.979, 46.0158
4.06, 2, 35.866, 47.9398, -13.7809, 97.3949, -50.979, 46.0158
4.064, 2, 35.866, 47.9398, -13.7809, 97.3949, -50.979, 46.0158
4.068, 2, 35.866, 47.9398, -13.7809, 97.3949, -50.979, 46.0158
4.072, 2, 35.866, 47.9398, -13.7809, 97.3949, -50.979, 46.0158
4.076, 2, 35.866, 47.9398, -13.7809, 97.3949, -50.979, 46.0158
4.08, 2, 35.866, 47.9398, -13.7809, 97.3949, -50.979, 46.0158
4.084, 2, 35.866, 47.9398, -13.7809, 97.3949, -50.979, 46.0158
4.088, 2, 35.866, 47.9398, -13.7809, 97.3949, -50.979, 46.0158
4.092, 2, 35.866, 47.9398, -13.7809, 97.3949, -50.979, 46.0158
4.096, 2, 35.866, 47.9398, -13.7809, 97.3949, -50.979, 46.0158
4.1, 2, 35.866, 47.9398, -13.7809, 97.3949, -50.979, 46.0158
4.104, 2, 35.866, 47.9398, -13.7809, 97.3949, -50.979, 46.0158
4.108, 2, 35.866, 47.9398, -13.7809, 97.3949, -50.979, 46.0158
4.112, 2, 35.866, 47.9398, -13.7809, 97.3949, -50.979, 46.0158
4.116, 2, 35.866, 47.9398, -13.7809, 97.3949, -50.979, 46.0158
4.12, 2, 35.866, 47.9398, -13.7809, 97.3949, -50.979, 46.0158
4.124, 2, 35.866, 47.9398, -13.7809, 97.3949, -50.979, 46.0158
4.128, 2, 35.866, 47.9398, -13.7809, 97.3949, -50.979, 46.0158
4.132, 2, 35.866, 47.9398, -13.7809, 97.3949, -50.979, 46.0158
4.136, 2, 35.866, 47.9398, -13.7809, 97.3949, -50.979, 46.0158
4.14, 2, 35.866, 47.9398, -13.7809, 97.3949, -50.979, 46.0158
4.144, 2, 35.866, 47.9398, -13.7809, 97.3949, -50.979, 46.0158
4.148, 2, 35.866, 47.9398, -13.7809, 97.3949, -50.979, 46.0158
4.152, 2, 35.866, 47.9398, -13.7809, 97.3949, -50.979, 46.0158
4.156, 2, 35.866, 47.9398, -13.7809, 97.3949, -50.979, 46.0158
4.16, 2, 35.866, 47.9398, -13.7809, 97.3949, -50.979, 46.0158
4.164, 2, 35.866, 47.9398, -13.7809, 97.3949, -50.979, 46.0158
4.168, 2, 35.866, 47.9398, -13.7809, 97.3949, -50.979, 46.0158
4.172, 2, 35.866, 47.9398, -13.7809, 97.3949, -50.979, 46.0158
4.176, 2, 35.866, 47.9398, -13.7809, 97.3949, -50.979, 46.0158
4.18, 2, 35.866, 47.9398, -13.7809, 97.3949, -50.979, 46.0158
4.184, 2, 35.866, 47.9398, -13.7809, 97.3949, -50.979, 46.0158
4.188, 2, 35.866, 47.9398, -13.7809, 97.3949, -50.979, 46.0158
4.192, 2, 35.866, 47.9398, -13.7809, 97.3949, -50.979, 46.0158
4.196, 2, 35.866, 47.9398, -13.7809, 97.3949, -50.979, 46.0158
4.2, 2, 35.866, 47.9398, -13.7809, 97.3949, -50.979, 46.0158
4.204, 2, 35.866, 47.9398, -13.7809, 97.3949, -50.979, 46.0158
4.208, 2, 35.866, 47.9398, -13.7809, 97.3949, -50.979, 46.0158
4.212, 2, 35.866, 47.9398, -13.7809, 97.3949, -50.979, 46.0158
4.216, 2, 35.866, 47.9398, -13.7809, 97.3949, -50.979, 46.0158
4.22, 2, 35.866, 47.9398, -13.7809, 97.3949, -50.979, 46.0158
4.224, 2, 35.866, 47.9398, -13.7809, 97.3949, -50.979, 46.0158
4.228, 2, 35.866, 47.9398, -13.7809, 97.3949, -50.979, 46.0158
4.232, 2, 35.866, 47.9398, -13.7809, 97.3949, -50.979, 46.0158
4.236, 2, 35.866, 47.9398, -13.7809, 97.3949, -50.979, 46.0158
4.24, 2, 35.866, 47.9398, -13.7809, 97.3949, -50.979, 46.0158
4.244, 2, 35.866, 47.9398, -13.7809, 97.3949, -50.979, 46.0158
4.248, 2, 35.866, 47.9398, -13.7809, 97.3949, -50.979, 46.0158
4.252, 2, 35.866, 47.9398, -13.7809, 97.3949, -50.979, 46.0158
4.256, 2, 35.866, 47.9398, -13.7809, 97.3949, -50.979, 46.0158
4.26, 2, 35.866, 47.9398, -13.7809, 97.3949, -50.979, 46.0158
4.264, 2, 35.866, 47.9398, -13.7809, 97.3949, -50.979, 46.0158
4.268, 2, 35.866, 47.9398, -13.7809, 97.3949, -50.979, 46.0158
4.272, 2, 35.866, 47.9398, -13.7809, 97.3949, -50.979, 46.0158
4.276, 2, 35.866, 47.9398, -13.7809, 97.3949, -50.979, 46.0158
4.28, 2, 35.866, 47.9398, -13.7809, 97.3949, -50.979, 46.0158
4.284, 2, 35.866, 47.9398, -13.7809, 97.3949, -50.979, 46.0158
4.288, 2, 35.866, 47.9398, -13.7809, 97.3949, -50.979, 46.0158
4.292, 2, 35.866, 47.9398, -13.7809, 97.3949, -50.979, 46.0158
4.296, 2, 35.866, 47.9398, -13.7809, 97.3949, -50.979, 46.0158
4.3, 2, 35.866, 47.9398, -13.7809, 97.3949, -50.979, 46.0158
4.304, 2, 35.866, 47.9398, -13.7809, 97.3949, -50.979, 46.0158
4.308, 2, 35.866, 47.9398, -13.7809, 97.3949, -50.979, 46.0158
4.312, 2, 35.866, 47.9398, -13.7809, 97.3949, -50.979, 46.0158
4.316, 2, 35.866, 47.9398, -13.7809, 97.3949, -50.979, 46.0158
4.32, 2, 35.866, 47.9398, -13.7809, 97.3949, -50.979, 46.0158
4.324, 2, 35.866, 47.9398, -13.7809, 97.3949, -50.979, 46.0158
4.328, 2, 35.866, 47.9398, -13.7809, 97.3949, -50.979, 46.0158
4.332, 2, 35.866, 47.9398, -13.7809, 97.3949, -50.979, 46.0158
4.336, 2, 35.866, 47.9398, -13.7809, 97.3949, -50.979, 46.0158
4.34, 2, 35.866, 47.9398, -13.7809, 97.3949, -50.979, 46.0158
4.344, 2, 35.866, 47.9398, -13.7809, 97.3949, -50.979, 46.0158
4.348, 2, 35.866, 47.9398, -13.7809, 97.3949, -50.979, 46.0158
4.352, 2, 35.866, 47.9398, -13.7809, 97.3949, -50.979, 46.0158
4.356, 2, 35.866, 47.9398, -13.7809, 97.3949, -50.979, 46.0158
4.36, 2, 35.866, 47.9398, -13.7809, 97.3949, -50.979, 46.0158
4.364, 2, 35.866, 47.9398, -13.7809, 97.3949, -50.979, 46.0158
4.368, 2, 35.866, 47.9398, -13.7809, 97.3949, -50.979, 46.0158
4.372, 2, 35.866, 47.9398, -13.7809, 97.3949, -50.979, 46.0158
4.376, 2, 35.866, 47.9398, -13.7809, 97.3949, -50.979, 46.0158
4.38, 2, 35.866, 47.9398, -13.7809, 97.3949, -50.979, 46.0158
4.384, 2, 35.866, 47.9398, -13.7809, 97.3949, -50.979, 46.0158
4.388, 2, 35.866, 47.9398, -13.7809, 97.3949, -50.979, 46.0158
4.392, 2, 35.866, 47.9398, -13.7809, 97.3949, -50.979, 46.0158
4.396, 2, 35.866, 47.9398, -13.7809, 97.3949, -50.979, 46.0158
4.4, 3, 35.866, 47.9398, -13.7809, 97.3949, -50.979, 46.0158
4.404, 3, 35.866, 47.9398, -13.7809, 97.3949, -50.979, 46.0158
4.408, 3, 35.866, 47.9398, -13.7809, 97.3949, -50.979, 46.0158
4.412, 3, 35.866, 47.9398, -13.7809, 97.3949, -50.979, 46.0158
4.416, 3, 35.866, 47.9398, -13.7809, 97.3949, -50.979, 46.0158
4.42, 3, 35.866, 47.9398, -13.7809, 97.3949, -50.979, 46.0158
4.424, 3, 35.866, 47.9398, -13.7809, 97.3949, -50.979, 46.0158
4.428, 3, 35.866, 47.9398, -13.7809, 97.3949, -50.979, 46.0158
4.432, 3, 35.866, 47.9398, -13.7809, 97.3949, -50.979, 46.0158
4.436, 4, 35.866, 47.9398, -13.7809, 97.3949, -50.979, 46.0158
4.44, 4, 35.866, 47.9398, -13.7809, 97.3949, -50.979, 46.0158
4.444, 4, 35.866, 47.9398, -13.7809, 97.3949, -50.979, 46.0158
4.448, 4, 35.866, 47.9398, -13.7809, 97.3949, -50.979, 46.0158
4.452, 4, 35.866, 47.9398, -13.7809, 97.3949, -50.979, 46.0158
4.456, 4, 35.866, 47.9398, -13.7809, 97.3949, -50.979, 46.0158
4.46, 4, 35.866, 47.9398, -13.7809, 97.3949, -50.979, 46.0158
4.464, 4, 35.866, 47.9398, -13.7809, 97.3949, -50.979, 46.0158
4.468, 4, 35.866, 47.9398, -13.7809, 97.3949, -50.979, 46.0158
4.472, 4, 35.866, 47.9398, -13.7809, 97.3949, -50.979, 46.0158
4.476, 4, 35.866, 47.9398, -13.7809, 97.3949, -50.979, 46.0158
4.48, 4, 35.866, 47.9398, -13.7809, 97.3949, -50.979, 46.0158
4.484, 4, 35.866, 47.9398, -13.7809, 97.3949, -50.979, 46.0158
4.488, 4, 35.866, 47.9398, -13.7809, 97.3949, -50.979, 46.0158
4.492, 4, 35.866, 47.9398, -13.7809, 97.3949, -50.979, 46.0158
4.496, 4, 35.866, 47.9398, -13.7809, 97.3949, -50.979, 46.0158
4.5, 4, 35.866, 47.9398, -13.7809, 97.3949, -50.979, 46.0158
4.504, 4, 35.866, 47.9398, -13.7809, 97.3949, -50.979, 46.0158
4.508, 4, 35.866, 47.9398, -13.7809, 97.3949, -50.979, 46.0158
4.512, 4, 35.866, 47.9398, -13.7809, 97.3949, -50.979, 46.0158
4.516, 4, 35.866, 47.9398, -13.7809, 97.3949, -50.979, 46.0158
4.52, 4, 35.866, 47.9398, -13.7809, 97.3949, -50.979, 46.0158
4.524, 4, 35.866, 47.9398, -13.7809, 97.3949, -50.979, 46.0158
4.528, 4, 35.866, 47.9398, -13.7809, 97.3949, -50.979, 46.0158
4.532, 4, 35.866, 47.9398, -13.7809, 97.3949, -50.979, 46.0158
4.536, 5, 35.866, 47.9398, -13.7809, 97.3949, -50.979, 46.0158
4.54, 5, 35.866, 47.9398, -13.7809, 97.3949, -50.979, 46.0158
4.544, 5, 35.866, 47.9398, -13.7809, 97.3949, -50.979, 46.0158
4.548, 5, 35.866, 47.9398, -13.7809, 97.3949, -50.979, 46.0158
4.552, 5, 35.866, 47.9398, -13.7809, 97.3949, -50.979, 46.0158
4.556, 5, 35.866, 47.9398, -13.7809, 97.3949, -50.979, 46.0158
4.56, 5, 35.866, 47.9398, -13.7809, 97.3949, -50.979, 46.0158
4.564, 5, 35.866, 47.9398, -13.7809, 97.3949, -50.979, 46.0158
4.568, 5, 35.866, 47.9399, -13.7809, 97.3949, -50.979, 46.0158
4.572, 5, 35.866, 47.94, -13.7809, 97.3949, -50.979, 46.0158
4.576, 5, 35.866, 47.9404, -13.7809, 97.3949, -50.979, 46.0158
4.58, 5, 35.8659, 47.9411, -13.7809, 97.3949, -50.9791, 46.0158
4.584, 5, 35.8658, 47.9424, -13.781, 97.3949, -50.9795, 46.0157
4.588, 5, 35.8656, 47.9442, -13.7811, 97.3948, -50.9802, 46.0155
4.592, 5, 35.8654, 47.9468, -13.7813, 97.3946, -50.9814, 46.015
4.596, 5, 35.8651, 47.9503, -13.7816, 97.3943, -50.9837, 46.0143
4.6, 5, 35.8648, 47.9548, -13.782, 97.3939, -50.9873, 46.0132
4.604, 5, 35.8644, 47.9604, -13.7827, 97.3932, -50.9928, 46.0115
4.608, 5, 35.8639, 47.9674, -13.7838, 97.3922, -51.0009, 46.0089
4.612, 5, 35.8634, 47.9761, -13.7852, 97.3908, -51.0122, 46.0054
4.616, 5, 35.8628, 47.9866, -13.7871, 97.3889, -51.0276, 46.0005
4.62, 5, 35.8621, 47.9992, -13.7896, 97.3864, -51.048, 45.9941
4.624, 5, 35.8614, 48.0138, -13.7929, 97.3831, -51.0744, 45.9858
4.628, 5, 35.8608, 48.0305, -13.797, 97.3789, -51.1077, 45.9753
4.632, 5, 35.8602, 48.0493, -13.802, 97.3737, -51.149, 45.9624
4.636, 5, 35.8596, 48.0704, -13.8082, 97.3675, -51.1991, 45.9466
4.64, 5, 35.8591, 48.0939, -13.8155, 97.36, -51.2588, 45.9279
4.644, 5, 35.8588, 48.1198, -13.824, 97.3512, -51.3287, 45.9059
4.648, 5, 35.8585, 48.1481, -13.8338, 97.341, -51.4094, 45.8806
4.652, 5, 35.8583, 48.1789, -13.845, 97.3295, -51.5011, 45.8518
4.656, 5, 35.8583, 48.2122, -13.8575, 97.3166, -51.604, 45.8195
4.66, 5, 35.8584, 48.2479, -13.8713, 97.3023, -51.7179, 45.7837
4.664, 5, 35.8586, 48.2859, -13.8864, 97.2866, -51.8427, 45.7445
4.668, 5, 35.8589, 48.3262, -13.9028, 97.2696, -51.9777, 45.7022
4.672, 5, 35.8593, 48.3688, -13.9204, 97.2514, -52.1223, 45.6568
4.676, 5, 35.8597, 48.4139, -13.939, 97.2321, -52.2757, 45.6086
4.68, 5, 35.8602, 48.4614, -13.9585, 97.2118, -52.4371, 45.558
4.684, 5, 35.8606, 48.5111, -13.9789, 97.1906, -52.6053, 45.5051
4.688, 5, 35.861, 48.5631, -14.0001, 97.1687, -52.7797, 45.4504
4.692, 5, 35.8614, 48.617, -14.0219, 97.1461, -52.9591, 45.3941
4.696, 5, 35.8617, 48.6727, -14.0442, 97.123, -53.1429, 45.3364
4.7, 5, 35.8619, 48.7301, -14.067, 97.0994, -53.3302, 45.2776
4.704, 5, 35.8621, 48.789, -14.0901, 97.0755, -53.5203, 45.2179
4.708, 5, 35.8622, 48.8493, -14.1134, 97.0513, -53.7126, 45.1575
4.712, 5, 35.8622, 48.9108, -14.137, 97.0269, -53.9067, 45.0966
4.716, 5, 35.8622, 48.9734, -14.1608, 97.0024, -54.1021, 45.0353
4.72, 5, 35.8621, 49.0368, -14.1847, 96.9777, -54.2986, 44.9736
4.724, 5, 35.8619, 49.1009, -14.2087, 96.9528, -54.496, 44.9116
4.728, 5, 35.8618, 49.1655, -14.2328, 96.9279, -54.6942, 44.8494
4.732, 5, 35.8616, 49.2305, -14.257, 96.9029, -54.8931, 44.7869
4.736, 5, 35.8614, 49.2958, -14.2813, 96.8779, -55.0925, 44.7243
4.74, 5, 35.8612, 49.3614, -14.3057, 96.8527, -55.2925, 44.6615
4.744, 5, 35.861, 49.4272, -14.3301, 96.8275, -55.4931, 44.5986
4.748, 5, 35.8608, 49.4931, -14.3545, 96.8022, -55.6941, 44.5354
4.752, 5, 35.8606, 49.5589, -14.3791, 96.7769, -55.8957, 44.4721
4.756, 5, 35.8605, 49.6244, -14.4036, 96.7515, -56.0977, 44.4087
4.76, 5, 35.8604, 49.6892, -14.4282, 96.7261, -56.3, 44.3452
4.764, 5, 35.8604, 49.753, -14.4529, 96.7006, -56.5024, 44.2817
4.768, 5, 35.8604, 49.8157, -14.4774, 96.6752, -56.7046, 44.2182
4.772, 5, 35.8606, 49.8772, -14.5019, 96.6499, -56.906, 44.155
4.776, 5, 35.8608, 49.9375, -14.5263, 96.6247, -57.1062, 44.0921
4.78, 5, 35.861, 49.9967, -14.5503, 96.5998, -57.3045, 44.0299
4.784, 5, 35.8614, 50.0545, -14.5741, 96.5752, -57.4999, 43.9685
4.788, 5, 35.8617, 50.1111, -14.5973, 96.551, -57.6916, 43.9084
4.792, 5, 35.8621, 50.166, -14.6201, 96.5275, -57.8787, 43.8497
4.796, 5, 35.8625, 50.2191, -14.6421, 96.5047, -58.0601, 43.7927
4.8, 5, 35.8629, 50.2702, -14.6633, 96.4827, -58.2347, 43.7379
4.804, 5, 35.8633, 50.3194, -14.6836, 96.4617, -58.4017, 43.6855
4.808, 5, 35.8636, 50.3665, -14.7028, 96.4418, -58.56, 43.6358
4.812, 5, 35.8638, 50.4116, -14.7209, 96.423, -58.709, 43.589
4.816, 5, 35.8639, 50.4545, -14.7378, 96.4056, -58.8478, 43.5455
4.82, 5, 35.8638, 50.4952, -14.7534, 96.3894, -58.9761, 43.5052
4.824, 5, 35.8637, 50.5334, -14.7677, 96.3747, -59.0936, 43.4683
4.828, 5, 35.8636, 50.569, -14.7807, 96.3613, -59.2003, 43.4348
4.832, 5, 35.8633, 50.6018, -14.7924, 96.3492, -59.2962, 43.4047
4.836, 5, 35.863, 50.6319, -14.8029, 96.3385, -59.3816, 43.3779
4.84, 5, 35.8626, 50.6594, -14.812, 96.329, -59.4568, 43.3542
4.844, 5, 35.8622, 50.6843, -14.8201, 96.3208, -59.5222, 43.3337
4.848, 5, 35.8617, 50.7069, -14.827, 96.3138, -59.5785, 43.316
4.852, 5, 35.8612, 50.7271, -14.8329, 96.3078, -59.6263, 43.301
4.856, 5, 35.8607, 50.745, -14.8378, 96.3027, -59.6664, 43.2884
4.86, 5, 35.8602, 50.7608, -14.8419, 96.2986, -59.6996, 43.2779
4.864, 5, 35.8597, 50.7745, -14.8453, 96.2952, -59.7267, 43.2694
4.868, 5, 35.8592, 50.7865, -14.848, 96.2925, -59.7484, 43.2626
4.872, 6, 35.8587, 50.7969, -14.8501, 96.2904, -59.7655, 43.2572
4.876, 6, 35.8583, 50.8062, -14.8517, 96.2887, -59.7786, 43.2531
4.88, 6, 35.8579, 50.8142, -14.853, 96.2875, -59.7886, 43.25
4.884, 6, 35.8576, 50.8212, -14.8539, 96.2866, -59.7959, 43.2477
4.888, 6, 35.8573, 50.827, -14.8546, 96.286, -59.8011, 43.246
4.892, 6, 35.857, 50.8317, -14.8551, 96.2855, -59.8048, 43.2448
4.896, 6, 35.8568, 50.8352, -14.8554, 96.2852, -59.8074, 43.244
4.9, 6, 35.8567, 50.8379, -14.8557, 96.285, -59.8091, 43.2435
4.904, 6, 35.8565, 50.8397, -14.8558, 96.2848, -59.8103, 43.2431
4.908, 6, 35.8563, 50.8408, -14.856, 96.2847, -59.8111, 43.2428
4.912, 6, 35.8557, 50.8412, -14.8561, 96.2847, -59.8117, 43.2427
4.916, 6, 35.8548, 50.841, -14.8562, 96.2847, -59.8119, 43.2427
4.92, 6, 35.8534, 50.8399, -14.8563, 96.2849, -59.812, 43.243
4.924, 6, 35.8515, 50.8379, -14.8564, 96.2853, -59.8116, 43.2436
4.928, 6, 35.8491, 50.835, -14.8565, 96.2861, -59.8108, 43.2448
4.932, 7, 35.8462, 50.8312, -14.8564, 96.2876, -59.8091, 43.2469
4.936, 7, 35.8432, 50.8269, -14.856, 96.2898, -59.8064, 43.2502
4.94, 7, 35.8402, 50.8223, -14.8553, 96.2932, -59.8023, 43.2552
4.944, 7, 35.8373, 50.8177, -14.8542, 96.2978, -59.7966, 43.262
4.948, 7, 35.8347, 50.8134, -14.8525, 96.3039, -59.789, 43.271
4.952, 7, 35.8323, 50.8093, -14.8502, 96.3115, -59.7795, 43.2823
4.956, 7, 35.8304, 50.8056, -14.8473, 96.3206, -59.768, 43.2958
4.96, 7, 35.829, 50.8022, -14.8438, 96.3312, -59.7547, 43.3115
4.964, 7, 35.8281, 50.799, -14.8399, 96.343, -59.7398, 43.329
4.968, 7, 35.8276, 50.796, -14.8356, 96.3559, -59.7236, 43.348
4.972, 7, 35.8273, 50.7931, -14.8311, 96.3694, -59.7066, 43.368
4.976, 7, 35.8272, 50.7904, -14.8264, 96.3832, -59.6892, 43.3885
4.98, 7, 35.827, 50.7881, -14.8217, 96.3969, -59.6721, 43.4088
4.984, 7, 35.8264, 50.7862, -14.8172, 96.4101, -59.6559, 43.4283
4.988, 7, 35.8253, 50.7848, -14.813, 96.4223, -59.6414, 43.4465
4.992, 7, 35.8234, 50.784, -14.8094, 96.4332, -59.6292, 43.4626
4.996, 7, 35.8208, 50.784, -14.8063, 96.4423, -59.6201, 43.4763
5, 7, 35.8175, 50.7851, -14.8038, 96.4495, -59.6147, 43.4872
5.004, 7, 35.8134, 50.7876, -14.8021, 96.4545, -59.6138, 43.495
5.008, 7, 35.8086, 50.7918, -14.8009, 96.4573, -59.618, 43.4996
5.012, 7, 35.8034, 50.7981, -14.8004, 96.4576, -59.6278, 43.5008
5.016, 7, 35.7979, 50.8067, -14.8005, 96.4554, -59.6442, 43.4985
5.02, 7, 35.7924, 50.8177, -14.801, 96.4507, -59.6676, 43.4928
5.024, 7, 35.7873, 50.8313, -14.8019, 96.4435, -59.699, 43.4835
5.028, 7, 35.7825, 50.8473, -14.8033, 96.4335, -59.7389, 43.4706
5.032, 7, 35.7782, 50.8658, -14.805, 96.4207, -59.7882, 43.454
5.036, 7, 35.7745, 50.8869, -14.8071, 96.405, -59.8475, 43.4336
5.04, 7, 35.7711, 50.9104, -14.8096, 96.3864, -59.9173, 43.4092
5.044, 7, 35.7679, 50.9364, -14.8125, 96.3647, -59.9981, 43.3808
5.048, 7, 35.765, 50.9648, -14.8158, 96.34, -60.09, 43.3484
5.052, 7, 35.7622, 50.9954, -14.8195, 96.3121, -60.1931, 43.3119
5.056, 7, 35.7595, 51.0282, -14.8236, 96.2812, -60.3074, 43.2715
5.06, 7, 35.7569, 51.0631, -14.8281, 96.2474, -60.4326, 43.2271
5.064, 7, 35.7543, 51.1002, -14.833, 96.2107, -60.568, 43.1791
5.068, 7, 35.7518, 51.1394, -14.8382, 96.1715, -60.7131, 43.1276
5.072, 7, 35.7491, 51.1808, -14.8437, 96.1298, -60.8671, 43.073
5.076, 7, 35.7464, 51.2245, -14.8495, 96.086, -61.0289, 43.0156
5.08, 7, 35.7435, 51.2703, -14.8555, 96.0402, -61.1978, 42.9557
5.084, 7, 35.7405, 51.3182, -14.8618, 95.9929, -61.3728, 42.8936
5.088, 7, 35.7373, 51.368, -14.8683, 95.9441, -61.5529, 42.8297
5.092, 7, 35.734, 51.4195, -14.8749, 95.8941, -61.7375, 42.7642
5.096, 7, 35.7304, 51.4726, -14.8817, 95.8432, -61.9256, 42.6975
5.1, 7, 35.7267, 51.5272, -14.8886, 95.7915, -62.1166, 42.6297
5.104, 7, 35.7226, 51.5831, -14.8956, 95.7391, -62.31, 42.5611
5.108, 7, 35.7184, 51.6401, -14.9026, 95.6863, -62.5052, 42.4918
5.112, 7, 35.7141, 51.6977, -14.9097, 95.633, -62.7019, 42.422
5.116, 7, 35.7098, 51.7555, -14.9168, 95.5795, -62.8996, 42.3518
5.12, 7, 35.7055, 51.8128, -14.924, 95.5258, -63.0981, 42.2814
5.124, 7, 35.7015, 51.8693, -14.9311, 95.4719, -63.2969, 42.2109
5.128, 7, 35.6978, 51.9248, -14.9383, 95.4182, -63.4954, 42.1404
5.132, 7, 35.6943, 51.9789, -14.9454, 95.3646, -63.6931, 42.0703
5.136, 7, 35.6911, 52.0318, -14.9525, 95.3116, -63.8892, 42.0007
5.14, 7, 35.688, 52.0833, -14.9594, 95.2592, -64.0826, 41.9321
5.144, 7, 35.6851, 52.1334, -14.9662, 95.2078, -64.2725, 41.8647
5.148, 7, 35.6823, 52.1821, -14.9729, 95.1576, -64.4577, 41.799
5.152, 7, 35.6796, 52.2292, -14.9793, 95.1091, -64.637, 41.7354
5.156, 7, 35.6769, 52.2746, -14.9855, 95.0624, -64.8093, 41.6743
5.16, 7, 35.6742, 52.3182, -14.9915, 95.018, -64.9734, 41.616
5.164, 7, 35.6716, 52.3601, -14.997, 94.976, -65.1285, 41.561
5.168, 7, 35.6688, 52.4, -15.0023, 94.9367, -65.2736, 41.5096
5.172, 7, 35.666, 52.4381, -15.0071, 94.9003, -65.4079, 41.4619
5.176, 7, 35.6632, 52.4741, -15.0116, 94.867, -65.5312, 41.4182
5.18, 7, 35.6604, 52.5079, -15.0156, 94.8367, -65.6431, 41.3785
5.184, 7, 35.6575, 52.5395, -15.0193, 94.8095, -65.7435, 41.3428
5.188, 7, 35.6547, 52.5688, -15.0225, 94.7853, -65.8328, 41.3111
5.192, 7, 35.6519, 52.5958, -15.0254, 94.7641, -65.9112, 41.2833
5.196, 7, 35.6491, 52.6204, -15.0279, 94.7457, -65.9792, 41.2591
5.2, 7, 35.6465, 52.6426, -15.03, 94.7299, -66.0376, 41.2384
5.204, 7, 35.6439, 52.6626, -15.0319, 94.7165, -66.0871, 41.2208
5.208, 7, 35.6415, 52.6804, -15.0334, 94.7053, -66.1285, 41.2061
5.212, 7, 35.6393, 52.6961, -15.0347, 94.696, -66.1627, 41.194
5.216, 7, 35.6372, 52.7098, -15.0357, 94.6885, -66.1905, 41.1841
5.22, 7, 35.6353, 52.7218, -15.0366, 94.6825, -66.2128, 41.1761
5.224, 8, 35.6335, 52.7323, -15.0372, 94.6777, -66.2303, 41.1699
5.228, 8, 35.6319, 52.7416, -15.0378, 94.6741, -66.2438, 41.1651
5.232, 8, 35.6303, 52.7497, -15.0382, 94.6713, -66.254, 41.1615
5.236, 8, 35.6289, 52.7566, -15.0385, 94.6693, -66.2615, 41.1588
5.24, 8, 35.6277, 52.7623, -15.0387, 94.6678, -66.2669, 41.1569
5.244, 8, 35.6267, 52.7669, -15.0388, 94.6668, -66.2707, 41.1555
5.248, 8, 35.6259, 52.7704, -15.0389, 94.6661, -66.2734, 41.1546
5.252, 8, 35.6253, 52.7729, -15.039, 94.6656, -66.2752, 41.154
5.256, 8, 35.6248, 52.7747, -15.0391, 94.6653, -66.2764, 41.1535
5.26, 8, 35.6243, 52.7757, -15.0391, 94.6651, -66.2772, 41.1532
5.264, 8, 35.6236, 52.7762, -15.0391, 94.6649, -66.2777, 41.1531
5.268, 8, 35.6225, 52.7761, -15.0391, 94.6648, -66.2781, 41.153
5.272, 9, 35.621, 52.7751, -15.039, 94.6648, -66.2781, 41.1531
5.276, 9, 35.6189, 52.7733, -15.0388, 94.6649, -66.2778, 41.1534
5.28, 9, 35.6165, 52.7708, -15.0383, 94.665, -66.2771, 41.1542
5.284, 9, 35.6138, 52.7676, -15.0374, 94.6654, -66.2757, 41.1554
5.288, 9, 35.6112, 52.7642, -15.0359, 94.6659, -66.2734, 41.1574
5.292, 9, 35.6088, 52.7608, -15.0337, 94.6667, -66.27, 41.1602
5.296, 9, 35.607, 52.7577, -15.0308, 94.6678, -66.2655, 41.164
5.3, 9, 35.6057, 52.7548, -15.027, 94.6692, -66.2596, 41.1688
5.304, 9, 35.6049, 52.7523, -15.0224, 94.6709, -66.2526, 41.1746
5.308, 9, 35.6044, 52.7498, -15.0171, 94.6728, -66.2444, 41.1813
5.312, 9, 35.604, 52.7474, -15.0111, 94.6749, -66.2354, 41.1886
5.316, 9, 35.6037, 52.745, -15.0048, 94.6772, -66.2259, 41.1965
5.32, 9, 35.6032, 52.7428, -14.9981, 94.6795, -66.2161, 41.2047
5.324, 9, 35.6026, 52.7411, -14.9913, 94.6816, -66.2066, 41.2129
5.328, 9, 35.6015, 52.7402, -14.9845, 94.6835, -66.1979, 41.2209
5.332, 9, 35.5999, 52.7401, -14.9778, 94.685, -66.1908, 41.2282
5.336, 9, 35.5973, 52.741, -14.9714, 94.6857, -66.1859, 41.2346
5.34, 9, 35.5935, 52.743, -14.9654, 94.6854, -66.184, 41.2398
5.344, 9, 35.5884, 52.7462, -14.9597, 94.684, -66.1861, 41.2434
5.348, 9, 35.5819, 52.7507, -14.9543, 94.6809, -66.193, 41.2453
5.352, 9, 35.5744, 52.7569, -14.949, 94.6761, -66.2056, 41.2452
5.356, 9, 35.5661, 52.7648, -14.9436, 94.6691, -66.2247, 41.2431
5.36, 9, 35.5575, 52.7745, -14.9379, 94.6595, -66.2513, 41.2388
5.364, 9, 35.5491, 52.7858, -14.9315, 94.6472, -66.2861, 41.2323
5.368, 9, 35.541, 52.7987, -14.9243, 94.6318, -66.3299, 41.2235
5.372, 9, 35.5333, 52.8129, -14.9159, 94.6131, -66.3833, 41.2123
5.376, 9, 35.5258, 52.8284, -14.9063, 94.5909, -66.4467, 41.1988
5.38, 9, 35.5185, 52.8451, -14.8954, 94.5651, -66.5204, 41.1829
5.384, 9, 35.5111, 52.8631, -14.883, 94.5358, -66.6043, 41.1647
5.388, 9, 35.5036, 52.8823, -14.8693, 94.503, -66.6982, 41.1442
5.392, 9, 35.4959, 52.9028, -14.8542, 94.4668, -66.8018, 41.1217
5.396, 9, 35.488, 52.9245, -14.8378, 94.4275, -66.9144, 41.0971
5.4, 9, 35.4799, 52.9475, -14.8202, 94.3853, -67.0353, 41.0706
5.404, 9, 35.4716, 52.9716, -14.8015, 94.3405, -67.1635, 41.0426
5.408, 9, 35.4629, 52.997, -14.782, 94.2934, -67.2982, 41.0132
5.412, 9, 35.4537, 53.0239, -14.7617, 94.2445, -67.4382, 40.9825
5.416, 9, 35.444, 53.0523, -14.7407, 94.1941, -67.5827, 40.9509
5.42, 9, 35.4337, 53.0821, -14.7192, 94.1424, -67.7308, 40.9185
5.424, 9, 35.4226, 53.1135, -14.6973, 94.0897, -67.8816, 40.8855
5.428, 9, 35.411, 53.1461, -14.6752, 94.0364, -68.0345, 40.8521
5.432, 9, 35.3988, 53.1799, -14.6528, 93.9824, -68.189, 40.8182
5.436, 9, 35.3861, 53.2144, -14.6302, 93.928, -68.3449, 40.7841
5.44, 9, 35.373, 53.2496, -14.6074, 93.8732, -68.5017, 40.7498
5.444, 9, 35.3597, 53.2853, -14.5846, 93.8182, -68.6594, 40.7153
5.448, 9, 35.3462, 53.3214, -14.5616, 93.7629, -68.8178, 40.6807
5.452, 9, 35.3325, 53.3577, -14.5386, 93.7074, -68.9767, 40.6459
5.456, 9, 35.3188, 53.3942, -14.5155, 93.6517, -69.1362, 40.611
5.46, 9, 35.3052, 53.4307, -14.4923, 93.5959, -69.2962, 40.576
5.464, 9, 35.2919, 53.467, -14.469, 93.5399, -69.4565, 40.5409
5.468, 9, 35.2788, 53.5029, -14.4458, 93.4839, -69.6171, 40.5058
5.472, 9, 35.2661, 53.5382, -14.4225, 93.4278, -69.7777, 40.4706
5.476, 9, 35.2539, 53.5727, -14.3992, 93.3718, -69.9381, 40.4355
5.48, 9, 35.2421, 53.606, -14.3761, 93.316, -70.0979, 40.4005
5.484, 9, 35.2309, 53.638, -14.3531, 93.2606, -70.2566, 40.3658
5.488, 9, 35.2201, 53.6687, -14.3303, 93.2058, -70.4136, 40.3315
5.492, 9, 35.2098, 53.6981, -14.3079, 93.1519, -70.568, 40.2977
5.496, 9, 35.1998, 53.7264, -14.286, 93.0991, -70.719, 40.2647
5.5, 9, 35.1903, 53.7536, -14.2648, 93.048, -70.8655, 40.2326
5.504, 9, 35.181, 53.7798, -14.2444, 92.9987, -71.0066, 40.2017
5.508, 9, 35.1721, 53.8051, -14.2249, 92.9517, -71.1412, 40.1723
5.512, 9, 35.1634, 53.8295, -14.2064, 92.9073, -71.2683, 40.1445
5.516, 9, 35.155, 53.8528, -14.1892, 92.8658, -71.3872, 40.1184
5.52, 9, 35.147, 53.8749, -14.1733, 92.8274, -71.4972, 40.0944
5.524, 9, 35.1392, 53.8959, -14.1588, 92.7924, -71.5975, 40.0724
5.528, 9, 35.1318, 53.9159, -14.1457, 92.7608, -71.688, 40.0526
5.532, 9, 35.1245, 53.9348, -14.134, 92.7327, -71.7683, 40.035
5.536, 9, 35.1175, 53.9528, -14.1238, 92.7082, -71.8387, 40.0196
5.54, 9, 35.1106, 53.9697, -14.1151, 92.687, -71.8994, 40.0064
5.544, 9, 35.1041, 53.9856, -14.1076, 92.669, -71.9509, 39.9951
5.548, 9, 35.098, 54.0002, -14.1014, 92.654, -71.994, 39.9857
5.552, 9, 35.0923, 54.0136, -14.0963, 92.6417, -72.0294, 39.9779
5.556, 9, 35.0871, 54.0258, -14.0921, 92.6317, -72.058, 39.9716
5.56, 9, 35.0825, 54.0366, -14.0888, 92.6237, -72.0808, 39.9667
5.564, 10, 35.0782, 54.0463, -14.0863, 92.6175, -72.0985, 39.9628
5.568, 10, 35.0744, 54.0548, -14.0843, 92.6128, -72.1121, 39.9598
5.572, 10, 35.071, 54.0622, -14.0828, 92.6093, -72.1222, 39.9576
5.576, 10, 35.0679, 54.0684, -14.0818, 92.6067, -72.1296, 39.956
5.58, 10, 35.0652, 54.0734, -14.081, 92.6049, -72.1349, 39.9548
5.584, 10, 35.063, 54.0774, -14.0805, 92.6036, -72.1385, 39.954
5.588, 10, 35.0613, 54.0803, -14.0801, 92.6027, -72.1411, 39.9535
5.592, 10, 35.06, 54.0824, -14.0799, 92.6021, -72.1428, 39.9531
5.596, 10, 35.0591, 54.0839, -14.0797, 92.6017, -72.144, 39.9528
5.6, 10, 35.0583, 54.0848, -14.0796, 92.6014, -72.1448, 39.9527
5.604, 10, 35.0575, 54.0853, -14.0794, 92.6012, -72.1453, 39.9525
5.608, 10, 35.0565, 54.0853, -14.0791, 92.601, -72.1457, 39.9525
5.612, 11, 35.0553, 54.085, -14.0787, 92.6007, -72.1458, 39.9524
5.616, 11, 35.0538, 54.0841, -14.0779, 92.6001, -72.1458, 39.9524
5.62, 11, 35.0519, 54.0827, -14.0766, 92.5991, -72.1456, 39.9523
5.624, 11, 35.0498, 54.0807, -14.0746, 92.5975, -72.145, 39.9523
5.628, 11, 35.0478, 54.0784, -14.0717, 92.5951, -72.144, 39.9523
5.632, 11, 35.0459, 54.0757, -14.0676, 92.5915, -72.1425, 39.9523
5.636, 11, 35.0444, 54.0728, -14.0623, 92.5867, -72.1403, 39.9523
5.64, 11, 35.0432, 54.0696, -14.0557, 92.5806, -72.1375, 39.9522
5.644, 11, 35.0424, 54.0663, -14.0477, 92.5731, -72.1341, 39.9522
5.648, 11, 35.0418, 54.0628, -14.0385, 92.5644, -72.13, 39.9522
5.652, 11, 35.0411, 54.0592, -14.0281, 92.5545, -72.1255, 39.9522
5.656, 11, 35.04, 54.0557, -14.0168, 92.5437, -72.1207, 39.9521
5.66, 11, 35.0384, 54.0524, -14.0048, 92.5323, -72.1159, 39.9521
5.664, 11, 35.0359, 54.0496, -13.9922, 92.5203, -72.1115, 39.952
5.668, 11, 35.0327, 54.0474, -13.9793, 92.5079, -72.1079, 39.9519
5.672, 11, 35.0286, 54.0459, -13.9662, 92.4952, -72.1058, 39.9516
5.676, 11, 35.0236, 54.0452, -13.9529, 92.4822, -72.1059, 39.9513
5.68, 11, 35.0178, 54.0453, -13.9394, 92.4689, -72.1089, 39.9508
5.684, 11, 35.0111, 54.0462, -13.9257, 92.4551, -72.1157, 39.9501
5.688, 11, 35.0035, 54.0478, -13.9113, 92.4406, -72.1271, 39.9491
5.692, 11, 34.9949, 54.0502, -13.8961, 92.4248, -72.1438, 39.9478
5.696, 11, 34.9857, 54.0534, -13.8797, 92.4074, -72.1668, 39.9462
5.7, 11, 34.9758, 54.0571, -13.8614, 92.3877, -72.1966, 39.9441
5.704, 11, 34.9657, 54.0614, -13.841, 92.3653, -72.2339, 39.9416
5.708, 11, 34.9553, 54.066, -13.818, 92.3396, -72.2791, 39.9385
5.712, 11, 34.9448, 54.0707, -13.792, 92.3103, -72.3326, 39.935
5.716, 11, 34.9342, 54.0756, -13.7628, 92.2771, -72.3943, 39.9309
5.72, 11, 34.9234, 54.0807, -13.7304, 92.2399, -72.4643, 39.9262
5.724, 11, 34.9122, 54.0859, -13.6946, 92.1988, -72.5421, 39.9211
5.728, 11, 34.9004, 54.0914, -13.6557, 92.154, -72.6274, 39.9155
5.732, 11, 34.888, 54.0972, -13.6138, 92.1057, -72.7195, 39.9094
5.736, 11, 34.8751, 54.1034, -13.5692, 92.0543, -72.8179, 39.9029
5.74, 11, 34.8615, 54.1101, -13.5222, 92, -72.9217, 39.896
5.744, 11, 34.8473, 54.1172, -13.4731, 91.9434, -73.0302, 39.8889
5.748, 11, 34.8325, 54.1249, -13.4223, 91.8847, -73.1426, 39.8815
5.752, 11, 34.817, 54.1333, -13.37, 91.8243, -73.2582, 39.8738
5.756, 11, 34.8007, 54.1423, -13.3165, 91.7627, -73.3763, 39.866
5.76, 11, 34.7835, 54.152, -13.2622, 91.7, -73.4964, 39.8581
5.764, 11, 34.7656, 54.1624, -13.2072, 91.6366, -73.618, 39.8501
5.768, 11, 34.7468, 54.1733, -13.1516, 91.5726, -73.7406, 39.842
5.772, 11, 34.7275, 54.1848, -13.0957, 91.5082, -73.8641, 39.8339
5.776, 11, 34.7077, 54.1965, -13.0394, 91.4434, -73.9883, 39.8257
5.78, 11, 34.6876, 54.2085, -12.9829, 91.3784, -74.113, 39.8175
5.784, 11, 34.6672, 54.2206, -12.9262, 91.3131, -74.2382, 39.8092
5.788, 11, 34.6467, 54.2329, -12.8694, 91.2477, -74.3637, 39.8009
5.792, 11, 34.626, 54.2452, -12.8123, 91.182, -74.4896, 39.7926
5.796, 11, 34.6052, 54.2577, -12.7551, 91.1162, -74.6158, 39.7843
5.8, 11, 34.5844, 54.2701, -12.6978, 91.0503, -74.7423, 39.776
5.804, 11, 34.5636, 54.2826, -12.6404, 90.9842, -74.8691, 39.7676
5.808, 11, 34.5429, 54.2951, -12.5828, 90.9179, -74.9961, 39.7592
5.812, 11, 34.5224, 54.3074, -12.5251, 90.8515, -75.1234, 39.7509
5.816, 11, 34.5022, 54.3196, -12.4674, 90.7851, -75.2509, 39.7424
5.82, 11, 34.4827, 54.3312, -12.4096, 90.7186, -75.3784, 39.734
5.824, 11, 34.4638, 54.3421, -12.352, 90.6521, -75.5058, 39.7256
5.828, 11, 34.4458, 54.352, -12.2946, 90.5859, -75.6328, 39.7173
5.832, 11, 34.4286, 54.3609, -12.2376, 90.5201, -75.7588, 39.709
5.836, 11, 34.4123, 54.3688, -12.1814, 90.4552, -75.8834, 39.7007
5.84, 11, 34.3966, 54.3759, -12.1262, 90.3913, -76.0057, 39.6927
5.844, 11, 34.3816, 54.3823, -12.0724, 90.3292, -76.1249, 39.6848
5.848, 11, 34.367, 54.3885, -12.0204, 90.269, -76.2401, 39.6772
5.852, 11, 34.353, 54.3945, -11.9707, 90.2115, -76.3505, 39.6699
5.856, 11, 34.3396, 54.4003, -11.9235, 90.1569, -76.455, 39.663
5.86, 11, 34.3269, 54.4061, -11.8794, 90.1058, -76.5529, 39.6566
5.864, 11, 34.3148, 54.4119, -11.8386, 90.0586, -76.6434, 39.6506
5.868, 11, 34.3032, 54.4178, -11.8013, 90.0156, -76.7259, 39.6452
5.872, 11, 34.292, 54.424, -11.7679, 89.977, -76.7999, 39.6403
5.876, 11, 34.2811, 54.4306, -11.7383, 89.9429, -76.8652, 39.636
5.88, 11, 34.2706, 54.4375, -11.7126, 89.9134, -76.9218, 39.6323
5.884, 11, 34.2604, 54.4448, -11.6906, 89.8883, -76.97, 39.6291
5.888, 11, 34.2508, 54.4523, -11.6722, 89.8673, -77.0103, 39.6264
5.892, 11, 34.2419, 54.4598, -11.657, 89.8501, -77.0434, 39.6242
5.896, 12, 34.2337, 54.4672, -11.6448, 89.8363, -77.0699, 39.6225
5.9, 12, 34.2263, 54.4742, -11.6351, 89.8254, -77.0909, 39.6211
5.904, 12, 34.2196, 54.4807, -11.6275, 89.817, -77.107, 39.6201
5.908, 12, 34.2136, 54.4865, -11.6218, 89.8107, -77.1191, 39.6193
5.912, 12, 34.2083, 54.4916, -11.6176, 89.8061, -77.128, 39.6187
5.916, 12, 34.2037, 54.4958, -11.6145, 89.8028, -77.1344, 39.6182
5.92, 12, 34.1999, 54.4992, -11.6124, 89.8004, -77.139, 39.618
5.924, 12, 34.1968, 54.5017, -11.6108, 89.7988, -77.1421, 39.6177
5.928, 12, 34.1945, 54.5036, -11.6098, 89.7977, -77.1442, 39.6176
5.932, 12, 34.1928, 54.5049, -11.6091, 89.797, -77.1457, 39.6175
5.936, 12, 34.1916, 54.5056, -11.6086, 89.7965, -77.1466, 39.6175
5.94, 12, 34.1905, 54.506, -11.6082, 89.7961, -77.1473, 39.6174
5.944, 12, 34.1895, 54.5058, -11.6078, 89.7958, -77.1477, 39.6175
5.948, 12, 34.1883, 54.5051, -11.6073, 89.7956, -77.1479, 39.6176
5.952, 12, 34.1868, 54.5037, -11.6066, 89.7953, -77.1478, 39.6179
5.956, 13, 34.1852, 54.5014, -11.6054, 89.7948, -77.1473, 39.6184
5.96, 13, 34.1833, 54.4982, -11.6037, 89.7941, -77.1463, 39.6194
5.964, 13, 34.1813, 54.4942, -11.6011, 89.793, -77.1447, 39.621
5.968, 13, 34.1794, 54.4895, -11.5974, 89.7914, -77.1422, 39.6234
5.972, 13, 34.1775, 54.4845, -11.5925, 89.7891, -77.1385, 39.6267
5.976, 13, 34.1758, 54.4793, -11.5862, 89.7862, -77.1337, 39.631
5.98, 13, 34.1744, 54.4741, -11.5783, 89.7825, -77.1274, 39.6366
5.984, 13, 34.1733, 54.4688, -11.5689, 89.7781, -77.1199, 39.6433
5.988, 13, 34.1725, 54.4636, -11.5581, 89.7729, -77.111, 39.6511
5.992, 13, 34.172, 54.4583, -11.546, 89.767, -77.1011, 39.6599
5.996, 13, 34.1715, 54.4528, -11.5328, 89.7607, -77.0902, 39.6695
6, 13, 34.1705, 54.4471, -11.5188, 89.7539, -77.0788, 39.6796
6.004, 13, 34.169, 54.4414, -11.5043, 89.7467, -77.0673, 39.6901
6.008, 13, 34.1665, 54.4357, -11.4894, 89.7394, -77.0561, 39.7006
6.012, 13, 34.1629, 54.4302, -11.4743, 89.7318, -77.0458, 39.7109
6.016, 13, 34.1582, 54.4249, -11.4592, 89.724, -77.0369, 39.7208
6.02, 13, 34.1524, 54.4198, -11.4441, 89.7158, -77.0301, 39.7302
6.024, 13, 34.1456, 54.4148, -11.4286, 89.707, -77.026, 39.7389
6.028, 13, 34.1378, 54.4099, -11.4126, 89.6973, -77.0252, 39.7469
6.032, 13, 34.1291, 54.4052, -11.3956, 89.6862, -77.0284, 39.7543
6.036, 13, 34.1193, 54.4004, -11.377, 89.6734, -77.0359, 39.7613
6.04, 13, 34.1086, 54.3957, -11.3562, 89.6582, -77.0484, 39.7681
6.044, 13, 34.0973, 54.391, -11.3324, 89.64, -77.0663, 39.7749
6.048, 13, 34.0854, 54.386, -11.305, 89.6183, -77.0899, 39.7821
6.052, 13, 34.0731, 54.3807, -11.2733, 89.5927, -77.1195, 39.7898
6.056, 13, 34.0604, 54.375, -11.2368, 89.5626, -77.1554, 39.7984
6.06, 13, 34.0474, 54.3685, -11.1952, 89.5278, -77.1977, 39.808
