hehonglu123/Motion-Primitive-Planning/simulation/robotstudio_sim/scripts/fitting_output/movej/curve_exe_v5000_z1.csv
timestamp, cmd_num, J1, J2, J3, J4, J5, J6
0, 1, -1.13838, 64.0129, 9.40939, 42.9264, -96.1219, 171.423
0.002, 1, -1.13838, 64.0129, 9.40939, 42.9264, -96.1219, 171.423
0.004, 1, -1.13838, 64.0129, 9.40939, 42.9264, -96.1219, 171.423
0.008, 1, -1.13838, 64.0129, 9.40939, 42.9264, -96.1219, 171.423
0.011, 1, -1.13838, 64.0129, 9.40939, 42.9264, -96.1219, 171.423
0.016, 1, -1.13838, 64.0129, 9.40939, 42.9264, -96.1219, 171.423
0.02, 1, -1.13838, 64.0129, 9.40939, 42.9264, -96.1219, 171.423
0.024, 1, -1.13838, 64.0129, 9.40939, 42.9264, -96.1219, 171.423
0.028, 1, -1.13838, 64.0129, 9.40939, 42.9264, -96.1219, 171.423
0.032, 1, -1.13838, 64.0129, 9.40939, 42.9264, -96.1219, 171.423
0.036, 1, -1.13837, 64.0129, 9.40939, 42.9264, -96.1219, 171.423
0.04, 1, -1.13831, 64.0128, 9.40939, 42.9264, -96.1219, 171.423
0.044, 1, -1.13809, 64.0128, 9.4094, 42.9264, -96.1219, 171.423
0.048, 1, -1.13756, 64.0126, 9.40941, 42.9264, -96.1219, 171.423
0.052, 1, -1.1366, 64.0124, 9.40944, 42.9264, -96.1219, 171.423
0.056, 1, -1.13507, 64.0119, 9.40947, 42.9266, -96.1218, 171.422
0.06, 1, -1.13292, 64.0111, 9.40948, 42.9268, -96.1216, 171.422
0.064, 1, -1.1301, 64.01, 9.40943, 42.9273, -96.1212, 171.421
0.068, 1, -1.12656, 64.0086, 9.40928, 42.9281, -96.1206, 171.419
0.072, 1, -1.12225, 64.0068, 9.40896, 42.9294, -96.1195, 171.416
0.076, 1, -1.11709, 64.0044, 9.40838, 42.9314, -96.1178, 171.411
0.08, 1, -1.11091, 64.0015, 9.40745, 42.9344, -96.1154, 171.404
0.084, 1, -1.10351, 63.998, 9.40606, 42.9386, -96.1119, 171.394
0.088, 1, -1.09469, 63.9938, 9.40406, 42.9443, -96.1072, 171.381
0.092, 1, -1.08429, 63.9887, 9.4013, 42.9519, -96.101, 171.363
0.096, 1, -1.07219, 63.9828, 9.39761, 42.9617, -96.0929, 171.341
0.1, 1, -1.05833, 63.9761, 9.39282, 42.9741, -96.0827, 171.312
0.104, 1, -1.04258, 63.9685, 9.38673, 42.9895, -96.0699, 171.276
0.108, 1, -1.02482, 63.9598, 9.37918, 43.0083, -96.0543, 171.233
0.112, 1, -1.00491, 63.9502, 9.37, 43.0309, -96.0357, 171.181
0.116, 1, -0.98278, 63.9396, 9.35905, 43.0575, -96.0136, 171.119
0.12, 1, -0.95839, 63.9281, 9.34618, 43.0885, -95.988, 171.048
0.124, 1, -0.931766, 63.9158, 9.33128, 43.1241, -95.9585, 170.966
0.128, 1, -0.902951, 63.9029, 9.31425, 43.1645, -95.925, 170.873
0.131, 1, -0.871989, 63.8894, 9.29506, 43.2097, -95.8876, 170.769
0.136, 1, -0.838921, 63.8753, 9.27368, 43.2598, -95.846, 170.653
0.139, 1, -0.803752, 63.8607, 9.25015, 43.3147, -95.8005, 170.527
0.144, 1, -0.766449, 63.8453, 9.22456, 43.3743, -95.7511, 170.39
0.148, 1, -0.726979, 63.8291, 9.19701, 43.4383, -95.6981, 170.243
0.152, 1, -0.685361, 63.8119, 9.16766, 43.5064, -95.6416, 170.086
0.156, 1, -0.641687, 63.7939, 9.13664, 43.5782, -95.582, 169.921
0.16, 1, -0.59609, 63.7749, 9.10415, 43.6535, -95.5196, 169.748
0.164, 1, -0.548689, 63.755, 9.07035, 43.7317, -95.4548, 169.568
0.168, 1, -0.499565, 63.7344, 9.03546, 43.8126, -95.3877, 169.382
0.172, 1, -0.448793, 63.7129, 8.99965, 43.8956, -95.3189, 169.191
0.176, 1, -0.396474, 63.6905, 8.96313, 43.9804, -95.2486, 168.996
0.18, 1, -0.342746, 63.6675, 8.92605, 44.0666, -95.1771, 168.797
0.184, 1, -0.287749, 63.6437, 8.88855, 44.1539, -95.1047, 168.596
0.188, 1, -0.231626, 63.6194, 8.85075, 44.242, -95.0316, 168.394
0.192, 1, -0.174527, 63.5945, 8.81275, 44.3308, -94.9581, 168.189
0.196, 1, -0.116606, 63.5692, 8.7746, 44.42, -94.8841, 167.984
0.2, 1, -0.0579901, 63.5435, 8.73635, 44.5096, -94.8099, 167.778
0.204, 1, 0.00122993, 63.5176, 8.69805, 44.5993, -94.7355, 167.571
0.208, 1, 0.0609734, 63.4915, 8.65973, 44.6892, -94.661, 167.364
0.212, 1, 0.121142, 63.4652, 8.62139, 44.7791, -94.5865, 167.157
0.216, 1, 0.181621, 63.4389, 8.58305, 44.8691, -94.5119, 166.95
0.22, 1, 0.242309, 63.4125, 8.54472, 44.959, -94.4373, 166.743
0.224, 1, 0.303127, 63.386, 8.5064, 45.049, -94.3628, 166.536
0.228, 1, 0.364022, 63.3595, 8.46809, 45.139, -94.2882, 166.329
0.232, 1, 0.424959, 63.3331, 8.4298, 45.2289, -94.2137, 166.122
0.236, 1, 0.485914, 63.3066, 8.39153, 45.3187, -94.1392, 165.915
0.24, 1, 0.546868, 63.2801, 8.35328, 45.4086, -94.0648, 165.708
0.244, 1, 0.607813, 63.2536, 8.31505, 45.4984, -93.9904, 165.501
0.248, 1, 0.668738, 63.2271, 8.27685, 45.5881, -93.916, 165.295
0.252, 1, 0.72964, 63.2007, 8.23866, 45.6778, -93.8417, 165.088
0.256, 1, 0.790515, 63.1742, 8.20049, 45.7674, -93.7674, 164.882
0.26, 1, 0.85136, 63.1478, 8.16234, 45.857, -93.6931, 164.676
0.264, 1, 0.912174, 63.1214, 8.12422, 45.9466, -93.6189, 164.469
0.268, 1, 0.972954, 63.095, 8.08612, 46.036, -93.5447, 164.263
0.272, 1, 1.0337, 63.0686, 8.04804, 46.1255, -93.4706, 164.057
0.276, 1, 1.09441, 63.0422, 8.00998, 46.2149, -93.3965, 163.852
0.28, 1, 1.15509, 63.0159, 7.97194, 46.3042, -93.3225, 163.646
0.284, 1, 1.21574, 62.9895, 7.93393, 46.3935, -93.2485, 163.44
0.288, 1, 1.27635, 62.9632, 7.89594, 46.4827, -93.1745, 163.235
0.292, 1, 1.33692, 62.9369, 7.85797, 46.5719, -93.1006, 163.03
0.296, 1, 1.39746, 62.9106, 7.82002, 46.661, -93.0268, 162.824
0.3, 1, 1.45796, 62.8843, 7.7821, 46.7501, -92.9529, 162.619
0.304, 1, 1.51842, 62.858, 7.7442, 46.8391, -92.8792, 162.414
0.308, 1, 1.57885, 62.8318, 7.70632, 46.9281, -92.8054, 162.21
0.312, 1, 1.63924, 62.8055, 7.66846, 47.017, -92.7317, 162.005
0.316, 1, 1.6996, 62.7793, 7.63063, 47.1058, -92.6581, 161.8
0.32, 1, 1.75992, 62.7531, 7.59282, 47.1946, -92.5845, 161.596
0.324, 1, 1.8202, 62.7269, 7.55503, 47.2834, -92.5109, 161.391
0.328, 1, 1.88045, 62.7008, 7.51727, 47.3721, -92.4374, 161.187
0.332, 1, 1.94066, 62.6746, 7.47953, 47.4607, -92.364, 160.983
0.336, 1, 2.00083, 62.6485, 7.44181, 47.5493, -92.2906, 160.779
0.34, 1, 2.06096, 62.6223, 7.40412, 47.6378, -92.2172, 160.575
0.344, 1, 2.12106, 62.5962, 7.36645, 47.7263, -92.1439, 160.372
0.348, 1, 2.18112, 62.5701, 7.3288, 47.8147, -92.0706, 160.168
0.352, 1, 2.24114, 62.5441, 7.29118, 47.9031, -91.9973, 159.965
0.356, 1, 2.30112, 62.518, 7.25358, 47.9914, -91.9241, 159.761
0.36, 1, 2.36107, 62.492, 7.216, 48.0797, -91.851, 159.558
0.364, 1, 2.42097, 62.466, 7.17845, 48.1679, -91.7779, 159.355
0.368, 1, 2.48084, 62.4399, 7.14092, 48.256, -91.7049, 159.152
0.372, 1, 2.54067, 62.414, 7.10342, 48.3441, -91.6319, 158.949
0.376, 1, 2.60046, 62.388, 7.06594, 48.4321, -91.5589, 158.747
0.38, 1, 2.66021, 62.362, 7.02848, 48.5201, -91.486, 158.544
0.384, 1, 2.71993, 62.3361, 6.99105, 48.608, -91.4131, 158.342
0.388, 1, 2.7796, 62.3102, 6.95365, 48.6959, -91.3403, 158.139
0.392, 1, 2.83924, 62.2843, 6.91626, 48.7837, -91.2675, 157.937
0.396, 1, 2.89884, 62.2584, 6.87891, 48.8714, -91.1948, 157.735
0.4, 1, 2.95839, 62.2325, 6.84157, 48.9591, -91.1222, 157.533
0.404, 1, 3.01791, 62.2066, 6.80427, 49.0467, -91.0495, 157.332
0.408, 1, 3.07739, 62.1808, 6.76698, 49.1343, -90.977, 157.13
0.412, 1, 3.13683, 62.155, 6.72972, 49.2218, -90.9044, 156.929
0.416, 1, 3.19623, 62.1292, 6.69249, 49.3092, -90.832, 156.727
0.42, 1, 3.25559, 62.1034, 6.65528, 49.3966, -90.7595, 156.526
0.424, 1, 3.31491, 62.0776, 6.6181, 49.4839, -90.6871, 156.325
0.428, 1, 3.37418, 62.0519, 6.58094, 49.5712, -90.6148, 156.124
0.432, 1, 3.43342, 62.0261, 6.54381, 49.6584, -90.5425, 155.923
0.436, 1, 3.49262, 62.0004, 6.5067, 49.7456, -90.4703, 155.723
0.44, 1, 3.55178, 61.9747, 6.46962, 49.8327, -90.3981, 155.522
0.444, 1, 3.61089, 61.949, 6.43256, 49.9197, -90.326, 155.322
0.448, 1, 3.66997, 61.9234, 6.39553, 50.0067, -90.2539, 155.121
0.452, 1, 3.72901, 61.8977, 6.35853, 50.0936, -90.1819, 154.921
0.456, 1, 3.788, 61.8721, 6.32155, 50.1804, -90.1099, 154.721
0.46, 1, 3.84695, 61.8465, 6.28459, 50.2672, -90.038, 154.522
0.464, 1, 3.90586, 61.8209, 6.24767, 50.354, -89.9661, 154.322
0.468, 1, 3.96473, 61.7953, 6.21077, 50.4406, -89.8943, 154.122
0.472, 1, 4.02356, 61.7698, 6.17389, 50.5272, -89.8225, 153.923
0.476, 1, 4.08235, 61.7442, 6.13704, 50.6138, -89.7507, 153.724
0.48, 1, 4.14109, 61.7187, 6.10022, 50.7003, -89.6791, 153.525
0.484, 1, 4.1998, 61.6932, 6.06342, 50.7867, -89.6074, 153.326
0.488, 1, 4.25846, 61.6677, 6.02665, 50.8731, -89.5359, 153.127
0.492, 1, 4.31708, 61.6423, 5.98991, 50.9594, -89.4643, 152.928
0.496, 1, 4.37565, 61.6168, 5.95319, 51.0456, -89.3929, 152.729
0.5, 1, 4.43419, 61.5914, 5.9165, 51.1318, -89.3214, 152.531
0.504, 1, 4.49268, 61.566, 5.87984, 51.2179, -89.2501, 152.333
0.508, 1, 4.55113, 61.5406, 5.8432, 51.3039, -89.1788, 152.135
0.512, 1, 4.60953, 61.5152, 5.80659, 51.3899, -89.1075, 151.937
0.516, 1, 4.6679, 61.4899, 5.77, 51.4758, -89.0363, 151.739
0.52, 1, 4.72622, 61.4645, 5.73345, 51.5617, -88.9651, 151.541
0.524, 1, 4.7845, 61.4392, 5.69692, 51.6475, -88.894, 151.344
0.528, 1, 4.84273, 61.4139, 5.66041, 51.7332, -88.823, 151.146
0.532, 1, 4.90093, 61.3887, 5.62394, 51.8189, -88.752, 150.949
0.536, 1, 4.95908, 61.3634, 5.58749, 51.9045, -88.681, 150.752
0.54, 1, 5.01718, 61.3382, 5.55107, 51.99, -88.6101, 150.555
0.544, 1, 5.07524, 61.3129, 5.51467, 52.0755, -88.5393, 150.358
0.548, 1, 5.13326, 61.2877, 5.47831, 52.1609, -88.4685, 150.162
0.552, 1, 5.19124, 61.2625, 5.44197, 52.2463, -88.3977, 149.965
0.556, 1, 5.24917, 61.2374, 5.40565, 52.3316, -88.3271, 149.769
0.56, 1, 5.30706, 61.2122, 5.36937, 52.4168, -88.2564, 149.572
0.564, 1, 5.3649, 61.1871, 5.33311, 52.502, -88.1859, 149.376
0.568, 1, 5.4227, 61.162, 5.29688, 52.587, -88.1153, 149.18
0.572, 1, 5.48045, 61.1369, 5.26068, 52.6721, -88.0449, 148.985
0.576, 1, 5.53816, 61.1118, 5.2245, 52.757, -87.9744, 148.789
0.58, 1, 5.59583, 61.0868, 5.18836, 52.8419, -87.9041, 148.594
0.584, 1, 5.65345, 61.0618, 5.15224, 52.9268, -87.8338, 148.398
0.588, 1, 5.71103, 61.0368, 5.11615, 53.0115, -87.7635, 148.203
0.592, 1, 5.76856, 61.0118, 5.08009, 53.0962, -87.6933, 148.008
0.596, 1, 5.82605, 60.9868, 5.04405, 53.1809, -87.6232, 147.813
0.6, 1, 5.88349, 60.9618, 5.00804, 53.2654, -87.5531, 147.619
0.604, 1, 5.94089, 60.9369, 4.97206, 53.3499, -87.4831, 147.424
0.608, 1, 5.99824, 60.912, 4.93611, 53.4344, -87.4131, 147.23
0.612, 1, 6.05555, 60.8871, 4.90019, 53.5187, -87.3432, 147.035
0.616, 1, 6.11282, 60.8622, 4.8643, 53.603, -87.2733, 146.841
0.62, 1, 6.17003, 60.8374, 4.82843, 53.6873, -87.2035, 146.647
0.624, 1, 6.22721, 60.8125, 4.7926, 53.7714, -87.1337, 146.454
0.628, 1, 6.28433, 60.7877, 4.75679, 53.8555, -87.064, 146.26
0.632, 1, 6.34142, 60.7629, 4.72101, 53.9396, -86.9944, 146.066
0.636, 1, 6.39845, 60.7381, 4.68526, 54.0235, -86.9248, 145.873
0.64, 1, 6.45544, 60.7134, 4.64953, 54.1074, -86.8552, 145.68
0.644, 1, 6.51239, 60.6886, 4.61384, 54.1913, -86.7858, 145.487
0.648, 1, 6.56929, 60.6639, 4.57818, 54.275, -86.7163, 145.294
0.652, 1, 6.62614, 60.6392, 4.54254, 54.3587, -86.647, 145.101
0.656, 1, 6.68295, 60.6146, 4.50693, 54.4424, -86.5777, 144.909
0.66, 1, 6.73971, 60.5899, 4.47135, 54.5259, -86.5084, 144.716
0.664, 1, 6.79642, 60.5653, 4.4358, 54.6094, -86.4392, 144.524
0.668, 1, 6.85309, 60.5406, 4.40028, 54.6929, -86.3701, 144.332
0.672, 1, 6.90971, 60.516, 4.36479, 54.7762, -86.301, 144.14
0.676, 1, 6.96629, 60.4915, 4.32933, 54.8595, -86.2319, 143.948
0.68, 1, 7.02282, 60.4669, 4.2939, 54.9427, -86.163, 143.757
0.684, 1, 7.0793, 60.4424, 4.25849, 55.0259, -86.094, 143.565
0.688, 1, 7.13574, 60.4179, 4.22312, 55.1089, -86.0252, 143.374
0.692, 1, 7.19213, 60.3934, 4.18777, 55.192, -85.9564, 143.183
0.696, 1, 7.24847, 60.3689, 4.15246, 55.2749, -85.8876, 142.992
0.7, 1, 7.30476, 60.3444, 4.11717, 55.3578, -85.819, 142.801
0.704, 1, 7.36101, 60.32, 4.08191, 55.4406, -85.7503, 142.611
0.708, 1, 7.41722, 60.2956, 4.04669, 55.5233, -85.6818, 142.42
0.712, 1, 7.47337, 60.2712, 4.01149, 55.606, -85.6133, 142.23
0.716, 1, 7.52948, 60.2468, 3.97632, 55.6886, -85.5448, 142.04
0.72, 1, 7.58554, 60.2225, 3.94118, 55.7711, -85.4764, 141.85
0.724, 1, 7.64155, 60.1981, 3.90607, 55.8536, -85.4081, 141.66
0.728, 1, 7.69752, 60.1738, 3.87099, 55.936, -85.3398, 141.47
0.732, 1, 7.75344, 60.1495, 3.83594, 56.0183, -85.2715, 141.28
0.736, 1, 7.80931, 60.1253, 3.80092, 56.1005, -85.2034, 141.091
0.74, 1, 7.86513, 60.101, 3.76593, 56.1827, -85.1353, 140.902
0.744, 1, 7.92091, 60.0768, 3.73097, 56.2648, -85.0672, 140.713
0.748, 1, 7.97663, 60.0526, 3.69604, 56.3469, -84.9992, 140.524
0.752, 1, 8.03232, 60.0284, 3.66114, 56.4288, -84.9313, 140.335
0.756, 1, 8.08795, 60.0042, 3.62627, 56.5107, -84.8634, 140.147
0.76, 1, 8.14354, 59.9801, 3.59143, 56.5926, -84.7956, 139.958
0.764, 1, 8.19907, 59.956, 3.55662, 56.6743, -84.7278, 139.77
0.768, 1, 8.25456, 59.9319, 3.52184, 56.756, -84.6601, 139.582
0.772, 1, 8.31001, 59.9078, 3.48709, 56.8376, -84.5925, 139.394
0.776, 1, 8.3654, 59.8837, 3.45237, 56.9192, -84.5249, 139.206
0.78, 1, 8.42074, 59.8597, 3.41768, 57.0007, -84.4574, 139.019
0.784, 1, 8.47604, 59.8357, 3.38302, 57.0821, -84.3899, 138.831
0.788, 1, 8.53129, 59.8117, 3.34839, 57.1634, -84.3225, 138.644
0.792, 1, 8.58649, 59.7877, 3.31379, 57.2447, -84.2551, 138.457
0.796, 1, 8.64165, 59.7637, 3.27922, 57.3258, -84.1878, 138.27
0.8, 1, 8.69675, 59.7398, 3.24468, 57.407, -84.1206, 138.083
0.804, 1, 8.75181, 59.7159, 3.21017, 57.488, -84.0534, 137.897
0.808, 1, 8.80682, 59.692, 3.17569, 57.569, -83.9863, 137.71
0.812, 1, 8.86178, 59.6681, 3.14124, 57.6499, -83.9193, 137.524
0.816, 1, 8.91669, 59.6443, 3.10683, 57.7307, -83.8523, 137.338
0.82, 1, 8.97156, 59.6204, 3.07244, 57.8115, -83.7853, 137.152
0.824, 1, 9.02637, 59.5966, 3.03808, 57.8922, -83.7185, 136.966
0.828, 1, 9.08114, 59.5728, 3.00375, 57.9728, -83.6516, 136.78
0.832, 1, 9.13586, 59.5491, 2.96946, 58.0534, -83.5849, 136.595
0.836, 1, 9.19053, 59.5253, 2.93519, 58.1339, -83.5182, 136.41
0.84, 1, 9.24515, 59.5016, 2.90096, 58.2143, -83.4515, 136.224
0.844, 1, 9.29972, 59.4779, 2.86675, 58.2946, -83.385, 136.04
0.848, 1, 9.35425, 59.4542, 2.83258, 58.3749, -83.3184, 135.855
0.852, 1, 9.40872, 59.4305, 2.79843, 58.4551, -83.252, 135.67
0.856, 1, 9.46315, 59.4069, 2.76432, 58.5352, -83.1856, 135.486
0.86, 1, 9.51753, 59.3833, 2.73024, 58.6152, -83.1192, 135.301
0.864, 1, 9.57186, 59.3597, 2.69618, 58.6952, -83.0529, 135.117
0.868, 1, 9.62614, 59.3361, 2.66216, 58.7751, -82.9867, 134.933
0.872, 1, 9.68037, 59.3125, 2.62817, 58.8549, -82.9205, 134.749
0.876, 1, 9.73455, 59.289, 2.59421, 58.9347, -82.8544, 134.566
0.88, 1, 9.78869, 59.2655, 2.56028, 59.0144, -82.7884, 134.382
0.884, 1, 9.84277, 59.242, 2.52638, 59.094, -82.7224, 134.199
0.888, 1, 9.89681, 59.2185, 2.49251, 59.1736, -82.6565, 134.016
0.892, 1, 9.9508, 59.1951, 2.45867, 59.253, -82.5906, 133.833
0.896, 1, 10.0047, 59.1716, 2.42487, 59.3324, -82.5248, 133.65
0.9, 1, 10.0586, 59.1482, 2.39109, 59.4118, -82.4591, 133.467
0.904, 1, 10.1125, 59.1248, 2.35734, 59.491, -82.3934, 133.285
0.908, 1, 10.1663, 59.1015, 2.32363, 59.5702, -82.3277, 133.103
0.912, 1, 10.22, 59.0781, 2.28994, 59.6493, -82.2622, 132.92
0.916, 1, 10.2737, 59.0548, 2.25629, 59.7284, -82.1967, 132.738
0.92, 1, 10.3273, 59.0315, 2.22267, 59.8073, -82.1312, 132.557
0.924, 1, 10.3809, 59.0082, 2.18907, 59.8862, -82.0658, 132.375
0.928, 1, 10.4345, 58.985, 2.15551, 59.9651, -82.0005, 132.193
0.932, 1, 10.488, 58.9617, 2.12198, 60.0438, -81.9352, 132.012
0.936, 1, 10.5414, 58.9385, 2.08848, 60.1225, -81.87, 131.831
0.94, 1, 10.5948, 58.9153, 2.05501, 60.2011, -81.8049, 131.65
0.944, 1, 10.6482, 58.8921, 2.02157, 60.2796, -81.7398, 131.469
0.948, 1, 10.7015, 58.869, 1.98817, 60.3581, -81.6748, 131.289
0.952, 1, 10.7547, 58.8459, 1.95479, 60.4365, -81.6098, 131.108
0.956, 1, 10.8079, 58.8227, 1.92144, 60.5148, -81.5449, 130.928
0.96, 1, 10.8611, 58.7997, 1.88813, 60.593, -81.48, 130.748
0.964, 1, 10.9142, 58.7766, 1.85485, 60.6712, -81.4152, 130.568
0.968, 1, 10.9673, 58.7535, 1.82159, 60.7493, -81.3505, 130.388
0.972, 1, 11.0203, 58.7305, 1.78837, 60.8274, -81.2858, 130.208
0.976, 1, 11.0732, 58.7075, 1.75518, 60.9053, -81.2212, 130.029
0.98, 1, 11.1261, 58.6845, 1.72202, 60.9832, -81.1567, 129.849
0.984, 1, 11.179, 58.6616, 1.68889, 61.061, -81.0922, 129.67
0.988, 1, 11.2318, 58.6386, 1.65579, 61.1387, -81.0278, 129.491
0.992, 1, 11.2846, 58.6157, 1.62272, 61.2164, -80.9634, 129.312
0.996, 1, 11.3373, 58.5928, 1.58968, 61.294, -80.8991, 129.134
1, 1, 11.3899, 58.57, 1.55668, 61.3715, -80.8348, 128.955
1.004, 1, 11.4425, 58.5471, 1.5237, 61.449, -80.7706, 128.777
1.008, 1, 11.4951, 58.5243, 1.49076, 61.5263, -80.7065, 128.599
1.012, 1, 11.5476, 58.5015, 1.45784, 61.6036, -80.6424, 128.421
1.016, 1, 11.6001, 58.4787, 1.42496, 61.6809, -80.5784, 128.243
1.02, 1, 11.6525, 58.4559, 1.39211, 61.758, -80.5145, 128.065
1.024, 1, 11.7049, 58.4332, 1.35929, 61.8351, -80.4506, 127.888
1.027, 1, 11.7572, 58.4104, 1.3265, 61.9121, -80.3868, 127.711
1.032, 1, 11.8095, 58.3877, 1.29374, 61.9891, -80.323, 127.533
1.036, 1, 11.8617, 58.365, 1.26101, 62.0659, -80.2593, 127.356
1.04, 1, 11.9138, 58.3424, 1.22831, 62.1427, -80.1957, 127.18
1.044, 1, 11.966, 58.3197, 1.19564, 62.2195, -80.1321, 127.003
1.048, 1, 12.018, 58.2971, 1.16301, 62.2961, -80.0685, 126.827
1.052, 1, 12.0701, 58.2745, 1.1304, 62.3727, -80.0051, 126.65
1.055, 1, 12.122, 58.252, 1.09783, 62.4492, -79.9417, 126.474
1.06, 1, 12.174, 58.2294, 1.06529, 62.5256, -79.8783, 126.298
1.064, 1, 12.2258, 58.2069, 1.03277, 62.602, -79.815, 126.122
1.068, 1, 12.2777, 58.1844, 1.00029, 62.6783, -79.7518, 125.947
1.072, 1, 12.3294, 58.1619, 0.967841, 62.7545, -79.6886, 125.771
1.076, 1, 12.3812, 58.1394, 0.935421, 62.8306, -79.6255, 125.596
1.08, 1, 12.4329, 58.117, 0.903032, 62.9067, -79.5625, 125.421
1.084, 1, 12.4845, 58.0945, 0.870673, 62.9827, -79.4995, 125.246
1.088, 1, 12.5361, 58.0721, 0.838345, 63.0586, -79.4366, 125.071
1.091, 1, 12.5876, 58.0497, 0.806048, 63.1345, -79.3737, 124.896
1.096, 1, 12.6391, 58.0274, 0.773782, 63.2103, -79.3109, 124.722
1.1, 1, 12.6905, 58.005, 0.741546, 63.286, -79.2481, 124.547
1.104, 1, 12.7419, 57.9827, 0.709341, 63.3616, -79.1854, 124.373
1.108, 1, 12.7932, 57.9604, 0.677167, 63.4372, -79.1228, 124.199
1.112, 1, 12.8445, 57.9381, 0.645023, 63.5127, -79.0602, 124.025
1.116, 1, 12.8958, 57.9159, 0.61291, 63.5881, -78.9977, 123.852
1.119, 1, 12.947, 57.8936, 0.580828, 63.6635, -78.9353, 123.678
1.124, 1, 12.9981, 57.8714, 0.548776, 63.7387, -78.8729, 123.505
1.128, 1, 13.0492, 57.8492, 0.516755, 63.814, -78.8106, 123.332
1.132, 1, 13.1002, 57.8271, 0.484764, 63.8891, -78.7483, 123.159
1.136, 1, 13.1512, 57.8049, 0.452804, 63.9642, -78.6861, 122.986
1.14, 1, 13.2022, 57.7828, 0.420874, 64.0391, -78.6239, 122.813
1.144, 1, 13.2531, 57.7607, 0.388975, 64.1141, -78.5618, 122.641
1.147, 1, 13.3039, 57.7386, 0.357106, 64.1889, -78.4998, 122.469
1.152, 1, 13.3547, 57.7165, 0.325267, 64.2637, -78.4378, 122.296
1.156, 1, 13.4055, 57.6945, 0.293459, 64.3384, -78.3759, 122.124
1.16, 1, 13.4562, 57.6725, 0.261682, 64.413, -78.314, 121.953
1.164, 1, 13.5068, 57.6505, 0.229935, 64.4876, -78.2523, 121.781
1.168, 1, 13.5575, 57.6285, 0.198218, 64.5621, -78.1905, 121.609
1.172, 1, 13.608, 57.6065, 0.166531, 64.6365, -78.1288, 121.438
1.175, 1, 13.6585, 57.5846, 0.134875, 64.7109, -78.0672, 121.267
1.18, 1, 13.709, 57.5627, 0.103249, 64.7851, -78.0057, 121.096
1.184, 1, 13.7594, 57.5408, 0.071653, 64.8594, -77.9442, 120.925
1.188, 1, 13.8098, 57.5189, 0.0400875, 64.9335, -77.8827, 120.754
1.192, 1, 13.8601, 57.497, 0.00855222, 65.0076, -77.8213, 120.584
1.196, 1, 13.9104, 57.4752, -0.0229529, 65.0816, -77.76, 120.413
1.2, 1, 13.9606, 57.4534, -0.0544278, 65.1555, -77.6987, 120.243
1.204, 1, 14.0108, 57.4316, -0.0858726, 65.2293, -77.6375, 120.073
1.208, 1, 14.0609, 57.4098, -0.117287, 65.3031, -77.5764, 119.903
1.212, 1, 14.111, 57.3881, -0.148672, 65.3768, -77.5153, 119.734
1.216, 1, 14.161, 57.3663, -0.180026, 65.4505, -77.4542, 119.564
1.22, 1, 14.211, 57.3446, -0.211351, 65.524, -77.3933, 119.395
1.224, 1, 14.2609, 57.3229, -0.242645, 65.5975, -77.3323, 119.225
1.228, 1, 14.3108, 57.3013, -0.27391, 65.671, -77.2715, 119.056
1.232, 1, 14.3606, 57.2796, -0.305144, 65.7443, -77.2107, 118.887
1.236, 1, 14.4104, 57.258, -0.336349, 65.8176, -77.1499, 118.719
1.24, 1, 14.4602, 57.2364, -0.367524, 65.8908, -77.0893, 118.55
1.244, 1, 14.5099, 57.2148, -0.398668, 65.964, -77.0286, 118.382
1.248, 1, 14.5595, 57.1932, -0.429783, 66.0371, -76.9681, 118.213
1.252, 1, 14.6091, 57.1717, -0.460868, 66.1101, -76.9076, 118.045
1.256, 1, 14.6587, 57.1502, -0.491924, 66.183, -76.8471, 117.877
1.26, 1, 14.7082, 57.1287, -0.522949, 66.2559, -76.7867, 117.71
1.264, 1, 14.7576, 57.1072, -0.553945, 66.3287, -76.7264, 117.542
1.267, 1, 14.807, 57.0857, -0.584911, 66.4014, -76.6661, 117.375
1.272, 1, 14.8564, 57.0643, -0.615847, 66.4741, -76.6059, 117.207
1.276, 1, 14.9057, 57.0429, -0.646753, 66.5467, -76.5457, 117.04
1.28, 1, 14.955, 57.0215, -0.67763, 66.6192, -76.4856, 116.873
1.284, 1, 15.0042, 57.0001, -0.708478, 66.6916, -76.4256, 116.706
1.288, 1, 15.0534, 56.9787, -0.739295, 66.764, -76.3656, 116.54
1.292, 1, 15.1025, 56.9574, -0.770083, 66.8363, -76.3057, 116.373
1.295, 1, 15.1516, 56.9361, -0.800842, 66.9086, -76.2458, 116.207
1.3, 1, 15.2006, 56.9148, -0.831571, 66.9807, -76.186, 116.041
1.304, 1, 15.2496, 56.8935, -0.862271, 67.0528, -76.1262, 115.875
1.308, 1, 15.2985, 56.8722, -0.892941, 67.1249, -76.0665, 115.709
1.312, 1, 15.3474, 56.851, -0.923581, 67.1968, -76.0069, 115.543
1.316, 1, 15.3963, 56.8298, -0.954193, 67.2687, -75.9473, 115.378
1.32, 1, 15.4451, 56.8086, -0.984774, 67.3406, -75.8877, 115.212
1.324, 1, 15.4938, 56.7874, -1.01533, 67.4123, -75.8283, 115.047
1.328, 1, 15.5425, 56.7663, -1.04585, 67.484, -75.7689, 114.882
1.332, 1, 15.5912, 56.7451, -1.07634, 67.5556, -75.7095, 114.717
1.336, 1, 15.6398, 56.724, -1.10681, 67.6272, -75.6502, 114.552
1.34, 1, 15.6884, 56.7029, -1.13725, 67.6987, -75.591, 114.388
1.344, 1, 15.7369, 56.6819, -1.16765, 67.7701, -75.5318, 114.223
1.348, 1, 15.7854, 56.6608, -1.19803, 67.8414, -75.4726, 114.059
1.352, 1, 15.8338, 56.6398, -1.22838, 67.9127, -75.4136, 113.895
1.356, 1, 15.8822, 56.6188, -1.2587, 67.9839, -75.3545, 113.731
1.36, 1, 15.9305, 56.5978, -1.28899, 68.0551, -75.2956, 113.567
1.364, 1, 15.9788, 56.5768, -1.31925, 68.1261, -75.2367, 113.404
1.368, 1, 16.027, 56.5558, -1.34948, 68.1971, -75.1778, 113.24
1.372, 1, 16.0752, 56.5349, -1.37968, 68.2681, -75.119, 113.077
1.376, 1, 16.1234, 56.514, -1.40986, 68.3389, -75.0603, 112.914
1.38, 1, 16.1715, 56.4931, -1.44, 68.4097, -75.0016, 112.751
1.384, 1, 16.2195, 56.4722, -1.47012, 68.4805, -74.943, 112.588
1.388, 1, 16.2675, 56.4514, -1.5002, 68.5511, -74.8844, 112.425
1.392, 1, 16.3155, 56.4305, -1.53026, 68.6217, -74.8259, 112.263
1.396, 1, 16.3634, 56.4097, -1.56029, 68.6923, -74.7675, 112.1
1.4, 1, 16.4113, 56.3889, -1.59029, 68.7627, -74.7091, 111.938
1.404, 1, 16.4591, 56.3682, -1.62026, 68.8331, -74.6507, 111.776
1.408, 1, 16.5069, 56.3474, -1.65021, 68.9035, -74.5924, 111.614
1.412, 1, 16.5546, 56.3267, -1.68012, 68.9737, -74.5342, 111.452
1.416, 1, 16.6023, 56.306, -1.71001, 69.0439, -74.476, 111.291
1.42, 1, 16.65, 56.2853, -1.73987, 69.114, -74.4179, 111.129
1.424, 1, 16.6976, 56.2646, -1.7697, 69.1841, -74.3598, 110.968
1.428, 1, 16.7451, 56.2439, -1.7995, 69.2541, -74.3018, 110.807
1.432, 1, 16.7926, 56.2233, -1.82927, 69.324, -74.2439, 110.646
1.436, 1, 16.8401, 56.2027, -1.85901, 69.3939, -74.186, 110.485
1.44, 1, 16.8875, 56.1821, -1.88873, 69.4637, -74.1281, 110.324
1.444, 1, 16.9349, 56.1615, -1.91842, 69.5334, -74.0704, 110.164
1.448, 1, 16.9822, 56.141, -1.94808, 69.6031, -74.0126, 110.003
1.452, 1, 17.0295, 56.1204, -1.97771, 69.6727, -73.9549, 109.843
1.456, 1, 17.0767, 56.0999, -2.00731, 69.7422, -73.8973, 109.683
1.46, 1, 17.1239, 56.0794, -2.03689, 69.8116, -73.8397, 109.523
1.464, 1, 17.1711, 56.0589, -2.06643, 69.881, -73.7822, 109.363
1.468, 1, 17.2182, 56.0385, -2.09595, 69.9504, -73.7248, 109.204
1.472, 1, 17.2653, 56.018, -2.12545, 70.0196, -73.6674, 109.044
1.476, 1, 17.3123, 55.9976, -2.15491, 70.0888, -73.61, 108.885
1.48, 1, 17.3592, 55.9772, -2.18434, 70.158, -73.5527, 108.726
1.484, 1, 17.4062, 55.9568, -2.21375, 70.2271, -73.4955, 108.567
1.488, 1, 17.4531, 55.9365, -2.24313, 70.2961, -73.4383, 108.408
1.492, 1, 17.4999, 55.9161, -2.27249, 70.365, -73.3811, 108.249
1.496, 1, 17.5467, 55.8958, -2.30181, 70.4339, -73.324, 108.09
1.5, 1, 17.5934, 55.8755, -2.33111, 70.5027, -73.267, 107.932
1.504, 1, 17.6401, 55.8552, -2.36038, 70.5714, -73.21, 107.774
1.508, 1, 17.6868, 55.8349, -2.38962, 70.6401, -73.1531, 107.615
1.512, 1, 17.7334, 55.8147, -2.41883, 70.7087, -73.0962, 107.458
1.516, 1, 17.78, 55.7945, -2.44802, 70.7773, -73.0394, 107.3
1.52, 1, 17.8265, 55.7743, -2.47718, 70.8458, -72.9827, 107.142
1.524, 1, 17.873, 55.7541, -2.50631, 70.9142, -72.926, 106.984
1.528, 1, 17.9195, 55.7339, -2.53542, 70.9825, -72.8693, 106.827
1.532, 1, 17.9659, 55.7137, -2.5645, 71.0508, -72.8127, 106.67
1.536, 1, 18.0122, 55.6936, -2.59355, 71.1191, -72.7561, 106.513
1.54, 1, 18.0585, 55.6735, -2.62257, 71.1872, -72.6997, 106.356
1.544, 1, 18.1048, 55.6534, -2.65157, 71.2553, -72.6432, 106.199
1.548, 1, 18.151, 55.6333, -2.68054, 71.3234, -72.5868, 106.042
1.552, 1, 18.1972, 55.6133, -2.70948, 71.3914, -72.5305, 105.886
1.556, 1, 18.2434, 55.5932, -2.73839, 71.4593, -72.4742, 105.729
1.56, 1, 18.2895, 55.5732, -2.76728, 71.5271, -72.418, 105.573
1.564, 1, 18.3355, 55.5532, -2.79614, 71.5949, -72.3618, 105.417
1.568, 1, 18.3815, 55.5332, -2.82498, 71.6626, -72.3057, 105.261
1.572, 1, 18.4275, 55.5132, -2.85378, 71.7303, -72.2496, 105.105
1.576, 1, 18.4734, 55.4933, -2.88256, 71.7979, -72.1936, 104.95
1.58, 1, 18.5193, 55.4734, -2.91132, 71.8654, -72.1376, 104.794
1.584, 1, 18.5651, 55.4535, -2.94004, 71.9329, -72.0817, 104.639
1.588, 1, 18.6109, 55.4336, -2.96874, 72.0003, -72.0258, 104.484
1.592, 1, 18.6567, 55.4137, -2.99742, 72.0676, -71.97, 104.329
1.596, 1, 18.7024, 55.3938, -3.02607, 72.1349, -71.9142, 104.174
1.6, 1, 18.7481, 55.374, -3.05469, 72.2021, -71.8585, 104.019
1.604, 1, 18.7937, 55.3542, -3.08328, 72.2693, -71.8028, 103.864
1.608, 1, 18.8393, 55.3344, -3.11185, 72.3364, -71.7472, 103.71
1.612, 1, 18.8848, 55.3146, -3.14039, 72.4034, -71.6917, 103.556
1.616, 1, 18.9303, 55.2948, -3.1689, 72.4704, -71.6362, 103.401
1.62, 1, 18.9758, 55.2751, -3.19739, 72.5373, -71.5807, 103.247
1.624, 1, 19.0212, 55.2554, -3.22585, 72.6042, -71.5253, 103.093
1.628, 1, 19.0666, 55.2357, -3.25429, 72.671, -71.47, 102.94
1.632, 1, 19.1119, 55.216, -3.2827, 72.7377, -71.4147, 102.786
1.636, 1, 19.1572, 55.1963, -3.31108, 72.8044, -71.3594, 102.633
1.64, 1, 19.2025, 55.1766, -3.33944, 72.871, -71.3042, 102.479
1.644, 1, 19.2477, 55.157, -3.36777, 72.9375, -71.2491, 102.326
1.648, 1, 19.2929, 55.1374, -3.39608, 73.004, -71.194, 102.173
1.652, 1, 19.338, 55.1178, -3.42435, 73.0704, -71.1389, 102.02
1.656, 1, 19.3831, 55.0982, -3.45261, 73.1368, -71.0839, 101.867
1.66, 1, 19.4281, 55.0786, -3.48083, 73.203, -71.029, 101.715
1.664, 1, 19.4731, 55.0591, -3.50904, 73.2693, -70.9741, 101.562
1.668, 1, 19.5181, 55.0396, -3.53721, 73.3355, -70.9192, 101.41
1.672, 1, 19.563, 55.0201, -3.56536, 73.4016, -70.8644, 101.258
1.676, 1, 19.6079, 55.0006, -3.59348, 73.4676, -70.8097, 101.105
1.68, 1, 19.6527, 54.9811, -3.62158, 73.5336, -70.755, 100.954
1.684, 1, 19.6975, 54.9616, -3.64966, 73.5996, -70.7003, 100.802
1.688, 1, 19.7423, 54.9422, -3.6777, 73.6654, -70.6458, 100.65
1.692, 1, 19.787, 54.9228, -3.70572, 73.7312, -70.5912, 100.499
1.696, 1, 19.8316, 54.9034, -3.73372, 73.797, -70.5367, 100.347
1.7, 1, 19.8763, 54.884, -3.76169, 73.8627, -70.4823, 100.196
1.704, 1, 19.9209, 54.8646, -3.78964, 73.9283, -70.4279, 100.045
1.708, 1, 19.9654, 54.8453, -3.81756, 73.9939, -70.3735, 99.8938
1.712, 1, 20.0099, 54.8259, -3.84545, 74.0594, -70.3192, 99.743
1.716, 1, 20.0544, 54.8066, -3.87332, 74.1249, -70.265, 99.5923
1.72, 1, 20.0988, 54.7873, -3.90116, 74.1903, -70.2108, 99.4417
1.724, 1, 20.1432, 54.7681, -3.92898, 74.2556, -70.1566, 99.2913
1.728, 1, 20.1876, 54.7488, -3.95677, 74.3209, -70.1025, 99.141
1.732, 1, 20.2319, 54.7295, -3.98454, 74.3861, -70.0485, 98.9908
1.736, 1, 20.2762, 54.7103, -4.01228, 74.4512, -69.9945, 98.8408
1.74, 1, 20.3204, 54.6911, -4.04, 74.5163, -69.9405, 98.6909
1.744, 1, 20.3646, 54.6719, -4.06769, 74.5814, -69.8866, 98.5412
1.748, 1, 20.4087, 54.6527, -4.09536, 74.6464, -69.8328, 98.3915
1.752, 1, 20.4528, 54.6336, -4.123, 74.7113, -69.779, 98.2421
1.756, 1, 20.4969, 54.6144, -4.15062, 74.7762, -69.7252, 98.0927
1.76, 1, 20.541, 54.5953, -4.17821, 74.841, -69.6715, 97.9435
1.764, 1, 20.5849, 54.5762, -4.20578, 74.9057, -69.6178, 97.7944
1.768, 1, 20.6289, 54.5571, -4.23332, 74.9704, -69.5642, 97.6455
1.772, 1, 20.6728, 54.538, -4.26084, 75.035, -69.5106, 97.4967
1.776, 1, 20.7167, 54.519, -4.28834, 75.0996, -69.4571, 97.348
1.78, 1, 20.7605, 54.4999, -4.31581, 75.1641, -69.4036, 97.1994
1.784, 1, 20.8043, 54.4809, -4.34325, 75.2286, -69.3502, 97.051
1.788, 1, 20.8481, 54.4619, -4.37067, 75.293, -69.2968, 96.9027
1.792, 1, 20.8918, 54.4429, -4.39807, 75.3574, -69.2435, 96.7546
1.796, 1, 20.9355, 54.424, -4.42544, 75.4216, -69.1902, 96.6066
1.8, 1, 20.9791, 54.405, -4.45279, 75.4859, -69.137, 96.4587
1.804, 1, 21.0227, 54.3861, -4.48012, 75.55, -69.0838, 96.3109
1.808, 1, 21.0663, 54.3671, -4.50742, 75.6142, -69.0307, 96.1633
1.812, 1, 21.1098, 54.3482, -4.53469, 75.6782, -68.9776, 96.0158
1.816, 1, 21.1533, 54.3294, -4.56194, 75.7422, -68.9245, 95.8684
1.82, 1, 21.1968, 54.3105, -4.58917, 75.8062, -68.8715, 95.7212
1.824, 1, 21.2402, 54.2916, -4.61637, 75.8701, -68.8186, 95.5741
1.828, 1, 21.2835, 54.2728, -4.64355, 75.9339, -68.7657, 95.4271
1.832, 1, 21.3269, 54.254, -4.67071, 75.9977, -68.7128, 95.2803
1.836, 1, 21.3702, 54.2352, -4.69784, 76.0614, -68.66, 95.1336
1.84, 1, 21.4134, 54.2164, -4.72495, 76.1251, -68.6072, 94.987
1.844, 1, 21.4566, 54.1976, -4.75203, 76.1887, -68.5545, 94.8405
1.848, 1, 21.4998, 54.1789, -4.77909, 76.2523, -68.5018, 94.6942
1.852, 1, 21.543, 54.1601, -4.80613, 76.3158, -68.4492, 94.548
1.856, 1, 21.5861, 54.1414, -4.83314, 76.3792, -68.3966, 94.4019
1.86, 1, 21.6292, 54.1227, -4.86013, 76.4426, -68.3441, 94.2559
1.864, 1, 21.6722, 54.104, -4.8871, 76.5059, -68.2916, 94.1101
1.868, 1, 21.7152, 54.0853, -4.91404, 76.5692, -68.2391, 93.9644
1.872, 1, 21.7581, 54.0667, -4.94096, 76.6324, -68.1867, 93.8188
1.876, 1, 21.8011, 54.048, -4.96786, 76.6956, -68.1344, 93.6734
1.88, 1, 21.8439, 54.0294, -4.99473, 76.7587, -68.0821, 93.5281
1.884, 1, 21.8868, 54.0108, -5.02158, 76.8218, -68.0298, 93.3829
1.888, 1, 21.9296, 53.9922, -5.04841, 76.8848, -67.9776, 93.2378
1.892, 1, 21.9724, 53.9736, -5.07521, 76.9478, -67.9254, 93.0929
1.896, 1, 22.0151, 53.9551, -5.10199, 77.0107, -67.8733, 92.9481
1.9, 1, 22.0578, 53.9365, -5.12875, 77.0735, -67.8212, 92.8034
1.904, 1, 22.1005, 53.918, -5.15548, 77.1363, -67.7691, 92.6588
1.908, 1, 22.1431, 53.8995, -5.18219, 77.199, -67.7171, 92.5144
1.912, 1, 22.1857, 53.881, -5.20888, 77.2617, -67.6652, 92.3701
1.916, 1, 22.2282, 53.8625, -5.23554, 77.3243, -67.6133, 92.2259
1.92, 1, 22.2707, 53.844, -5.26219, 77.3869, -67.5614, 92.0818
1.924, 1, 22.3132, 53.8256, -5.28881, 77.4494, -67.5096, 91.9378
1.928, 1, 22.3557, 53.8071, -5.3154, 77.5119, -67.4578, 91.794
1.932, 1, 22.3981, 53.7887, -5.34198, 77.5743, -67.4061, 91.6503
1.936, 1, 22.4404, 53.7703, -5.36853, 77.6367, -67.3544, 91.5067
1.94, 1, 22.4828, 53.7519, -5.39506, 77.699, -67.3028, 91.3633
1.944, 1, 22.5251, 53.7336, -5.42156, 77.7612, -67.2512, 91.22
1.948, 1, 22.5673, 53.7152, -5.44804, 77.8234, -67.1996, 91.0767
1.952, 1, 22.6096, 53.6969, -5.4745, 77.8856, -67.1481, 90.9337
1.956, 1, 22.6517, 53.6785, -5.50094, 77.9477, -67.0967, 90.7907
1.96, 1, 22.6939, 53.6602, -5.52736, 78.0097, -67.0452, 90.6478
1.964, 1, 22.736, 53.6419, -5.55375, 78.0717, -66.9939, 90.5051
1.968, 1, 22.7781, 53.6237, -5.58012, 78.1337, -66.9425, 90.3625
1.972, 1, 22.8201, 53.6054, -5.60647, 78.1955, -66.8912, 90.22
1.976, 1, 22.8622, 53.5872, -5.6328, 78.2574, -66.84, 90.0777
1.98, 1, 22.9041, 53.5689, -5.6591, 78.3192, -66.7888, 89.9354
1.984, 1, 22.9461, 53.5507, -5.68539, 78.3809, -66.7376, 89.7933
1.988, 1, 22.988, 53.5325, -5.71165, 78.4426, -66.6865, 89.6513
1.992, 1, 23.0298, 53.5143, -5.73788, 78.5042, -66.6354, 89.5094
1.996, 1, 23.0717, 53.4962, -5.7641, 78.5658, -66.5844, 89.3676
1.999, 1, 23.1135, 53.478, -5.79029, 78.6273, -66.5334, 89.226
2.004, 1, 23.1552, 53.4599, -5.81646, 78.6887, -66.4825, 89.0845
2.008, 1, 23.197, 53.4417, -5.84261, 78.7502, -66.4316, 88.9431
2.012, 1, 23.2387, 53.4236, -5.86874, 78.8115, -66.3807, 88.8018
2.015, 1, 23.2803, 53.4055, -5.89485, 78.8729, -66.3299, 88.6606
2.019, 1, 23.322, 53.3875, -5.92093, 78.9341, -66.2791, 88.5195
2.024, 1, 23.3635, 53.3694, -5.947, 78.9953, -66.2284, 88.3786
2.028, 1, 23.4051, 53.3513, -5.97304, 79.0565, -66.1777, 88.2378
2.031, 1, 23.4466, 53.3333, -5.99906, 79.1176, -66.127, 88.0971
2.036, 1, 23.4881, 53.3153, -6.02505, 79.1787, -66.0764, 87.9565
2.04, 1, 23.5296, 53.2973, -6.05103, 79.2397, -66.0259, 87.816
2.044, 1, 23.571, 53.2793, -6.07698, 79.3006, -65.9753, 87.6757
2.048, 1, 23.6124, 53.2613, -6.10292, 79.3615, -65.9249, 87.5354
2.051, 1, 23.6537, 53.2434, -6.12883, 79.4224, -65.8744, 87.3953
2.055, 1, 23.695, 53.2254, -6.15472, 79.4832, -65.824, 87.2553
2.06, 1, 23.7363, 53.2075, -6.18059, 79.544, -65.7737, 87.1154
2.064, 1, 23.7776, 53.1896, -6.20643, 79.6047, -65.7234, 86.9757
2.068, 1, 23.8188, 53.1717, -6.23226, 79.6653, -65.6731, 86.836
2.071, 1, 23.8599, 53.1538, -6.25807, 79.726, -65.6229, 86.6964
2.076, 1, 23.9011, 53.1359, -6.28385, 79.7865, -65.5727, 86.557
2.08, 1, 23.9422, 53.1181, -6.30961, 79.847, -65.5225, 86.4177
2.084, 1, 23.9833, 53.1002, -6.33535, 79.9075, -65.4724, 86.2785
2.087, 1, 24.0243, 53.0824, -6.36107, 79.9679, -65.4223, 86.1394
2.092, 1, 24.0653, 53.0646, -6.38677, 80.0282, -65.3723, 86.0005
2.096, 1, 24.1063, 53.0468, -6.41245, 80.0886, -65.3223, 85.8616
2.1, 1, 24.1473, 53.029, -6.43811, 80.1488, -65.2724, 85.7228
2.104, 1, 24.1882, 53.0112, -6.46375, 80.209, -65.2225, 85.5842
2.107, 1, 24.2291, 52.9935, -6.48936, 80.2692, -65.1726, 85.4457
2.111, 1, 24.2699, 52.9757, -6.51496, 80.3293, -65.1228, 85.3073
2.116, 1, 24.3107, 52.958, -6.54053, 80.3894, -65.073, 85.169
2.12, 1, 24.3515, 52.9403, -6.56609, 80.4494, -65.0233, 85.0308
2.124, 1, 24.3922, 52.9226, -6.59162, 80.5094, -64.9736, 84.8927
2.127, 1, 24.433, 52.9049, -6.61713, 80.5693, -64.9239, 84.7547
2.132, 1, 24.4736, 52.8873, -6.64263, 80.6292, -64.8743, 84.6169
2.136, 1, 24.5143, 52.8696, -6.6681, 80.689, -64.8247, 84.4791
2.14, 1, 24.5549, 52.852, -6.69355, 80.7488, -64.7751, 84.3415
2.143, 1, 24.5955, 52.8343, -6.71898, 80.8085, -64.7256, 84.204
2.148, 1, 24.636, 52.8167, -6.74439, 80.8682, -64.6762, 84.0666
2.152, 1, 24.6766, 52.7991, -6.76978, 80.9278, -64.6267, 83.9293
2.156, 1, 24.717, 52.7815, -6.79515, 80.9874, -64.5774, 83.7921
2.16, 1, 24.7575, 52.764, -6.8205, 81.047, -64.528, 83.655
2.163, 1, 24.7979, 52.7464, -6.84583, 81.1065, -64.4787, 83.518
2.168, 1, 24.8383, 52.7289, -6.87114, 81.1659, -64.4294, 83.3811
2.172, 1, 24.8787, 52.7113, -6.89643, 81.2253, -64.3802, 83.2444
2.176, 1, 24.919, 52.6938, -6.9217, 81.2846, -64.331, 83.1077
2.179, 1, 24.9593, 52.6763, -6.94695, 81.344, -64.2819, 82.9712
2.184, 1, 24.9995, 52.6588, -6.97218, 81.4032, -64.2328, 82.8348
2.188, 1, 25.0398, 52.6414, -6.99739, 81.4624, -64.1837, 82.6984
2.192, 1, 25.08, 52.6239, -7.02258, 81.5216, -64.1347, 82.5622
2.196, 1, 25.1201, 52.6065, -7.04776, 81.5807, -64.0856, 82.4261
2.199, 1, 25.1603, 52.589, -7.07291, 81.6398, -64.0367, 82.2901
2.204, 1, 25.2004, 52.5716, -7.09804, 81.6988, -63.9878, 82.1542
2.208, 1, 25.2405, 52.5542, -7.12315, 81.7578, -63.9389, 82.0184
2.212, 1, 25.2805, 52.5368, -7.14824, 81.8167, -63.89, 81.8827
2.216, 1, 25.3205, 52.5194, -7.17331, 81.8756, -63.8412, 81.7471
2.219, 1, 25.3605, 52.5021, -7.19837, 81.9344, -63.7925, 81.6116
2.224, 1, 25.4004, 52.4847, -7.2234, 81.9932, -63.7437, 81.4763
2.228, 1, 25.4404, 52.4674, -7.24841, 82.052, -63.695, 81.341
2.232, 1, 25.4802, 52.4501, -7.27341, 82.1107, -63.6464, 81.2058
2.235, 1, 25.5201, 52.4328, -7.29838, 82.1694, -63.5978, 81.0708
2.24, 1, 25.5599, 52.4155, -7.32334, 82.228, -63.5492, 80.9358
2.244, 1, 25.5997, 52.3982, -7.34828, 82.2865, -63.5007, 80.801
2.248, 1, 25.6395, 52.3809, -7.37319, 82.3451, -63.4522, 80.6662
2.252, 1, 25.6792, 52.3636, -7.39809, 82.4035, -63.4037, 80.5316
2.255, 1, 25.7189, 52.3464, -7.42297, 82.462, -63.3553, 80.3971
2.259, 1, 25.7586, 52.3292, -7.44783, 82.5204, -63.3069, 80.2626
2.264, 1, 25.7982, 52.312, -7.47267, 82.5787, -63.2585, 80.1283
2.268, 1, 25.8378, 52.2948, -7.49749, 82.637, -63.2102, 79.9941
2.272, 1, 25.8774, 52.2776, -7.5223, 82.6953, -63.1619, 79.8599
2.275, 1, 25.917, 52.2604, -7.54708, 82.7535, -63.1137, 79.7259
2.28, 1, 25.9565, 52.2432, -7.57185, 82.8116, -63.0655, 79.592
2.284, 1, 25.996, 52.2261, -7.59659, 82.8698, -63.0173, 79.4582
2.288, 1, 26.0354, 52.2089, -7.62132, 82.9278, -62.9692, 79.3245
2.291, 1, 26.0749, 52.1918, -7.64603, 82.9859, -62.9211, 79.1908
2.296, 1, 26.1143, 52.1747, -7.67072, 83.0439, -62.873, 79.0573
2.3, 1, 26.1536, 52.1576, -7.69539, 83.1018, -62.825, 78.9239
2.304, 1, 26.193, 52.1405, -7.72004, 83.1597, -62.777, 78.7906
2.308, 1, 26.2323, 52.1234, -7.74468, 83.2176, -62.729, 78.6574
2.311, 1, 26.2716, 52.1064, -7.76929, 83.2754, -62.6811, 78.5243
2.316, 1, 26.3108, 52.0893, -7.79389, 83.3332, -62.6332, 78.3913
2.32, 1, 26.35, 52.0723, -7.81846, 83.3909, -62.5854, 78.2584
2.324, 1, 26.3892, 52.0553, -7.84302, 83.4486, -62.5376, 78.1256
2.328, 1, 26.4284, 52.0383, -7.86757, 83.5062, -62.4898, 77.9928
2.331, 1, 26.4675, 52.0213, -7.89209, 83.5638, -62.4421, 77.8602
2.336, 1, 26.5066, 52.0043, -7.91659, 83.6214, -62.3944, 77.7277
2.34, 1, 26.5457, 51.9873, -7.94108, 83.6789, -62.3467, 77.5953
2.344, 1, 26.5848, 51.9703, -7.96555, 83.7364, -62.2991, 77.463
2.347, 1, 26.6238, 51.9534, -7.99, 83.7938, -62.2515, 77.3308
2.352, 1, 26.6628, 51.9365, -8.01443, 83.8512, -62.2039, 77.1987
2.356, 1, 26.7017, 51.9195, -8.03884, 83.9085, -62.1564, 77.0666
2.36, 1, 26.7407, 51.9026, -8.06324, 83.9658, -62.1089, 76.9347
2.364, 1, 26.7796, 51.8857, -8.08762, 84.023, -62.0615, 76.8029
2.367, 1, 26.8184, 51.8689, -8.11197, 84.0803, -62.014, 76.6712
2.372, 1, 26.8573, 51.852, -8.13632, 84.1374, -61.9667, 76.5395
2.376, 1, 26.8961, 51.8351, -8.16064, 84.1946, -61.9193, 76.408
2.38, 1, 26.9349, 51.8183, -8.18494, 84.2516, -61.872, 76.2766
2.383, 1, 26.9736, 51.8014, -8.20923, 84.3087, -61.8247, 76.1452
2.388, 1, 27.0124, 51.7846, -8.2335, 84.3657, -61.7775, 76.014
2.392, 1, 27.0511, 51.7678, -8.25775, 84.4227, -61.7303, 75.8829
2.396, 1, 27.0897, 51.751, -8.28199, 84.4796, -61.6831, 75.7518
2.4, 1, 27.1284, 51.7342, -8.3062, 84.5365, -61.636, 75.6208
2.403, 1, 27.167, 51.7175, -8.3304, 84.5933, -61.5889, 75.49
2.408, 1, 27.2056, 51.7007, -8.35458, 84.6501, -61.5418, 75.3592
2.412, 1, 27.2441, 51.684, -8.37875, 84.7068, -61.4947, 75.2286
2.416, 1, 27.2827, 51.6672, -8.40289, 84.7635, -61.4477, 75.098
2.42, 1, 27.3212, 51.6505, -8.42702, 84.8202, -61.4008, 74.9675
2.423, 1, 27.3596, 51.6338, -8.45113, 84.8768, -61.3538, 74.8371
2.428, 1, 27.3981, 51.6171, -8.47522, 84.9334, -61.3069, 74.7068
2.432, 1, 27.4365, 51.6004, -8.4993, 84.99, -61.2601, 74.5767
2.436, 1, 27.4749, 51.5837, -8.52335, 85.0465, -61.2132, 74.4466
2.439, 1, 27.5133, 51.5671, -8.5474, 85.1029, -61.1665, 74.3166
2.444, 1, 27.5516, 51.5504, -8.57142, 85.1594, -61.1197, 74.1867
2.448, 1, 27.5899, 51.5338, -8.59543, 85.2158, -61.073, 74.0568
2.452, 1, 27.6282, 51.5172, -8.61941, 85.2721, -61.0263, 73.9271
2.456, 1, 27.6664, 51.5005, -8.64338, 85.3284, -60.9796, 73.7975
2.459, 1, 27.7047, 51.4839, -8.66734, 85.3847, -60.933, 73.6679
2.464, 1, 27.7429, 51.4673, -8.69128, 85.4409, -60.8864, 73.5385
2.468, 1, 27.781, 51.4508, -8.7152, 85.4971, -60.8398, 73.4091
2.472, 1, 27.8192, 51.4342, -8.7391, 85.5532, -60.7933, 73.2799
2.476, 1, 27.8573, 51.4176, -8.76299, 85.6093, -60.7468, 73.1507
2.479, 1, 27.8954, 51.4011, -8.78685, 85.6654, -60.7003, 73.0216
2.484, 1, 27.9335, 51.3846, -8.81071, 85.7214, -60.6539, 72.8927
2.488, 1, 27.9715, 51.368, -8.83454, 85.7774, -60.6075, 72.7638
2.492, 1, 28.0095, 51.3515, -8.85836, 85.8333, -60.5611, 72.635
2.495, 1, 28.0475, 51.335, -8.88216, 85.8892, -60.5148, 72.5062
2.5, 1, 28.0854, 51.3186, -8.90595, 85.9451, -60.4685, 72.3776
2.504, 1, 28.1234, 51.3021, -8.92972, 86.0009, -60.4222, 72.2491
2.508, 1, 28.1613, 51.2856, -8.95347, 86.0567, -60.376, 72.1207
2.512, 1, 28.1992, 51.2692, -8.9772, 86.1124, -60.3298, 71.9923
2.515, 1, 28.237, 51.2527, -9.00092, 86.1682, -60.2836, 71.864
2.52, 1, 28.2748, 51.2363, -9.02462, 86.2238, -60.2375, 71.7359
2.524, 1, 28.3126, 51.2199, -9.04831, 86.2794, -60.1914, 71.6078
2.528, 1, 28.3504, 51.2035, -9.07198, 86.335, -60.1453, 71.4798
2.531, 1, 28.3881, 51.1871, -9.09563, 86.3906, -60.0993, 71.3519
2.536, 1, 28.4259, 51.1707, -9.11927, 86.4461, -60.0532, 71.2241
2.54, 1, 28.4636, 51.1543, -9.14288, 86.5016, -60.0073, 71.0964
2.544, 1, 28.5012, 51.138, -9.16649, 86.557, -59.9613, 70.9687
2.548, 1, 28.5389, 51.1216, -9.19007, 86.6124, -59.9154, 70.8412
2.551, 1, 28.5765, 51.1053, -9.21365, 86.6678, -59.8695, 70.7137
2.556, 1, 28.6141, 51.089, -9.2372, 86.7231, -59.8237, 70.5863
2.56, 1, 28.6516, 51.0727, -9.26074, 86.7784, -59.7779, 70.459
2.564, 1, 28.6892, 51.0563, -9.28426, 86.8336, -59.7321, 70.3318
2.568, 1, 28.7267, 51.0401, -9.30777, 86.8889, -59.6863, 70.2047
2.571, 1, 28.7642, 51.0238, -9.33126, 86.944, -59.6406, 70.0777
2.576, 1, 28.8016, 51.0075, -9.35473, 86.9992, -59.5949, 69.9508
2.58, 1, 28.8391, 50.9912, -9.37819, 87.0543, -59.5492, 69.8239
2.584, 1, 28.8765, 50.975, -9.40163, 87.1093, -59.5036, 69.6971
2.587, 1, 28.9138, 50.9588, -9.42506, 87.1643, -59.458, 69.5705
2.592, 1, 28.9512, 50.9425, -9.44847, 87.2193, -59.4124, 69.4439
2.596, 1, 28.9885, 50.9263, -9.47186, 87.2743, -59.3669, 69.3174
2.6, 1, 29.0258, 50.9101, -9.49524, 87.3292, -59.3214, 69.1909
2.604, 1, 29.0631, 50.8939, -9.5186, 87.384, -59.2759, 69.0646
2.607, 1, 29.1004, 50.8777, -9.54195, 87.4389, -59.2304, 68.9384
2.612, 1, 29.1376, 50.8616, -9.56528, 87.4937, -59.185, 68.8122
2.616, 1, 29.1748, 50.8454, -9.58859, 87.5484, -59.1396, 68.6861
2.62, 1, 29.212, 50.8293, -9.61189, 87.6032, -59.0943, 68.5601
2.624, 1, 29.2492, 50.8131, -9.63518, 87.6579, -59.049, 68.4342
2.627, 1, 29.2863, 50.797, -9.65845, 87.7125, -59.0037, 68.3084
2.632, 1, 29.3234, 50.7809, -9.6817, 87.7671, -58.9584, 68.1826
2.636, 1, 29.3605, 50.7648, -9.70494, 87.8217, -58.9132, 68.057
2.64, 1, 29.3975, 50.7487, -9.72816, 87.8763, -58.868, 67.9314
2.643, 1, 29.4346, 50.7326, -9.75137, 87.9307, -58.8228, 67.8059
2.648, 1, 29.4716, 50.7165, -9.77456, 87.9852, -58.7776, 67.6805
2.652, 1, 29.5086, 50.7005, -9.79774, 88.0397, -58.7325, 67.5551
2.656, 1, 29.5455, 50.6844, -9.8209, 88.0941, -58.6874, 67.4299
2.66, 1, 29.5825, 50.6684, -9.84404, 88.1484, -58.6424, 67.3047
2.663, 1, 29.6194, 50.6523, -9.86717, 88.2027, -58.5974, 67.1797
2.668, 1, 29.6563, 50.6363, -9.89029, 88.257, -58.5524, 67.0547
2.672, 1, 29.6931, 50.6203, -9.91338, 88.3113, -58.5074, 66.9297
2.676, 1, 29.73, 50.6043, -9.93647, 88.3655, -58.4625, 66.8049
2.679, 1, 29.7668, 50.5883, -9.95954, 88.4197, -58.4176, 66.6802
2.684, 1, 29.8036, 50.5723, -9.98259, 88.4738, -58.3727, 66.5555
2.688, 1, 29.8403, 50.5564, -10.0056, 88.528, -58.3278, 66.4309
2.692, 1, 29.8771, 50.5404, -10.0287, 88.582, -58.283, 66.3064
2.696, 1, 29.9138, 50.5245, -10.0517, 88.6361, -58.2382, 66.182
2.699, 1, 29.9505, 50.5085, -10.0747, 88.6901, -58.1935, 66.0576
2.704, 1, 29.9871, 50.4926, -10.0976, 88.7441, -58.1487, 65.9334
2.708, 1, 30.0238, 50.4767, -10.1206, 88.798, -58.104, 65.8092
2.712, 1, 30.0604, 50.4608, -10.1436, 88.8519, -58.0594, 65.6851
2.716, 1, 30.097, 50.4449, -10.1665, 88.9058, -58.0147, 65.5611
2.719, 1, 30.1336, 50.429, -10.1894, 88.9596, -57.9701, 65.4371
2.724, 1, 30.1701, 50.4131, -10.2123, 89.0134, -57.9255, 65.3132
2.728, 1, 30.2067, 50.3972, -10.2352, 89.0671, -57.881, 65.1895
2.732, 1, 30.2432, 50.3814, -10.2581, 89.1209, -57.8364, 65.0658
2.735, 1, 30.2797, 50.3655, -10.2809, 89.1746, -57.7919, 64.9421
2.74, 1, 30.3161, 50.3497, -10.3038, 89.2282, -57.7475, 64.8186
2.744, 1, 30.3525, 50.3339, -10.3266, 89.2819, -57.703, 64.6951
2.748, 1, 30.389, 50.3181, -10.3494, 89.3355, -57.6586, 64.5717
2.752, 1, 30.4253, 50.3023, -10.3722, 89.389, -57.6142, 64.4484
2.755, 1, 30.4617, 50.2865, -10.395, 89.4425, -57.5698, 64.3252
2.76, 1, 30.4981, 50.2707, -10.4178, 89.496, -57.5255, 64.2021
2.764, 1, 30.5344, 50.2549, -10.4406, 89.5495, -57.4812, 64.079
2.768, 1, 30.5707, 50.2392, -10.4633, 89.6029, -57.4369, 63.956
2.772, 1, 30.6069, 50.2234, -10.486, 89.6563, -57.3927, 63.8331
2.775, 1, 30.6432, 50.2077, -10.5087, 89.7096, -57.3485, 63.7102
2.78, 1, 30.6794, 50.1919, -10.5314, 89.763, -57.3043, 63.5875
2.784, 1, 30.7156, 50.1762, -10.5541, 89.8162, -57.2601, 63.4648
2.788, 1, 30.7518, 50.1605, -10.5768, 89.8695, -57.216, 63.3422
2.791, 1, 30.788, 50.1448, -10.5995, 89.9227, -57.1719, 63.2197
2.796, 1, 30.8241, 50.1291, -10.6221, 89.9759, -57.1278, 63.0972
2.8, 1, 30.8602, 50.1134, -10.6447, 90.029, -57.0837, 62.9748
2.804, 1, 30.8963, 50.0977, -10.6674, 90.0822, -57.0397, 62.8525
2.808, 1, 30.9324, 50.0821, -10.69, 90.1352, -56.9957, 62.7303
2.811, 1, 30.9684, 50.0664, -10.7125, 90.1883, -56.9518, 62.6082
2.816, 1, 31.0044, 50.0508, -10.7351, 90.2413, -56.9078, 62.4861
2.82, 1, 31.0404, 50.0351, -10.7577, 90.2943, -56.8639, 62.3641
2.824, 1, 31.0764, 50.0195, -10.7802, 90.3473, -56.82, 62.2422
2.828, 1, 31.1124, 50.0039, -10.8028, 90.4002, -56.7761, 62.1203
2.831, 1, 31.1483, 49.9883, -10.8253, 90.4531, -56.7323, 61.9986
2.836, 1, 31.1842, 49.9727, -10.8478, 90.5059, -56.6885, 61.8769
2.84, 1, 31.2201, 49.9571, -10.8703, 90.5587, -56.6447, 61.7552
2.844, 1, 31.256, 49.9415, -10.8927, 90.6115, -56.601, 61.6337
2.847, 1, 31.2918, 49.9259, -10.9152, 90.6643, -56.5573, 61.5122
2.852, 1, 31.3276, 49.9104, -10.9377, 90.717, -56.5136, 61.3908
2.856, 1, 31.3634, 49.8948, -10.9601, 90.7697, -56.4699, 61.2695
2.86, 1, 31.3992, 49.8793, -10.9825, 90.8224, -56.4262, 61.1483
2.864, 1, 31.435, 49.8638, -11.0049, 90.875, -56.3826, 61.0271
2.867, 1, 31.4707, 49.8482, -11.0273, 90.9276, -56.339, 60.906
2.872, 1, 31.5064, 49.8327, -11.0497, 90.9802, -56.2955, 60.785
2.876, 1, 31.5421, 49.8172, -11.0721, 91.0327, -56.2519, 60.664
2.88, 1, 31.5778, 49.8017, -11.0944, 91.0852, -56.2084, 60.5432
2.883, 1, 31.6134, 49.7862, -11.1167, 91.1377, -56.1649, 60.4224
2.888, 1, 31.6491, 49.7708, -11.1391, 91.1901, -56.1215, 60.3016
2.892, 1, 31.6847, 49.7553, -11.1614, 91.2425, -56.078, 60.181
2.896, 1, 31.7203, 49.7398, -11.1837, 91.2949, -56.0346, 60.0604
2.9, 1, 31.7558, 49.7244, -11.206, 91.3472, -55.9912, 59.9399
2.903, 1, 31.7914, 49.709, -11.2282, 91.3995, -55.9479, 59.8194
2.908, 1, 31.8269, 49.6935, -11.2505, 91.4518, -55.9046, 59.6991
2.912, 1, 31.8624, 49.6781, -11.2727, 91.5041, -55.8613, 59.5788
2.916, 1, 31.8979, 49.6627, -11.295, 91.5563, -55.818, 59.4585
2.92, 1, 31.9333, 49.6473, -11.3172, 91.6085, -55.7747, 59.3384
2.923, 1, 31.9687, 49.6319, -11.3394, 91.6606, -55.7315, 59.2183
2.928, 1, 32.0042, 49.6165, -11.3616, 91.7128, -55.6883, 59.0983
2.932, 1, 32.0396, 49.6012, -11.3838, 91.7649, -55.6451, 58.9783
2.936, 1, 32.0749, 49.5858, -11.4059, 91.8169, -55.602, 58.8585
2.939, 1, 32.1103, 49.5704, -11.4281, 91.8689, -55.5589, 58.7387
2.944, 1, 32.1456, 49.5551, -11.4502, 91.921, -55.5158, 58.6189
2.948, 1, 32.1809, 49.5398, -11.4724, 91.9729, -55.4727, 58.4993
2.952, 1, 32.2162, 49.5244, -11.4945, 92.0249, -55.4296, 58.3797
2.956, 1, 32.2515, 49.5091, -11.5166, 92.0768, -55.3866, 58.2602
2.959, 1, 32.2867, 49.4938, -11.5387, 92.1286, -55.3436, 58.1407
2.964, 1, 32.322, 49.4785, -11.5607, 92.1805, -55.3006, 58.0214
2.968, 1, 32.3572, 49.4632, -11.5828, 92.2323, -55.2577, 57.9021
2.972, 1, 32.3924, 49.4479, -11.6049, 92.2841, -55.2148, 57.7828
2.976, 1, 32.4275, 49.4327, -11.6269, 92.3359, -55.1719, 57.6637
2.98, 1, 32.4627, 49.4174, -11.6489, 92.3876, -55.129, 57.5445
2.984, 1, 32.4978, 49.4021, -11.6709, 92.4393, -55.0862, 57.4255
2.988, 1, 32.5329, 49.3869, -11.6929, 92.491, -55.0433, 57.3066
2.992, 1, 32.568, 49.3717, -11.7149, 92.5426, -55.0005, 57.1877
2.995, 1, 32.603, 49.3564, -11.7369, 92.5942, -54.9578, 57.0688
3, 1, 32.6381, 49.3412, -11.7588, 92.6458, -54.915, 56.9501
3.004, 1, 32.6731, 49.326, -11.7808, 92.6973, -54.8723, 56.8314
3.008, 1, 32.7081, 49.3108, -11.8027, 92.7489, -54.8296, 56.7128
3.012, 1, 32.7431, 49.2956, -11.8247, 92.8004, -54.7869, 56.5942
3.015, 1, 32.7781, 49.2804, -11.8466, 92.8518, -54.7443, 56.4757
3.02, 1, 32.813, 49.2652, -11.8685, 92.9033, -54.7016, 56.3573
3.024, 1, 32.8479, 49.2501, -11.8903, 92.9547, -54.659, 56.239
3.028, 1, 32.8828, 49.2349, -11.9122, 93.006, -54.6164, 56.1207
3.031, 1, 32.9177, 49.2197, -11.9341, 93.0574, -54.5739, 56.0025
3.036, 1, 32.9526, 49.2046, -11.9559, 93.1087, -54.5314, 55.8843
3.04, 1, 32.9874, 49.1895, -11.9778, 93.16, -54.4889, 55.7662
3.044, 1, 33.0223, 49.1743, -11.9996, 93.2112, -54.4464, 55.6482
3.048, 1, 33.0571, 49.1592, -12.0214, 93.2625, -54.4039, 55.5303
3.051, 1, 33.0919, 49.1441, -12.0432, 93.3137, -54.3615, 55.4124
3.056, 1, 33.1266, 49.129, -12.065, 93.3648, -54.3191, 55.2946
3.06, 1, 33.1614, 49.1139, -12.0868, 93.416, -54.2767, 55.1768
3.064, 1, 33.1961, 49.0988, -12.1085, 93.4671, -54.2343, 55.0592
3.068, 1, 33.2308, 49.0838, -12.1303, 93.5182, -54.192, 54.9415
3.071, 1, 33.2655, 49.0687, -12.152, 93.5692, -54.1497, 54.824
3.076, 1, 33.3002, 49.0536, -12.1737, 93.6203, -54.1074, 54.7065
3.08, 1, 33.3348, 49.0386, -12.1954, 93.6713, -54.0651, 54.5891
3.084, 1, 33.3694, 49.0235, -12.2172, 93.7222, -54.0229, 54.4717
3.087, 1, 33.4041, 49.0085, -12.2388, 93.7732, -53.9806, 54.3544
3.092, 1, 33.4386, 48.9935, -12.2605, 93.8241, -53.9384, 54.2372
3.096, 1, 33.4732, 48.9785, -12.2822, 93.875, -53.8963, 54.1201
3.1, 1, 33.5078, 48.9635, -12.3038, 93.9258, -53.8541, 54.003
3.104, 1, 33.5423, 48.9485, -12.3255, 93.9767, -53.812, 53.8859
3.107, 1, 33.5768, 48.9335, -12.3471, 94.0275, -53.7699, 53.769
3.112, 1, 33.6113, 48.9185, -12.3687, 94.0782, -53.7278, 53.6521
3.116, 1, 33.6458, 48.9035, -12.3903, 94.129, -53.6858, 53.5352
3.12, 1, 33.6803, 48.8885, -12.4119, 94.1797, -53.6437, 53.4184
3.124, 1, 33.7147, 48.8736, -12.4335, 94.2304, -53.6017, 53.3017
3.128, 1, 33.7491, 48.8586, -12.4551, 94.2811, -53.5597, 53.1851
3.132, 1, 33.7835, 48.8437, -12.4766, 94.3317, -53.5177, 53.0685
3.136, 1, 33.8179, 48.8288, -12.4982, 94.3823, -53.4758, 52.952
3.14, 1, 33.8523, 48.8138, -12.5197, 94.4329, -53.4339, 52.8355
3.143, 1, 33.8866, 48.7989, -12.5412, 94.4834, -53.392, 52.7191
3.148, 1, 33.9209, 48.784, -12.5628, 94.534, -53.3501, 52.6028
3.152, 1, 33.9553, 48.7691, -12.5843, 94.5845, -53.3083, 52.4865
3.156, 1, 33.9895, 48.7542, -12.6057, 94.6349, -53.2664, 52.3703
3.16, 1, 34.0238, 48.7393, -12.6272, 94.6854, -53.2246, 52.2542
3.163, 1, 34.0581, 48.7245, -12.6487, 94.7358, -53.1828, 52.1381
3.168, 1, 34.0923, 48.7096, -12.6701, 94.7862, -53.1411, 52.0221
3.172, 1, 34.1265, 48.6947, -12.6916, 94.8366, -53.0993, 51.9061
3.176, 1, 34.1607, 48.6799, -12.713, 94.8869, -53.0576, 51.7903
3.179, 1, 34.1949, 48.665, -12.7344, 94.9372, -53.0159, 51.6744
3.184, 1, 34.2291, 48.6502, -12.7558, 94.9875, -52.9742, 51.5587
3.188, 1, 34.2632, 48.6354, -12.7772, 95.0377, -52.9326, 51.443
3.192, 1, 34.2973, 48.6205, -12.7986, 95.088, -52.891, 51.3273
3.196, 1, 34.3314, 48.6057, -12.82, 95.1382, -52.8494, 51.2117
3.199, 1, 34.3655, 48.5909, -12.8414, 95.1883, -52.8078, 51.0962
3.204, 1, 34.3996, 48.5761, -12.8627, 95.2385, -52.7662, 50.9807
3.208, 1, 34.4337, 48.5613, -12.884, 95.2886, -52.7247, 50.8653
3.212, 1, 34.4677, 48.5465, -12.9054, 95.3387, -52.6832, 50.75
3.216, 1, 34.5017, 48.5318, -12.9267, 95.3888, -52.6417, 50.6347
3.22, 1, 34.5357, 48.517, -12.948, 95.4388, -52.6002, 50.5195
3.224, 1, 34.5697, 48.5022, -12.9693, 95.4888, -52.5587, 50.4044
3.228, 1, 34.6037, 48.4875, -12.9906, 95.5388, -52.5173, 50.2893
3.232, 1, 34.6376, 48.4727, -13.0119, 95.5888, -52.4759, 50.1742
3.235, 1, 34.6715, 48.458, -13.0331, 95.6387, -52.4345, 50.0592
3.24, 1, 34.7054, 48.4433, -13.0544, 95.6886, -52.3931, 49.9443
3.244, 1, 34.7393, 48.4286, -13.0756, 95.7385, -52.3518, 49.8295
3.248, 1, 34.7732, 48.4138, -13.0968, 95.7884, -52.3105, 49.7147
3.252, 1, 34.8071, 48.3991, -13.118, 95.8382, -52.2692, 49.5999
3.255, 1, 34.8409, 48.3844, -13.1393, 95.888, -52.2279, 49.4853
3.26, 1, 34.8747, 48.3697, -13.1604, 95.9378, -52.1866, 49.3707
3.264, 1, 34.9085, 48.3551, -13.1816, 95.9876, -52.1454, 49.2561
3.268, 1, 34.9423, 48.3404, -13.2028, 96.0373, -52.1042, 49.1416
3.272, 1, 34.9761, 48.3257, -13.224, 96.087, -52.063, 49.0272
3.276, 1, 35.0099, 48.3111, -13.2451, 96.1367, -52.0218, 48.9128
3.28, 1, 35.0436, 48.2964, -13.2663, 96.1863, -51.9807, 48.7985
3.284, 1, 35.0773, 48.2818, -13.2874, 96.236, -51.9395, 48.6842
3.288, 1, 35.111, 48.2671, -13.3085, 96.2856, -51.8984, 48.57
3.291, 1, 35.1447, 48.2525, -13.3296, 96.3351, -51.8573, 48.4558
3.296, 1, 35.1782, 48.2379, -13.3507, 96.3847, -51.8162, 48.3417
3.3, 1, 35.2115, 48.2234, -13.3718, 96.4342, -51.7752, 48.2277
3.304, 1, 35.2445, 48.209, -13.393, 96.4837, -51.7342, 48.1138
3.308, 1, 35.2771, 48.1948, -13.4141, 96.5331, -51.6933, 48
3.312, 1, 35.3093, 48.1808, -13.4352, 96.5824, -51.6524, 47.8864
3.316, 1, 35.341, 48.167, -13.4563, 96.6316, -51.6117, 47.7732
3.32, 1, 35.3723, 48.1534, -13.4774, 96.6806, -51.5711, 47.6604
3.324, 1, 35.403, 48.1402, -13.4984, 96.7293, -51.5308, 47.5482
3.328, 1, 35.4329, 48.1274, -13.5193, 96.7776, -51.4908, 47.4368
3.332, 1, 35.4619, 48.1151, -13.5402, 96.8254, -51.4512, 47.3267
3.336, 1, 35.49, 48.1033, -13.5608, 96.8725, -51.4122, 47.2181
3.34, 1, 35.5169, 48.0921, -13.5812, 96.9188, -51.374, 47.1116
3.344, 1, 35.5427, 48.0815, -13.6011, 96.9638, -51.3367, 47.0076
3.347, 1, 35.5675, 48.0714, -13.6205, 97.0076, -51.3006, 46.9069
3.352, 1, 35.5913, 48.0617, -13.6391, 97.0496, -51.2658, 46.8099
3.356, 1, 35.6141, 48.0524, -13.6569, 97.0897, -51.2327, 46.7174
3.36, 1, 35.636, 48.0435, -13.6738, 97.1277, -51.2013, 46.6299
3.364, 1, 35.6567, 48.035, -13.6895, 97.1632, -51.1719, 46.548
3.368, 1, 35.6762, 48.0269, -13.704, 97.1962, -51.1446, 46.472
3.372, 1, 35.6946, 48.0192, -13.7172, 97.2264, -51.1196, 46.4024
3.376, 1, 35.712, 48.0118, -13.729, 97.2537, -51.097, 46.3395
3.38, 1, 35.7286, 48.0046, -13.7394, 97.2781, -51.0768, 46.2833
3.383, 1, 35.7444, 47.9976, -13.7483, 97.2995, -51.059, 46.234
3.388, 1, 35.7593, 47.9908, -13.7559, 97.3181, -51.0435, 46.1913
3.392, 1, 35.7734, 47.9842, -13.7621, 97.334, -51.0303, 46.1548
3.396, 1, 35.7864, 47.978, -13.7671, 97.3473, -51.0192, 46.1243
3.4, 1, 35.7983, 47.9723, -13.7711, 97.3583, -51.01, 46.0991
3.403, 2, 35.8089, 47.9671, -13.7742, 97.3672, -51.0025, 46.0787
3.408, 2, 35.8183, 47.9624, -13.7765, 97.3743, -50.9965, 46.0624
3.412, 2, 35.8267, 47.9583, -13.7781, 97.3799, -50.9919, 46.0498
3.416, 2, 35.8342, 47.9546, -13.7793, 97.3841, -50.9883, 46.0401
3.42, 2, 35.8408, 47.9513, -13.78, 97.3873, -50.9855, 46.0329
3.424, 2, 35.8467, 47.9485, -13.7805, 97.3896, -50.9836, 46.0277
3.428, 2, 35.8516, 47.9462, -13.7807, 97.3913, -50.9821, 46.024
3.432, 2, 35.8556, 47.9444, -13.7808, 97.3924, -50.9811, 46.0214
3.436, 2, 35.8587, 47.943, -13.7809, 97.3932, -50.9804, 46.0196
3.439, 2, 35.861, 47.942, -13.7809, 97.3938, -50.98, 46.0184
3.444, 2, 35.8626, 47.9413, -13.7809, 97.3941, -50.9796, 46.0176
3.448, 2, 35.8637, 47.9408, -13.7809, 97.3944, -50.9794, 46.017
3.452, 2, 35.8644, 47.9405, -13.7809, 97.3946, -50.9793, 46.0166
3.456, 2, 35.8649, 47.9403, -13.7809, 97.3947, -50.9792, 46.0164
3.46, 2, 35.8653, 47.9401, -13.7809, 97.3948, -50.9791, 46.0162
3.464, 2, 35.8655, 47.94, -13.7809, 97.3948, -50.9791, 46.0161
3.468, 2, 35.8657, 47.94, -13.7809, 97.3948, -50.979, 46.016
3.472, 2, 35.8658, 47.9399, -13.7809, 97.3949, -50.979, 46.0159
3.476, 2, 35.8658, 47.9399, -13.7809, 97.3949, -50.979, 46.0159
3.48, 2, 35.8659, 47.9399, -13.7809, 97.3949, -50.979, 46.0159
3.484, 2, 35.8659, 47.9399, -13.7809, 97.3949, -50.979, 46.0159
3.488, 2, 35.866, 47.9398, -13.7809, 97.3949, -50.979, 46.0159
3.492, 2, 35.866, 47.9398, -13.7809, 97.3949, -50.979, 46.0159
3.495, 2, 35.866, 47.9398, -13.7809, 97.3949, -50.979, 46.0159
3.5, 2, 35.866, 47.9398, -13.7809, 97.3949, -50.979, 46.0158
3.504, 2, 35.866, 47.9398, -13.7809, 97.3949, -50.979, 46.0158
3.508, 2, 35.866, 47.9398, -13.7809, 97.3949, -50.979, 46.0158
3.512, 2, 35.866, 47.9398, -13.7809, 97.3949, -50.979, 46.0158
3.516, 2, 35.866, 47.9398, -13.7809, 97.3949, -50.979, 46.0158
3.52, 2, 35.866, 47.9398, -13.7809, 97.3949, -50.979, 46.0158
3.524, 2, 35.866, 47.9398, -13.7809, 97.3949, -50.979, 46.0158
3.528, 2, 35.866, 47.9398, -13.7809, 97.3949, -50.979, 46.0158
3.531, 2, 35.866, 47.9398, -13.7809, 97.3949, -50.979, 46.0158
3.536, 2, 35.866, 47.9398, -13.7809, 97.3949, -50.979, 46.0158
3.54, 2, 35.866, 47.9398, -13.7809, 97.3949, -50.979, 46.0158
3.544, 2, 35.866, 47.9398, -13.7809, 97.3949, -50.979, 46.0158
3.548, 2, 35.866, 47.9398, -13.7809, 97.3949, -50.979, 46.0158
3.552, 2, 35.866, 47.9398, -13.7809, 97.3949, -50.979, 46.0158
3.556, 2, 35.866, 47.9398, -13.7809, 97.3949, -50.979, 46.0158
3.56, 2, 35.866, 47.9398, -13.7809, 97.3949, -50.979, 46.0158
3.564, 2, 35.866, 47.9398, -13.7809, 97.3949, -50.979, 46.0158
3.568, 2, 35.866, 47.9398, -13.7809, 97.3949, -50.979, 46.0158
3.572, 2, 35.866, 47.9398, -13.7809, 97.3949, -50.979, 46.0158
3.576, 2, 35.866, 47.9398, -13.7809, 97.3949, -50.979, 46.0158
3.58, 2, 35.866, 47.9398, -13.7809, 97.3949, -50.979, 46.0158
3.584, 2, 35.866, 47.9398, -13.7809, 97.3949, -50.979, 46.0158
3.587, 2, 35.866, 47.9398, -13.7809, 97.3949, -50.979, 46.0158
3.592, 2, 35.866, 47.9398, -13.7809, 97.3949, -50.979, 46.0158
3.596, 2, 35.866, 47.9398, -13.7809, 97.3949, -50.979, 46.0158
3.6, 2, 35.866, 47.9398, -13.7809, 97.3949, -50.979, 46.0158
3.604, 2, 35.866, 47.9398, -13.7809, 97.3949, -50.979, 46.0158
3.608, 2, 35.866, 47.9398, -13.7809, 97.3949, -50.979, 46.0158
3.612, 2, 35.866, 47.9398, -13.7809, 97.3949, -50.979, 46.0158
3.616, 2, 35.866, 47.9398, -13.7809, 97.3949, -50.979, 46.0158
3.62, 2, 35.866, 47.9398, -13.7809, 97.3949, -50.979, 46.0158
3.624, 2, 35.866, 47.9398, -13.7809, 97.3949, -50.979, 46.0158
3.628, 2, 35.866, 47.9398, -13.7809, 97.3949, -50.979, 46.0158
3.632, 2, 35.866, 47.9398, -13.7809, 97.3949, -50.979, 46.0158
3.636, 2, 35.866, 47.9398, -13.7809, 97.3949, -50.979, 46.0158
3.64, 2, 35.866, 47.9398, -13.7809, 97.3949, -50.979, 46.0158
3.644, 2, 35.866, 47.9398, -13.7809, 97.3949, -50.979, 46.0158
3.648, 2, 35.866, 47.9398, -13.7809, 97.3949, -50.979, 46.0158
3.652, 2, 35.866, 47.9398, -13.7809, 97.3949, -50.979, 46.0158
3.656, 2, 35.866, 47.9398, -13.7809, 97.3949, -50.979, 46.0158
3.66, 2, 35.866, 47.9398, -13.7809, 97.3949, -50.979, 46.0158
3.664, 2, 35.866, 47.9398, -13.7809, 97.3949, -50.979, 46.0158
3.668, 2, 35.866, 47.9398, -13.7809, 97.3949, -50.979, 46.0158
3.672, 2, 35.866, 47.9398, -13.7809, 97.3949, -50.979, 46.0158
3.676, 2, 35.866, 47.9398, -13.7809, 97.3949, -50.979, 46.0158
3.679, 2, 35.866, 47.9398, -13.7809, 97.3949, -50.979, 46.0158
3.684, 2, 35.866, 47.9398, -13.7809, 97.3949, -50.979, 46.0158
3.688, 2, 35.866, 47.9398, -13.7809, 97.3949, -50.979, 46.0158
3.692, 2, 35.866, 47.9398, -13.7809, 97.3949, -50.979, 46.0158
3.696, 2, 35.866, 47.9398, -13.7809, 97.3949, -50.979, 46.0158
3.7, 2, 35.866, 47.9398, -13.7809, 97.3949, -50.979, 46.0158
3.704, 2, 35.866, 47.9398, -13.7809, 97.3949, -50.979, 46.0158
3.708, 2, 35.866, 47.9398, -13.7809, 97.3949, -50.979, 46.0158
3.712, 2, 35.866, 47.9398, -13.7809, 97.3949, -50.979, 46.0158
3.716, 2, 35.866, 47.9398, -13.7809, 97.3949, -50.979, 46.0158
3.72, 2, 35.866, 47.9398, -13.7809, 97.3949, -50.979, 46.0158
3.724, 2, 35.866, 47.9398, -13.7809, 97.3949, -50.979, 46.0158
3.728, 2, 35.866, 47.9398, -13.7809, 97.3949, -50.979, 46.0158
3.732, 2, 35.866, 47.9398, -13.7809, 97.3949, -50.979, 46.0158
3.735, 2, 35.866, 47.9398, -13.7809, 97.3949, -50.979, 46.0158
3.74, 2, 35.866, 47.9398, -13.7809, 97.3949, -50.979, 46.0158
3.744, 2, 35.866, 47.9398, -13.7809, 97.3949, -50.979, 46.0158
3.748, 2, 35.866, 47.9398, -13.7809, 97.3949, -50.979, 46.0158
3.752, 2, 35.866, 47.9398, -13.7809, 97.3949, -50.979, 46.0158
3.756, 2, 35.866, 47.9398, -13.7809, 97.3949, -50.979, 46.0158
3.76, 2, 35.866, 47.9398, -13.7809, 97.3949, -50.979, 46.0158
3.764, 2, 35.866, 47.9398, -13.7809, 97.3949, -50.979, 46.0158
3.768, 2, 35.866, 47.9398, -13.7809, 97.3949, -50.979, 46.0158
3.772, 2, 35.866, 47.9398, -13.7809, 97.3949, -50.979, 46.0158
3.776, 2, 35.866, 47.9398, -13.7809, 97.3949, -50.979, 46.0158
3.78, 2, 35.866, 47.9398, -13.7809, 97.3949, -50.979, 46.0158
3.784, 2, 35.866, 47.9398, -13.7809, 97.3949, -50.979, 46.0158
3.788, 2, 35.866, 47.9398, -13.7809, 97.3949, -50.979, 46.0158
3.792, 2, 35.866, 47.9398, -13.7809, 97.3949, -50.979, 46.0158
3.796, 2, 35.866, 47.9398, -13.7809, 97.3949, -50.979, 46.0158
3.8, 2, 35.866, 47.9398, -13.7809, 97.3949, -50.979, 46.0158
3.804, 2, 35.866, 47.9398, -13.7809, 97.3949, -50.979, 46.0158
3.808, 2, 35.866, 47.9398, -13.7809, 97.3949, -50.979, 46.0158
3.812, 2, 35.866, 47.9398, -13.7809, 97.3949, -50.979, 46.0158
3.816, 2, 35.866, 47.9398, -13.7809, 97.3949, -50.979, 46.0158
3.82, 2, 35.866, 47.9398, -13.7809, 97.3949, -50.979, 46.0158
3.824, 2, 35.866, 47.9398, -13.7809, 97.3949, -50.979, 46.0158
3.828, 2, 35.866, 47.9398, -13.7809, 97.3949, -50.979, 46.0158
3.832, 2, 35.866, 47.9398, -13.7809, 97.3949, -50.979, 46.0158
3.836, 2, 35.866, 47.9398, -13.7809, 97.3949, -50.979, 46.0158
3.84, 2, 35.866, 47.9398, -13.7809, 97.3949, -50.979, 46.0158
3.844, 2, 35.866, 47.9398, -13.7809, 97.3949, -50.979, 46.0158
3.848, 2, 35.866, 47.9398, -13.7809, 97.3949, -50.979, 46.0158
3.852, 2, 35.866, 47.9398, -13.7809, 97.3949, -50.979, 46.0158
3.856, 2, 35.866, 47.9398, -13.7809, 97.3949, -50.979, 46.0158
3.86, 2, 35.866, 47.9398, -13.7809, 97.3949, -50.979, 46.0158
3.864, 2, 35.866, 47.9398, -13.7809, 97.3949, -50.979, 46.0158
3.868, 2, 35.866, 47.9398, -13.7809, 97.3949, -50.979, 46.0158
3.872, 2, 35.866, 47.9398, -13.7809, 97.3949, -50.979, 46.0158
3.876, 2, 35.866, 47.9398, -13.7809, 97.3949, -50.979, 46.0158
3.88, 2, 35.866, 47.9398, -13.7809, 97.3949, -50.979, 46.0158
3.884, 2, 35.866, 47.9398, -13.7809, 97.3949, -50.979, 46.0158
3.888, 2, 35.866, 47.9398, -13.7809, 97.3949, -50.979, 46.0158
3.892, 2, 35.866, 47.9398, -13.7809, 97.3949, -50.979, 46.0158
3.896, 2, 35.866, 47.9398, -13.7809, 97.3949, -50.979, 46.0158
3.9, 2, 35.866, 47.9398, -13.7809, 97.3949, -50.979, 46.0158
3.904, 2, 35.866, 47.9398, -13.7809, 97.3949, -50.979, 46.0158
3.908, 2, 35.866, 47.9398, -13.7809, 97.3949, -50.979, 46.0158
3.912, 2, 35.866, 47.9398, -13.7809, 97.3949, -50.979, 46.0158
3.916, 2, 35.866, 47.9398, -13.7809, 97.3949, -50.979, 46.0158
3.92, 2, 35.866, 47.9398, -13.7809, 97.3949, -50.979, 46.0158
3.924, 2, 35.866, 47.9398, -13.7809, 97.3949, -50.979, 46.0158
3.928, 2, 35.866, 47.9398, -13.7809, 97.3949, -50.979, 46.0158
3.932, 2, 35.866, 47.9398, -13.7809, 97.3949, -50.979, 46.0158
3.936, 2, 35.866, 47.9398, -13.7809, 97.3949, -50.979, 46.0158
3.94, 2, 35.866, 47.9398, -13.7809, 97.3949, -50.979, 46.0158
3.944, 2, 35.866, 47.9398, -13.7809, 97.3949, -50.979, 46.0158
3.948, 2, 35.866, 47.9398, -13.7809, 97.3949, -50.979, 46.0158
3.952, 2, 35.866, 47.9398, -13.7809, 97.3949, -50.979, 46.0158
3.956, 2, 35.866, 47.9398, -13.7809, 97.3949, -50.979, 46.0158
3.96, 2, 35.866, 47.9398, -13.7809, 97.3949, -50.979, 46.0158
3.964, 2, 35.866, 47.9398, -13.7809, 97.3949, -50.979, 46.0158
3.968, 2, 35.866, 47.9398, -13.7809, 97.3949, -50.979, 46.0158
3.972, 2, 35.866, 47.9398, -13.7809, 97.3949, -50.979, 46.0158
3.976, 2, 35.866, 47.9398, -13.7809, 97.3949, -50.979, 46.0158
3.98, 2, 35.866, 47.9398, -13.7809, 97.3949, -50.979, 46.0158
3.984, 2, 35.866, 47.9398, -13.7809, 97.3949, -50.979, 46.0158
3.988, 2, 35.866, 47.9398, -13.7809, 97.3949, -50.979, 46.0158
3.992, 2, 35.866, 47.9398, -13.7809, 97.3949, -50.979, 46.0158
3.996, 2, 35.866, 47.9398, -13.7809, 97.3949, -50.979, 46.0158
3.999, 2, 35.866, 47.9398, -13.7809, 97.3949, -50.979, 46.0158
4.004, 2, 35.866, 47.9398, -13.7809, 97.3949, -50.979, 46.0158
4.008, 2, 35.866, 47.9398, -13.7809, 97.3949, -50.979, 46.0158
4.012, 2, 35.866, 47.9398, -13.7809, 97.3949, -50.979, 46.0158
4.016, 2, 35.866, 47.9398, -13.7809, 97.3949, -50.979, 46.0158
4.02, 2, 35.866, 47.9398, -13.7809, 97.3949, -50.979, 46.0158
4.024, 2, 35.866, 47.9398, -13.7809, 97.3949, -50.979, 46.0158
4.028, 2, 35.866, 47.9398, -13.7809, 97.3949, -50.979, 46.0158
4.032, 2, 35.866, 47.9398, -13.7809, 97.3949, -50.979, 46.0158
4.036, 2, 35.866, 47.9398, -13.7809, 97.3949, -50.979, 46.0158
4.04, 2, 35.866, 47.9398, -13.7809, 97.3949, -50.979, 46.0158
4.044, 2, 35.866, 47.9398, -13.7809, 97.3949, -50.979, 46.0158
4.048, 2, 35.866, 47.9398, -13.7809, 97.3949, -50.979, 46.0158
4.052, 2, 35.866, 47.9398, -13.7809, 97.3949, -50.979, 46.0158
4.056, 2, 35.866, 47.9398, -13.7809, 97.3949, -50.979, 46.0158
4.06, 2, 35.866, 47.9398, -13.7809, 97.3949, -50.979, 46.0158
4.064, 2, 35.866, 47.9398, -13.7809, 97.3949, -50.979, 46.0158
4.068, 2, 35.866, 47.9398, -13.7809, 97.3949, -50.979, 46.0158
4.072, 2, 35.866, 47.9398, -13.7809, 97.3949, -50.979, 46.0158
4.076, 2, 35.866, 47.9398, -13.7809, 97.3949, -50.979, 46.0158
4.08, 2, 35.866, 47.9398, -13.7809, 97.3949, -50.979, 46.0158
4.084, 2, 35.866, 47.9398, -13.7809, 97.3949, -50.979, 46.0158
4.088, 2, 35.866, 47.9398, -13.7809, 97.3949, -50.979, 46.0158
4.092, 2, 35.866, 47.9398, -13.7809, 97.3949, -50.979, 46.0158
4.096, 2, 35.866, 47.9398, -13.7809, 97.3949, -50.979, 46.0158
4.1, 2, 35.866, 47.9398, -13.7809, 97.3949, -50.979, 46.0158
4.104, 2, 35.866, 47.9398, -13.7809, 97.3949, -50.979, 46.0158
4.108, 2, 35.866, 47.9398, -13.7809, 97.3949, -50.979, 46.0158
4.112, 2, 35.866, 47.9398, -13.7809, 97.3949, -50.979, 46.0158
4.116, 2, 35.866, 47.9398, -13.7809, 97.3949, -50.979, 46.0158
4.12, 2, 35.866, 47.9398, -13.7809, 97.3949, -50.979, 46.0158
4.124, 2, 35.866, 47.9398, -13.7809, 97.3949, -50.979, 46.0158
4.128, 2, 35.866, 47.9398, -13.7809, 97.3949, -50.979, 46.0158
4.132, 2, 35.866, 47.9398, -13.7809, 97.3949, -50.979, 46.0158
4.136, 2, 35.866, 47.9398, -13.7809, 97.3949, -50.979, 46.0158
4.14, 2, 35.866, 47.9398, -13.7809, 97.3949, -50.979, 46.0158
4.144, 2, 35.866, 47.9398, -13.7809, 97.3949, -50.979, 46.0158
4.148, 2, 35.866, 47.9398, -13.7809, 97.3949, -50.979, 46.0158
4.152, 2, 35.866, 47.9398, -13.7809, 97.3949, -50.979, 46.0158
4.156, 2, 35.866, 47.9398, -13.7809, 97.3949, -50.979, 46.0158
4.16, 2, 35.866, 47.9398, -13.7809, 97.3949, -50.979, 46.0158
4.164, 2, 35.866, 47.9398, -13.7809, 97.3949, -50.979, 46.0158
4.168, 2, 35.866, 47.9398, -13.7809, 97.3949, -50.979, 46.0158
4.172, 2, 35.866, 47.9398, -13.7809, 97.3949, -50.979, 46.0158
4.176, 2, 35.866, 47.9398, -13.7809, 97.3949, -50.979, 46.0158
4.18, 2, 35.866, 47.9398, -13.7809, 97.3949, -50.979, 46.0158
4.184, 2, 35.866, 47.9398, -13.7809, 97.3949, -50.979, 46.0158
4.188, 2, 35.866, 47.9398, -13.7809, 97.3949, -50.979, 46.0158
4.192, 2, 35.866, 47.9398, -13.7809, 97.3949, -50.979, 46.0158
4.196, 2, 35.866, 47.9398, -13.7809, 97.3949, -50.979, 46.0158
4.2, 2, 35.866, 47.9398, -13.7809, 97.3949, -50.979, 46.0158
4.204, 2, 35.866, 47.9398, -13.7809, 97.3949, -50.979, 46.0158
4.208, 2, 35.866, 47.9398, -13.7809, 97.3949, -50.979, 46.0158
4.212, 2, 35.866, 47.9398, -13.7809, 97.3949, -50.979, 46.0158
4.216, 2, 35.866, 47.9398, -13.7809, 97.3949, -50.979, 46.0158
4.22, 2, 35.866, 47.9398, -13.7809, 97.3949, -50.979, 46.0158
4.224, 2, 35.866, 47.9398, -13.7809, 97.3949, -50.979, 46.0158
4.228, 2, 35.866, 47.9398, -13.7809, 97.3949, -50.979, 46.0158
4.232, 2, 35.866, 47.9398, -13.7809, 97.3949, -50.979, 46.0158
4.236, 2, 35.866, 47.9398, -13.7809, 97.3949, -50.979, 46.0158
4.24, 2, 35.866, 47.9398, -13.7809, 97.3949, -50.979, 46.0158
4.244, 2, 35.866, 47.9398, -13.7809, 97.3949, -50.979, 46.0158
4.248, 2, 35.866, 47.9398, -13.7809, 97.3949, -50.979, 46.0158
4.252, 2, 35.866, 47.9398, -13.7809, 97.3949, -50.979, 46.0158
4.256, 2, 35.866, 47.9398, -13.7809, 97.3949, -50.979, 46.0158
4.26, 2, 35.866, 47.9398, -13.7809, 97.3949, -50.979, 46.0158
4.264, 2, 35.866, 47.9398, -13.7809, 97.3949, -50.979, 46.0158
4.268, 2, 35.866, 47.9398, -13.7809, 97.3949, -50.979, 46.0158
4.272, 2, 35.866, 47.9398, -13.7809, 97.3949, -50.979, 46.0158
4.276, 2, 35.866, 47.9398, -13.7809, 97.3949, -50.979, 46.0158
4.28, 2, 35.866, 47.9398, -13.7809, 97.3949, -50.979, 46.0158
4.284, 2, 35.866, 47.9398, -13.7809, 97.3949, -50.979, 46.0158
4.288, 2, 35.866, 47.9398, -13.7809, 97.3949, -50.979, 46.0158
4.292, 2, 35.866, 47.9398, -13.7809, 97.3949, -50.979, 46.0158
4.296, 2, 35.866, 47.9398, -13.7809, 97.3949, -50.979, 46.0158
4.3, 2, 35.866, 47.9398, -13.7809, 97.3949, -50.979, 46.0158
4.304, 2, 35.866, 47.9398, -13.7809, 97.3949, -50.979, 46.0158
4.308, 2, 35.866, 47.9398, -13.7809, 97.3949, -50.979, 46.0158
4.312, 2, 35.866, 47.9398, -13.7809, 97.3949, -50.979, 46.0158
4.316, 2, 35.866, 47.9398, -13.7809, 97.3949, -50.979, 46.0158
4.32, 2, 35.866, 47.9398, -13.7809, 97.3949, -50.979, 46.0158
4.324, 2, 35.866, 47.9398, -13.7809, 97.3949, -50.979, 46.0158
4.328, 2, 35.866, 47.9398, -13.7809, 97.3949, -50.979, 46.0158
4.332, 2, 35.866, 47.9398, -13.7809, 97.3949, -50.979, 46.0158
4.336, 2, 35.866, 47.9398, -13.7809, 97.3949, -50.979, 46.0158
4.34, 2, 35.866, 47.9398, -13.7809, 97.3949, -50.979, 46.0158
4.344, 2, 35.866, 47.9398, -13.7809, 97.3949, -50.979, 46.0158
4.348, 2, 35.866, 47.9398, -13.7809, 97.3949, -50.979, 46.0158
4.352, 2, 35.866, 47.9398, -13.7809, 97.3949, -50.979, 46.0158
4.356, 2, 35.866, 47.9398, -13.7809, 97.3949, -50.979, 46.0158
4.36, 2, 35.866, 47.9398, -13.7809, 97.3949, -50.979, 46.0158
4.364, 2, 35.866, 47.9398, -13.7809, 97.3949, -50.979, 46.0158
4.368, 2, 35.866, 47.9398, -13.7809, 97.3949, -50.979, 46.0158
4.372, 2, 35.866, 47.9398, -13.7809, 97.3949, -50.979, 46.0158
4.376, 2, 35.866, 47.9398, -13.7809, 97.3949, -50.979, 46.0158
4.38, 2, 35.866, 47.9398, -13.7809, 97.3949, -50.979, 46.0158
4.384, 2, 35.866, 47.9398, -13.7809, 97.3949, -50.979, 46.0158
4.388, 2, 35.866, 47.9398, -13.7809, 97.3949, -50.979, 46.0158
4.392, 2, 35.866, 47.9398, -13.7809, 97.3949, -50.979, 46.0158
4.396, 2, 35.866, 47.9398, -13.7809, 97.3949, -50.979, 46.0158
4.4, 2, 35.866, 47.9398, -13.7809, 97.3949, -50.979, 46.0158
4.404, 3, 35.866, 47.9398, -13.7809, 97.3949, -50.979, 46.0158
4.408, 3, 35.866, 47.9398, -13.7809, 97.3949, -50.979, 46.0158
4.412, 3, 35.866, 47.9398, -13.7809, 97.3949, -50.979, 46.0158
4.416, 3, 35.866, 47.9398, -13.7809, 97.3949, -50.979, 46.0158
4.42, 3, 35.866, 47.9398, -13.7809, 97.3949, -50.979, 46.0158
4.424, 3, 35.866, 47.9398, -13.7809, 97.3949, -50.979, 46.0158
4.428, 3, 35.866, 47.9398, -13.7809, 97.3949, -50.979, 46.0158
4.432, 3, 35.866, 47.9398, -13.7809, 97.3949, -50.979, 46.0158
4.436, 3, 35.866, 47.9398, -13.7809, 97.3949, -50.979, 46.0158
4.44, 4, 35.866, 47.9398, -13.7809, 97.3949, -50.979, 46.0158
4.444, 4, 35.866, 47.9398, -13.7809, 97.3949, -50.979, 46.0158
4.448, 4, 35.866, 47.9398, -13.7809, 97.3949, -50.979, 46.0158
4.452, 4, 35.866, 47.9398, -13.7809, 97.3949, -50.979, 46.0158
4.456, 4, 35.866, 47.9398, -13.7809, 97.3949, -50.979, 46.0158
4.46, 4, 35.866, 47.9398, -13.7809, 97.3949, -50.979, 46.0158
4.464, 4, 35.866, 47.9398, -13.7809, 97.3949, -50.979, 46.0158
4.468, 4, 35.866, 47.9398, -13.7809, 97.3949, -50.979, 46.0158
4.472, 4, 35.866, 47.9398, -13.7809, 97.3949, -50.979, 46.0158
4.476, 4, 35.866, 47.9398, -13.7809, 97.3949, -50.979, 46.0158
4.48, 4, 35.866, 47.9398, -13.7809, 97.3949, -50.979, 46.0158
4.484, 4, 35.866, 47.9398, -13.7809, 97.3949, -50.979, 46.0158
4.488, 4, 35.866, 47.9398, -13.7809, 97.3949, -50.979, 46.0158
4.492, 4, 35.866, 47.9398, -13.7809, 97.3949, -50.979, 46.0158
4.496, 4, 35.866, 47.9398, -13.7809, 97.3949, -50.979, 46.0158
4.5, 4, 35.866, 47.9398, -13.7809, 97.3949, -50.979, 46.0158
4.504, 4, 35.866, 47.9398, -13.7809, 97.3949, -50.979, 46.0158
4.508, 4, 35.866, 47.9398, -13.7809, 97.3949, -50.979, 46.0158
4.512, 4, 35.866, 47.9398, -13.7809, 97.3949, -50.979, 46.0158
4.516, 4, 35.866, 47.9398, -13.7809, 97.3949, -50.979, 46.0158
4.52, 4, 35.866, 47.9398, -13.7809, 97.3949, -50.979, 46.0158
4.524, 4, 35.866, 47.9398, -13.7809, 97.3949, -50.979, 46.0158
4.528, 4, 35.866, 47.9398, -13.7809, 97.3949, -50.979, 46.0158
4.532, 4, 35.866, 47.9398, -13.7809, 97.3949, -50.979, 46.0158
4.536, 4, 35.866, 47.9398, -13.7809, 97.3949, -50.979, 46.0158
4.54, 6, 35.866, 47.9398, -13.7809, 97.3949, -50.979, 46.0158
4.544, 6, 35.866, 47.9398, -13.7809, 97.3949, -50.979, 46.0158
4.548, 7, 35.866, 47.9398, -13.7809, 97.3949, -50.979, 46.0158
4.552, 8, 35.866, 47.9398, -13.7809, 97.3949, -50.979, 46.0158
4.556, 8, 35.866, 47.9398, -13.7809, 97.3949, -50.979, 46.0158
4.56, 9, 35.866, 47.9398, -13.7809, 97.3949, -50.979, 46.0158
4.564, 9, 35.866, 47.9398, -13.7809, 97.3949, -50.979, 46.0158
4.568, 9, 35.866, 47.9398, -13.7809, 97.3949, -50.979, 46.0158
4.572, 9, 35.866, 47.9398, -13.7809, 97.3949, -50.979, 46.0158
4.576, 9, 35.866, 47.9399, -13.7809, 97.3949, -50.979, 46.0158
4.58, 9, 35.866, 47.94, -13.7809, 97.3949, -50.979, 46.0158
4.584, 9, 35.866, 47.9404, -13.7809, 97.3949, -50.979, 46.0158
4.588, 9, 35.8659, 47.9411, -13.7809, 97.3949, -50.9791, 46.0158
4.592, 9, 35.8658, 47.9424, -13.781, 97.3949, -50.9795, 46.0157
4.596, 9, 35.8656, 47.9442, -13.7811, 97.3948, -50.9802, 46.0155
4.6, 9, 35.8654, 47.9468, -13.7813, 97.3946, -50.9814, 46.015
4.604, 9, 35.8651, 47.9503, -13.7816, 97.3943, -50.9837, 46.0143
4.608, 9, 35.8648, 47.9548, -13.782, 97.3939, -50.9873, 46.0132
4.612, 9, 35.8644, 47.9604, -13.7827, 97.3932, -50.9928, 46.0115
4.616, 9, 35.8639, 47.9674, -13.7838, 97.3922, -51.0009, 46.0089
4.62, 9, 35.8634, 47.9761, -13.7852, 97.3908, -51.0122, 46.0054
4.624, 9, 35.8628, 47.9866, -13.7871, 97.3889, -51.0276, 46.0005
4.628, 9, 35.8621, 47.9993, -13.7896, 97.3864, -51.048, 45.9941
4.632, 9, 35.8614, 48.0141, -13.7929, 97.3831, -51.0744, 45.9858
4.636, 9, 35.8607, 48.0313, -13.797, 97.3789, -51.1078, 45.9753
4.64, 9, 35.86, 48.0509, -13.8021, 97.3737, -51.1494, 45.9622
4.644, 9, 35.8593, 48.0732, -13.8083, 97.3673, -51.1999, 45.9464
4.648, 9, 35.8587, 48.0984, -13.8157, 97.3597, -51.2606, 45.9273
4.652, 9, 35.8581, 48.1267, -13.8245, 97.3508, -51.3321, 45.9048
4.656, 9, 35.8576, 48.1583, -13.8346, 97.3403, -51.4154, 45.8787
4.66, 9, 35.8571, 48.1935, -13.8463, 97.3283, -51.5112, 45.8486
4.664, 9, 35.8567, 48.2324, -13.8595, 97.3146, -51.62, 45.8144
4.668, 9, 35.8563, 48.2751, -13.8744, 97.2992, -51.7425, 45.776
4.672, 9, 35.856, 48.3217, -13.8909, 97.2821, -51.879, 45.7331
4.676, 9, 35.8558, 48.3725, -13.9093, 97.2631, -52.0298, 45.6857
4.68, 9, 35.8556, 48.4275, -13.9294, 97.2424, -52.1952, 45.6338
4.684, 9, 35.8554, 48.4869, -13.9513, 97.2197, -52.3754, 45.5772
4.688, 9, 35.8553, 48.5506, -13.9749, 97.1952, -52.5702, 45.5161
4.692, 9, 35.8552, 48.6186, -14.0004, 97.1689, -52.7797, 45.4503
4.696, 9, 35.8552, 48.6904, -14.0276, 97.1407, -53.0037, 45.38
4.7, 9, 35.8553, 48.7657, -14.0565, 97.1108, -53.2419, 45.3052
4.704, 9, 35.8556, 48.8438, -14.0871, 97.0791, -53.4938, 45.2261
4.708, 9, 35.856, 48.9245, -14.1192, 97.0458, -53.7585, 45.143
4.712, 9, 35.8566, 49.007, -14.1528, 97.011, -54.0351, 45.0562
4.716, 9, 35.8574, 49.0911, -14.1876, 96.9749, -54.3222, 44.9661
4.72, 9, 35.8583, 49.1763, -14.2235, 96.9377, -54.618, 44.8732
4.724, 9, 35.8593, 49.2625, -14.2602, 96.8996, -54.9206, 44.7782
4.728, 10, 35.8603, 49.3494, -14.2974, 96.8609, -55.2281, 44.6817
4.732, 10, 35.8614, 49.4366, -14.335, 96.8219, -55.5382, 44.5844
4.736, 10, 35.8625, 49.5239, -14.3727, 96.7828, -55.8486, 44.487
4.74, 10, 35.8635, 49.6108, -14.4101, 96.7439, -56.1571, 44.3902
4.744, 10, 35.8644, 49.6973, -14.4471, 96.7056, -56.4614, 44.2946
4.748, 10, 35.8653, 49.7831, -14.4833, 96.6681, -56.7595, 44.2011
4.752, 10, 35.8659, 49.8678, -14.5185, 96.6316, -57.0494, 44.1101
4.756, 10, 35.8662, 49.9512, -14.5525, 96.5964, -57.3294, 44.0222
4.76, 10, 35.866, 50.0331, -14.5852, 96.5626, -57.5981, 43.9379
4.764, 10, 35.865, 50.1134, -14.6163, 96.5302, -57.8545, 43.8574
4.768, 10, 35.8633, 50.1919, -14.6458, 96.4994, -58.098, 43.781
4.772, 10, 35.8606, 50.2686, -14.6735, 96.47, -58.3283, 43.7087
4.776, 10, 35.8572, 50.3434, -14.6993, 96.4419, -58.5456, 43.6406
4.78, 10, 35.8532, 50.4166, -14.7232, 96.4148, -58.7507, 43.5764
4.784, 10, 35.8486, 50.4883, -14.745, 96.3883, -58.9444, 43.5158
4.788, 10, 35.8436, 50.5586, -14.7648, 96.3621, -59.1282, 43.4584
4.792, 10, 35.8383, 50.6277, -14.7825, 96.3357, -59.3039, 43.4036
4.796, 10, 35.8327, 50.6956, -14.7982, 96.3088, -59.4734, 43.351
4.8, 10, 35.8266, 50.7625, -14.812, 96.2807, -59.6389, 43.2998
4.804, 10, 35.8201, 50.8287, -14.824, 96.2512, -59.8026, 43.2493
4.808, 10, 35.8131, 50.8944, -14.8343, 96.2196, -59.9669, 43.1988
4.812, 10, 35.8059, 50.9596, -14.8431, 96.1856, -60.1341, 43.1476
4.816, 10, 35.7985, 51.0245, -14.8505, 96.1489, -60.3065, 43.095
4.82, 10, 35.791, 51.0891, -14.8569, 96.1091, -60.4861, 43.0404
4.824, 10, 35.7834, 51.1535, -14.8624, 96.066, -60.6747, 42.9831
4.828, 10, 35.7758, 51.2181, -14.8672, 96.0195, -60.8735, 42.9229
4.832, 10, 35.7679, 51.283, -14.8716, 95.9695, -61.0836, 42.8593
4.836, 10, 35.7598, 51.3487, -14.8758, 95.9162, -61.3055, 42.7923
4.84, 10, 35.7513, 51.4155, -14.8797, 95.8596, -61.5391, 42.7218
4.844, 10, 35.7426, 51.4837, -14.8836, 95.8, -61.7842, 42.6478
4.848, 10, 35.7338, 51.5531, -14.8875, 95.7375, -62.0401, 42.5706
4.852, 10, 35.7251, 51.6236, -14.8914, 95.6725, -62.3059, 42.4904
4.856, 10, 35.7167, 51.6948, -14.8953, 95.6053, -62.5803, 42.4076
4.86, 10, 35.7085, 51.7664, -14.8992, 95.5363, -62.8619, 42.3227
4.864, 10, 35.7006, 51.8382, -14.9032, 95.466, -63.1489, 42.2361
4.868, 10, 35.6928, 51.9103, -14.9071, 95.3947, -63.4394, 42.1485
4.872, 11, 35.6849, 51.9825, -14.9111, 95.3231, -63.7314, 42.0604
4.876, 11, 35.6769, 52.0547, -14.9151, 95.2516, -64.0228, 41.9725
4.88, 11, 35.6687, 52.1269, -14.919, 95.1807, -64.3117, 41.8854
4.884, 11, 35.6603, 52.1985, -14.9229, 95.111, -64.5961, 41.7997
4.888, 11, 35.6516, 52.2694, -14.9268, 95.0427, -64.8742, 41.7158
4.892, 11, 35.6429, 52.3389, -14.9305, 94.9765, -65.1442, 41.6344
4.896, 11, 35.6341, 52.4069, -14.9341, 94.9125, -65.4047, 41.5558
4.9, 11, 35.6253, 52.473, -14.9375, 94.8513, -65.6542, 41.4806
4.904, 11, 35.6161, 52.5372, -14.9408, 94.793, -65.8917, 41.409
4.908, 11, 35.6064, 52.5993, -14.9438, 94.7379, -66.1162, 41.3413
4.912, 11, 35.5959, 52.6595, -14.9464, 94.6859, -66.3272, 41.2778
4.916, 11, 35.5843, 52.7178, -14.9485, 94.6371, -66.5246, 41.2186
4.92, 11, 35.5716, 52.7743, -14.9498, 94.5911, -66.7086, 41.1636
4.924, 11, 35.5578, 52.8291, -14.9501, 94.5478, -66.8797, 41.1129
4.928, 11, 35.5432, 52.8824, -14.949, 94.5064, -67.039, 41.0662
4.932, 11, 35.5279, 52.9344, -14.9461, 94.4665, -67.1881, 41.0234
4.936, 11, 35.5121, 52.9849, -14.941, 94.4273, -67.3285, 40.984
4.94, 11, 35.496, 53.0341, -14.9334, 94.3879, -67.4625, 40.9476
4.944, 11, 35.4795, 53.0819, -14.9226, 94.3476, -67.5924, 40.9137
4.948, 11, 35.4625, 53.1284, -14.9082, 94.3054, -67.7204, 40.8818
4.952, 11, 35.4448, 53.1736, -14.8898, 94.2605, -67.8492, 40.8512
4.956, 11, 35.4266, 53.2176, -14.8669, 94.212, -67.9813, 40.8214
4.96, 11, 35.4079, 53.2604, -14.8396, 94.159, -68.1191, 40.7917
4.964, 11, 35.3888, 53.3018, -14.8077, 94.1009, -68.2648, 40.7615
4.968, 11, 35.3695, 53.3418, -14.7716, 94.0371, -68.4204, 40.7304
4.972, 11, 35.3499, 53.3806, -14.7315, 93.9673, -68.5874, 40.6979
4.976, 11, 35.3299, 53.4182, -14.6874, 93.8911, -68.7669, 40.6636
4.98, 11, 35.3095, 53.4551, -14.6397, 93.8087, -68.9594, 40.6273
4.984, 11, 35.2885, 53.4917, -14.5883, 93.7202, -69.1648, 40.5889
4.988, 11, 35.2668, 53.5284, -14.5332, 93.6259, -69.3829, 40.5483
4.992, 12, 35.2446, 53.5653, -14.4747, 93.5262, -69.6128, 40.5057
4.996, 12, 35.2223, 53.6023, -14.4129, 93.4218, -69.8535, 40.4612
5, 12, 35.2, 53.6393, -14.3484, 93.3131, -70.1034, 40.4151
5.004, 12, 35.178, 53.6761, -14.2815, 93.2011, -70.3609, 40.3676
5.008, 12, 35.1563, 53.7126, -14.213, 93.0866, -70.6241, 40.3191
5.012, 12, 35.1346, 53.7489, -14.1435, 92.9705, -70.8908, 40.2699
5.016, 12, 35.1128, 53.7852, -14.0735, 92.8539, -71.1588, 40.2206
5.02, 12, 35.0908, 53.8216, -14.0037, 92.7376, -71.4259, 40.1714
5.024, 12, 35.0684, 53.8581, -13.9347, 92.6227, -71.6897, 40.1228
5.028, 12, 35.0457, 53.8947, -13.867, 92.5102, -71.9482, 40.0752
5.032, 12, 35.0231, 53.9309, -13.8013, 92.4008, -72.1995, 40.0289
5.036, 12, 35.0006, 53.9666, -13.7379, 92.2954, -72.4416, 39.9843
5.04, 12, 34.9784, 54.0015, -13.6772, 92.1946, -72.6729, 39.9417
5.044, 12, 34.9563, 54.0354, -13.6197, 92.0992, -72.8921, 39.9015
5.048, 12, 34.934, 54.0685, -13.5653, 92.0094, -73.0979, 39.8637
5.052, 12, 34.9113, 54.1009, -13.5142, 91.9257, -73.2896, 39.8288
5.056, 12, 34.8878, 54.1326, -13.4662, 91.8479, -73.4668, 39.7969
5.06, 12, 34.8631, 54.1636, -13.4209, 91.7759, -73.6296, 39.7681
5.064, 12, 34.8374, 54.1938, -13.3777, 91.7091, -73.7787, 39.7426
5.068, 12, 34.8106, 54.2229, -13.3358, 91.6469, -73.9152, 39.7206
5.072, 12, 34.7829, 54.2508, -13.2943, 91.5882, -74.0405, 39.7019
5.076, 12, 34.7546, 54.2774, -13.2521, 91.5318, -74.1565, 39.6865
5.08, 12, 34.7257, 54.3022, -13.208, 91.4767, -74.2653, 39.6745
5.084, 12, 34.6963, 54.325, -13.1606, 91.4214, -74.3693, 39.6658
5.088, 12, 34.6665, 54.3457, -13.1086, 91.3645, -74.4709, 39.66
5.092, 12, 34.6361, 54.3639, -13.0507, 91.3047, -74.5726, 39.6573
5.096, 12, 34.6053, 54.3793, -12.9861, 91.2407, -74.6768, 39.6573
5.1, 12, 34.5741, 54.3916, -12.9138, 91.1711, -74.7857, 39.6599
5.104, 12, 34.5427, 54.4005, -12.8333, 91.095, -74.9015, 39.6649
5.108, 12, 34.511, 54.4059, -12.7445, 91.0116, -75.0257, 39.672
5.112, 12, 34.4791, 54.4079, -12.6473, 90.9203, -75.1596, 39.681
5.116, 12, 34.4467, 54.4067, -12.5416, 90.8208, -75.3039, 39.6918
5.12, 12, 34.4134, 54.4028, -12.4274, 90.7133, -75.4589, 39.704
5.124, 12, 34.3792, 54.3966, -12.305, 90.598, -75.6245, 39.7175
5.128, 12, 34.344, 54.3885, -12.1747, 90.4754, -75.8001, 39.7322
5.132, 12, 34.3079, 54.379, -12.037, 90.3463, -75.9848, 39.7478
5.136, 13, 34.2713, 54.3681, -11.8929, 90.2113, -76.1777, 39.7643
5.14, 13, 34.2345, 54.3561, -11.7433, 90.0714, -76.3773, 39.7814
5.144, 13, 34.1975, 54.3432, -11.5894, 89.9278, -76.5822, 39.799
5.148, 13, 34.1602, 54.3295, -11.4326, 89.7816, -76.7907, 39.817
5.152, 13, 34.1226, 54.3155, -11.2742, 89.634, -77.0012, 39.8352
5.156, 13, 34.0844, 54.3014, -11.1154, 89.4862, -77.212, 39.8534
5.16, 13, 34.0457, 54.2878, -10.9577, 89.3394, -77.4214, 39.8716
5.164, 13, 34.0066, 54.2747, -10.8022, 89.1947, -77.6277, 39.8894
5.168, 13, 33.9674, 54.2624, -10.6501, 89.0532, -77.8295, 39.9069
5.172, 13, 33.9286, 54.251, -10.5023, 88.9158, -78.0254, 39.9239
5.176, 13, 33.8905, 54.2405, -10.3599, 88.7834, -78.2142, 39.9402
5.18, 13, 33.8533, 54.2307, -10.2235, 88.6567, -78.3948, 39.9559
5.184, 13, 33.8168, 54.2218, -10.0939, 88.5365, -78.5662, 39.9708
5.188, 13, 33.7809, 54.2135, -9.97149, 88.4232, -78.7277, 39.985
5.192, 13, 33.7454, 54.206, -9.85644, 88.3171, -78.8786, 39.9986
5.196, 13, 33.71, 54.1993, -9.74868, 88.2182, -79.0186, 40.0117
5.2, 13, 33.6746, 54.1933, -9.64786, 88.1265, -79.1476, 40.0246
5.204, 13, 33.6388, 54.1877, -9.55331, 88.0414, -79.2661, 40.0376
5.208, 13, 33.6027, 54.1823, -9.46412, 87.9623, -79.3744, 40.0513
5.212, 13, 33.5662, 54.1769, -9.37912, 87.8883, -79.4735, 40.0659
5.216, 13, 33.5295, 54.1709, -9.29695, 87.8182, -79.5644, 40.0821
5.22, 13, 33.4926, 54.1639, -9.21609, 87.7509, -79.6485, 40.1003
5.224, 13, 33.4554, 54.1556, -9.13493, 87.685, -79.7272, 40.1211
5.228, 13, 33.4181, 54.1457, -9.05176, 87.6193, -79.8019, 40.1449
5.232, 13, 33.3808, 54.1339, -8.96491, 87.5522, -79.8743, 40.1723
5.236, 13, 33.3433, 54.1198, -8.8728, 87.4825, -79.9459, 40.2036
5.24, 13, 33.3057, 54.103, -8.77402, 87.4089, -80.0183, 40.2392
5.244, 13, 33.2678, 54.083, -8.6674, 87.3302, -80.0928, 40.2794
5.248, 13, 33.2294, 54.0594, -8.55196, 87.2457, -80.1708, 40.3245
5.252, 13, 33.1904, 54.032, -8.42701, 87.1544, -80.2532, 40.3744
5.256, 13, 33.1504, 54.0005, -8.29206, 87.056, -80.3408, 40.4292
5.26, 13, 33.1091, 53.9651, -8.14687, 86.9501, -80.4342, 40.4889
5.264, 13, 33.0663, 53.9259, -7.99137, 86.8367, -80.5336, 40.5532
5.268, 13, 33.0221, 53.8833, -7.82571, 86.7159, -80.6391, 40.6221
5.272, 13, 32.9765, 53.8377, -7.65027, 86.5878, -80.7505, 40.6953
5.276, 13, 32.9296, 53.7892, -7.46567, 86.4531, -80.8677, 40.7724
5.28, 14, 32.8819, 53.7383, -7.27274, 86.3122, -80.99, 40.8532
5.284, 14, 32.8335, 53.6853, -7.07252, 86.1659, -81.1168, 40.9371
5.288, 14, 32.7845, 53.6306, -6.86617, 86.0151, -81.2476, 41.0236
5.292, 14, 32.7349, 53.5746, -6.65498, 85.8608, -81.3814, 41.1122
5.296, 14, 32.6846, 53.5176, -6.44032, 85.7039, -81.5173, 41.2023
5.3, 14, 32.6337, 53.4602, -6.22361, 85.5454, -81.6546, 41.2933
5.304, 14, 32.5823, 53.4026, -6.00626, 85.3865, -81.7923, 41.3845
5.308, 14, 32.5304, 53.3452, -5.78965, 85.2282, -81.9295, 41.4755
5.312, 14, 32.4782, 53.2885, -5.57512, 85.0714, -82.0654, 41.5655
5.316, 14, 32.4259, 53.2327, -5.3639, 84.917, -82.1991, 41.6542
5.32, 14, 32.3738, 53.1781, -5.15715, 84.766, -82.33, 41.7409
5.324, 14, 32.322, 53.1249, -4.95586, 84.6191, -82.4573, 41.8253
5.328, 14, 32.2706, 53.0732, -4.76087, 84.4768, -82.5806, 41.9072
5.332, 14, 32.2194, 53.0232, -4.57279, 84.3397, -82.6992, 41.9864
5.336, 14, 32.1685, 52.9749, -4.39198, 84.2081, -82.8129, 42.0631
5.34, 14, 32.1178, 52.9283, -4.21854, 84.082, -82.9214, 42.1377
5.344, 14, 32.0671, 52.8833, -4.05227, 83.9612, -83.0246, 42.2108
5.348, 14, 32.0162, 52.8398, -3.8927, 83.8454, -83.1224, 42.2833
5.352, 14, 31.965, 52.7976, -3.73908, 83.734, -83.2152, 42.356
5.356, 14, 31.9134, 52.7565, -3.59044, 83.6262, -83.3032, 42.4301
5.36, 14, 31.8615, 52.7159, -3.44558, 83.521, -83.387, 42.5068
5.364, 14, 31.8094, 52.6755, -3.30317, 83.4175, -83.4673, 42.5871
5.368, 14, 31.7569, 52.6349, -3.16169, 83.3144, -83.5448, 42.6723
5.372, 14, 31.7042, 52.5936, -3.01955, 83.2106, -83.6203, 42.7635
5.376, 15, 31.6513, 52.5515, -2.87513, 83.1048, -83.6946, 42.8618
5.38, 15, 31.5983, 52.5081, -2.72694, 82.9959, -83.7688, 42.968
5.384, 15, 31.5453, 52.4632, -2.57361, 82.8827, -83.8437, 43.0831
5.388, 15, 31.4923, 52.4165, -2.41402, 82.7643, -83.92, 43.2074
5.392, 15, 31.4394, 52.3677, -2.24728, 82.6399, -83.9986, 43.341
5.396, 15, 31.3864, 52.3165, -2.07283, 82.5092, -84.0799, 43.484
5.4, 15, 31.3332, 52.2628, -1.89044, 82.3721, -84.1643, 43.6359
5.404, 15, 31.2793, 52.2065, -1.70017, 82.2285, -84.252, 43.7961
5.408, 15, 31.2248, 52.1477, -1.50236, 82.0789, -84.3429, 43.9639
5.412, 15, 31.1695, 52.0866, -1.29764, 81.9238, -84.4368, 44.1384
5.416, 15, 31.1137, 52.0236, -1.08686, 81.764, -84.5334, 44.3186
5.42, 15, 31.0575, 51.9589, -0.871089, 81.6003, -84.6323, 44.5035
5.424, 15, 31.0009, 51.8931, -0.65152, 81.4336, -84.7328, 44.6919
5.428, 15, 30.9439, 51.8264, -0.429418, 81.2648, -84.8345, 44.8827
5.432, 15, 30.8864, 51.7594, -0.206084, 81.0951, -84.9367, 45.0747
5.436, 15, 30.8283, 51.6922, 0.017192, 80.9255, -85.0389, 45.2666
5.44, 15, 30.7696, 51.6254, 0.239164, 80.7569, -85.1405, 45.4574
5.444, 15, 30.7105, 51.5593, 0.458659, 80.5902, -85.2409, 45.646
5.448, 15, 30.6514, 51.4942, 0.6746, 80.4263, -85.3396, 45.8315
5.452, 15, 30.5927, 51.4305, 0.88602, 80.266, -85.4362, 46.013
5.456, 15, 30.5349, 51.3683, 1.09206, 80.1097, -85.5304, 46.1899
5.46, 15, 30.4781, 51.3079, 1.29198, 79.9582, -85.6217, 46.3614
5.464, 15, 30.4226, 51.2494, 1.48515, 79.8118, -85.7099, 46.5271
5.468, 15, 30.3682, 51.1929, 1.67109, 79.671, -85.7948, 46.6864
5.472, 15, 30.3148, 51.1383, 1.84948, 79.536, -85.8761, 46.839
5.476, 15, 30.262, 51.0857, 2.02024, 79.4068, -85.9537, 46.9846
5.48, 15, 30.2096, 51.0349, 2.18347, 79.2835, -86.0276, 47.1232
5.484, 15, 30.1573, 50.9858, 2.33953, 79.1655, -86.0977, 47.2547
5.488, 15, 30.1048, 50.9382, 2.48905, 79.0525, -86.1642, 47.3796
5.492, 15, 30.0522, 50.8917, 2.63289, 78.9436, -86.2274, 47.4982
5.496, 16, 29.9995, 50.846, 2.77208, 78.838, -86.2875, 47.6113
5.5, 16, 29.9467, 50.8008, 2.90786, 78.7345, -86.345, 47.7197
5.504, 16, 29.8936, 50.7556, 3.04161, 78.632, -86.4004, 47.8245
5.508, 16, 29.8402, 50.7101, 3.1748, 78.5293, -86.4543, 47.9267
5.512, 16, 29.7865, 50.6638, 3.30902, 78.4251, -86.5073, 48.0276
5.516, 16, 29.7323, 50.6165, 3.44582, 78.3181, -86.5599, 48.1284
5.52, 16, 29.6778, 50.5679, 3.58665, 78.2071, -86.6129, 48.2303
5.524, 16, 29.6228, 50.5177, 3.73279, 78.0911, -86.6669, 48.3344
5.528, 16, 29.5675, 50.4655, 3.88532, 77.969, -86.7223, 48.4419
5.532, 16, 29.5116, 50.4112, 4.04504, 77.8402, -86.7797, 48.5536
5.536, 16, 29.4551, 50.3546, 4.21247, 77.7044, -86.8394, 48.6701
5.54, 16, 29.3977, 50.2956, 4.38782, 77.5614, -86.9016, 48.7918
5.544, 16, 29.339, 50.2342, 4.57102, 77.4114, -86.9665, 48.9189
5.548, 16, 29.2791, 50.1704, 4.76176, 77.2547, -87.0338, 49.051
5.552, 16, 29.218, 50.1045, 4.95945, 77.0921, -87.1035, 49.1879
5.556, 16, 29.1559, 50.0366, 5.1633, 76.9241, -87.1754, 49.3291
5.56, 16, 29.0931, 49.9671, 5.37231, 76.7517, -87.2491, 49.4739
5.564, 16, 29.0298, 49.8962, 5.58534, 76.5758, -87.3242, 49.6215
5.568, 16, 28.966, 49.8243, 5.80119, 76.3974, -87.4002, 49.7711
5.572, 16, 28.9017, 49.7517, 6.01858, 76.2177, -87.4768, 49.9217
5.576, 16, 28.8368, 49.6789, 6.23624, 76.0378, -87.5536, 50.0726
5.58, 16, 28.7713, 49.6061, 6.45294, 75.8587, -87.6299, 50.2227
5.584, 16, 28.7056, 49.5339, 6.66749, 75.6814, -87.7055, 50.3713
5.588, 16, 28.6399, 49.4625, 6.87878, 75.507, -87.7799, 50.5175
5.592, 16, 28.5747, 49.3924, 7.08578, 75.3361, -87.8528, 50.6607
5.596, 16, 28.5102, 49.3239, 7.28758, 75.1696, -87.9238, 50.8002
5.6, 16, 28.4466, 49.257, 7.48338, 75.0081, -87.9927, 50.9357
5.604, 16, 28.3837, 49.1919, 7.67256, 74.8521, -88.0593, 51.0667
5.608, 16, 28.3213, 49.1286, 7.85473, 74.7021, -88.1232, 51.1931
5.612, 16, 28.2594, 49.0671, 8.0297, 74.5584, -88.1844, 51.3151
5.616, 16, 28.1975, 49.0072, 8.19755, 74.4209, -88.2428, 51.4328
5.62, 16, 28.1355, 48.9488, 8.35859, 74.2895, -88.2983, 51.547
5.624, 16, 28.0734, 48.8917, 8.51339, 74.1639, -88.3509, 51.6584
5.628, 16, 28.0111, 48.8355, 8.66275, 74.0434, -88.401, 51.7679
5.632, 16, 27.9488, 48.7801, 8.80763, 73.9273, -88.4486, 51.8766
5.636, 16, 27.8862, 48.7251, 8.94918, 73.8145, -88.4941, 51.9858
5.64, 17, 27.8233, 48.6701, 9.08869, 73.7041, -88.5379, 52.0967
5.644, 17, 27.76, 48.6147, 9.22756, 73.5948, -88.5804, 52.2105
5.648, 17, 27.6962, 48.5588, 9.36724, 73.4856, -88.6221, 52.3284
5.652, 17, 27.632, 48.502, 9.50911, 73.3751, -88.6634, 52.4517
5.656, 17, 27.5672, 48.444, 9.65447, 73.2624, -88.7047, 52.5812
5.66, 17, 27.5018, 48.3844, 9.80443, 73.1462, -88.7466, 52.718
5.664, 17, 27.4356, 48.3229, 9.95991, 73.0258, -88.7894, 52.8624
5.668, 17, 27.3684, 48.2593, 10.1216, 72.9006, -88.8334, 53.0149
5.672, 17, 27.2998, 48.1934, 10.2898, 72.77, -88.8789, 53.1754
5.676, 17, 27.2297, 48.125, 10.4648, 72.6339, -88.926, 53.3438
5.68, 17, 27.1578, 48.0543, 10.6465, 72.4924, -88.9748, 53.5197
5.684, 17, 27.0844, 47.9815, 10.8346, 72.3457, -89.0252, 53.7026
5.688, 17, 27.0098, 47.9068, 11.0285, 72.1943, -89.0772, 53.8917
5.692, 17, 26.9342, 47.8306, 11.2276, 72.0387, -89.1305, 54.0862
5.696, 17, 26.858, 47.7531, 11.4308, 71.8797, -89.1849, 54.2852
5.7, 17, 26.7813, 47.6746, 11.6372, 71.718, -89.2402, 54.4876
5.704, 17, 26.7042, 47.5953, 11.8457, 71.5546, -89.2961, 54.6922
5.708, 17, 26.6266, 47.5155, 12.0552, 71.3904, -89.3522, 54.8978
5.712, 17, 26.5486, 47.4356, 12.2643, 71.2265, -89.4083, 55.1031
5.716, 17, 26.4704, 47.3559, 12.4719, 71.0637, -89.4639, 55.3071
5.72, 17, 26.3922, 47.2767, 12.677, 70.9029, -89.5189, 55.5084
5.724, 17, 26.3142, 47.1986, 12.8783, 70.7451, -89.5728, 55.7062
5.728, 17, 26.2366, 47.1215, 13.075, 70.5908, -89.6253, 55.8994
5.732, 17, 26.1592, 47.0458, 13.2663, 70.4408, -89.6762, 56.0873
5.736, 17, 26.082, 46.9714, 13.4517, 70.2953, -89.7251, 56.2694
5.74, 17, 26.0048, 46.8984, 13.631, 70.1546, -89.7717, 56.4456
5.744, 17, 25.9275, 46.8266, 13.8041, 70.0184, -89.8157, 56.6159
5.748, 17, 25.8499, 46.756, 13.9715, 69.8865, -89.8568, 56.7807
5.752, 17, 25.7722, 46.6862, 14.1336, 69.7583, -89.8951, 56.9408
5.756, 17, 25.6943, 46.6172, 14.2912, 69.6328, -89.9304, 57.0972
5.76, 18, 25.6162, 46.5485, 14.4453, 69.5093, -89.9628, 57.2509
5.764, 18, 25.5379, 46.48, 14.5971, 69.3866, -89.9924, 57.4034
5.768, 18, 25.4593, 46.4113, 14.7478, 69.2635, -90.0194, 57.556
5.772, 18, 25.3805, 46.3422, 14.8988, 69.139, -90.0441, 57.7101
5.776, 18, 25.3015, 46.2724, 15.0515, 69.0119, -90.0667, 57.8672
5.78, 18, 25.2224, 46.2017, 15.2069, 68.8811, -90.0876, 58.0286
5.784, 18, 25.1432, 46.1299, 15.3661, 68.7457, -90.107, 58.1953
5.788, 18, 25.0638, 46.0568, 15.5299, 68.6052, -90.1254, 58.3682
5.792, 18, 24.9843, 45.9822, 15.6987, 68.4592, -90.1431, 58.5477
5.796, 18, 24.9043, 45.906, 15.8727, 68.3076, -90.1604, 58.7338
5.8, 18, 24.8238, 45.8283, 16.0519, 68.1507, -90.1775, 58.9265
5.804, 18, 24.7425, 45.7491, 16.2359, 67.989, -90.1946, 59.1249
5.808, 18, 24.6606, 45.6686, 16.4241, 67.8231, -90.2119, 59.3284
5.812, 18, 24.5781, 45.5871, 16.6156, 67.6539, -90.2292, 59.536
5.816, 18, 24.4953, 45.5047, 16.8095, 67.4823, -90.2466, 59.7465
5.82, 18, 24.4123, 45.4218, 17.0047, 67.3093, -90.264, 59.9586
5.824, 18, 24.3291, 45.3388, 17.2001, 67.136, -90.2814, 60.171
5.828, 18, 24.2459, 45.2559, 17.3945, 66.9636, -90.2986, 60.3825
5.832, 18, 24.1628, 45.1735, 17.5867, 66.7931, -90.3157, 60.5915
5.836, 18, 24.08, 45.0921, 17.7757, 66.6256, -90.3324, 60.797
5.84, 18, 23.9978, 45.012, 17.9604, 66.4619, -90.3488, 60.9977
5.844, 18, 23.9166, 44.9337, 18.14, 66.3028, -90.3647, 61.1927
5.848, 18, 23.8366, 44.8576, 18.3136, 66.149, -90.3801, 61.3813
5.852, 18, 23.7579, 44.784, 18.4808, 66.001, -90.395, 61.5629
5.856, 18, 23.6804, 44.713, 18.641, 65.8591, -90.4093, 61.7373
5.86, 18, 23.6042, 44.6447, 18.7942, 65.7232, -90.4229, 61.9045
5.864, 18, 23.5289, 44.5789, 18.9403, 65.5933, -90.436, 62.0649
5.868, 18, 23.4543, 44.5155, 19.0797, 65.4689, -90.4486, 62.2191
5.872, 18, 23.3803, 44.4543, 19.2129, 65.3494, -90.4606, 62.3682
5.876, 18, 23.3068, 44.3951, 19.3405, 65.2341, -90.4722, 62.5132
5.88, 19, 23.2337, 44.3375, 19.4633, 65.122, -90.4835, 62.6555
5.884, 19, 23.1607, 44.2812, 19.5823, 65.0119, -90.4944, 62.7966
5.888, 19, 23.0877, 44.2258, 19.6986, 64.9028, -90.5053, 62.9382
5.892, 19, 23.0144, 44.1708, 19.8135, 64.7933, -90.5161, 63.0818
5.896, 19, 22.9409, 44.1159, 19.9281, 64.6822, -90.5269, 63.2291
5.9, 19, 22.867, 44.0608, 20.0437, 64.5684, -90.5379, 63.3815
5.904, 19, 22.7927, 44.0054, 20.1614, 64.4507, -90.5492, 63.5405
5.908, 19, 22.7176, 43.9495, 20.2822, 64.3282, -90.5608, 63.7071
5.912, 19, 22.6417, 43.8929, 20.4068, 64.2002, -90.5729, 63.8823
5.916, 19, 22.5646, 43.8355, 20.536, 64.0662, -90.5854, 64.0664
5.92, 19, 22.4859, 43.7771, 20.6699, 63.926, -90.5984, 64.2596
5.924, 19, 22.4054, 43.7174, 20.8089, 63.7796, -90.6119, 64.4617
5.928, 19, 22.3229, 43.6566, 20.9528, 63.6271, -90.6259, 64.6724
5.932, 19, 22.2386, 43.5945, 21.1015, 63.4691, -90.6404, 64.8909
5.936, 19, 22.1528, 43.5313, 21.2546, 63.306, -90.6553, 65.1166
5.94, 19, 22.066, 43.4672, 21.4114, 63.1385, -90.6706, 65.3484
5.944, 19, 21.9784, 43.4024, 21.5712, 62.9675, -90.6862, 65.5851
5.948, 19, 21.8903, 43.337, 21.7333, 62.7939, -90.702, 65.8254
5.952, 19, 21.8018, 43.2713, 21.8967, 62.6188, -90.718, 66.0679
5.956, 19, 21.7129, 43.2052, 22.0606, 62.4431, -90.734, 66.3112
5.96, 19, 21.6238, 43.1392, 22.2238, 62.2679, -90.7499, 66.5538
5.964, 19, 21.5346, 43.0735, 22.3856, 62.0943, -90.7657, 66.7941
5.968, 19, 21.4458, 43.0084, 22.5451, 61.9233, -90.7813, 67.0309
5.972, 19, 21.3577, 42.9443, 22.7012, 61.7558, -90.7966, 67.2629
5.976, 19, 21.2705, 42.8817, 22.8533, 61.5925, -90.8114, 67.489
5.98, 19, 21.184, 42.8206, 23.0007, 61.4341, -90.8258, 67.7084
5.984, 19, 21.0984, 42.7612, 23.143, 61.281, -90.8396, 67.9204
5.988, 19, 21.0133, 42.7036, 23.2798, 61.1335, -90.8527, 68.1248
5.992, 19, 20.9288, 42.6476, 23.4112, 60.9915, -90.865, 68.3217
5.996, 19, 20.8445, 42.5933, 23.5372, 60.8545, -90.8765, 68.5117
6, 20, 20.7605, 42.5403, 23.6583, 60.7221, -90.8871, 68.6957
6.004, 20, 20.6767, 42.4887, 23.7749, 60.5933, -90.8968, 68.8748
6.008, 20, 20.5931, 42.4381, 23.8878, 60.4672, -90.9055, 69.0504
6.012, 20, 20.5095, 42.3882, 23.9978, 60.3426, -90.9133, 69.2242
6.016, 20, 20.4257, 42.3389, 24.1057, 60.2183, -90.9202, 69.3978
6.02, 20, 20.3416, 42.2897, 24.2127, 60.093, -90.9262, 69.5731
6.024, 20, 20.2571, 42.2405, 24.3198, 59.9655, -90.9315, 69.7518
6.028, 20, 20.1723, 42.1911, 24.428, 59.8345, -90.9361, 69.9354
6.032, 20, 20.087, 42.1414, 24.5382, 59.6991, -90.94, 70.1256
6.036, 20, 20.0012, 42.0914, 24.6512, 59.5584, -90.9434, 70.3233
6.04, 20, 19.9146, 42.0408, 24.7674, 59.4119, -90.9464, 70.5294
6.044, 20, 19.8271, 41.9897, 24.8874, 59.2591, -90.9491, 70.7443
6.048, 20, 19.7383, 41.9378, 25.0111, 59.1002, -90.9516, 70.968
6.052, 20, 19.6481, 41.8851, 25.1387, 58.9354, -90.9539, 71.1999
6.056, 20, 19.5563, 41.8317, 25.2699, 58.7651, -90.9561, 71.4395
