hehonglu123/Motion-Primitive-Planning/simulation/robotstudio_sim/scripts/fitting_output/movej/curve_exe_v5000_z10.csv
timestamp, cmd_num, J1, J2, J3, J4, J5, J6
0, 1, -1.13838, 64.0129, 9.40939, 42.9264, -96.1219, 171.423
0.002, 1, -1.13838, 64.0129, 9.40939, 42.9264, -96.1219, 171.423
0.006, 1, -1.13838, 64.0129, 9.40939, 42.9264, -96.1219, 171.423
0.008, 1, -1.13838, 64.0129, 9.40939, 42.9264, -96.1219, 171.423
0.011, 1, -1.13838, 64.0129, 9.40939, 42.9264, -96.1219, 171.423
0.016, 1, -1.13838, 64.0129, 9.40939, 42.9264, -96.1219, 171.423
0.02, 1, -1.13838, 64.0129, 9.40939, 42.9264, -96.1219, 171.423
0.024, 1, -1.13838, 64.0129, 9.40939, 42.9264, -96.1219, 171.423
0.028, 1, -1.13838, 64.0129, 9.40939, 42.9264, -96.1219, 171.423
0.032, 1, -1.13837, 64.0129, 9.40939, 42.9264, -96.1219, 171.423
0.036, 1, -1.13831, 64.0128, 9.40939, 42.9264, -96.1219, 171.423
0.04, 1, -1.13809, 64.0128, 9.4094, 42.9264, -96.1219, 171.423
0.044, 1, -1.13756, 64.0126, 9.40941, 42.9264, -96.1219, 171.423
0.048, 1, -1.1366, 64.0124, 9.40944, 42.9264, -96.1219, 171.423
0.052, 1, -1.13507, 64.0119, 9.40947, 42.9266, -96.1218, 171.422
0.056, 1, -1.13292, 64.0111, 9.40948, 42.9268, -96.1216, 171.422
0.06, 1, -1.1301, 64.01, 9.40943, 42.9273, -96.1212, 171.421
0.064, 1, -1.12656, 64.0086, 9.40928, 42.9281, -96.1206, 171.419
0.068, 1, -1.12225, 64.0068, 9.40896, 42.9294, -96.1195, 171.416
0.072, 1, -1.11709, 64.0044, 9.40838, 42.9314, -96.1178, 171.411
0.076, 1, -1.11091, 64.0015, 9.40745, 42.9344, -96.1154, 171.404
0.08, 1, -1.10351, 63.998, 9.40606, 42.9386, -96.1119, 171.394
0.084, 1, -1.09469, 63.9938, 9.40406, 42.9443, -96.1072, 171.381
0.088, 1, -1.08429, 63.9887, 9.4013, 42.9519, -96.101, 171.363
0.092, 1, -1.07219, 63.9828, 9.39761, 42.9617, -96.0929, 171.341
0.096, 1, -1.05833, 63.9761, 9.39282, 42.9741, -96.0827, 171.312
0.1, 1, -1.04258, 63.9685, 9.38673, 42.9895, -96.0699, 171.276
0.104, 1, -1.02482, 63.9598, 9.37918, 43.0083, -96.0543, 171.233
0.108, 1, -1.00492, 63.9502, 9.37, 43.0309, -96.0357, 171.181
0.112, 1, -0.98278, 63.9396, 9.35905, 43.0575, -96.0136, 171.119
0.116, 1, -0.95839, 63.9281, 9.34618, 43.0885, -95.988, 171.048
0.12, 1, -0.931766, 63.9158, 9.33128, 43.1241, -95.9585, 170.966
0.124, 1, -0.90295, 63.9029, 9.31425, 43.1645, -95.925, 170.873
0.128, 1, -0.871989, 63.8894, 9.29506, 43.2097, -95.8876, 170.769
0.131, 1, -0.838921, 63.8753, 9.27368, 43.2598, -95.846, 170.653
0.136, 1, -0.803752, 63.8607, 9.25015, 43.3147, -95.8005, 170.527
0.139, 1, -0.766449, 63.8453, 9.22456, 43.3743, -95.7511, 170.39
0.144, 1, -0.726979, 63.8291, 9.19701, 43.4383, -95.6981, 170.243
0.148, 1, -0.685361, 63.8119, 9.16766, 43.5064, -95.6416, 170.086
0.152, 1, -0.641687, 63.7939, 9.13664, 43.5782, -95.582, 169.921
0.156, 1, -0.59609, 63.7749, 9.10415, 43.6535, -95.5196, 169.748
0.16, 1, -0.548688, 63.755, 9.07035, 43.7317, -95.4548, 169.568
0.164, 1, -0.499565, 63.7344, 9.03546, 43.8126, -95.3877, 169.382
0.168, 1, -0.448793, 63.7129, 8.99965, 43.8956, -95.3189, 169.191
0.172, 1, -0.396475, 63.6905, 8.96313, 43.9804, -95.2486, 168.996
0.176, 1, -0.342746, 63.6675, 8.92605, 44.0666, -95.1771, 168.797
0.18, 1, -0.287749, 63.6437, 8.88855, 44.1539, -95.1047, 168.596
0.184, 1, -0.231626, 63.6194, 8.85075, 44.242, -95.0316, 168.394
0.188, 1, -0.174527, 63.5945, 8.81275, 44.3308, -94.9581, 168.189
0.192, 1, -0.116606, 63.5692, 8.7746, 44.42, -94.8841, 167.984
0.196, 1, -0.0579902, 63.5435, 8.73635, 44.5096, -94.8099, 167.778
0.2, 1, 0.00122985, 63.5176, 8.69805, 44.5993, -94.7355, 167.571
0.204, 1, 0.0609734, 63.4915, 8.65973, 44.6892, -94.661, 167.364
0.208, 1, 0.121142, 63.4652, 8.62139, 44.7791, -94.5865, 167.157
0.212, 1, 0.181621, 63.4389, 8.58305, 44.8691, -94.5119, 166.95
0.216, 1, 0.242309, 63.4125, 8.54472, 44.959, -94.4373, 166.743
0.22, 1, 0.303127, 63.386, 8.5064, 45.049, -94.3628, 166.536
0.224, 1, 0.364022, 63.3595, 8.46809, 45.139, -94.2882, 166.329
0.228, 1, 0.424959, 63.3331, 8.4298, 45.2289, -94.2137, 166.122
0.232, 1, 0.485914, 63.3066, 8.39153, 45.3187, -94.1392, 165.915
0.236, 1, 0.546868, 63.2801, 8.35328, 45.4086, -94.0648, 165.708
0.24, 1, 0.607813, 63.2536, 8.31505, 45.4984, -93.9904, 165.501
0.244, 1, 0.668738, 63.2271, 8.27685, 45.5881, -93.916, 165.295
0.248, 1, 0.72964, 63.2007, 8.23866, 45.6778, -93.8417, 165.088
0.252, 1, 0.790515, 63.1742, 8.20049, 45.7674, -93.7674, 164.882
0.256, 1, 0.85136, 63.1478, 8.16234, 45.857, -93.6931, 164.676
0.26, 1, 0.912174, 63.1214, 8.12422, 45.9466, -93.6189, 164.469
0.264, 1, 0.972954, 63.095, 8.08612, 46.036, -93.5447, 164.263
0.268, 1, 1.0337, 63.0686, 8.04804, 46.1255, -93.4706, 164.057
0.272, 1, 1.09441, 63.0422, 8.00998, 46.2149, -93.3965, 163.852
0.276, 1, 1.15509, 63.0159, 7.97194, 46.3042, -93.3225, 163.646
0.28, 1, 1.21574, 62.9895, 7.93393, 46.3935, -93.2485, 163.44
0.284, 1, 1.27635, 62.9632, 7.89594, 46.4827, -93.1745, 163.235
0.288, 1, 1.33692, 62.9369, 7.85797, 46.5719, -93.1006, 163.03
0.292, 1, 1.39746, 62.9106, 7.82002, 46.661, -93.0268, 162.824
0.296, 1, 1.45796, 62.8843, 7.7821, 46.7501, -92.9529, 162.619
0.3, 1, 1.51842, 62.858, 7.7442, 46.8391, -92.8792, 162.414
0.304, 1, 1.57885, 62.8318, 7.70632, 46.9281, -92.8054, 162.21
0.308, 1, 1.63924, 62.8055, 7.66846, 47.017, -92.7317, 162.005
0.312, 1, 1.6996, 62.7793, 7.63063, 47.1058, -92.6581, 161.8
0.316, 1, 1.75992, 62.7531, 7.59282, 47.1946, -92.5845, 161.596
0.32, 1, 1.8202, 62.7269, 7.55503, 47.2834, -92.5109, 161.391
0.324, 1, 1.88045, 62.7008, 7.51727, 47.3721, -92.4374, 161.187
0.328, 1, 1.94066, 62.6746, 7.47953, 47.4607, -92.364, 160.983
0.332, 1, 2.00083, 62.6485, 7.44181, 47.5493, -92.2906, 160.779
0.336, 1, 2.06096, 62.6223, 7.40412, 47.6378, -92.2172, 160.575
0.34, 1, 2.12106, 62.5962, 7.36645, 47.7263, -92.1439, 160.372
0.344, 1, 2.18112, 62.5701, 7.3288, 47.8147, -92.0706, 160.168
0.348, 1, 2.24114, 62.5441, 7.29118, 47.9031, -91.9973, 159.965
0.352, 1, 2.30112, 62.518, 7.25358, 47.9914, -91.9241, 159.761
0.356, 1, 2.36107, 62.492, 7.216, 48.0797, -91.851, 159.558
0.36, 1, 2.42097, 62.466, 7.17845, 48.1679, -91.7779, 159.355
0.364, 1, 2.48084, 62.4399, 7.14092, 48.256, -91.7049, 159.152
0.368, 1, 2.54067, 62.414, 7.10342, 48.3441, -91.6319, 158.949
0.372, 1, 2.60046, 62.388, 7.06594, 48.4321, -91.5589, 158.747
0.376, 1, 2.66021, 62.362, 7.02848, 48.5201, -91.486, 158.544
0.38, 1, 2.71993, 62.3361, 6.99105, 48.608, -91.4131, 158.342
0.384, 1, 2.7796, 62.3102, 6.95365, 48.6959, -91.3403, 158.139
0.388, 1, 2.83924, 62.2843, 6.91626, 48.7837, -91.2675, 157.937
0.392, 1, 2.89884, 62.2584, 6.87891, 48.8714, -91.1948, 157.735
0.396, 1, 2.95839, 62.2325, 6.84157, 48.9591, -91.1222, 157.533
0.4, 1, 3.01791, 62.2066, 6.80427, 49.0467, -91.0495, 157.332
0.404, 1, 3.07739, 62.1808, 6.76698, 49.1343, -90.977, 157.13
0.408, 1, 3.13683, 62.155, 6.72972, 49.2218, -90.9044, 156.929
0.412, 1, 3.19623, 62.1292, 6.69249, 49.3092, -90.832, 156.727
0.416, 1, 3.25559, 62.1034, 6.65528, 49.3966, -90.7595, 156.526
0.42, 1, 3.31491, 62.0776, 6.6181, 49.4839, -90.6871, 156.325
0.424, 1, 3.37418, 62.0519, 6.58094, 49.5712, -90.6148, 156.124
0.428, 1, 3.43342, 62.0261, 6.54381, 49.6584, -90.5425, 155.923
0.432, 1, 3.49262, 62.0004, 6.5067, 49.7456, -90.4703, 155.723
0.436, 1, 3.55178, 61.9747, 6.46962, 49.8327, -90.3981, 155.522
0.44, 1, 3.61089, 61.949, 6.43256, 49.9197, -90.326, 155.322
0.444, 1, 3.66997, 61.9234, 6.39553, 50.0067, -90.2539, 155.121
0.448, 1, 3.72901, 61.8977, 6.35853, 50.0936, -90.1819, 154.921
0.452, 1, 3.788, 61.8721, 6.32155, 50.1804, -90.1099, 154.721
0.456, 1, 3.84695, 61.8465, 6.28459, 50.2672, -90.038, 154.522
0.46, 1, 3.90586, 61.8209, 6.24767, 50.354, -89.9661, 154.322
0.464, 1, 3.96473, 61.7953, 6.21077, 50.4406, -89.8943, 154.122
0.468, 1, 4.02356, 61.7698, 6.17389, 50.5272, -89.8225, 153.923
0.472, 1, 4.08235, 61.7442, 6.13704, 50.6138, -89.7507, 153.724
0.476, 1, 4.14109, 61.7187, 6.10022, 50.7003, -89.6791, 153.525
0.48, 1, 4.1998, 61.6932, 6.06342, 50.7867, -89.6074, 153.326
0.484, 1, 4.25846, 61.6677, 6.02665, 50.8731, -89.5359, 153.127
0.488, 1, 4.31708, 61.6423, 5.98991, 50.9594, -89.4643, 152.928
0.492, 1, 4.37565, 61.6168, 5.95319, 51.0456, -89.3929, 152.729
0.496, 1, 4.43419, 61.5914, 5.9165, 51.1318, -89.3214, 152.531
0.5, 1, 4.49268, 61.566, 5.87984, 51.2179, -89.2501, 152.333
0.504, 1, 4.55113, 61.5406, 5.8432, 51.3039, -89.1788, 152.135
0.508, 1, 4.60953, 61.5152, 5.80659, 51.3899, -89.1075, 151.937
0.512, 1, 4.6679, 61.4899, 5.77, 51.4758, -89.0363, 151.739
0.516, 1, 4.72622, 61.4645, 5.73345, 51.5617, -88.9651, 151.541
0.52, 1, 4.7845, 61.4392, 5.69692, 51.6475, -88.894, 151.344
0.524, 1, 4.84273, 61.4139, 5.66041, 51.7332, -88.823, 151.146
0.528, 1, 4.90093, 61.3887, 5.62394, 51.8189, -88.752, 150.949
0.532, 1, 4.95908, 61.3634, 5.58749, 51.9045, -88.681, 150.752
0.536, 1, 5.01718, 61.3382, 5.55107, 51.99, -88.6101, 150.555
0.54, 1, 5.07524, 61.3129, 5.51467, 52.0755, -88.5393, 150.358
0.544, 1, 5.13326, 61.2877, 5.47831, 52.1609, -88.4685, 150.162
0.548, 1, 5.19124, 61.2625, 5.44197, 52.2463, -88.3977, 149.965
0.552, 1, 5.24917, 61.2374, 5.40565, 52.3316, -88.3271, 149.769
0.556, 1, 5.30706, 61.2122, 5.36937, 52.4168, -88.2564, 149.572
0.56, 1, 5.3649, 61.1871, 5.33311, 52.502, -88.1859, 149.376
0.564, 1, 5.4227, 61.162, 5.29688, 52.587, -88.1153, 149.18
0.568, 1, 5.48045, 61.1369, 5.26068, 52.6721, -88.0449, 148.985
0.572, 1, 5.53816, 61.1118, 5.2245, 52.757, -87.9744, 148.789
0.576, 1, 5.59583, 61.0868, 5.18836, 52.8419, -87.9041, 148.594
0.58, 1, 5.65345, 61.0618, 5.15224, 52.9268, -87.8338, 148.398
0.584, 1, 5.71103, 61.0368, 5.11615, 53.0115, -87.7635, 148.203
0.588, 1, 5.76856, 61.0118, 5.08009, 53.0962, -87.6933, 148.008
0.592, 1, 5.82605, 60.9868, 5.04405, 53.1809, -87.6232, 147.813
0.596, 1, 5.88349, 60.9618, 5.00804, 53.2654, -87.5531, 147.619
0.6, 1, 5.94089, 60.9369, 4.97206, 53.3499, -87.4831, 147.424
0.604, 1, 5.99824, 60.912, 4.93611, 53.4344, -87.4131, 147.23
0.608, 1, 6.05555, 60.8871, 4.90019, 53.5187, -87.3432, 147.035
0.612, 1, 6.11282, 60.8622, 4.8643, 53.603, -87.2733, 146.841
0.616, 1, 6.17003, 60.8374, 4.82843, 53.6873, -87.2035, 146.647
0.62, 1, 6.22721, 60.8125, 4.7926, 53.7714, -87.1337, 146.454
0.624, 1, 6.28433, 60.7877, 4.75679, 53.8555, -87.064, 146.26
0.628, 1, 6.34142, 60.7629, 4.72101, 53.9396, -86.9944, 146.066
0.632, 1, 6.39845, 60.7381, 4.68526, 54.0235, -86.9248, 145.873
0.636, 1, 6.45544, 60.7134, 4.64953, 54.1074, -86.8552, 145.68
0.64, 1, 6.51239, 60.6886, 4.61384, 54.1913, -86.7858, 145.487
0.644, 1, 6.56929, 60.6639, 4.57818, 54.275, -86.7163, 145.294
0.648, 1, 6.62614, 60.6392, 4.54254, 54.3587, -86.647, 145.101
0.652, 1, 6.68295, 60.6146, 4.50693, 54.4424, -86.5777, 144.909
0.656, 1, 6.73971, 60.5899, 4.47135, 54.5259, -86.5084, 144.716
0.66, 1, 6.79642, 60.5653, 4.4358, 54.6094, -86.4392, 144.524
0.664, 1, 6.85309, 60.5406, 4.40028, 54.6929, -86.3701, 144.332
0.668, 1, 6.90971, 60.516, 4.36479, 54.7762, -86.301, 144.14
0.672, 1, 6.96629, 60.4915, 4.32933, 54.8595, -86.2319, 143.948
0.676, 1, 7.02282, 60.4669, 4.2939, 54.9427, -86.163, 143.757
0.68, 1, 7.0793, 60.4424, 4.25849, 55.0259, -86.094, 143.565
0.684, 1, 7.13574, 60.4179, 4.22312, 55.1089, -86.0252, 143.374
0.688, 1, 7.19213, 60.3934, 4.18777, 55.192, -85.9564, 143.183
0.692, 1, 7.24847, 60.3689, 4.15246, 55.2749, -85.8876, 142.992
0.696, 1, 7.30476, 60.3444, 4.11717, 55.3578, -85.819, 142.801
0.7, 1, 7.36101, 60.32, 4.08191, 55.4406, -85.7503, 142.611
0.704, 1, 7.41722, 60.2956, 4.04669, 55.5233, -85.6818, 142.42
0.708, 1, 7.47337, 60.2712, 4.01149, 55.606, -85.6133, 142.23
0.712, 1, 7.52948, 60.2468, 3.97632, 55.6886, -85.5448, 142.04
0.716, 1, 7.58554, 60.2225, 3.94118, 55.7711, -85.4764, 141.85
0.72, 1, 7.64155, 60.1981, 3.90607, 55.8536, -85.4081, 141.66
0.724, 1, 7.69752, 60.1738, 3.87099, 55.936, -85.3398, 141.47
0.728, 1, 7.75344, 60.1495, 3.83594, 56.0183, -85.2715, 141.28
0.732, 1, 7.80931, 60.1253, 3.80092, 56.1005, -85.2034, 141.091
0.736, 1, 7.86513, 60.101, 3.76593, 56.1827, -85.1353, 140.902
0.74, 1, 7.92091, 60.0768, 3.73097, 56.2648, -85.0672, 140.713
0.744, 1, 7.97663, 60.0526, 3.69604, 56.3469, -84.9992, 140.524
0.748, 1, 8.03232, 60.0284, 3.66114, 56.4288, -84.9313, 140.335
0.752, 1, 8.08795, 60.0042, 3.62627, 56.5107, -84.8634, 140.147
0.756, 1, 8.14354, 59.9801, 3.59143, 56.5926, -84.7956, 139.958
0.76, 1, 8.19907, 59.956, 3.55662, 56.6743, -84.7278, 139.77
0.764, 1, 8.25456, 59.9319, 3.52184, 56.756, -84.6601, 139.582
0.768, 1, 8.31001, 59.9078, 3.48709, 56.8376, -84.5925, 139.394
0.772, 1, 8.3654, 59.8837, 3.45237, 56.9192, -84.5249, 139.206
0.776, 1, 8.42074, 59.8597, 3.41768, 57.0007, -84.4574, 139.019
0.78, 1, 8.47604, 59.8357, 3.38302, 57.0821, -84.3899, 138.831
0.784, 1, 8.53129, 59.8117, 3.34839, 57.1634, -84.3225, 138.644
0.788, 1, 8.58649, 59.7877, 3.31379, 57.2447, -84.2551, 138.457
0.792, 1, 8.64165, 59.7637, 3.27922, 57.3258, -84.1878, 138.27
0.796, 1, 8.69675, 59.7398, 3.24468, 57.407, -84.1206, 138.083
0.8, 1, 8.75181, 59.7159, 3.21017, 57.488, -84.0534, 137.897
0.804, 1, 8.80682, 59.692, 3.17569, 57.569, -83.9863, 137.71
0.808, 1, 8.86178, 59.6681, 3.14124, 57.6499, -83.9193, 137.524
0.812, 1, 8.91669, 59.6443, 3.10683, 57.7307, -83.8523, 137.338
0.816, 1, 8.97156, 59.6204, 3.07244, 57.8115, -83.7853, 137.152
0.82, 1, 9.02637, 59.5966, 3.03808, 57.8922, -83.7185, 136.966
0.824, 1, 9.08114, 59.5728, 3.00375, 57.9728, -83.6516, 136.78
0.828, 1, 9.13586, 59.5491, 2.96946, 58.0534, -83.5849, 136.595
0.832, 1, 9.19053, 59.5253, 2.93519, 58.1339, -83.5182, 136.41
0.836, 1, 9.24515, 59.5016, 2.90096, 58.2143, -83.4515, 136.224
0.84, 1, 9.29972, 59.4779, 2.86675, 58.2946, -83.385, 136.04
0.844, 1, 9.35425, 59.4542, 2.83258, 58.3749, -83.3184, 135.855
0.848, 1, 9.40872, 59.4305, 2.79843, 58.4551, -83.252, 135.67
0.852, 1, 9.46315, 59.4069, 2.76432, 58.5352, -83.1856, 135.486
0.856, 1, 9.51753, 59.3833, 2.73024, 58.6152, -83.1192, 135.301
0.86, 1, 9.57186, 59.3597, 2.69618, 58.6952, -83.0529, 135.117
0.864, 1, 9.62614, 59.3361, 2.66216, 58.7751, -82.9867, 134.933
0.868, 1, 9.68037, 59.3125, 2.62817, 58.8549, -82.9205, 134.749
0.872, 1, 9.73455, 59.289, 2.59421, 58.9347, -82.8544, 134.566
0.876, 1, 9.78869, 59.2655, 2.56028, 59.0144, -82.7884, 134.382
0.88, 1, 9.84277, 59.242, 2.52638, 59.094, -82.7224, 134.199
0.884, 1, 9.89681, 59.2185, 2.49251, 59.1736, -82.6565, 134.016
0.888, 1, 9.9508, 59.1951, 2.45867, 59.253, -82.5906, 133.833
0.892, 1, 10.0047, 59.1716, 2.42487, 59.3324, -82.5248, 133.65
0.896, 1, 10.0586, 59.1482, 2.39109, 59.4118, -82.4591, 133.467
0.9, 1, 10.1125, 59.1248, 2.35734, 59.491, -82.3934, 133.285
0.904, 1, 10.1663, 59.1015, 2.32363, 59.5702, -82.3277, 133.103
0.908, 1, 10.22, 59.0781, 2.28994, 59.6493, -82.2622, 132.92
0.912, 1, 10.2737, 59.0548, 2.25629, 59.7284, -82.1967, 132.738
0.916, 1, 10.3273, 59.0315, 2.22267, 59.8073, -82.1312, 132.557
0.92, 1, 10.3809, 59.0082, 2.18907, 59.8862, -82.0658, 132.375
0.924, 1, 10.4345, 58.985, 2.15551, 59.9651, -82.0005, 132.193
0.928, 1, 10.488, 58.9617, 2.12198, 60.0438, -81.9352, 132.012
0.932, 1, 10.5414, 58.9385, 2.08848, 60.1225, -81.87, 131.831
0.936, 1, 10.5948, 58.9153, 2.05501, 60.2011, -81.8049, 131.65
0.94, 1, 10.6482, 58.8921, 2.02157, 60.2796, -81.7398, 131.469
0.944, 1, 10.7015, 58.869, 1.98817, 60.3581, -81.6748, 131.289
0.948, 1, 10.7547, 58.8459, 1.95479, 60.4365, -81.6098, 131.108
0.952, 1, 10.8079, 58.8227, 1.92144, 60.5148, -81.5449, 130.928
0.956, 1, 10.8611, 58.7997, 1.88813, 60.593, -81.48, 130.748
0.96, 1, 10.9142, 58.7766, 1.85485, 60.6712, -81.4152, 130.568
0.964, 1, 10.9673, 58.7535, 1.82159, 60.7493, -81.3505, 130.388
0.968, 1, 11.0203, 58.7305, 1.78837, 60.8274, -81.2858, 130.208
0.972, 1, 11.0732, 58.7075, 1.75518, 60.9053, -81.2212, 130.029
0.976, 1, 11.1261, 58.6845, 1.72202, 60.9832, -81.1567, 129.849
0.98, 1, 11.179, 58.6616, 1.68889, 61.061, -81.0922, 129.67
0.984, 1, 11.2318, 58.6386, 1.65579, 61.1387, -81.0278, 129.491
0.988, 1, 11.2846, 58.6157, 1.62272, 61.2164, -80.9634, 129.312
0.992, 1, 11.3373, 58.5928, 1.58968, 61.294, -80.8991, 129.134
0.996, 1, 11.3899, 58.57, 1.55668, 61.3715, -80.8348, 128.955
1, 1, 11.4425, 58.5471, 1.5237, 61.449, -80.7706, 128.777
1.004, 1, 11.4951, 58.5243, 1.49076, 61.5263, -80.7065, 128.599
1.008, 1, 11.5476, 58.5015, 1.45784, 61.6036, -80.6424, 128.421
1.012, 1, 11.6001, 58.4787, 1.42496, 61.6809, -80.5784, 128.243
1.016, 1, 11.6525, 58.4559, 1.39211, 61.758, -80.5145, 128.065
1.02, 1, 11.7049, 58.4332, 1.35929, 61.8351, -80.4506, 127.888
1.024, 1, 11.7572, 58.4104, 1.3265, 61.9121, -80.3868, 127.711
1.027, 1, 11.8095, 58.3877, 1.29374, 61.9891, -80.323, 127.533
1.032, 1, 11.8617, 58.365, 1.26101, 62.0659, -80.2593, 127.356
1.036, 1, 11.9138, 58.3424, 1.22831, 62.1427, -80.1957, 127.18
1.04, 1, 11.966, 58.3197, 1.19564, 62.2195, -80.1321, 127.003
1.044, 1, 12.018, 58.2971, 1.16301, 62.2961, -80.0685, 126.827
1.048, 1, 12.0701, 58.2745, 1.1304, 62.3727, -80.0051, 126.65
1.052, 1, 12.122, 58.252, 1.09783, 62.4492, -79.9417, 126.474
1.055, 1, 12.174, 58.2294, 1.06529, 62.5256, -79.8783, 126.298
1.06, 1, 12.2258, 58.2069, 1.03277, 62.602, -79.815, 126.122
1.064, 1, 12.2777, 58.1844, 1.00029, 62.6783, -79.7518, 125.947
1.068, 1, 12.3294, 58.1619, 0.967841, 62.7545, -79.6886, 125.771
1.072, 1, 12.3812, 58.1394, 0.935421, 62.8306, -79.6255, 125.596
1.076, 1, 12.4329, 58.117, 0.903032, 62.9067, -79.5625, 125.421
1.08, 1, 12.4845, 58.0945, 0.870673, 62.9827, -79.4995, 125.246
1.084, 1, 12.5361, 58.0721, 0.838345, 63.0586, -79.4366, 125.071
1.088, 1, 12.5876, 58.0497, 0.806048, 63.1345, -79.3737, 124.896
1.091, 1, 12.6391, 58.0274, 0.773782, 63.2103, -79.3109, 124.722
1.096, 1, 12.6905, 58.005, 0.741546, 63.286, -79.2481, 124.547
1.1, 1, 12.7419, 57.9827, 0.709341, 63.3616, -79.1854, 124.373
1.104, 1, 12.7932, 57.9604, 0.677167, 63.4372, -79.1228, 124.199
1.108, 1, 12.8445, 57.9381, 0.645023, 63.5127, -79.0602, 124.025
1.112, 1, 12.8958, 57.9159, 0.61291, 63.5881, -78.9977, 123.852
1.116, 1, 12.947, 57.8936, 0.580828, 63.6635, -78.9353, 123.678
1.119, 1, 12.9981, 57.8714, 0.548776, 63.7387, -78.8729, 123.505
1.124, 1, 13.0492, 57.8492, 0.516755, 63.814, -78.8106, 123.332
1.128, 1, 13.1002, 57.8271, 0.484764, 63.8891, -78.7483, 123.159
1.132, 1, 13.1512, 57.8049, 0.452804, 63.9642, -78.6861, 122.986
1.136, 1, 13.2022, 57.7828, 0.420874, 64.0391, -78.6239, 122.813
1.14, 1, 13.2531, 57.7607, 0.388975, 64.1141, -78.5618, 122.641
1.144, 1, 13.3039, 57.7386, 0.357106, 64.1889, -78.4998, 122.469
1.147, 1, 13.3547, 57.7165, 0.325267, 64.2637, -78.4378, 122.296
1.152, 1, 13.4055, 57.6945, 0.293459, 64.3384, -78.3759, 122.124
1.156, 1, 13.4562, 57.6725, 0.261682, 64.413, -78.314, 121.953
1.16, 1, 13.5068, 57.6505, 0.229935, 64.4876, -78.2523, 121.781
1.164, 1, 13.5575, 57.6285, 0.198218, 64.5621, -78.1905, 121.609
1.168, 1, 13.608, 57.6065, 0.166531, 64.6365, -78.1288, 121.438
1.172, 1, 13.6585, 57.5846, 0.134875, 64.7109, -78.0672, 121.267
1.175, 1, 13.709, 57.5627, 0.103249, 64.7851, -78.0057, 121.096
1.18, 1, 13.7594, 57.5408, 0.071653, 64.8594, -77.9442, 120.925
1.184, 1, 13.8098, 57.5189, 0.0400875, 64.9335, -77.8827, 120.754
1.188, 1, 13.8601, 57.497, 0.00855222, 65.0076, -77.8213, 120.584
1.192, 1, 13.9104, 57.4752, -0.0229529, 65.0816, -77.76, 120.413
1.196, 1, 13.9606, 57.4534, -0.0544278, 65.1555, -77.6987, 120.243
1.2, 1, 14.0108, 57.4316, -0.0858726, 65.2293, -77.6375, 120.073
1.204, 1, 14.0609, 57.4098, -0.117287, 65.3031, -77.5764, 119.903
1.208, 1, 14.111, 57.3881, -0.148672, 65.3768, -77.5153, 119.734
1.212, 1, 14.161, 57.3663, -0.180026, 65.4505, -77.4542, 119.564
1.216, 1, 14.211, 57.3446, -0.211351, 65.524, -77.3933, 119.395
1.22, 1, 14.2609, 57.3229, -0.242645, 65.5975, -77.3323, 119.225
1.224, 1, 14.3108, 57.3013, -0.27391, 65.671, -77.2715, 119.056
1.228, 1, 14.3606, 57.2796, -0.305144, 65.7443, -77.2107, 118.887
1.232, 1, 14.4104, 57.258, -0.336349, 65.8176, -77.1499, 118.719
1.236, 1, 14.4602, 57.2364, -0.367524, 65.8908, -77.0893, 118.55
1.24, 1, 14.5099, 57.2148, -0.398668, 65.964, -77.0286, 118.382
1.244, 1, 14.5595, 57.1932, -0.429783, 66.0371, -76.9681, 118.213
1.248, 1, 14.6091, 57.1717, -0.460868, 66.1101, -76.9076, 118.045
1.252, 1, 14.6587, 57.1502, -0.491924, 66.183, -76.8471, 117.877
1.256, 1, 14.7082, 57.1287, -0.522949, 66.2559, -76.7867, 117.71
1.26, 1, 14.7576, 57.1072, -0.553945, 66.3287, -76.7264, 117.542
1.264, 1, 14.807, 57.0857, -0.584911, 66.4014, -76.6661, 117.375
1.267, 1, 14.8564, 57.0643, -0.615847, 66.4741, -76.6059, 117.207
1.272, 1, 14.9057, 57.0429, -0.646753, 66.5467, -76.5457, 117.04
1.276, 1, 14.955, 57.0215, -0.67763, 66.6192, -76.4856, 116.873
1.28, 1, 15.0042, 57.0001, -0.708478, 66.6916, -76.4256, 116.706
1.284, 1, 15.0534, 56.9787, -0.739295, 66.764, -76.3656, 116.54
1.288, 1, 15.1025, 56.9574, -0.770083, 66.8363, -76.3057, 116.373
1.292, 1, 15.1516, 56.9361, -0.800842, 66.9086, -76.2458, 116.207
1.295, 1, 15.2006, 56.9148, -0.831571, 66.9807, -76.186, 116.041
1.3, 1, 15.2496, 56.8935, -0.862271, 67.0528, -76.1262, 115.875
1.304, 1, 15.2985, 56.8722, -0.892941, 67.1249, -76.0665, 115.709
1.308, 1, 15.3474, 56.851, -0.923581, 67.1968, -76.0069, 115.543
1.312, 1, 15.3963, 56.8298, -0.954193, 67.2687, -75.9473, 115.378
1.316, 1, 15.4451, 56.8086, -0.984774, 67.3406, -75.8877, 115.212
1.32, 1, 15.4938, 56.7874, -1.01533, 67.4123, -75.8283, 115.047
1.324, 1, 15.5425, 56.7663, -1.04585, 67.484, -75.7689, 114.882
1.328, 1, 15.5912, 56.7451, -1.07634, 67.5556, -75.7095, 114.717
1.332, 1, 15.6398, 56.724, -1.10681, 67.6272, -75.6502, 114.552
1.336, 1, 15.6884, 56.7029, -1.13725, 67.6987, -75.591, 114.388
1.34, 1, 15.7369, 56.6819, -1.16765, 67.7701, -75.5318, 114.223
1.344, 1, 15.7854, 56.6608, -1.19803, 67.8414, -75.4726, 114.059
1.348, 1, 15.8338, 56.6398, -1.22838, 67.9127, -75.4136, 113.895
1.352, 1, 15.8822, 56.6188, -1.2587, 67.9839, -75.3545, 113.731
1.356, 1, 15.9305, 56.5978, -1.28899, 68.0551, -75.2956, 113.567
1.36, 1, 15.9788, 56.5768, -1.31925, 68.1261, -75.2367, 113.404
1.364, 1, 16.027, 56.5558, -1.34948, 68.1971, -75.1778, 113.24
1.368, 1, 16.0752, 56.5349, -1.37968, 68.2681, -75.119, 113.077
1.372, 1, 16.1234, 56.514, -1.40986, 68.3389, -75.0603, 112.914
1.376, 1, 16.1715, 56.4931, -1.44, 68.4097, -75.0016, 112.751
1.38, 1, 16.2195, 56.4722, -1.47012, 68.4805, -74.943, 112.588
1.384, 1, 16.2675, 56.4514, -1.5002, 68.5511, -74.8844, 112.425
1.388, 1, 16.3155, 56.4305, -1.53026, 68.6217, -74.8259, 112.263
1.392, 1, 16.3634, 56.4097, -1.56029, 68.6923, -74.7675, 112.1
1.396, 1, 16.4113, 56.3889, -1.59029, 68.7627, -74.7091, 111.938
1.4, 1, 16.4591, 56.3682, -1.62026, 68.8331, -74.6507, 111.776
1.404, 1, 16.5069, 56.3474, -1.65021, 68.9035, -74.5924, 111.614
1.408, 1, 16.5546, 56.3267, -1.68012, 68.9737, -74.5342, 111.452
1.412, 1, 16.6023, 56.306, -1.71001, 69.0439, -74.476, 111.291
1.416, 1, 16.65, 56.2853, -1.73987, 69.114, -74.4179, 111.129
1.42, 1, 16.6976, 56.2646, -1.7697, 69.1841, -74.3598, 110.968
1.424, 1, 16.7451, 56.2439, -1.7995, 69.2541, -74.3018, 110.807
1.428, 1, 16.7926, 56.2233, -1.82927, 69.324, -74.2439, 110.646
1.432, 1, 16.8401, 56.2027, -1.85901, 69.3939, -74.186, 110.485
1.436, 1, 16.8875, 56.1821, -1.88873, 69.4637, -74.1281, 110.324
1.44, 1, 16.9349, 56.1615, -1.91842, 69.5334, -74.0704, 110.164
1.444, 1, 16.9822, 56.141, -1.94808, 69.6031, -74.0126, 110.003
1.448, 1, 17.0295, 56.1204, -1.97771, 69.6727, -73.9549, 109.843
1.452, 1, 17.0767, 56.0999, -2.00731, 69.7422, -73.8973, 109.683
1.456, 1, 17.1239, 56.0794, -2.03689, 69.8116, -73.8397, 109.523
1.46, 1, 17.1711, 56.0589, -2.06643, 69.881, -73.7822, 109.363
1.464, 1, 17.2182, 56.0385, -2.09595, 69.9504, -73.7248, 109.204
1.468, 1, 17.2653, 56.018, -2.12545, 70.0196, -73.6674, 109.044
1.472, 1, 17.3123, 55.9976, -2.15491, 70.0888, -73.61, 108.885
1.476, 1, 17.3592, 55.9772, -2.18434, 70.158, -73.5527, 108.726
1.48, 1, 17.4062, 55.9568, -2.21375, 70.2271, -73.4955, 108.567
1.484, 1, 17.4531, 55.9365, -2.24313, 70.2961, -73.4383, 108.408
1.488, 1, 17.4999, 55.9161, -2.27249, 70.365, -73.3811, 108.249
1.492, 1, 17.5467, 55.8958, -2.30181, 70.4339, -73.324, 108.09
1.496, 1, 17.5934, 55.8755, -2.33111, 70.5027, -73.267, 107.932
1.5, 1, 17.6401, 55.8552, -2.36038, 70.5714, -73.21, 107.774
1.504, 1, 17.6868, 55.8349, -2.38962, 70.6401, -73.1531, 107.615
1.508, 1, 17.7334, 55.8147, -2.41883, 70.7087, -73.0962, 107.458
1.512, 1, 17.78, 55.7945, -2.44802, 70.7773, -73.0394, 107.3
1.516, 1, 17.8265, 55.7743, -2.47718, 70.8458, -72.9827, 107.142
1.52, 1, 17.873, 55.7541, -2.50631, 70.9142, -72.926, 106.984
1.524, 1, 17.9195, 55.7339, -2.53542, 70.9825, -72.8693, 106.827
1.528, 1, 17.9659, 55.7137, -2.5645, 71.0508, -72.8127, 106.67
1.532, 1, 18.0122, 55.6936, -2.59355, 71.1191, -72.7561, 106.513
1.536, 1, 18.0585, 55.6735, -2.62257, 71.1872, -72.6997, 106.356
1.54, 1, 18.1048, 55.6534, -2.65157, 71.2553, -72.6432, 106.199
1.544, 1, 18.151, 55.6333, -2.68054, 71.3234, -72.5868, 106.042
1.548, 1, 18.1972, 55.6133, -2.70948, 71.3914, -72.5305, 105.886
1.552, 1, 18.2434, 55.5932, -2.73839, 71.4593, -72.4742, 105.729
1.556, 1, 18.2895, 55.5732, -2.76728, 71.5271, -72.418, 105.573
1.56, 1, 18.3355, 55.5532, -2.79614, 71.5949, -72.3618, 105.417
1.564, 1, 18.3815, 55.5332, -2.82498, 71.6626, -72.3057, 105.261
1.568, 1, 18.4275, 55.5132, -2.85378, 71.7303, -72.2496, 105.105
1.572, 1, 18.4734, 55.4933, -2.88256, 71.7979, -72.1936, 104.95
1.576, 1, 18.5193, 55.4734, -2.91132, 71.8654, -72.1376, 104.794
1.58, 1, 18.5651, 55.4535, -2.94004, 71.9329, -72.0817, 104.639
1.584, 1, 18.6109, 55.4336, -2.96874, 72.0003, -72.0258, 104.484
1.588, 1, 18.6567, 55.4137, -2.99742, 72.0676, -71.97, 104.329
1.592, 1, 18.7024, 55.3938, -3.02607, 72.1349, -71.9142, 104.174
1.596, 1, 18.7481, 55.374, -3.05469, 72.2021, -71.8585, 104.019
1.6, 1, 18.7937, 55.3542, -3.08328, 72.2693, -71.8028, 103.864
1.604, 1, 18.8393, 55.3344, -3.11185, 72.3364, -71.7472, 103.71
1.608, 1, 18.8848, 55.3146, -3.14039, 72.4034, -71.6917, 103.556
1.612, 1, 18.9303, 55.2948, -3.1689, 72.4704, -71.6362, 103.401
1.616, 1, 18.9758, 55.2751, -3.19739, 72.5373, -71.5807, 103.247
1.62, 1, 19.0212, 55.2554, -3.22585, 72.6042, -71.5253, 103.093
1.624, 1, 19.0666, 55.2357, -3.25429, 72.671, -71.47, 102.94
1.628, 1, 19.1119, 55.216, -3.2827, 72.7377, -71.4147, 102.786
1.632, 1, 19.1572, 55.1963, -3.31108, 72.8044, -71.3594, 102.633
1.636, 1, 19.2025, 55.1766, -3.33944, 72.871, -71.3042, 102.479
1.64, 1, 19.2477, 55.157, -3.36777, 72.9375, -71.2491, 102.326
1.644, 1, 19.2929, 55.1374, -3.39608, 73.004, -71.194, 102.173
1.648, 1, 19.338, 55.1178, -3.42435, 73.0704, -71.1389, 102.02
1.652, 1, 19.3831, 55.0982, -3.45261, 73.1368, -71.0839, 101.867
1.656, 1, 19.4281, 55.0786, -3.48083, 73.203, -71.029, 101.715
1.66, 1, 19.4731, 55.0591, -3.50904, 73.2693, -70.9741, 101.562
1.664, 1, 19.5181, 55.0396, -3.53721, 73.3355, -70.9192, 101.41
1.668, 1, 19.563, 55.0201, -3.56536, 73.4016, -70.8644, 101.258
1.672, 1, 19.6079, 55.0006, -3.59348, 73.4676, -70.8097, 101.105
1.676, 1, 19.6527, 54.9811, -3.62158, 73.5336, -70.755, 100.954
1.68, 1, 19.6975, 54.9616, -3.64966, 73.5996, -70.7003, 100.802
1.684, 1, 19.7423, 54.9422, -3.6777, 73.6654, -70.6458, 100.65
1.688, 1, 19.787, 54.9228, -3.70572, 73.7312, -70.5912, 100.499
1.692, 1, 19.8316, 54.9034, -3.73372, 73.797, -70.5367, 100.347
1.696, 1, 19.8763, 54.884, -3.76169, 73.8627, -70.4823, 100.196
1.7, 1, 19.9209, 54.8646, -3.78964, 73.9283, -70.4279, 100.045
1.704, 1, 19.9654, 54.8453, -3.81756, 73.9939, -70.3735, 99.8938
1.708, 1, 20.0099, 54.8259, -3.84545, 74.0594, -70.3192, 99.743
1.712, 1, 20.0544, 54.8066, -3.87332, 74.1249, -70.265, 99.5923
1.716, 1, 20.0988, 54.7873, -3.90116, 74.1903, -70.2108, 99.4417
1.72, 1, 20.1432, 54.7681, -3.92898, 74.2556, -70.1566, 99.2913
1.724, 1, 20.1876, 54.7488, -3.95677, 74.3209, -70.1025, 99.141
1.728, 1, 20.2319, 54.7295, -3.98454, 74.3861, -70.0485, 98.9908
1.732, 1, 20.2762, 54.7103, -4.01228, 74.4512, -69.9945, 98.8408
1.736, 1, 20.3204, 54.6911, -4.04, 74.5163, -69.9405, 98.6909
1.74, 1, 20.3646, 54.6719, -4.06769, 74.5814, -69.8866, 98.5412
1.744, 1, 20.4087, 54.6527, -4.09536, 74.6464, -69.8328, 98.3915
1.748, 1, 20.4528, 54.6336, -4.123, 74.7113, -69.779, 98.2421
1.752, 1, 20.4969, 54.6144, -4.15062, 74.7762, -69.7252, 98.0927
1.756, 1, 20.541, 54.5953, -4.17821, 74.841, -69.6715, 97.9435
1.76, 1, 20.5849, 54.5762, -4.20578, 74.9057, -69.6178, 97.7944
1.764, 1, 20.6289, 54.5571, -4.23332, 74.9704, -69.5642, 97.6455
1.768, 1, 20.6728, 54.538, -4.26084, 75.035, -69.5106, 97.4967
1.772, 1, 20.7167, 54.519, -4.28834, 75.0996, -69.4571, 97.348
1.776, 1, 20.7605, 54.4999, -4.31581, 75.1641, -69.4036, 97.1994
1.78, 1, 20.8043, 54.4809, -4.34325, 75.2286, -69.3502, 97.051
1.784, 1, 20.8481, 54.4619, -4.37067, 75.293, -69.2968, 96.9027
1.788, 1, 20.8918, 54.4429, -4.39807, 75.3574, -69.2435, 96.7546
1.792, 1, 20.9355, 54.424, -4.42544, 75.4216, -69.1902, 96.6066
1.796, 1, 20.9791, 54.405, -4.45279, 75.4859, -69.137, 96.4587
1.8, 1, 21.0227, 54.3861, -4.48012, 75.55, -69.0838, 96.3109
1.804, 1, 21.0663, 54.3671, -4.50742, 75.6142, -69.0307, 96.1633
1.808, 1, 21.1098, 54.3482, -4.53469, 75.6782, -68.9776, 96.0158
1.812, 1, 21.1533, 54.3294, -4.56194, 75.7422, -68.9245, 95.8684
1.816, 1, 21.1968, 54.3105, -4.58917, 75.8062, -68.8715, 95.7212
1.82, 1, 21.2402, 54.2916, -4.61637, 75.8701, -68.8186, 95.5741
1.824, 1, 21.2835, 54.2728, -4.64355, 75.9339, -68.7657, 95.4271
1.828, 1, 21.3269, 54.254, -4.67071, 75.9977, -68.7128, 95.2803
1.832, 1, 21.3702, 54.2352, -4.69784, 76.0614, -68.66, 95.1336
1.836, 1, 21.4134, 54.2164, -4.72495, 76.1251, -68.6072, 94.987
1.84, 1, 21.4566, 54.1976, -4.75203, 76.1887, -68.5545, 94.8405
1.844, 1, 21.4998, 54.1789, -4.77909, 76.2523, -68.5018, 94.6942
1.848, 1, 21.543, 54.1601, -4.80613, 76.3158, -68.4492, 94.548
1.852, 1, 21.5861, 54.1414, -4.83314, 76.3792, -68.3966, 94.4019
1.856, 1, 21.6292, 54.1227, -4.86013, 76.4426, -68.3441, 94.2559
1.86, 1, 21.6722, 54.104, -4.8871, 76.5059, -68.2916, 94.1101
1.864, 1, 21.7152, 54.0853, -4.91404, 76.5692, -68.2391, 93.9644
1.868, 1, 21.7581, 54.0667, -4.94096, 76.6324, -68.1867, 93.8188
1.872, 1, 21.8011, 54.048, -4.96786, 76.6956, -68.1344, 93.6734
1.876, 1, 21.8439, 54.0294, -4.99473, 76.7587, -68.0821, 93.5281
1.88, 1, 21.8868, 54.0108, -5.02158, 76.8218, -68.0298, 93.3829
1.884, 1, 21.9296, 53.9922, -5.04841, 76.8848, -67.9776, 93.2378
1.888, 1, 21.9724, 53.9736, -5.07521, 76.9478, -67.9254, 93.0929
1.892, 1, 22.0151, 53.9551, -5.10199, 77.0107, -67.8733, 92.9481
1.896, 1, 22.0578, 53.9365, -5.12875, 77.0735, -67.8212, 92.8034
1.9, 1, 22.1005, 53.918, -5.15548, 77.1363, -67.7691, 92.6588
1.904, 1, 22.1431, 53.8995, -5.18219, 77.199, -67.7171, 92.5144
1.908, 1, 22.1857, 53.881, -5.20888, 77.2617, -67.6652, 92.3701
1.912, 1, 22.2282, 53.8625, -5.23554, 77.3243, -67.6133, 92.2259
1.916, 1, 22.2707, 53.844, -5.26219, 77.3869, -67.5614, 92.0818
1.92, 1, 22.3132, 53.8256, -5.28881, 77.4494, -67.5096, 91.9378
1.924, 1, 22.3557, 53.8071, -5.3154, 77.5119, -67.4578, 91.794
1.928, 1, 22.3981, 53.7887, -5.34198, 77.5743, -67.4061, 91.6503
1.932, 1, 22.4404, 53.7703, -5.36853, 77.6367, -67.3544, 91.5067
1.936, 1, 22.4828, 53.7519, -5.39506, 77.699, -67.3028, 91.3633
1.94, 1, 22.5251, 53.7336, -5.42156, 77.7612, -67.2512, 91.22
1.944, 1, 22.5673, 53.7152, -5.44804, 77.8234, -67.1996, 91.0767
1.948, 1, 22.6096, 53.6969, -5.4745, 77.8856, -67.1481, 90.9337
1.952, 1, 22.6517, 53.6785, -5.50094, 77.9477, -67.0967, 90.7907
1.956, 1, 22.6939, 53.6602, -5.52736, 78.0097, -67.0452, 90.6478
1.96, 1, 22.736, 53.6419, -5.55375, 78.0717, -66.9939, 90.5051
1.964, 1, 22.7781, 53.6237, -5.58012, 78.1337, -66.9425, 90.3625
1.968, 1, 22.8201, 53.6054, -5.60647, 78.1955, -66.8912, 90.22
1.972, 1, 22.8622, 53.5872, -5.6328, 78.2574, -66.84, 90.0777
1.976, 1, 22.9041, 53.5689, -5.6591, 78.3192, -66.7888, 89.9354
1.98, 1, 22.9461, 53.5507, -5.68539, 78.3809, -66.7376, 89.7933
1.984, 1, 22.988, 53.5325, -5.71165, 78.4426, -66.6865, 89.6513
1.988, 1, 23.0298, 53.5143, -5.73788, 78.5042, -66.6354, 89.5094
1.992, 1, 23.0717, 53.4962, -5.7641, 78.5658, -66.5844, 89.3676
1.996, 1, 23.1135, 53.478, -5.79029, 78.6273, -66.5334, 89.226
1.999, 1, 23.1552, 53.4599, -5.81646, 78.6887, -66.4825, 89.0845
2.004, 1, 23.197, 53.4417, -5.84261, 78.7502, -66.4316, 88.9431
2.008, 1, 23.2387, 53.4236, -5.86874, 78.8115, -66.3807, 88.8018
2.012, 1, 23.2803, 53.4055, -5.89485, 78.8729, -66.3299, 88.6606
2.015, 1, 23.322, 53.3875, -5.92093, 78.9341, -66.2791, 88.5195
2.019, 1, 23.3635, 53.3694, -5.947, 78.9953, -66.2284, 88.3786
2.024, 1, 23.4051, 53.3513, -5.97304, 79.0565, -66.1777, 88.2378
2.028, 1, 23.4466, 53.3333, -5.99906, 79.1176, -66.127, 88.0971
2.031, 1, 23.4881, 53.3153, -6.02505, 79.1787, -66.0764, 87.9565
2.036, 1, 23.5296, 53.2973, -6.05103, 79.2397, -66.0259, 87.816
2.04, 1, 23.571, 53.2793, -6.07698, 79.3006, -65.9753, 87.6757
2.044, 1, 23.6124, 53.2613, -6.10292, 79.3615, -65.9249, 87.5354
2.048, 1, 23.6537, 53.2434, -6.12883, 79.4224, -65.8744, 87.3953
2.051, 1, 23.695, 53.2254, -6.15472, 79.4832, -65.824, 87.2553
2.055, 1, 23.7363, 53.2075, -6.18059, 79.544, -65.7737, 87.1154
2.06, 1, 23.7776, 53.1896, -6.20643, 79.6047, -65.7234, 86.9757
2.064, 1, 23.8188, 53.1717, -6.23226, 79.6653, -65.6731, 86.836
2.068, 1, 23.8599, 53.1538, -6.25807, 79.726, -65.6229, 86.6964
2.071, 1, 23.9011, 53.1359, -6.28385, 79.7865, -65.5727, 86.557
2.076, 1, 23.9422, 53.1181, -6.30961, 79.847, -65.5225, 86.4177
2.08, 1, 23.9833, 53.1002, -6.33535, 79.9075, -65.4724, 86.2785
2.084, 1, 24.0243, 53.0824, -6.36107, 79.9679, -65.4223, 86.1394
2.087, 1, 24.0653, 53.0646, -6.38677, 80.0282, -65.3723, 86.0005
2.092, 1, 24.1063, 53.0468, -6.41245, 80.0886, -65.3223, 85.8616
2.096, 1, 24.1473, 53.029, -6.43811, 80.1488, -65.2724, 85.7228
2.1, 1, 24.1882, 53.0112, -6.46375, 80.209, -65.2225, 85.5842
2.104, 1, 24.2291, 52.9935, -6.48936, 80.2692, -65.1726, 85.4457
2.107, 1, 24.2699, 52.9757, -6.51496, 80.3293, -65.1228, 85.3073
2.111, 1, 24.3107, 52.958, -6.54053, 80.3894, -65.073, 85.169
2.116, 1, 24.3515, 52.9403, -6.56609, 80.4494, -65.0233, 85.0308
2.12, 1, 24.3922, 52.9226, -6.59162, 80.5094, -64.9736, 84.8927
2.124, 1, 24.433, 52.9049, -6.61713, 80.5693, -64.9239, 84.7547
2.127, 1, 24.4736, 52.8873, -6.64263, 80.6292, -64.8743, 84.6169
2.132, 1, 24.5143, 52.8696, -6.6681, 80.689, -64.8247, 84.4791
2.136, 1, 24.5549, 52.852, -6.69355, 80.7488, -64.7751, 84.3415
2.14, 1, 24.5955, 52.8343, -6.71898, 80.8085, -64.7256, 84.204
2.143, 1, 24.636, 52.8167, -6.74439, 80.8682, -64.6762, 84.0666
2.148, 1, 24.6766, 52.7991, -6.76978, 80.9278, -64.6267, 83.9293
2.152, 1, 24.717, 52.7815, -6.79515, 80.9874, -64.5774, 83.7921
2.156, 1, 24.7575, 52.764, -6.8205, 81.047, -64.528, 83.655
2.16, 1, 24.7979, 52.7464, -6.84583, 81.1065, -64.4787, 83.518
2.163, 1, 24.8383, 52.7289, -6.87114, 81.1659, -64.4294, 83.3811
2.168, 1, 24.8787, 52.7113, -6.89643, 81.2253, -64.3802, 83.2444
2.172, 1, 24.919, 52.6938, -6.9217, 81.2846, -64.331, 83.1077
2.176, 1, 24.9593, 52.6763, -6.94695, 81.344, -64.2819, 82.9712
2.179, 1, 24.9995, 52.6588, -6.97218, 81.4032, -64.2328, 82.8348
2.184, 1, 25.0398, 52.6414, -6.99739, 81.4624, -64.1837, 82.6984
2.188, 1, 25.08, 52.6239, -7.02258, 81.5216, -64.1347, 82.5622
2.192, 1, 25.1201, 52.6065, -7.04776, 81.5807, -64.0856, 82.4261
2.196, 1, 25.1603, 52.589, -7.07291, 81.6398, -64.0367, 82.2901
2.199, 1, 25.2004, 52.5716, -7.09804, 81.6988, -63.9878, 82.1542
2.204, 1, 25.2405, 52.5542, -7.12315, 81.7578, -63.9389, 82.0184
2.208, 1, 25.2805, 52.5368, -7.14824, 81.8167, -63.89, 81.8827
2.212, 1, 25.3205, 52.5194, -7.17331, 81.8756, -63.8412, 81.7471
2.216, 1, 25.3605, 52.5021, -7.19837, 81.9344, -63.7925, 81.6116
2.219, 1, 25.4004, 52.4847, -7.2234, 81.9932, -63.7437, 81.4763
2.224, 1, 25.4404, 52.4674, -7.24841, 82.052, -63.695, 81.341
2.228, 1, 25.4802, 52.4501, -7.27341, 82.1107, -63.6464, 81.2058
2.232, 1, 25.5201, 52.4328, -7.29838, 82.1694, -63.5978, 81.0708
2.235, 1, 25.5599, 52.4155, -7.32334, 82.228, -63.5492, 80.9358
2.24, 1, 25.5997, 52.3982, -7.34828, 82.2865, -63.5007, 80.801
2.244, 1, 25.6395, 52.3809, -7.37319, 82.3451, -63.4522, 80.6662
2.248, 1, 25.6792, 52.3636, -7.39809, 82.4035, -63.4037, 80.5316
2.252, 1, 25.7189, 52.3464, -7.42297, 82.462, -63.3553, 80.3971
2.255, 1, 25.7586, 52.3292, -7.44783, 82.5204, -63.3069, 80.2626
2.259, 1, 25.7982, 52.312, -7.47267, 82.5787, -63.2585, 80.1283
2.264, 1, 25.8378, 52.2948, -7.49749, 82.637, -63.2102, 79.9941
2.268, 1, 25.8774, 52.2776, -7.5223, 82.6953, -63.1619, 79.8599
2.272, 1, 25.917, 52.2604, -7.54708, 82.7535, -63.1137, 79.7259
2.275, 1, 25.9565, 52.2432, -7.57185, 82.8116, -63.0655, 79.592
2.28, 1, 25.996, 52.2261, -7.59659, 82.8698, -63.0173, 79.4582
2.284, 1, 26.0354, 52.2089, -7.62132, 82.9278, -62.9692, 79.3245
2.288, 1, 26.0749, 52.1918, -7.64603, 82.9859, -62.9211, 79.1908
2.291, 1, 26.1143, 52.1747, -7.67072, 83.0439, -62.873, 79.0573
2.296, 1, 26.1536, 52.1576, -7.69539, 83.1018, -62.825, 78.9239
2.3, 1, 26.193, 52.1405, -7.72004, 83.1597, -62.777, 78.7906
2.304, 1, 26.2323, 52.1234, -7.74468, 83.2176, -62.729, 78.6574
2.308, 1, 26.2716, 52.1064, -7.76929, 83.2754, -62.6811, 78.5243
2.311, 1, 26.3108, 52.0893, -7.79389, 83.3332, -62.6332, 78.3913
2.316, 1, 26.35, 52.0723, -7.81846, 83.3909, -62.5854, 78.2584
2.32, 1, 26.3892, 52.0553, -7.84302, 83.4486, -62.5376, 78.1256
2.324, 1, 26.4284, 52.0383, -7.86757, 83.5062, -62.4898, 77.9928
2.328, 1, 26.4675, 52.0213, -7.89209, 83.5638, -62.4421, 77.8602
2.331, 1, 26.5066, 52.0043, -7.91659, 83.6214, -62.3944, 77.7277
2.336, 1, 26.5457, 51.9873, -7.94108, 83.6789, -62.3467, 77.5953
2.34, 1, 26.5848, 51.9703, -7.96555, 83.7364, -62.2991, 77.463
2.344, 1, 26.6238, 51.9534, -7.99, 83.7938, -62.2515, 77.3308
2.347, 1, 26.6628, 51.9365, -8.01443, 83.8512, -62.2039, 77.1987
2.352, 1, 26.7017, 51.9195, -8.03884, 83.9085, -62.1564, 77.0666
2.356, 1, 26.7407, 51.9026, -8.06324, 83.9658, -62.1089, 76.9347
2.36, 1, 26.7796, 51.8857, -8.08762, 84.023, -62.0615, 76.8029
2.364, 1, 26.8184, 51.8689, -8.11197, 84.0803, -62.014, 76.6712
2.367, 1, 26.8573, 51.852, -8.13632, 84.1374, -61.9667, 76.5395
2.372, 1, 26.8961, 51.8351, -8.16064, 84.1946, -61.9193, 76.408
2.376, 1, 26.9349, 51.8183, -8.18494, 84.2516, -61.872, 76.2766
2.38, 1, 26.9736, 51.8014, -8.20923, 84.3087, -61.8247, 76.1452
2.383, 1, 27.0124, 51.7846, -8.2335, 84.3657, -61.7775, 76.014
2.388, 1, 27.0511, 51.7678, -8.25775, 84.4227, -61.7303, 75.8829
2.392, 1, 27.0897, 51.751, -8.28199, 84.4796, -61.6831, 75.7518
2.396, 1, 27.1284, 51.7342, -8.3062, 84.5365, -61.636, 75.6208
2.4, 1, 27.167, 51.7175, -8.3304, 84.5933, -61.5889, 75.49
2.403, 1, 27.2056, 51.7007, -8.35458, 84.6501, -61.5418, 75.3592
2.408, 1, 27.2441, 51.684, -8.37875, 84.7068, -61.4947, 75.2286
2.412, 1, 27.2827, 51.6672, -8.40289, 84.7635, -61.4477, 75.098
2.416, 1, 27.3212, 51.6505, -8.42702, 84.8202, -61.4008, 74.9675
2.42, 1, 27.3596, 51.6338, -8.45113, 84.8768, -61.3538, 74.8371
2.423, 1, 27.3981, 51.6171, -8.47522, 84.9334, -61.3069, 74.7068
2.428, 1, 27.4365, 51.6004, -8.4993, 84.99, -61.2601, 74.5767
2.432, 1, 27.4749, 51.5837, -8.52335, 85.0465, -61.2132, 74.4466
2.436, 1, 27.5133, 51.5671, -8.5474, 85.1029, -61.1665, 74.3166
2.439, 1, 27.5516, 51.5504, -8.57142, 85.1594, -61.1197, 74.1867
2.444, 1, 27.5899, 51.5338, -8.59543, 85.2158, -61.073, 74.0568
2.448, 1, 27.6282, 51.5172, -8.61941, 85.2721, -61.0263, 73.9271
2.452, 1, 27.6664, 51.5005, -8.64338, 85.3284, -60.9796, 73.7975
2.456, 1, 27.7047, 51.4839, -8.66734, 85.3847, -60.933, 73.6679
2.459, 1, 27.7429, 51.4673, -8.69128, 85.4409, -60.8864, 73.5385
2.464, 1, 27.781, 51.4508, -8.7152, 85.4971, -60.8398, 73.4091
2.468, 1, 27.8192, 51.4342, -8.7391, 85.5532, -60.7933, 73.2799
2.472, 1, 27.8573, 51.4176, -8.76299, 85.6093, -60.7468, 73.1507
2.476, 1, 27.8954, 51.4011, -8.78685, 85.6654, -60.7003, 73.0216
2.479, 1, 27.9335, 51.3846, -8.81071, 85.7214, -60.6539, 72.8927
2.484, 1, 27.9715, 51.368, -8.83454, 85.7774, -60.6075, 72.7638
2.488, 1, 28.0095, 51.3515, -8.85836, 85.8333, -60.5611, 72.635
2.492, 1, 28.0475, 51.335, -8.88216, 85.8892, -60.5148, 72.5062
2.495, 1, 28.0854, 51.3186, -8.90595, 85.9451, -60.4685, 72.3776
2.5, 1, 28.1234, 51.3021, -8.92972, 86.0009, -60.4222, 72.2491
2.504, 1, 28.1613, 51.2856, -8.95347, 86.0567, -60.376, 72.1207
2.508, 1, 28.1992, 51.2692, -8.9772, 86.1124, -60.3298, 71.9923
2.512, 1, 28.237, 51.2527, -9.00092, 86.1682, -60.2836, 71.864
2.515, 1, 28.2748, 51.2363, -9.02462, 86.2238, -60.2375, 71.7359
2.52, 1, 28.3126, 51.2199, -9.04831, 86.2794, -60.1914, 71.6078
2.524, 1, 28.3504, 51.2035, -9.07198, 86.335, -60.1453, 71.4798
2.528, 1, 28.3881, 51.1871, -9.09563, 86.3906, -60.0993, 71.3519
2.531, 1, 28.4259, 51.1707, -9.11927, 86.4461, -60.0532, 71.2241
2.536, 1, 28.4636, 51.1543, -9.14288, 86.5016, -60.0073, 71.0964
2.54, 1, 28.5012, 51.138, -9.16649, 86.557, -59.9613, 70.9687
2.544, 1, 28.5389, 51.1216, -9.19007, 86.6124, -59.9154, 70.8412
2.548, 1, 28.5765, 51.1053, -9.21365, 86.6678, -59.8695, 70.7137
2.551, 1, 28.6141, 51.089, -9.2372, 86.7231, -59.8237, 70.5863
2.556, 1, 28.6516, 51.0727, -9.26074, 86.7784, -59.7779, 70.459
2.56, 1, 28.6892, 51.0563, -9.28426, 86.8336, -59.7321, 70.3318
2.564, 1, 28.7267, 51.0401, -9.30777, 86.8889, -59.6863, 70.2047
2.568, 1, 28.7642, 51.0238, -9.33126, 86.944, -59.6406, 70.0777
2.571, 1, 28.8016, 51.0075, -9.35473, 86.9992, -59.5949, 69.9508
2.576, 1, 28.8391, 50.9912, -9.37819, 87.0543, -59.5492, 69.8239
2.58, 1, 28.8765, 50.975, -9.40163, 87.1093, -59.5036, 69.6971
2.584, 1, 28.9138, 50.9588, -9.42506, 87.1643, -59.458, 69.5705
2.587, 1, 28.9512, 50.9425, -9.44847, 87.2193, -59.4124, 69.4439
2.592, 1, 28.9885, 50.9263, -9.47186, 87.2743, -59.3669, 69.3174
2.596, 1, 29.0258, 50.9101, -9.49524, 87.3292, -59.3214, 69.1909
2.6, 1, 29.0631, 50.8939, -9.5186, 87.384, -59.2759, 69.0646
2.604, 1, 29.1004, 50.8777, -9.54195, 87.4389, -59.2304, 68.9384
2.607, 1, 29.1376, 50.8616, -9.56528, 87.4937, -59.185, 68.8122
2.612, 1, 29.1748, 50.8454, -9.58859, 87.5484, -59.1396, 68.6861
2.616, 1, 29.212, 50.8293, -9.61189, 87.6032, -59.0943, 68.5601
2.62, 1, 29.2492, 50.8131, -9.63518, 87.6579, -59.049, 68.4342
2.624, 1, 29.2863, 50.797, -9.65845, 87.7125, -59.0037, 68.3084
2.627, 1, 29.3234, 50.7809, -9.6817, 87.7671, -58.9584, 68.1826
2.632, 1, 29.3605, 50.7648, -9.70494, 87.8217, -58.9132, 68.057
2.636, 1, 29.3975, 50.7487, -9.72816, 87.8763, -58.868, 67.9314
2.64, 1, 29.4346, 50.7326, -9.75137, 87.9307, -58.8228, 67.8059
2.643, 1, 29.4716, 50.7165, -9.77456, 87.9852, -58.7776, 67.6805
2.648, 1, 29.5086, 50.7005, -9.79774, 88.0397, -58.7325, 67.5551
2.652, 1, 29.5455, 50.6844, -9.8209, 88.0941, -58.6874, 67.4299
2.656, 1, 29.5825, 50.6684, -9.84404, 88.1484, -58.6424, 67.3047
2.66, 1, 29.6194, 50.6523, -9.86717, 88.2027, -58.5974, 67.1797
2.663, 1, 29.6563, 50.6363, -9.89029, 88.257, -58.5524, 67.0547
2.668, 1, 29.6931, 50.6203, -9.91338, 88.3113, -58.5074, 66.9297
2.672, 1, 29.73, 50.6043, -9.93647, 88.3655, -58.4625, 66.8049
2.676, 1, 29.7668, 50.5883, -9.95954, 88.4197, -58.4176, 66.6802
2.679, 1, 29.8036, 50.5723, -9.98259, 88.4738, -58.3727, 66.5555
2.684, 1, 29.8403, 50.5564, -10.0056, 88.528, -58.3278, 66.4309
2.688, 1, 29.8771, 50.5404, -10.0287, 88.582, -58.283, 66.3064
2.692, 1, 29.9138, 50.5245, -10.0517, 88.6361, -58.2382, 66.182
2.696, 1, 29.9505, 50.5085, -10.0747, 88.6901, -58.1935, 66.0576
2.699, 1, 29.9871, 50.4926, -10.0976, 88.7441, -58.1487, 65.9334
2.704, 1, 30.0238, 50.4767, -10.1206, 88.798, -58.104, 65.8092
2.708, 1, 30.0604, 50.4608, -10.1436, 88.8519, -58.0594, 65.6851
2.712, 1, 30.097, 50.4449, -10.1665, 88.9058, -58.0147, 65.5611
2.716, 1, 30.1336, 50.429, -10.1894, 88.9596, -57.9701, 65.4371
2.719, 1, 30.1701, 50.4131, -10.2123, 89.0134, -57.9255, 65.3132
2.724, 1, 30.2067, 50.3972, -10.2352, 89.0671, -57.881, 65.1895
2.728, 1, 30.2432, 50.3814, -10.2581, 89.1209, -57.8364, 65.0658
2.732, 1, 30.2797, 50.3655, -10.2809, 89.1746, -57.7919, 64.9421
2.735, 1, 30.3161, 50.3497, -10.3038, 89.2282, -57.7475, 64.8186
2.74, 1, 30.3525, 50.3339, -10.3266, 89.2819, -57.703, 64.6951
2.744, 1, 30.389, 50.3181, -10.3494, 89.3355, -57.6586, 64.5717
2.748, 1, 30.4253, 50.3023, -10.3722, 89.389, -57.6142, 64.4484
2.752, 1, 30.4617, 50.2865, -10.395, 89.4425, -57.5698, 64.3252
2.755, 1, 30.4981, 50.2707, -10.4178, 89.496, -57.5255, 64.2021
2.76, 1, 30.5344, 50.2549, -10.4406, 89.5495, -57.4812, 64.079
2.764, 1, 30.5707, 50.2392, -10.4633, 89.6029, -57.4369, 63.956
2.768, 1, 30.6069, 50.2234, -10.486, 89.6563, -57.3927, 63.8331
2.772, 1, 30.6432, 50.2077, -10.5087, 89.7096, -57.3485, 63.7102
2.775, 1, 30.6794, 50.1919, -10.5314, 89.763, -57.3043, 63.5875
2.78, 1, 30.7156, 50.1762, -10.5541, 89.8162, -57.2601, 63.4648
2.784, 1, 30.7518, 50.1605, -10.5768, 89.8695, -57.216, 63.3422
2.788, 1, 30.788, 50.1448, -10.5995, 89.9227, -57.1719, 63.2197
2.791, 1, 30.8241, 50.1291, -10.6221, 89.9759, -57.1278, 63.0972
2.796, 1, 30.8602, 50.1134, -10.6447, 90.029, -57.0837, 62.9748
2.8, 1, 30.8963, 50.0977, -10.6674, 90.0822, -57.0397, 62.8525
2.804, 1, 30.9324, 50.0821, -10.69, 90.1352, -56.9957, 62.7303
2.808, 1, 30.9684, 50.0664, -10.7125, 90.1883, -56.9518, 62.6082
2.811, 1, 31.0044, 50.0508, -10.7351, 90.2413, -56.9078, 62.4861
2.816, 1, 31.0404, 50.0351, -10.7577, 90.2943, -56.8639, 62.3641
2.82, 1, 31.0764, 50.0195, -10.7802, 90.3473, -56.82, 62.2422
2.824, 1, 31.1124, 50.0039, -10.8028, 90.4002, -56.7761, 62.1203
2.828, 1, 31.1483, 49.9883, -10.8253, 90.4531, -56.7323, 61.9986
2.831, 1, 31.1842, 49.9727, -10.8478, 90.5059, -56.6885, 61.8769
2.836, 1, 31.2201, 49.9571, -10.8703, 90.5587, -56.6447, 61.7552
2.84, 1, 31.256, 49.9415, -10.8927, 90.6115, -56.601, 61.6337
2.844, 1, 31.2918, 49.9259, -10.9152, 90.6643, -56.5573, 61.5122
2.847, 1, 31.3276, 49.9104, -10.9377, 90.717, -56.5136, 61.3908
2.852, 1, 31.3634, 49.8948, -10.9601, 90.7697, -56.4699, 61.2695
2.856, 1, 31.3992, 49.8793, -10.9825, 90.8224, -56.4262, 61.1483
2.86, 1, 31.435, 49.8638, -11.0049, 90.875, -56.3826, 61.0271
2.864, 1, 31.4707, 49.8482, -11.0273, 90.9276, -56.339, 60.906
2.867, 1, 31.5064, 49.8327, -11.0497, 90.9802, -56.2955, 60.785
2.872, 1, 31.5421, 49.8172, -11.0721, 91.0327, -56.2519, 60.664
2.876, 1, 31.5778, 49.8017, -11.0944, 91.0852, -56.2084, 60.5432
2.88, 1, 31.6134, 49.7862, -11.1167, 91.1377, -56.1649, 60.4224
2.883, 1, 31.6491, 49.7708, -11.1391, 91.1901, -56.1215, 60.3016
2.888, 1, 31.6847, 49.7553, -11.1614, 91.2425, -56.078, 60.181
2.892, 1, 31.7203, 49.7398, -11.1837, 91.2949, -56.0346, 60.0604
2.896, 1, 31.7558, 49.7244, -11.206, 91.3472, -55.9912, 59.9399
2.9, 1, 31.7914, 49.709, -11.2282, 91.3995, -55.9479, 59.8194
2.903, 1, 31.8269, 49.6935, -11.2505, 91.4518, -55.9046, 59.6991
2.908, 1, 31.8624, 49.6781, -11.2727, 91.5041, -55.8613, 59.5788
2.912, 1, 31.8979, 49.6627, -11.295, 91.5563, -55.818, 59.4585
2.916, 1, 31.9333, 49.6473, -11.3172, 91.6085, -55.7747, 59.3384
2.92, 1, 31.9687, 49.6319, -11.3394, 91.6606, -55.7315, 59.2183
2.923, 1, 32.0042, 49.6165, -11.3616, 91.7128, -55.6883, 59.0983
2.928, 1, 32.0396, 49.6012, -11.3838, 91.7649, -55.6451, 58.9783
2.932, 1, 32.0749, 49.5858, -11.4059, 91.8169, -55.602, 58.8585
2.936, 1, 32.1103, 49.5704, -11.4281, 91.8689, -55.5589, 58.7387
2.939, 1, 32.1456, 49.5551, -11.4502, 91.921, -55.5158, 58.6189
2.944, 1, 32.1809, 49.5398, -11.4724, 91.9729, -55.4727, 58.4993
2.948, 1, 32.2162, 49.5244, -11.4945, 92.0249, -55.4296, 58.3797
2.952, 1, 32.2515, 49.5091, -11.5166, 92.0768, -55.3866, 58.2602
2.956, 1, 32.2867, 49.4938, -11.5387, 92.1286, -55.3436, 58.1407
2.959, 1, 32.322, 49.4785, -11.5607, 92.1805, -55.3006, 58.0214
2.964, 1, 32.3572, 49.4632, -11.5828, 92.2323, -55.2577, 57.9021
2.968, 1, 32.3924, 49.4479, -11.6049, 92.2841, -55.2148, 57.7828
2.972, 1, 32.4275, 49.4327, -11.6269, 92.3359, -55.1719, 57.6637
2.976, 1, 32.4627, 49.4174, -11.6489, 92.3876, -55.129, 57.5445
2.98, 1, 32.4978, 49.4021, -11.6709, 92.4393, -55.0862, 57.4255
2.984, 1, 32.5329, 49.3869, -11.6929, 92.491, -55.0433, 57.3066
2.988, 1, 32.568, 49.3717, -11.7149, 92.5426, -55.0005, 57.1877
2.992, 1, 32.603, 49.3564, -11.7369, 92.5942, -54.9578, 57.0688
2.995, 1, 32.6381, 49.3412, -11.7588, 92.6458, -54.915, 56.9501
3, 1, 32.6731, 49.326, -11.7808, 92.6973, -54.8723, 56.8314
3.004, 1, 32.7081, 49.3108, -11.8027, 92.7489, -54.8296, 56.7128
3.008, 1, 32.7431, 49.2956, -11.8247, 92.8004, -54.7869, 56.5942
3.012, 1, 32.7781, 49.2804, -11.8466, 92.8518, -54.7443, 56.4757
3.015, 1, 32.813, 49.2652, -11.8685, 92.9033, -54.7016, 56.3573
3.02, 1, 32.8479, 49.2501, -11.8903, 92.9547, -54.659, 56.239
3.024, 1, 32.8828, 49.2349, -11.9122, 93.006, -54.6164, 56.1207
3.028, 1, 32.9177, 49.2197, -11.9341, 93.0574, -54.5739, 56.0025
3.031, 1, 32.9526, 49.2046, -11.9559, 93.1087, -54.5314, 55.8843
3.036, 1, 32.9874, 49.1895, -11.9778, 93.16, -54.4889, 55.7662
3.04, 1, 33.0223, 49.1743, -11.9996, 93.2112, -54.4464, 55.6482
3.044, 1, 33.0571, 49.1592, -12.0214, 93.2625, -54.4039, 55.5303
3.048, 1, 33.0919, 49.1441, -12.0432, 93.3137, -54.3615, 55.4124
3.051, 1, 33.1266, 49.129, -12.065, 93.3648, -54.3191, 55.2946
3.056, 1, 33.1614, 49.1139, -12.0868, 93.416, -54.2767, 55.1768
3.06, 1, 33.1961, 49.0988, -12.1085, 93.4671, -54.2343, 55.0592
3.064, 1, 33.2308, 49.0838, -12.1303, 93.5182, -54.192, 54.9415
3.068, 1, 33.2655, 49.0687, -12.152, 93.5692, -54.1497, 54.824
3.071, 1, 33.3002, 49.0536, -12.1737, 93.6203, -54.1074, 54.7065
3.076, 1, 33.3348, 49.0386, -12.1954, 93.6713, -54.0651, 54.5891
3.08, 1, 33.3694, 49.0235, -12.2172, 93.7222, -54.0229, 54.4717
3.084, 1, 33.4041, 49.0085, -12.2388, 93.7732, -53.9806, 54.3544
3.087, 1, 33.4386, 48.9935, -12.2605, 93.8241, -53.9384, 54.2372
3.092, 1, 33.4732, 48.9785, -12.2822, 93.875, -53.8963, 54.1201
3.096, 1, 33.5078, 48.9635, -12.3038, 93.9258, -53.8541, 54.003
3.1, 1, 33.5423, 48.9485, -12.3255, 93.9767, -53.812, 53.8859
3.104, 1, 33.5768, 48.9335, -12.3471, 94.0275, -53.7699, 53.769
3.107, 1, 33.6113, 48.9185, -12.3687, 94.0782, -53.7278, 53.6521
3.112, 1, 33.6458, 48.9035, -12.3903, 94.129, -53.6858, 53.5352
3.116, 1, 33.6803, 48.8885, -12.4119, 94.1797, -53.6437, 53.4184
3.12, 1, 33.7147, 48.8736, -12.4335, 94.2304, -53.6017, 53.3017
3.124, 1, 33.7491, 48.8586, -12.4551, 94.2811, -53.5597, 53.1851
3.128, 1, 33.7835, 48.8437, -12.4766, 94.3317, -53.5177, 53.0685
3.132, 1, 33.8179, 48.8288, -12.4982, 94.3823, -53.4758, 52.952
3.136, 1, 33.8523, 48.8138, -12.5197, 94.4329, -53.4339, 52.8355
3.14, 1, 33.8866, 48.7989, -12.5412, 94.4834, -53.392, 52.7191
3.143, 1, 33.9209, 48.784, -12.5628, 94.534, -53.3501, 52.6028
3.148, 1, 33.9553, 48.7691, -12.5843, 94.5845, -53.3083, 52.4865
3.152, 1, 33.9895, 48.7542, -12.6057, 94.6349, -53.2664, 52.3703
3.156, 1, 34.0238, 48.7393, -12.6272, 94.6854, -53.2246, 52.2542
3.16, 1, 34.0581, 48.7245, -12.6487, 94.7358, -53.1828, 52.1381
3.163, 1, 34.0923, 48.7096, -12.6701, 94.7862, -53.1411, 52.0221
3.168, 1, 34.1265, 48.6947, -12.6916, 94.8366, -53.0993, 51.9061
3.172, 1, 34.1607, 48.6799, -12.713, 94.8869, -53.0576, 51.7903
3.176, 1, 34.1949, 48.665, -12.7344, 94.9372, -53.0159, 51.6744
3.179, 1, 34.2291, 48.6502, -12.7558, 94.9875, -52.9742, 51.5587
3.184, 1, 34.2632, 48.6354, -12.7772, 95.0377, -52.9326, 51.443
3.188, 1, 34.2973, 48.6205, -12.7986, 95.088, -52.891, 51.3273
3.192, 1, 34.3314, 48.6057, -12.82, 95.1382, -52.8494, 51.2117
3.196, 1, 34.3655, 48.5909, -12.8414, 95.1883, -52.8078, 51.0962
3.199, 1, 34.3996, 48.5761, -12.8627, 95.2385, -52.7662, 50.9807
3.204, 1, 34.4337, 48.5613, -12.884, 95.2886, -52.7247, 50.8653
3.208, 1, 34.4677, 48.5465, -12.9054, 95.3387, -52.6832, 50.75
3.212, 1, 34.5017, 48.5318, -12.9267, 95.3888, -52.6417, 50.6347
3.216, 1, 34.5357, 48.517, -12.948, 95.4388, -52.6002, 50.5195
3.22, 1, 34.5697, 48.5022, -12.9693, 95.4888, -52.5587, 50.4044
3.224, 1, 34.6037, 48.4875, -12.9906, 95.5388, -52.5173, 50.2893
3.228, 1, 34.6376, 48.4727, -13.0119, 95.5888, -52.4759, 50.1742
3.232, 1, 34.6715, 48.458, -13.0331, 95.6387, -52.4345, 50.0592
3.235, 1, 34.7054, 48.4433, -13.0544, 95.6886, -52.3931, 49.9443
3.24, 1, 34.7393, 48.4286, -13.0756, 95.7385, -52.3518, 49.8295
3.244, 1, 34.7732, 48.4138, -13.0968, 95.7884, -52.3105, 49.7147
3.248, 1, 34.8071, 48.3991, -13.118, 95.8382, -52.2692, 49.5999
3.252, 1, 34.8409, 48.3844, -13.1393, 95.888, -52.2279, 49.4853
3.255, 1, 34.8747, 48.3697, -13.1604, 95.9378, -52.1866, 49.3707
3.26, 1, 34.9085, 48.3551, -13.1816, 95.9876, -52.1454, 49.2561
3.264, 1, 34.9423, 48.3404, -13.2028, 96.0373, -52.1042, 49.1416
3.268, 1, 34.9761, 48.3257, -13.224, 96.087, -52.063, 49.0272
3.272, 1, 35.0099, 48.3111, -13.2451, 96.1367, -52.0218, 48.9128
3.276, 1, 35.0436, 48.2964, -13.2663, 96.1863, -51.9807, 48.7985
3.28, 1, 35.0773, 48.2818, -13.2874, 96.236, -51.9395, 48.6842
3.284, 1, 35.111, 48.2671, -13.3085, 96.2856, -51.8984, 48.57
3.288, 1, 35.1447, 48.2525, -13.3296, 96.3351, -51.8573, 48.4558
3.291, 1, 35.1782, 48.2379, -13.3507, 96.3847, -51.8162, 48.3417
3.296, 1, 35.2115, 48.2234, -13.3718, 96.4342, -51.7752, 48.2277
3.3, 1, 35.2445, 48.209, -13.393, 96.4837, -51.7342, 48.1138
3.304, 1, 35.2771, 48.1948, -13.4141, 96.5331, -51.6933, 48
3.308, 1, 35.3093, 48.1808, -13.4352, 96.5824, -51.6524, 47.8864
3.312, 1, 35.341, 48.167, -13.4563, 96.6316, -51.6117, 47.7732
3.316, 1, 35.3723, 48.1534, -13.4774, 96.6806, -51.5711, 47.6604
3.32, 1, 35.403, 48.1402, -13.4984, 96.7293, -51.5308, 47.5482
3.324, 1, 35.4329, 48.1274, -13.5193, 96.7776, -51.4908, 47.4368
3.328, 1, 35.4619, 48.1151, -13.5402, 96.8254, -51.4512, 47.3267
3.332, 1, 35.49, 48.1033, -13.5608, 96.8725, -51.4122, 47.2181
3.336, 1, 35.5169, 48.0921, -13.5812, 96.9188, -51.374, 47.1116
3.34, 1, 35.5427, 48.0815, -13.6011, 96.9638, -51.3367, 47.0076
3.344, 1, 35.5675, 48.0714, -13.6205, 97.0076, -51.3006, 46.9069
3.347, 1, 35.5913, 48.0617, -13.6391, 97.0496, -51.2658, 46.8099
3.352, 1, 35.6141, 48.0524, -13.6569, 97.0897, -51.2327, 46.7174
3.356, 1, 35.636, 48.0435, -13.6738, 97.1277, -51.2013, 46.6299
3.36, 1, 35.6567, 48.035, -13.6895, 97.1632, -51.1719, 46.548
3.364, 1, 35.6762, 48.0269, -13.704, 97.1962, -51.1446, 46.472
3.368, 1, 35.6946, 48.0192, -13.7172, 97.2264, -51.1196, 46.4024
3.372, 1, 35.712, 48.0118, -13.729, 97.2537, -51.097, 46.3395
3.376, 1, 35.7286, 48.0046, -13.7394, 97.2781, -51.0768, 46.2833
3.38, 1, 35.7444, 47.9976, -13.7483, 97.2995, -51.059, 46.234
3.383, 1, 35.7593, 47.9908, -13.7559, 97.3181, -51.0435, 46.1913
3.388, 1, 35.7734, 47.9842, -13.7621, 97.334, -51.0303, 46.1548
3.392, 1, 35.7864, 47.978, -13.7671, 97.3473, -51.0192, 46.1243
3.396, 1, 35.7983, 47.9723, -13.7711, 97.3583, -51.01, 46.0991
3.4, 2, 35.8089, 47.9671, -13.7742, 97.3672, -51.0025, 46.0787
3.403, 2, 35.8183, 47.9624, -13.7765, 97.3743, -50.9965, 46.0624
3.408, 2, 35.8267, 47.9583, -13.7781, 97.3799, -50.9919, 46.0498
3.412, 2, 35.8342, 47.9546, -13.7793, 97.3841, -50.9883, 46.0401
3.416, 2, 35.8408, 47.9513, -13.78, 97.3873, -50.9855, 46.0329
3.42, 2, 35.8467, 47.9485, -13.7805, 97.3896, -50.9836, 46.0277
3.424, 2, 35.8516, 47.9462, -13.7807, 97.3913, -50.9821, 46.024
3.428, 2, 35.8556, 47.9444, -13.7808, 97.3924, -50.9811, 46.0214
3.432, 2, 35.8587, 47.943, -13.7809, 97.3932, -50.9804, 46.0196
3.436, 2, 35.861, 47.942, -13.7809, 97.3938, -50.98, 46.0184
3.439, 2, 35.8626, 47.9413, -13.7809, 97.3941, -50.9796, 46.0176
3.444, 2, 35.8637, 47.9408, -13.7809, 97.3944, -50.9794, 46.017
3.448, 2, 35.8644, 47.9405, -13.7809, 97.3946, -50.9793, 46.0166
3.452, 2, 35.8649, 47.9403, -13.7809, 97.3947, -50.9792, 46.0164
3.456, 2, 35.8653, 47.9401, -13.7809, 97.3948, -50.9791, 46.0162
3.46, 2, 35.8655, 47.94, -13.7809, 97.3948, -50.9791, 46.0161
3.464, 2, 35.8657, 47.94, -13.7809, 97.3948, -50.979, 46.016
3.468, 2, 35.8658, 47.9399, -13.7809, 97.3949, -50.979, 46.0159
3.472, 2, 35.8658, 47.9399, -13.7809, 97.3949, -50.979, 46.0159
3.476, 2, 35.8659, 47.9399, -13.7809, 97.3949, -50.979, 46.0159
3.48, 2, 35.8659, 47.9399, -13.7809, 97.3949, -50.979, 46.0159
3.484, 2, 35.866, 47.9398, -13.7809, 97.3949, -50.979, 46.0159
3.488, 2, 35.866, 47.9398, -13.7809, 97.3949, -50.979, 46.0159
3.492, 2, 35.866, 47.9398, -13.7809, 97.3949, -50.979, 46.0159
3.495, 2, 35.866, 47.9398, -13.7809, 97.3949, -50.979, 46.0158
3.5, 2, 35.866, 47.9398, -13.7809, 97.3949, -50.979, 46.0158
3.504, 2, 35.866, 47.9398, -13.7809, 97.3949, -50.979, 46.0158
3.508, 2, 35.866, 47.9398, -13.7809, 97.3949, -50.979, 46.0158
3.512, 2, 35.866, 47.9398, -13.7809, 97.3949, -50.979, 46.0158
3.516, 2, 35.866, 47.9398, -13.7809, 97.3949, -50.979, 46.0158
3.52, 2, 35.866, 47.9398, -13.7809, 97.3949, -50.979, 46.0158
3.524, 2, 35.866, 47.9398, -13.7809, 97.3949, -50.979, 46.0158
3.528, 2, 35.866, 47.9398, -13.7809, 97.3949, -50.979, 46.0158
3.531, 2, 35.866, 47.9398, -13.7809, 97.3949, -50.979, 46.0158
3.536, 2, 35.866, 47.9398, -13.7809, 97.3949, -50.979, 46.0158
3.54, 2, 35.866, 47.9398, -13.7809, 97.3949, -50.979, 46.0158
3.544, 2, 35.866, 47.9398, -13.7809, 97.3949, -50.979, 46.0158
3.548, 2, 35.866, 47.9398, -13.7809, 97.3949, -50.979, 46.0158
3.552, 2, 35.866, 47.9398, -13.7809, 97.3949, -50.979, 46.0158
3.556, 2, 35.866, 47.9398, -13.7809, 97.3949, -50.979, 46.0158
3.56, 2, 35.866, 47.9398, -13.7809, 97.3949, -50.979, 46.0158
3.564, 2, 35.866, 47.9398, -13.7809, 97.3949, -50.979, 46.0158
3.568, 2, 35.866, 47.9398, -13.7809, 97.3949, -50.979, 46.0158
3.572, 2, 35.866, 47.9398, -13.7809, 97.3949, -50.979, 46.0158
3.576, 2, 35.866, 47.9398, -13.7809, 97.3949, -50.979, 46.0158
3.58, 2, 35.866, 47.9398, -13.7809, 97.3949, -50.979, 46.0158
3.584, 2, 35.866, 47.9398, -13.7809, 97.3949, -50.979, 46.0158
3.587, 2, 35.866, 47.9398, -13.7809, 97.3949, -50.979, 46.0158
3.592, 2, 35.866, 47.9398, -13.7809, 97.3949, -50.979, 46.0158
3.596, 2, 35.866, 47.9398, -13.7809, 97.3949, -50.979, 46.0158
3.6, 2, 35.866, 47.9398, -13.7809, 97.3949, -50.979, 46.0158
3.604, 2, 35.866, 47.9398, -13.7809, 97.3949, -50.979, 46.0158
3.608, 2, 35.866, 47.9398, -13.7809, 97.3949, -50.979, 46.0158
3.612, 2, 35.866, 47.9398, -13.7809, 97.3949, -50.979, 46.0158
3.616, 2, 35.866, 47.9398, -13.7809, 97.3949, -50.979, 46.0158
3.62, 2, 35.866, 47.9398, -13.7809, 97.3949, -50.979, 46.0158
3.624, 2, 35.866, 47.9398, -13.7809, 97.3949, -50.979, 46.0158
3.628, 2, 35.866, 47.9398, -13.7809, 97.3949, -50.979, 46.0158
3.632, 2, 35.866, 47.9398, -13.7809, 97.3949, -50.979, 46.0158
3.636, 2, 35.866, 47.9398, -13.7809, 97.3949, -50.979, 46.0158
3.64, 2, 35.866, 47.9398, -13.7809, 97.3949, -50.979, 46.0158
3.644, 2, 35.866, 47.9398, -13.7809, 97.3949, -50.979, 46.0158
3.648, 2, 35.866, 47.9398, -13.7809, 97.3949, -50.979, 46.0158
3.652, 2, 35.866, 47.9398, -13.7809, 97.3949, -50.979, 46.0158
3.656, 2, 35.866, 47.9398, -13.7809, 97.3949, -50.979, 46.0158
3.66, 2, 35.866, 47.9398, -13.7809, 97.3949, -50.979, 46.0158
3.664, 2, 35.866, 47.9398, -13.7809, 97.3949, -50.979, 46.0158
3.668, 2, 35.866, 47.9398, -13.7809, 97.3949, -50.979, 46.0158
3.672, 2, 35.866, 47.9398, -13.7809, 97.3949, -50.979, 46.0158
3.676, 2, 35.866, 47.9398, -13.7809, 97.3949, -50.979, 46.0158
3.679, 2, 35.866, 47.9398, -13.7809, 97.3949, -50.979, 46.0158
3.684, 2, 35.866, 47.9398, -13.7809, 97.3949, -50.979, 46.0158
3.688, 2, 35.866, 47.9398, -13.7809, 97.3949, -50.979, 46.0158
3.692, 2, 35.866, 47.9398, -13.7809, 97.3949, -50.979, 46.0158
3.696, 2, 35.866, 47.9398, -13.7809, 97.3949, -50.979, 46.0158
3.7, 2, 35.866, 47.9398, -13.7809, 97.3949, -50.979, 46.0158
3.704, 2, 35.866, 47.9398, -13.7809, 97.3949, -50.979, 46.0158
3.708, 2, 35.866, 47.9398, -13.7809, 97.3949, -50.979, 46.0158
3.712, 2, 35.866, 47.9398, -13.7809, 97.3949, -50.979, 46.0158
3.716, 2, 35.866, 47.9398, -13.7809, 97.3949, -50.979, 46.0158
3.72, 2, 35.866, 47.9398, -13.7809, 97.3949, -50.979, 46.0158
3.724, 2, 35.866, 47.9398, -13.7809, 97.3949, -50.979, 46.0158
3.728, 2, 35.866, 47.9398, -13.7809, 97.3949, -50.979, 46.0158
3.732, 2, 35.866, 47.9398, -13.7809, 97.3949, -50.979, 46.0158
3.735, 2, 35.866, 47.9398, -13.7809, 97.3949, -50.979, 46.0158
3.74, 2, 35.866, 47.9398, -13.7809, 97.3949, -50.979, 46.0158
3.744, 2, 35.866, 47.9398, -13.7809, 97.3949, -50.979, 46.0158
3.748, 2, 35.866, 47.9398, -13.7809, 97.3949, -50.979, 46.0158
3.752, 2, 35.866, 47.9398, -13.7809, 97.3949, -50.979, 46.0158
3.756, 2, 35.866, 47.9398, -13.7809, 97.3949, -50.979, 46.0158
3.76, 2, 35.866, 47.9398, -13.7809, 97.3949, -50.979, 46.0158
3.764, 2, 35.866, 47.9398, -13.7809, 97.3949, -50.979, 46.0158
3.768, 2, 35.866, 47.9398, -13.7809, 97.3949, -50.979, 46.0158
3.772, 2, 35.866, 47.9398, -13.7809, 97.3949, -50.979, 46.0158
3.776, 2, 35.866, 47.9398, -13.7809, 97.3949, -50.979, 46.0158
3.78, 2, 35.866, 47.9398, -13.7809, 97.3949, -50.979, 46.0158
3.784, 2, 35.866, 47.9398, -13.7809, 97.3949, -50.979, 46.0158
3.788, 2, 35.866, 47.9398, -13.7809, 97.3949, -50.979, 46.0158
3.792, 2, 35.866, 47.9398, -13.7809, 97.3949, -50.979, 46.0158
3.796, 2, 35.866, 47.9398, -13.7809, 97.3949, -50.979, 46.0158
3.8, 2, 35.866, 47.9398, -13.7809, 97.3949, -50.979, 46.0158
3.804, 2, 35.866, 47.9398, -13.7809, 97.3949, -50.979, 46.0158
3.808, 2, 35.866, 47.9398, -13.7809, 97.3949, -50.979, 46.0158
3.812, 2, 35.866, 47.9398, -13.7809, 97.3949, -50.979, 46.0158
3.816, 2, 35.866, 47.9398, -13.7809, 97.3949, -50.979, 46.0158
3.82, 2, 35.866, 47.9398, -13.7809, 97.3949, -50.979, 46.0158
3.824, 2, 35.866, 47.9398, -13.7809, 97.3949, -50.979, 46.0158
3.828, 2, 35.866, 47.9398, -13.7809, 97.3949, -50.979, 46.0158
3.832, 2, 35.866, 47.9398, -13.7809, 97.3949, -50.979, 46.0158
3.836, 2, 35.866, 47.9398, -13.7809, 97.3949, -50.979, 46.0158
3.84, 2, 35.866, 47.9398, -13.7809, 97.3949, -50.979, 46.0158
3.844, 2, 35.866, 47.9398, -13.7809, 97.3949, -50.979, 46.0158
3.848, 2, 35.866, 47.9398, -13.7809, 97.3949, -50.979, 46.0158
3.852, 2, 35.866, 47.9398, -13.7809, 97.3949, -50.979, 46.0158
3.856, 2, 35.866, 47.9398, -13.7809, 97.3949, -50.979, 46.0158
3.86, 2, 35.866, 47.9398, -13.7809, 97.3949, -50.979, 46.0158
3.864, 2, 35.866, 47.9398, -13.7809, 97.3949, -50.979, 46.0158
3.868, 2, 35.866, 47.9398, -13.7809, 97.3949, -50.979, 46.0158
3.872, 2, 35.866, 47.9398, -13.7809, 97.3949, -50.979, 46.0158
3.876, 2, 35.866, 47.9398, -13.7809, 97.3949, -50.979, 46.0158
3.88, 2, 35.866, 47.9398, -13.7809, 97.3949, -50.979, 46.0158
3.884, 2, 35.866, 47.9398, -13.7809, 97.3949, -50.979, 46.0158
3.888, 2, 35.866, 47.9398, -13.7809, 97.3949, -50.979, 46.0158
3.892, 2, 35.866, 47.9398, -13.7809, 97.3949, -50.979, 46.0158
3.896, 2, 35.866, 47.9398, -13.7809, 97.3949, -50.979, 46.0158
3.9, 2, 35.866, 47.9398, -13.7809, 97.3949, -50.979, 46.0158
3.904, 2, 35.866, 47.9398, -13.7809, 97.3949, -50.979, 46.0158
3.908, 2, 35.866, 47.9398, -13.7809, 97.3949, -50.979, 46.0158
3.912, 2, 35.866, 47.9398, -13.7809, 97.3949, -50.979, 46.0158
3.916, 2, 35.866, 47.9398, -13.7809, 97.3949, -50.979, 46.0158
3.92, 2, 35.866, 47.9398, -13.7809, 97.3949, -50.979, 46.0158
3.924, 2, 35.866, 47.9398, -13.7809, 97.3949, -50.979, 46.0158
3.928, 2, 35.866, 47.9398, -13.7809, 97.3949, -50.979, 46.0158
3.932, 2, 35.866, 47.9398, -13.7809, 97.3949, -50.979, 46.0158
3.936, 2, 35.866, 47.9398, -13.7809, 97.3949, -50.979, 46.0158
3.94, 2, 35.866, 47.9398, -13.7809, 97.3949, -50.979, 46.0158
3.944, 2, 35.866, 47.9398, -13.7809, 97.3949, -50.979, 46.0158
3.948, 2, 35.866, 47.9398, -13.7809, 97.3949, -50.979, 46.0158
3.952, 2, 35.866, 47.9398, -13.7809, 97.3949, -50.979, 46.0158
3.956, 2, 35.866, 47.9398, -13.7809, 97.3949, -50.979, 46.0158
3.96, 2, 35.866, 47.9398, -13.7809, 97.3949, -50.979, 46.0158
3.964, 2, 35.866, 47.9398, -13.7809, 97.3949, -50.979, 46.0158
3.968, 2, 35.866, 47.9398, -13.7809, 97.3949, -50.979, 46.0158
3.972, 2, 35.866, 47.9398, -13.7809, 97.3949, -50.979, 46.0158
3.976, 2, 35.866, 47.9398, -13.7809, 97.3949, -50.979, 46.0158
3.98, 2, 35.866, 47.9398, -13.7809, 97.3949, -50.979, 46.0158
3.984, 2, 35.866, 47.9398, -13.7809, 97.3949, -50.979, 46.0158
3.988, 2, 35.866, 47.9398, -13.7809, 97.3949, -50.979, 46.0158
3.992, 2, 35.866, 47.9398, -13.7809, 97.3949, -50.979, 46.0158
3.996, 2, 35.866, 47.9398, -13.7809, 97.3949, -50.979, 46.0158
3.999, 2, 35.866, 47.9398, -13.7809, 97.3949, -50.979, 46.0158
4.004, 2, 35.866, 47.9398, -13.7809, 97.3949, -50.979, 46.0158
4.008, 2, 35.866, 47.9398, -13.7809, 97.3949, -50.979, 46.0158
4.012, 2, 35.866, 47.9398, -13.7809, 97.3949, -50.979, 46.0158
4.016, 2, 35.866, 47.9398, -13.7809, 97.3949, -50.979, 46.0158
4.02, 2, 35.866, 47.9398, -13.7809, 97.3949, -50.979, 46.0158
4.024, 2, 35.866, 47.9398, -13.7809, 97.3949, -50.979, 46.0158
4.028, 2, 35.866, 47.9398, -13.7809, 97.3949, -50.979, 46.0158
4.032, 2, 35.866, 47.9398, -13.7809, 97.3949, -50.979, 46.0158
4.036, 2, 35.866, 47.9398, -13.7809, 97.3949, -50.979, 46.0158
4.04, 2, 35.866, 47.9398, -13.7809, 97.3949, -50.979, 46.0158
4.044, 2, 35.866, 47.9398, -13.7809, 97.3949, -50.979, 46.0158
4.048, 2, 35.866, 47.9398, -13.7809, 97.3949, -50.979, 46.0158
4.052, 2, 35.866, 47.9398, -13.7809, 97.3949, -50.979, 46.0158
4.056, 2, 35.866, 47.9398, -13.7809, 97.3949, -50.979, 46.0158
4.06, 2, 35.866, 47.9398, -13.7809, 97.3949, -50.979, 46.0158
4.064, 2, 35.866, 47.9398, -13.7809, 97.3949, -50.979, 46.0158
4.068, 2, 35.866, 47.9398, -13.7809, 97.3949, -50.979, 46.0158
4.072, 2, 35.866, 47.9398, -13.7809, 97.3949, -50.979, 46.0158
4.076, 2, 35.866, 47.9398, -13.7809, 97.3949, -50.979, 46.0158
4.08, 2, 35.866, 47.9398, -13.7809, 97.3949, -50.979, 46.0158
4.084, 2, 35.866, 47.9398, -13.7809, 97.3949, -50.979, 46.0158
4.088, 2, 35.866, 47.9398, -13.7809, 97.3949, -50.979, 46.0158
4.092, 2, 35.866, 47.9398, -13.7809, 97.3949, -50.979, 46.0158
4.096, 2, 35.866, 47.9398, -13.7809, 97.3949, -50.979, 46.0158
4.1, 2, 35.866, 47.9398, -13.7809, 97.3949, -50.979, 46.0158
4.104, 2, 35.866, 47.9398, -13.7809, 97.3949, -50.979, 46.0158
4.108, 2, 35.866, 47.9398, -13.7809, 97.3949, -50.979, 46.0158
4.112, 2, 35.866, 47.9398, -13.7809, 97.3949, -50.979, 46.0158
4.116, 2, 35.866, 47.9398, -13.7809, 97.3949, -50.979, 46.0158
4.12, 2, 35.866, 47.9398, -13.7809, 97.3949, -50.979, 46.0158
4.124, 2, 35.866, 47.9398, -13.7809, 97.3949, -50.979, 46.0158
4.128, 2, 35.866, 47.9398, -13.7809, 97.3949, -50.979, 46.0158
4.132, 2, 35.866, 47.9398, -13.7809, 97.3949, -50.979, 46.0158
4.136, 2, 35.866, 47.9398, -13.7809, 97.3949, -50.979, 46.0158
4.14, 2, 35.866, 47.9398, -13.7809, 97.3949, -50.979, 46.0158
4.144, 2, 35.866, 47.9398, -13.7809, 97.3949, -50.979, 46.0158
4.148, 2, 35.866, 47.9398, -13.7809, 97.3949, -50.979, 46.0158
4.152, 2, 35.866, 47.9398, -13.7809, 97.3949, -50.979, 46.0158
4.156, 2, 35.866, 47.9398, -13.7809, 97.3949, -50.979, 46.0158
4.16, 2, 35.866, 47.9398, -13.7809, 97.3949, -50.979, 46.0158
4.164, 2, 35.866, 47.9398, -13.7809, 97.3949, -50.979, 46.0158
4.168, 2, 35.866, 47.9398, -13.7809, 97.3949, -50.979, 46.0158
4.172, 2, 35.866, 47.9398, -13.7809, 97.3949, -50.979, 46.0158
4.176, 2, 35.866, 47.9398, -13.7809, 97.3949, -50.979, 46.0158
4.18, 2, 35.866, 47.9398, -13.7809, 97.3949, -50.979, 46.0158
4.184, 2, 35.866, 47.9398, -13.7809, 97.3949, -50.979, 46.0158
4.188, 2, 35.866, 47.9398, -13.7809, 97.3949, -50.979, 46.0158
4.192, 2, 35.866, 47.9398, -13.7809, 97.3949, -50.979, 46.0158
4.196, 2, 35.866, 47.9398, -13.7809, 97.3949, -50.979, 46.0158
4.2, 2, 35.866, 47.9398, -13.7809, 97.3949, -50.979, 46.0158
4.204, 2, 35.866, 47.9398, -13.7809, 97.3949, -50.979, 46.0158
4.208, 2, 35.866, 47.9398, -13.7809, 97.3949, -50.979, 46.0158
4.212, 2, 35.866, 47.9398, -13.7809, 97.3949, -50.979, 46.0158
4.216, 2, 35.866, 47.9398, -13.7809, 97.3949, -50.979, 46.0158
4.22, 2, 35.866, 47.9398, -13.7809, 97.3949, -50.979, 46.0158
4.224, 2, 35.866, 47.9398, -13.7809, 97.3949, -50.979, 46.0158
4.228, 2, 35.866, 47.9398, -13.7809, 97.3949, -50.979, 46.0158
4.232, 2, 35.866, 47.9398, -13.7809, 97.3949, -50.979, 46.0158
4.236, 2, 35.866, 47.9398, -13.7809, 97.3949, -50.979, 46.0158
4.24, 2, 35.866, 47.9398, -13.7809, 97.3949, -50.979, 46.0158
4.244, 2, 35.866, 47.9398, -13.7809, 97.3949, -50.979, 46.0158
4.248, 2, 35.866, 47.9398, -13.7809, 97.3949, -50.979, 46.0158
4.252, 2, 35.866, 47.9398, -13.7809, 97.3949, -50.979, 46.0158
4.256, 2, 35.866, 47.9398, -13.7809, 97.3949, -50.979, 46.0158
4.26, 2, 35.866, 47.9398, -13.7809, 97.3949, -50.979, 46.0158
4.264, 2, 35.866, 47.9398, -13.7809, 97.3949, -50.979, 46.0158
4.268, 2, 35.866, 47.9398, -13.7809, 97.3949, -50.979, 46.0158
4.272, 2, 35.866, 47.9398, -13.7809, 97.3949, -50.979, 46.0158
4.276, 2, 35.866, 47.9398, -13.7809, 97.3949, -50.979, 46.0158
4.28, 2, 35.866, 47.9398, -13.7809, 97.3949, -50.979, 46.0158
4.284, 2, 35.866, 47.9398, -13.7809, 97.3949, -50.979, 46.0158
4.288, 2, 35.866, 47.9398, -13.7809, 97.3949, -50.979, 46.0158
4.292, 2, 35.866, 47.9398, -13.7809, 97.3949, -50.979, 46.0158
4.296, 2, 35.866, 47.9398, -13.7809, 97.3949, -50.979, 46.0158
4.3, 2, 35.866, 47.9398, -13.7809, 97.3949, -50.979, 46.0158
4.304, 2, 35.866, 47.9398, -13.7809, 97.3949, -50.979, 46.0158
4.308, 2, 35.866, 47.9398, -13.7809, 97.3949, -50.979, 46.0158
4.312, 2, 35.866, 47.9398, -13.7809, 97.3949, -50.979, 46.0158
4.316, 2, 35.866, 47.9398, -13.7809, 97.3949, -50.979, 46.0158
4.32, 2, 35.866, 47.9398, -13.7809, 97.3949, -50.979, 46.0158
4.324, 2, 35.866, 47.9398, -13.7809, 97.3949, -50.979, 46.0158
4.328, 2, 35.866, 47.9398, -13.7809, 97.3949, -50.979, 46.0158
4.332, 2, 35.866, 47.9398, -13.7809, 97.3949, -50.979, 46.0158
4.336, 2, 35.866, 47.9398, -13.7809, 97.3949, -50.979, 46.0158
4.34, 2, 35.866, 47.9398, -13.7809, 97.3949, -50.979, 46.0158
4.344, 2, 35.866, 47.9398, -13.7809, 97.3949, -50.979, 46.0158
4.348, 2, 35.866, 47.9398, -13.7809, 97.3949, -50.979, 46.0158
4.352, 2, 35.866, 47.9398, -13.7809, 97.3949, -50.979, 46.0158
4.356, 2, 35.866, 47.9398, -13.7809, 97.3949, -50.979, 46.0158
4.36, 2, 35.866, 47.9398, -13.7809, 97.3949, -50.979, 46.0158
4.364, 2, 35.866, 47.9398, -13.7809, 97.3949, -50.979, 46.0158
4.368, 2, 35.866, 47.9398, -13.7809, 97.3949, -50.979, 46.0158
4.372, 2, 35.866, 47.9398, -13.7809, 97.3949, -50.979, 46.0158
4.376, 2, 35.866, 47.9398, -13.7809, 97.3949, -50.979, 46.0158
4.38, 2, 35.866, 47.9398, -13.7809, 97.3949, -50.979, 46.0158
4.384, 2, 35.866, 47.9398, -13.7809, 97.3949, -50.979, 46.0158
4.388, 2, 35.866, 47.9398, -13.7809, 97.3949, -50.979, 46.0158
4.392, 2, 35.866, 47.9398, -13.7809, 97.3949, -50.979, 46.0158
4.396, 2, 35.866, 47.9398, -13.7809, 97.3949, -50.979, 46.0158
4.4, 3, 35.866, 47.9398, -13.7809, 97.3949, -50.979, 46.0158
4.404, 3, 35.866, 47.9398, -13.7809, 97.3949, -50.979, 46.0158
4.408, 3, 35.866, 47.9398, -13.7809, 97.3949, -50.979, 46.0158
4.412, 3, 35.866, 47.9398, -13.7809, 97.3949, -50.979, 46.0158
4.416, 3, 35.866, 47.9398, -13.7809, 97.3949, -50.979, 46.0158
4.42, 3, 35.866, 47.9398, -13.7809, 97.3949, -50.979, 46.0158
4.424, 3, 35.866, 47.9398, -13.7809, 97.3949, -50.979, 46.0158
4.428, 3, 35.866, 47.9398, -13.7809, 97.3949, -50.979, 46.0158
4.432, 3, 35.866, 47.9398, -13.7809, 97.3949, -50.979, 46.0158
4.436, 4, 35.866, 47.9398, -13.7809, 97.3949, -50.979, 46.0158
4.44, 4, 35.866, 47.9398, -13.7809, 97.3949, -50.979, 46.0158
4.444, 4, 35.866, 47.9398, -13.7809, 97.3949, -50.979, 46.0158
4.448, 4, 35.866, 47.9398, -13.7809, 97.3949, -50.979, 46.0158
4.452, 4, 35.866, 47.9398, -13.7809, 97.3949, -50.979, 46.0158
4.456, 4, 35.866, 47.9398, -13.7809, 97.3949, -50.979, 46.0158
4.46, 4, 35.866, 47.9398, -13.7809, 97.3949, -50.979, 46.0158
4.464, 4, 35.866, 47.9398, -13.7809, 97.3949, -50.979, 46.0158
4.468, 4, 35.866, 47.9398, -13.7809, 97.3949, -50.979, 46.0158
4.472, 4, 35.866, 47.9398, -13.7809, 97.3949, -50.979, 46.0158
4.476, 4, 35.866, 47.9398, -13.7809, 97.3949, -50.979, 46.0158
4.48, 4, 35.866, 47.9398, -13.7809, 97.3949, -50.979, 46.0158
4.484, 4, 35.866, 47.9398, -13.7809, 97.3949, -50.979, 46.0158
4.488, 4, 35.866, 47.9398, -13.7809, 97.3949, -50.979, 46.0158
4.492, 4, 35.866, 47.9398, -13.7809, 97.3949, -50.979, 46.0158
4.496, 4, 35.866, 47.9398, -13.7809, 97.3949, -50.979, 46.0158
4.5, 4, 35.866, 47.9398, -13.7809, 97.3949, -50.979, 46.0158
4.504, 4, 35.866, 47.9398, -13.7809, 97.3949, -50.979, 46.0158
4.508, 4, 35.866, 47.9398, -13.7809, 97.3949, -50.979, 46.0158
4.512, 4, 35.866, 47.9398, -13.7809, 97.3949, -50.979, 46.0158
4.516, 4, 35.866, 47.9398, -13.7809, 97.3949, -50.979, 46.0158
4.52, 4, 35.866, 47.9398, -13.7809, 97.3949, -50.979, 46.0158
4.524, 4, 35.866, 47.9398, -13.7809, 97.3949, -50.979, 46.0158
4.528, 4, 35.866, 47.9398, -13.7809, 97.3949, -50.979, 46.0158
4.532, 4, 35.866, 47.9398, -13.7809, 97.3949, -50.979, 46.0158
4.536, 6, 35.866, 47.9398, -13.7809, 97.3949, -50.979, 46.0158
4.54, 6, 35.866, 47.9398, -13.7809, 97.3949, -50.979, 46.0158
4.544, 7, 35.866, 47.9398, -13.7809, 97.3949, -50.979, 46.0158
4.548, 8, 35.866, 47.9398, -13.7809, 97.3949, -50.979, 46.0158
4.552, 8, 35.866, 47.9398, -13.7809, 97.3949, -50.979, 46.0158
4.556, 9, 35.866, 47.9398, -13.7809, 97.3949, -50.979, 46.0158
4.56, 9, 35.866, 47.9398, -13.7809, 97.3949, -50.979, 46.0158
4.564, 9, 35.866, 47.9398, -13.7809, 97.3949, -50.979, 46.0158
4.568, 9, 35.866, 47.9398, -13.7809, 97.3949, -50.979, 46.0158
4.572, 9, 35.866, 47.9398, -13.7809, 97.3949, -50.979, 46.0158
4.576, 9, 35.866, 47.9398, -13.7809, 97.3949, -50.979, 46.0158
4.58, 10, 35.866, 47.9398, -13.7809, 97.3949, -50.979, 46.0158
4.584, 10, 35.866, 47.9399, -13.7809, 97.3949, -50.979, 46.0158
4.588, 10, 35.866, 47.94, -13.7809, 97.3949, -50.979, 46.0158
4.592, 10, 35.866, 47.9404, -13.7809, 97.3949, -50.979, 46.0158
4.596, 10, 35.8659, 47.9411, -13.7809, 97.3949, -50.9791, 46.0158
4.6, 10, 35.8658, 47.9424, -13.781, 97.3949, -50.9795, 46.0157
4.604, 10, 35.8656, 47.9442, -13.7811, 97.3948, -50.9802, 46.0155
4.608, 10, 35.8654, 47.9468, -13.7813, 97.3946, -50.9814, 46.015
4.612, 10, 35.8651, 47.9503, -13.7816, 97.3943, -50.9837, 46.0143
4.616, 10, 35.8648, 47.9548, -13.782, 97.3939, -50.9873, 46.0132
4.62, 10, 35.8644, 47.9604, -13.7827, 97.3932, -50.9928, 46.0115
4.624, 10, 35.8639, 47.9674, -13.7838, 97.3922, -51.0009, 46.0089
4.628, 10, 35.8634, 47.9761, -13.7852, 97.3908, -51.0122, 46.0054
4.632, 10, 35.8628, 47.9866, -13.7871, 97.3889, -51.0276, 46.0005
4.636, 10, 35.8621, 47.9993, -13.7896, 97.3864, -51.048, 45.9941
4.64, 10, 35.8614, 48.0141, -13.7929, 97.3831, -51.0744, 45.9858
4.644, 10, 35.8607, 48.0313, -13.797, 97.3789, -51.1078, 45.9753
4.648, 10, 35.86, 48.0509, -13.8021, 97.3737, -51.1494, 45.9622
4.652, 10, 35.8593, 48.0732, -13.8083, 97.3673, -51.1999, 45.9464
4.656, 10, 35.8587, 48.0984, -13.8157, 97.3597, -51.2606, 45.9273
4.66, 10, 35.8581, 48.1267, -13.8245, 97.3508, -51.3321, 45.9048
4.664, 10, 35.8576, 48.1583, -13.8346, 97.3403, -51.4154, 45.8787
4.668, 10, 35.8571, 48.1935, -13.8463, 97.3283, -51.5112, 45.8486
4.672, 10, 35.8567, 48.2324, -13.8595, 97.3146, -51.62, 45.8144
4.676, 10, 35.8563, 48.2751, -13.8744, 97.2992, -51.7425, 45.776
4.68, 10, 35.856, 48.3219, -13.8909, 97.2821, -51.879, 45.7331
4.684, 10, 35.8557, 48.3729, -13.9093, 97.2631, -52.0299, 45.6857
4.688, 10, 35.8555, 48.4283, -13.9294, 97.2423, -52.1954, 45.6337
4.692, 10, 35.8553, 48.4882, -13.9513, 97.2197, -52.3758, 45.5771
4.696, 10, 35.8551, 48.5527, -13.975, 97.1951, -52.571, 45.5158
4.7, 11, 35.8549, 48.6217, -14.0005, 97.1687, -52.7813, 45.4498
4.704, 11, 35.8548, 48.6949, -14.0279, 97.1404, -53.0064, 45.3791
4.708, 11, 35.8548, 48.772, -14.057, 97.1102, -53.2464, 45.3037
4.712, 11, 35.8549, 48.8526, -14.0879, 97.0782, -53.501, 45.2238
4.716, 11, 35.8552, 48.9363, -14.1206, 97.0445, -53.7695, 45.1395
4.72, 11, 35.8556, 49.0231, -14.1548, 97.009, -54.0512, 45.0511
4.724, 11, 35.8561, 49.1127, -14.1905, 96.9721, -54.3452, 44.9588
4.728, 11, 35.8566, 49.2051, -14.2275, 96.9337, -54.6503, 44.863
4.732, 11, 35.857, 49.3003, -14.2657, 96.8941, -54.9652, 44.7642
4.736, 11, 35.8569, 49.398, -14.305, 96.8534, -55.2885, 44.6627
4.74, 11, 35.8563, 49.498, -14.345, 96.8118, -55.6188, 44.559
4.744, 11, 35.855, 49.5998, -14.3856, 96.7693, -55.9548, 44.4536
4.748, 11, 35.8529, 49.703, -14.4266, 96.7261, -56.2949, 44.3469
4.752, 11, 35.8498, 49.8077, -14.4675, 96.682, -56.6381, 44.2393
4.756, 11, 35.8458, 49.9136, -14.5081, 96.6371, -56.9832, 44.1311
4.76, 11, 35.841, 50.0211, -14.548, 96.591, -57.3292, 44.0228
4.764, 11, 35.8355, 50.1301, -14.5867, 96.5436, -57.6753, 43.9146
4.768, 11, 35.8293, 50.2407, -14.6238, 96.4945, -58.0211, 43.8067
4.772, 12, 35.8227, 50.3524, -14.659, 96.4434, -58.3664, 43.6991
4.776, 12, 35.8156, 50.4647, -14.6919, 96.3899, -58.7112, 43.5919
4.78, 12, 35.8082, 50.5769, -14.7223, 96.3337, -59.0557, 43.4851
4.784, 12, 35.8004, 50.6883, -14.7501, 96.2745, -59.4004, 43.3785
4.788, 12, 35.7925, 50.7984, -14.7751, 96.2122, -59.7455, 43.2721
4.792, 12, 35.7843, 50.9065, -14.7973, 96.1465, -60.0913, 43.1658
4.796, 12, 35.7762, 51.0124, -14.8167, 96.0777, -60.438, 43.0596
4.8, 12, 35.7683, 51.1159, -14.8336, 96.0058, -60.7854, 42.9534
4.804, 12, 35.7608, 51.2171, -14.848, 95.9311, -61.1334, 42.8473
4.808, 12, 35.7538, 51.3161, -14.8603, 95.854, -61.4812, 42.7415
4.812, 12, 35.7469, 51.413, -14.8707, 95.7751, -61.8283, 42.6362
4.816, 12, 35.7399, 51.5082, -14.8795, 95.6949, -62.1736, 42.5315
4.82, 12, 35.7326, 51.602, -14.8872, 95.6142, -62.5161, 42.4278
4.824, 12, 35.7245, 51.6946, -14.894, 95.5334, -62.8547, 42.3254
4.828, 12, 35.7155, 51.7863, -14.9001, 95.4531, -63.1884, 42.2246
4.832, 12, 35.7054, 51.877, -14.9058, 95.3739, -63.516, 42.1256
4.836, 12, 35.6942, 51.967, -14.9111, 95.296, -63.8368, 42.0287
4.84, 12, 35.6816, 52.0563, -14.9161, 95.2198, -64.1501, 41.9341
4.844, 13, 35.6678, 52.1447, -14.9208, 95.1453, -64.4554, 41.8419
4.848, 13, 35.6527, 52.2322, -14.925, 95.0726, -64.7526, 41.7523
4.852, 13, 35.6362, 52.3185, -14.9287, 95.0014, -65.0419, 41.6652
4.856, 13, 35.6186, 52.4034, -14.9314, 94.9316, -65.3237, 41.5807
4.86, 13, 35.5999, 52.4867, -14.9329, 94.8627, -65.5986, 41.4988
4.864, 13, 35.5804, 52.5683, -14.9326, 94.7942, -65.8674, 41.4194
4.868, 13, 35.5602, 52.6482, -14.93, 94.7254, -66.1311, 41.3425
4.872, 13, 35.5395, 52.7265, -14.9245, 94.6557, -66.3905, 41.2681
4.876, 13, 35.5182, 52.8031, -14.9155, 94.5844, -66.6468, 41.196
4.88, 13, 35.4963, 52.878, -14.9023, 94.5107, -66.9012, 41.1263
4.884, 13, 35.4737, 52.9513, -14.8844, 94.4339, -67.1549, 41.0589
4.888, 13, 35.4506, 53.0227, -14.8612, 94.3533, -67.409, 40.9936
4.892, 13, 35.427, 53.0919, -14.8324, 94.2683, -67.6648, 40.9301
4.896, 13, 35.4029, 53.1586, -14.7976, 94.1785, -67.9235, 40.8684
4.9, 13, 35.3786, 53.223, -14.7568, 94.0835, -68.1859, 40.8082
4.904, 13, 35.3541, 53.2849, -14.71, 93.9832, -68.4529, 40.7492
4.908, 13, 35.3295, 53.3446, -14.6574, 93.8775, -68.725, 40.6912
4.912, 13, 35.3048, 53.4022, -14.5994, 93.7668, -69.0023, 40.634
4.916, 13, 35.2801, 53.4579, -14.5367, 93.6514, -69.2847, 40.5772
4.92, 13, 35.2555, 53.5117, -14.4699, 93.5319, -69.5721, 40.5208
4.924, 13, 35.2309, 53.5634, -14.3996, 93.409, -69.8635, 40.4646
4.928, 13, 35.2063, 53.6131, -14.3268, 93.2836, -70.1582, 40.4085
4.932, 13, 35.1816, 53.6609, -14.2523, 93.1565, -70.4548, 40.3526
4.936, 13, 35.1566, 53.7069, -14.1766, 93.0285, -70.7519, 40.297
4.94, 14, 35.1309, 53.7518, -14.1007, 92.9007, -71.0478, 40.2418
4.944, 14, 35.1043, 53.7959, -14.025, 92.7739, -71.3407, 40.1874
4.948, 14, 35.0765, 53.8396, -13.9499, 92.6488, -71.629, 40.1341
4.952, 14, 35.0471, 53.8832, -13.8758, 92.5261, -71.911, 40.0822
4.956, 14, 35.0163, 53.9265, -13.8027, 92.4062, -72.1855, 40.0322
4.96, 14, 34.9837, 53.9692, -13.7304, 92.2894, -72.4515, 39.9844
4.964, 14, 34.9495, 54.0108, -13.6587, 92.1757, -72.7083, 39.9392
4.968, 14, 34.9137, 54.0511, -13.587, 92.0648, -72.9555, 39.8972
4.972, 14, 34.8766, 54.0898, -13.5145, 91.9564, -73.1931, 39.8586
4.976, 14, 34.8384, 54.1267, -13.4404, 91.8499, -73.4214, 39.824
4.98, 14, 34.7991, 54.1617, -13.3637, 91.7446, -73.641, 39.7935
4.984, 14, 34.759, 54.1947, -13.2834, 91.6397, -73.853, 39.7676
4.988, 14, 34.7181, 54.2255, -13.1985, 91.5341, -74.0584, 39.7463
4.992, 14, 34.6766, 54.2538, -13.1078, 91.4269, -74.2589, 39.7299
4.996, 14, 34.6346, 54.2793, -13.0105, 91.317, -74.4562, 39.7181
5, 14, 34.5922, 54.3015, -12.9057, 91.2036, -74.6519, 39.711
5.004, 14, 34.5496, 54.3201, -12.7929, 91.0857, -74.8478, 39.7083
5.008, 14, 34.507, 54.3348, -12.6717, 90.9626, -75.0453, 39.7097
5.012, 15, 34.4643, 54.3455, -12.542, 90.834, -75.2458, 39.7149
5.016, 15, 34.4218, 54.3521, -12.4042, 90.6997, -75.4504, 39.7233
5.02, 15, 34.3794, 54.3548, -12.2585, 90.5597, -75.6595, 39.7346
5.024, 15, 34.3374, 54.3538, -12.1059, 90.4144, -75.8735, 39.7483
5.028, 15, 34.2957, 54.3494, -11.9471, 90.2644, -76.0922, 39.7638
5.032, 15, 34.2542, 54.3422, -11.7835, 90.1105, -76.3149, 39.7807
5.036, 15, 34.2128, 54.3326, -11.6161, 89.9538, -76.5408, 39.7986
5.04, 15, 34.1711, 54.3213, -11.4465, 89.7951, -76.7685, 39.8172
5.044, 15, 34.1289, 54.3089, -11.2757, 89.6358, -76.9969, 39.8361
5.048, 15, 34.0857, 54.2959, -11.1052, 89.4768, -77.2243, 39.8552
5.052, 15, 34.0415, 54.2826, -10.9359, 89.3193, -77.4495, 39.8742
5.056, 15, 33.9962, 54.2694, -10.7688, 89.1642, -77.6711, 39.8933
5.06, 16, 33.9498, 54.2564, -10.6047, 89.0122, -77.8878, 39.9122
5.064, 16, 33.9024, 54.2434, -10.4439, 88.8638, -78.0986, 39.9313
5.068, 16, 33.8539, 54.2305, -10.2866, 88.7195, -78.3026, 39.9508
5.072, 16, 33.8043, 54.2175, -10.1326, 88.5793, -78.4991, 39.971
5.076, 16, 33.7533, 54.2041, -9.98158, 88.4431, -78.6878, 39.9926
5.08, 16, 33.7012, 54.1901, -9.83281, 88.3107, -78.8684, 40.0159
5.084, 16, 33.6481, 54.1751, -9.68539, 88.1813, -79.041, 40.0417
5.088, 16, 33.5942, 54.1588, -9.53823, 88.0545, -79.2059, 40.0707
5.092, 16, 33.5398, 54.1408, -9.39014, 87.9292, -79.3637, 40.1033
5.096, 16, 33.4849, 54.1207, -9.23981, 87.8045, -79.5151, 40.1403
5.1, 16, 33.4298, 54.0982, -9.08595, 87.6796, -79.6609, 40.1822
5.104, 16, 33.3743, 54.0729, -8.92726, 87.5532, -79.8024, 40.2293
5.108, 16, 33.3183, 54.0448, -8.76256, 87.4245, -79.9405, 40.2821
5.112, 16, 33.2616, 54.0136, -8.59076, 87.2925, -80.0766, 40.3407
5.116, 16, 33.2043, 53.9792, -8.41098, 87.1563, -80.2119, 40.4054
5.12, 16, 33.1464, 53.9413, -8.22256, 87.0151, -80.3476, 40.476
5.124, 16, 33.088, 53.8998, -8.02506, 86.8683, -80.4848, 40.5524
5.128, 16, 33.0289, 53.8544, -7.81831, 86.7156, -80.6244, 40.6343
5.132, 17, 32.9689, 53.8049, -7.60238, 86.5568, -80.7673, 40.7214
5.136, 17, 32.9079, 53.7515, -7.37755, 86.392, -80.9138, 40.8132
5.14, 17, 32.8454, 53.6944, -7.14425, 86.2214, -81.0642, 40.9092
5.144, 17, 32.7812, 53.6337, -6.90308, 86.0453, -81.2186, 41.009
5.148, 17, 32.7151, 53.5701, -6.65468, 85.8642, -81.3768, 41.1123
5.152, 17, 32.6468, 53.5037, -6.39973, 85.6784, -81.5386, 41.2186
5.156, 17, 32.5765, 53.4347, -6.13893, 85.4884, -81.7036, 41.3281
5.16, 17, 32.5041, 53.3633, -5.87288, 85.2946, -81.8713, 41.4408
5.164, 17, 32.4295, 53.2897, -5.60211, 85.0973, -82.0412, 41.5571
5.168, 17, 32.353, 53.2139, -5.32708, 84.8967, -82.2127, 41.6778
5.172, 17, 32.2745, 53.1363, -5.04809, 84.6932, -82.3851, 41.8039
5.176, 17, 32.194, 53.0572, -4.76538, 84.4867, -82.5577, 41.9366
5.18, 17, 32.1118, 52.9767, -4.47907, 84.2772, -82.7298, 42.0772
5.184, 17, 32.0278, 52.895, -4.1892, 84.0649, -82.9011, 42.2269
5.188, 17, 31.9426, 52.8121, -3.8958, 83.8494, -83.0709, 42.3868
5.192, 17, 31.8563, 52.7281, -3.59889, 83.6309, -83.2391, 42.5579
5.196, 17, 31.7695, 52.6429, -3.29851, 83.4091, -83.4053, 42.7407
5.2, 17, 31.6826, 52.5564, -2.99481, 83.1842, -83.5694, 42.9356
5.204, 17, 31.5959, 52.4689, -2.68802, 82.9563, -83.7312, 43.1425
5.208, 17, 31.5096, 52.3806, -2.37852, 82.7256, -83.8906, 43.3609
5.212, 17, 31.4236, 52.2917, -2.06682, 82.4926, -84.0475, 43.5901
5.216, 17, 31.3376, 52.2023, -1.75353, 82.2579, -84.202, 43.8286
5.22, 17, 31.2515, 52.1124, -1.43938, 82.022, -84.354, 44.0749
5.224, 17, 31.1647, 52.0221, -1.1251, 81.7857, -84.5037, 44.3273
5.228, 18, 31.0773, 51.9312, -0.811453, 81.5495, -84.6513, 44.5838
5.232, 18, 30.9889, 51.8397, -0.499142, 81.3141, -84.7969, 44.8427
5.236, 18, 30.8997, 51.7477, -0.188797, 81.0799, -84.9406, 45.1025
5.24, 18, 30.8095, 51.6552, 0.119075, 80.8474, -85.0823, 45.3618
5.244, 18, 30.7182, 51.5622, 0.42411, 80.6168, -85.222, 45.6196
5.248, 18, 30.6257, 51.4689, 0.726116, 80.3882, -85.3597, 45.8749
5.252, 18, 30.5317, 51.3753, 1.0251, 80.1616, -85.4951, 46.1271
5.256, 18, 30.4364, 51.2815, 1.32125, 79.9367, -85.6282, 46.3757
5.26, 18, 30.3399, 51.1876, 1.61499, 79.7131, -85.7588, 46.6204
5.264, 18, 30.2423, 51.0937, 1.90686, 79.4901, -85.8868, 46.861
5.268, 18, 30.144, 50.9995, 2.19757, 79.2672, -86.0124, 47.0977
5.272, 18, 30.0455, 50.9051, 2.48788, 79.0434, -86.1357, 47.3307
5.276, 18, 29.947, 50.8103, 2.77861, 78.8181, -86.2568, 47.5604
5.28, 18, 29.8488, 50.7149, 3.07048, 78.5903, -86.3759, 47.7874
5.284, 18, 29.751, 50.6187, 3.36416, 78.3596, -86.4934, 48.0119
5.288, 18, 29.6537, 50.5217, 3.66013, 78.1254, -86.6094, 48.2346
5.292, 18, 29.5569, 50.424, 3.95871, 77.8876, -86.7242, 48.4558
5.296, 18, 29.4606, 50.3255, 4.25999, 77.6462, -86.8379, 48.6757
5.3, 19, 29.3644, 50.2263, 4.56386, 77.4013, -86.9506, 48.8946
5.304, 19, 29.2682, 50.1261, 4.87001, 77.1535, -87.0627, 49.1126
5.308, 19, 29.1713, 50.0249, 5.17798, 76.9032, -87.1741, 49.33
5.312, 19, 29.0735, 49.9224, 5.4872, 76.6511, -87.285, 49.5468
5.316, 19, 28.9744, 49.8187, 5.79701, 76.3978, -87.3954, 49.7633
5.32, 19, 28.8737, 49.7136, 6.10675, 76.1439, -87.5052, 49.9794
5.324, 19, 28.7709, 49.6071, 6.41583, 75.8901, -87.6144, 50.1955
5.328, 19, 28.6657, 49.4994, 6.72375, 75.6373, -87.7225, 50.4118
5.332, 19, 28.5581, 49.3907, 7.03017, 75.3858, -87.8294, 50.6288
5.336, 19, 28.4481, 49.2812, 7.3349, 75.1363, -87.9347, 50.847
5.34, 19, 28.3357, 49.171, 7.63796, 74.8889, -88.0382, 51.0674
5.344, 19, 28.2213, 49.0604, 7.93954, 74.6438, -88.1397, 51.2908
5.348, 19, 28.1052, 48.9492, 8.24002, 74.4008, -88.2391, 51.5183
5.352, 19, 27.988, 48.8375, 8.53992, 74.1595, -88.3365, 51.7509
5.356, 19, 27.87, 48.7252, 8.83983, 73.9193, -88.4318, 51.9898
5.36, 19, 27.7516, 48.6122, 9.14039, 73.6797, -88.5253, 52.2357
5.364, 19, 27.6326, 48.4982, 9.44228, 73.4402, -88.6171, 52.4896
5.368, 19, 27.5132, 48.3831, 9.74609, 73.2001, -88.7075, 52.7517
5.372, 20, 27.393, 48.2668, 10.0523, 72.9592, -88.7967, 53.0222
5.376, 20, 27.2716, 48.1492, 10.3613, 72.7169, -88.8849, 53.3009
5.38, 20, 27.1488, 48.0298, 10.6731, 72.4731, -88.9724, 53.5875
5.384, 20, 27.0243, 47.9086, 10.9878, 72.2274, -89.0593, 53.8814
5.388, 20, 26.8977, 47.7853, 11.3051, 71.9796, -89.146, 54.1817
5.392, 20, 26.7692, 47.66, 11.6249, 71.7297, -89.2321, 54.4877
5.396, 20, 26.6389, 47.5326, 11.9468, 71.4774, -89.3177, 54.7987
5.4, 20, 26.5072, 47.4035, 12.2703, 71.2229, -89.4022, 55.1138
5.404, 20, 26.3745, 47.273, 12.595, 70.9664, -89.4851, 55.4323
5.408, 20, 26.2409, 47.1415, 12.9203, 70.7081, -89.5658, 55.7535
5.412, 20, 26.1066, 47.0095, 13.2456, 70.4483, -89.6436, 56.0768
5.416, 20, 25.9718, 46.8774, 13.5701, 70.1873, -89.7179, 56.4013
5.42, 20, 25.8365, 46.7454, 13.8932, 69.9257, -89.7881, 56.7265
5.424, 20, 25.7009, 46.6138, 14.214, 69.6638, -89.854, 57.0517
5.428, 20, 25.5652, 46.4829, 14.532, 69.4021, -89.9151, 57.3763
5.432, 20, 25.4298, 46.353, 14.8463, 69.1412, -89.9714, 57.6994
5.436, 20, 25.295, 46.2241, 15.1564, 68.8817, -90.0229, 58.0205
5.44, 20, 25.1609, 46.0965, 15.4618, 68.624, -90.0696, 58.3387
5.444, 21, 25.0274, 45.9701, 15.762, 68.369, -90.1118, 58.6534
5.448, 21, 24.8944, 45.8448, 16.0568, 68.117, -90.15, 58.9639
5.452, 21, 24.7615, 45.7207, 16.3459, 67.8686, -90.1846, 59.2697
5.456, 21, 24.6284, 45.5977, 16.6292, 67.6239, -90.2162, 59.5707
5.46, 21, 24.4949, 45.4759, 16.9068, 67.3829, -90.2455, 59.867
5.464, 21, 24.3607, 45.3554, 17.1791, 67.1456, -90.2729, 60.1589
5.468, 21, 24.2259, 45.2363, 17.4463, 66.9114, -90.2988, 60.4473
5.472, 21, 24.0905, 45.1188, 17.7091, 66.6797, -90.3238, 60.7331
5.476, 21, 23.9548, 45.0027, 17.9682, 66.4499, -90.348, 61.0176
5.48, 21, 23.8189, 44.8879, 18.2241, 66.221, -90.3717, 61.3023
5.484, 21, 23.6831, 44.7742, 18.4775, 65.9922, -90.3951, 61.5886
5.488, 21, 23.5475, 44.6615, 18.7291, 65.7626, -90.4182, 61.8779
5.492, 21, 23.4124, 44.5497, 18.9794, 65.5315, -90.4412, 62.1716
5.496, 21, 23.2777, 44.4388, 19.2288, 65.2982, -90.4643, 62.4707
5.5, 21, 23.1433, 44.3287, 19.4776, 65.0622, -90.4874, 62.7761
5.504, 21, 23.0093, 44.2195, 19.726, 64.8232, -90.5105, 63.0883
5.508, 21, 22.8756, 44.1112, 19.9741, 64.581, -90.5337, 63.4075
5.512, 21, 22.7422, 44.0034, 20.2218, 64.3359, -90.5571, 63.7334
5.516, 21, 22.6086, 43.8962, 20.4692, 64.088, -90.5806, 64.0655
5.52, 21, 22.4745, 43.7892, 20.7161, 63.8378, -90.6041, 64.4031
5.524, 21, 22.3393, 43.6827, 20.9622, 63.5859, -90.6277, 64.7453
5.528, 21, 22.2023, 43.5766, 21.2075, 63.3325, -90.6513, 65.0911
5.532, 21, 22.0631, 43.4711, 21.4516, 63.0782, -90.6748, 65.4396
5.536, 21, 21.9214, 43.3665, 21.6945, 62.8233, -90.6982, 65.7902
5.54, 22, 21.7771, 43.263, 21.9359, 62.5679, -90.7214, 66.1423
5.544, 22, 21.6306, 43.1606, 22.1758, 62.312, -90.7442, 66.4957
5.548, 22, 21.4821, 43.0593, 22.4142, 62.0556, -90.7665, 66.8504
5.552, 22, 21.3319, 42.9587, 22.6512, 61.7985, -90.7881, 67.2065
5.556, 22, 21.1804, 42.8588, 22.8868, 61.5404, -90.8089, 67.5643
5.56, 22, 21.0279, 42.7593, 23.1211, 61.2812, -90.8286, 67.9243
5.564, 22, 20.8749, 42.6605, 23.3541, 61.0203, -90.8471, 68.287
5.568, 22, 20.7219, 42.5622, 23.5858, 60.7575, -90.8642, 68.6529
5.572, 22, 20.5692, 42.4648, 23.8161, 60.4926, -90.88, 69.0223
5.576, 22, 20.4173, 42.3683, 24.0451, 60.2254, -90.8942, 69.3953
5.58, 22, 20.2662, 42.2728, 24.2725, 59.956, -90.907, 69.7718
5.584, 22, 20.1159, 42.1782, 24.4984, 59.6846, -90.9183, 70.1515
5.588, 22, 19.966, 42.0846, 24.7225, 59.4118, -90.9282, 70.5338
5.592, 22, 19.816, 41.9918, 24.9446, 59.138, -90.9368, 70.9177
5.596, 22, 19.6657, 41.8999, 25.1646, 58.8639, -90.9442, 71.3025
5.6, 22, 19.5145, 41.8091, 25.3821, 58.5901, -90.9505, 71.6873
5.604, 22, 19.3624, 41.7195, 25.5969, 58.3171, -90.956, 72.0712
5.608, 22, 19.2092, 41.6315, 25.8088, 58.0453, -90.9607, 72.4537
5.612, 22, 19.0546, 41.545, 26.0176, 57.7751, -90.9648, 72.8344
5.616, 22, 18.8984, 41.4602, 26.2233, 57.5066, -90.9683, 73.2133
5.62, 22, 18.7407, 41.377, 26.4259, 57.2397, -90.9714, 73.5905
5.624, 22, 18.5814, 41.2952, 26.6254, 56.9743, -90.9739, 73.9668
5.628, 22, 18.4209, 41.2147, 26.8221, 56.7098, -90.9759, 74.3429
5.632, 22, 18.2596, 41.1355, 27.016, 56.4457, -90.9774, 74.72
5.636, 23, 18.0978, 41.0574, 27.2076, 56.1813, -90.9782, 75.0992
5.64, 23, 17.9357, 40.9804, 27.397, 55.9159, -90.9783, 75.4819
5.644, 23, 17.7735, 40.9044, 27.5845, 55.6489, -90.9776, 75.8691
5.648, 23, 17.611, 40.8293, 27.7704, 55.3795, -90.9762, 76.2619
5.652, 23, 17.4481, 40.755, 27.9551, 55.1072, -90.9741, 76.6611
5.656, 23, 17.2848, 40.6815, 28.1388, 54.8317, -90.9711, 77.0672
5.66, 23, 17.1213, 40.6086, 28.3218, 54.5526, -90.9674, 77.4807
5.664, 23, 16.9576, 40.5364, 28.5045, 54.2699, -90.963, 77.9014
5.668, 23, 16.7939, 40.4651, 28.6867, 53.9836, -90.958, 78.329
5.672, 23, 16.6299, 40.395, 28.8685, 53.6941, -90.9524, 78.7629
5.676, 23, 16.4649, 40.3263, 29.0496, 53.4019, -90.9463, 79.2021
5.68, 23, 16.2985, 40.2593, 29.2298, 53.1074, -90.9397, 79.6458
5.684, 23, 16.1299, 40.1942, 29.4088, 52.8112, -90.9328, 80.093
5.688, 23, 15.9591, 40.1308, 29.5863, 52.5138, -90.9256, 80.5429
5.692, 23, 15.7862, 40.0691, 29.7619, 52.2157, -90.9182, 80.9952
5.696, 23, 15.6117, 40.0089, 29.9354, 51.917, -90.9104, 81.4494
5.7, 23, 15.436, 39.9501, 30.1064, 51.618, -90.9025, 81.9054
5.704, 23, 15.2596, 39.8928, 30.2748, 51.3188, -90.8943, 82.3633
5.708, 24, 15.0824, 39.837, 30.4401, 51.0195, -90.8859, 82.8231
5.712, 24, 14.9044, 39.7828, 30.6023, 50.7201, -90.8773, 83.285
5.716, 24, 14.7254, 39.7303, 30.7612, 50.4205, -90.8684, 83.7489
5.72, 24, 14.5458, 39.6794, 30.9167, 50.1208, -90.8592, 84.2151
5.724, 24, 14.3661, 39.63, 31.0692, 49.8207, -90.8498, 84.6838
5.728, 24, 14.1872, 39.5821, 31.2187, 49.5201, -90.8402, 85.155
5.732, 24, 14.0098, 39.5356, 31.3654, 49.219, -90.8303, 85.6288
5.736, 24, 13.8341, 39.4907, 31.5097, 48.9175, -90.8202, 86.1047
5.74, 24, 13.6602, 39.4476, 31.6515, 48.6158, -90.8099, 86.5822
5.744, 24, 13.4874, 39.4068, 31.7908, 48.3143, -90.7994, 87.0604
5.748, 24, 13.3152, 39.3684, 31.9276, 48.0134, -90.7889, 87.5385
5.752, 24, 13.1427, 39.3328, 32.0617, 47.7139, -90.7784, 88.0154
5.756, 24, 12.9695, 39.2999, 32.1929, 47.4161, -90.7679, 88.4905
5.76, 24, 12.7956, 39.2696, 32.321, 47.1206, -90.7576, 88.9632
5.764, 24, 12.6211, 39.2418, 32.446, 46.8275, -90.7476, 89.4335
5.768, 24, 12.446, 39.2161, 32.5675, 46.5369, -90.738, 89.9016
5.772, 24, 12.2706, 39.1925, 32.6855, 46.2488, -90.729, 90.3681
5.776, 24, 12.0946, 39.171, 32.7999, 45.9628, -90.7206, 90.8337
5.78, 25, 11.9182, 39.1516, 32.9107, 45.6785, -90.7128, 91.2995
5.784, 25, 11.7415, 39.1343, 33.0178, 45.3955, -90.7058, 91.7666
5.788, 25, 11.5647, 39.119, 33.1214, 45.1129, -90.6995, 92.2361
5.792, 25, 11.3881, 39.1058, 33.2217, 44.8303, -90.6939, 92.7093
5.796, 25, 11.2124, 39.0944, 33.3191, 44.547, -90.6891, 93.187
5.8, 25, 11.038, 39.0846, 33.4139, 44.2624, -90.685, 93.6701
5.804, 25, 10.8653, 39.0762, 33.5065, 43.9763, -90.6815, 94.1589
5.808, 25, 10.6945, 39.0694, 33.597, 43.6884, -90.6786, 94.6532
5.812, 25, 10.5253, 39.0643, 33.6858, 43.3989, -90.6761, 95.1524
5.816, 25, 10.3571, 39.0615, 33.7728, 43.1082, -90.674, 95.6557
5.82, 25, 10.1896, 39.0612, 33.858, 42.8167, -90.6723, 96.1618
5.824, 25, 10.0223, 39.0636, 33.9414, 42.5253, -90.6708, 96.6693
5.828, 25, 9.85494, 39.069, 34.0226, 42.2347, -90.6698, 97.1769
5.832, 25, 9.68741, 39.0773, 34.1014, 41.9457, -90.6692, 97.6835
5.836, 25, 9.51962, 39.0883, 34.1776, 41.6592, -90.6693, 98.188
5.84, 25, 9.35151, 39.1019, 34.2507, 41.3758, -90.6702, 98.6899
5.844, 25, 9.18297, 39.1179, 34.3205, 41.096, -90.6721, 99.1888
5.848, 25, 9.01378, 39.1364, 34.3865, 40.8202, -90.6753, 99.6847
5.852, 26, 8.84379, 39.1576, 34.4486, 40.5484, -90.68, 100.178
5.856, 26, 8.67309, 39.1814, 34.5066, 40.2804, -90.6863, 100.67
5.86, 26, 8.50218, 39.2079, 34.5604, 40.0157, -90.6944, 101.162
5.864, 26, 8.33173, 39.2369, 34.6103, 39.7536, -90.7043, 101.655
5.868, 26, 8.16235, 39.2683, 34.6564, 39.4934, -90.7163, 102.151
5.872, 26, 7.9945, 39.3019, 34.699, 39.2342, -90.7302, 102.651
5.876, 26, 7.82844, 39.3374, 34.7385, 38.9756, -90.746, 103.156
5.88, 26, 7.66426, 39.3748, 34.7752, 38.7168, -90.7635, 103.667
5.884, 26, 7.50186, 39.414, 34.8094, 38.4577, -90.7826, 104.183
5.888, 26, 7.34105, 39.4553, 34.8413, 38.198, -90.8031, 104.704
5.892, 26, 7.1816, 39.499, 34.8712, 37.9377, -90.8247, 105.23
5.896, 26, 7.02335, 39.5454, 34.8993, 37.677, -90.8471, 105.759
5.9, 26, 6.86622, 39.5946, 34.9255, 37.4164, -90.8703, 106.291
5.904, 26, 6.71009, 39.6466, 34.9499, 37.1564, -90.894, 106.824
5.908, 26, 6.55467, 39.7014, 34.9723, 36.8977, -90.9182, 107.357
5.912, 26, 6.39959, 39.7589, 34.9925, 36.6412, -90.9429, 107.889
5.916, 26, 6.24453, 39.819, 35.0102, 36.3876, -90.9683, 108.419
5.92, 26, 6.08934, 39.8816, 35.0251, 36.1379, -90.9944, 108.946
5.924, 26, 5.93395, 39.9467, 35.0367, 35.8925, -91.0214, 109.47
5.928, 26, 5.77834, 40.0144, 35.0448, 35.6519, -91.0495, 109.991
5.932, 26, 5.62262, 40.0847, 35.0491, 35.4161, -91.0788, 110.511
5.936, 26, 5.46718, 40.1575, 35.0494, 35.1851, -91.1094, 111.029
5.94, 26, 5.31267, 40.2327, 35.0459, 34.9584, -91.1417, 111.547
5.944, 26, 5.1598, 40.31, 35.0385, 34.7356, -91.1756, 112.066
5.948, 26, 5.00914, 40.389, 35.0275, 34.5162, -91.2112, 112.588
5.952, 26, 4.86105, 40.4693, 35.0131, 34.2997, -91.2485, 113.112
5.956, 26, 4.71576, 40.5508, 34.9957, 34.0857, -91.2875, 113.64
5.96, 26, 4.57328, 40.6332, 34.9756, 33.8738, -91.3279, 114.17
5.964, 26, 4.43345, 40.7166, 34.953, 33.6638, -91.3696, 114.703
5.968, 26, 4.29594, 40.8013, 34.9283, 33.4556, -91.4121, 115.238
5.972, 26, 4.1605, 40.8876, 34.9018, 33.2494, -91.4553, 115.772
5.976, 26, 4.02707, 40.9759, 34.8736, 33.0454, -91.499, 116.304
5.98, 26, 3.89569, 41.0663, 34.8441, 32.844, -91.5428, 116.833
5.984, 26, 3.76637, 41.159, 34.8131, 32.646, -91.5867, 117.357
5.988, 26, 3.63904, 41.254, 34.7807, 32.4521, -91.6307, 117.875
5.992, 26, 3.5136, 41.3512, 34.7467, 32.2632, -91.6749, 118.385
5.996, 26, 3.38989, 41.4505, 34.7108, 32.0801, -91.7195, 118.886
6, 26, 3.26773, 41.5517, 34.6726, 31.9037, -91.7647, 119.379
6.004, 26, 3.14697, 41.6551, 34.6317, 31.7346, -91.8108, 119.864
6.008, 26, 3.02751, 41.7608, 34.5876, 31.5733, -91.8583, 120.34
6.012, 26, 2.90936, 41.869, 34.54, 31.42, -91.9074, 120.809
6.016, 26, 2.79262, 41.9798, 34.4885, 31.2747, -91.9587, 121.273
6.02, 26, 2.67749, 42.0932, 34.4328, 31.137, -92.0126, 121.735
6.024, 26, 2.56426, 42.2088, 34.373, 31.0064, -92.0693, 122.195
6.028, 26, 2.45321, 42.3267, 34.3088, 30.8824, -92.1293, 122.657
6.032, 26, 2.34452, 42.4465, 34.2404, 30.7642, -92.1927, 123.123
6.036, 26, 2.23822, 42.5684, 34.1679, 30.651, -92.2595, 123.593
6.04, 26, 2.13425, 42.6922, 34.0916, 30.5419, -92.3296, 124.069
6.044, 26, 2.0326, 42.8181, 34.0116, 30.4363, -92.4029, 124.551
6.048, 26, 1.93328, 42.9461, 33.9283, 30.3334, -92.4788, 125.04
6.052, 26, 1.83628, 43.0762, 33.8422, 30.2325, -92.5572, 125.534
6.056, 26, 1.74159, 43.2082, 33.7538, 30.1332, -92.6373, 126.033
6.06, 26, 1.64915, 43.3419, 33.6634, 30.0352, -92.7189, 126.536
