hehonglu123/Motion-Primitive-Planning/simulation/robotstudio_sim/scripts/fitting_output/movej/curve_exe_v5000_z1.csv
timestamp, cmd_num, J1, J2, J3, J4, J5, J6
0, 1, -0.913123, 64.054, 9.02799, 44.079, -95.9522, 169.293
0.002, 1, -0.913123, 64.054, 9.02799, 44.079, -95.9522, 169.293
0.004, 1, -0.913123, 64.054, 9.02799, 44.079, -95.9522, 169.293
0.008, 1, -0.913123, 64.054, 9.02799, 44.079, -95.9522, 169.293
0.011, 1, -0.913123, 64.054, 9.02799, 44.079, -95.9522, 169.293
0.016, 1, -0.913123, 64.054, 9.02799, 44.079, -95.9522, 169.293
0.02, 1, -0.913123, 64.054, 9.02799, 44.079, -95.9522, 169.293
0.024, 1, -0.913123, 64.054, 9.02799, 44.079, -95.9522, 169.293
0.028, 1, -0.913123, 64.054, 9.02799, 44.079, -95.9522, 169.293
0.032, 1, -0.913123, 64.054, 9.02799, 44.079, -95.9522, 169.293
0.036, 1, -0.913114, 64.054, 9.02799, 44.079, -95.9522, 169.293
0.04, 1, -0.91305, 64.054, 9.028, 44.079, -95.9522, 169.293
0.044, 1, -0.912828, 64.0539, 9.028, 44.079, -95.9522, 169.293
0.048, 1, -0.912302, 64.0538, 9.02802, 44.0791, -95.9522, 169.293
0.052, 1, -0.91133, 64.0535, 9.02805, 44.0791, -95.9522, 169.293
0.056, 1, -0.909803, 64.053, 9.02808, 44.0792, -95.9521, 169.293
0.06, 1, -0.907647, 64.0522, 9.0281, 44.0794, -95.9519, 169.292
0.064, 1, -0.904811, 64.0511, 9.02806, 44.0799, -95.9515, 169.291
0.068, 1, -0.901261, 64.0497, 9.02791, 44.0807, -95.9508, 169.289
0.072, 1, -0.896948, 64.0479, 9.0276, 44.082, -95.9498, 169.286
0.076, 1, -0.891774, 64.0455, 9.02705, 44.084, -95.9481, 169.281
0.08, 1, -0.885582, 64.0426, 9.02614, 44.0869, -95.9457, 169.275
0.084, 1, -0.878171, 64.0391, 9.02477, 44.091, -95.9422, 169.265
0.088, 1, -0.86934, 64.0348, 9.02281, 44.0966, -95.9375, 169.252
0.092, 1, -0.858929, 64.0297, 9.02011, 44.1041, -95.9313, 169.235
0.096, 1, -0.846831, 64.0238, 9.01649, 44.1137, -95.9232, 169.212
0.1, 1, -0.832962, 64.017, 9.01177, 44.1259, -95.913, 169.184
0.104, 1, -0.817219, 64.0093, 9.00578, 44.141, -95.9002, 169.149
0.108, 1, -0.799471, 64.0006, 8.99834, 44.1595, -95.8846, 169.106
0.112, 1, -0.779587, 63.9909, 8.9893, 44.1817, -95.866, 169.054
0.116, 1, -0.757483, 63.9802, 8.97849, 44.2079, -95.8439, 168.994
0.12, 1, -0.73314, 63.9686, 8.9658, 44.2383, -95.8183, 168.923
0.124, 1, -0.706585, 63.9562, 8.95109, 44.2733, -95.7888, 168.842
0.128, 1, -0.677864, 63.9432, 8.93429, 44.313, -95.7553, 168.751
0.131, 1, -0.647025, 63.9297, 8.91534, 44.3574, -95.7178, 168.648
0.136, 1, -0.614108, 63.9156, 8.89423, 44.4066, -95.6763, 168.534
0.139, 1, -0.579115, 63.9009, 8.87101, 44.4606, -95.6308, 168.41
0.144, 1, -0.542009, 63.8855, 8.84574, 44.519, -95.5815, 168.274
0.148, 1, -0.502752, 63.8693, 8.81855, 44.5818, -95.5285, 168.129
0.152, 1, -0.46136, 63.8521, 8.78959, 44.6486, -95.4721, 167.975
0.156, 1, -0.417928, 63.8339, 8.759, 44.7191, -95.4126, 167.812
0.16, 1, -0.372591, 63.8149, 8.72696, 44.7929, -95.3503, 167.642
0.164, 1, -0.325468, 63.795, 8.69365, 44.8696, -95.2856, 167.464
0.168, 1, -0.276642, 63.7742, 8.65926, 44.9488, -95.2188, 167.281
0.172, 1, -0.22618, 63.7526, 8.624, 45.0302, -95.1501, 167.093
0.176, 1, -0.174178, 63.7303, 8.58804, 45.1132, -95.08, 166.902
0.18, 1, -0.120764, 63.7071, 8.55154, 45.1976, -95.0088, 166.706
0.184, 1, -0.0660815, 63.6833, 8.51465, 45.2831, -94.9367, 166.509
0.188, 1, -0.0102759, 63.6588, 8.47747, 45.3694, -94.8639, 166.309
0.192, 1, 0.0464958, 63.6339, 8.44009, 45.4563, -94.7906, 166.109
0.196, 1, 0.104075, 63.6085, 8.40258, 45.5436, -94.7169, 165.907
0.2, 1, 0.162329, 63.5827, 8.36498, 45.6312, -94.643, 165.704
0.204, 1, 0.221168, 63.5568, 8.32732, 45.719, -94.569, 165.501
0.208, 1, 0.280514, 63.5306, 8.28965, 45.8069, -94.4948, 165.298
0.212, 1, 0.340276, 63.5043, 8.25196, 45.8949, -94.4206, 165.095
0.216, 1, 0.400345, 63.4779, 8.21427, 45.9829, -94.3463, 164.891
0.22, 1, 0.460622, 63.4514, 8.17659, 46.0709, -94.2721, 164.688
0.224, 1, 0.521029, 63.4249, 8.13892, 46.1589, -94.1979, 164.484
0.228, 1, 0.581513, 63.3984, 8.10127, 46.2469, -94.1236, 164.281
0.232, 1, 0.642037, 63.3718, 8.06364, 46.3349, -94.0494, 164.077
0.236, 1, 0.702579, 63.3453, 8.02602, 46.4228, -93.9753, 163.874
0.24, 1, 0.76312, 63.3188, 7.98843, 46.5106, -93.9012, 163.671
0.244, 1, 0.82365, 63.2922, 7.95085, 46.5984, -93.8271, 163.468
0.248, 1, 0.884161, 63.2657, 7.9133, 46.6862, -93.753, 163.265
0.252, 1, 0.944648, 63.2392, 7.87577, 46.774, -93.679, 163.062
0.256, 1, 1.00511, 63.2127, 7.83826, 46.8616, -93.6051, 162.859
0.26, 1, 1.06553, 63.1862, 7.80077, 46.9493, -93.5312, 162.657
0.264, 1, 1.12593, 63.1598, 7.7633, 47.0368, -93.4573, 162.454
0.268, 1, 1.18629, 63.1333, 7.72585, 47.1244, -93.3835, 162.252
0.272, 1, 1.24662, 63.1069, 7.68843, 47.2118, -93.3097, 162.05
0.276, 1, 1.30691, 63.0805, 7.65103, 47.2993, -93.2359, 161.847
0.28, 1, 1.36717, 63.0541, 7.61365, 47.3866, -93.1622, 161.645
0.284, 1, 1.42739, 63.0277, 7.57629, 47.4739, -93.0886, 161.444
0.288, 1, 1.48758, 63.0013, 7.53896, 47.5612, -93.015, 161.242
0.292, 1, 1.54773, 62.9749, 7.50165, 47.6484, -92.9414, 161.04
0.296, 1, 1.60785, 62.9486, 7.46436, 47.7356, -92.8679, 160.839
0.3, 1, 1.66792, 62.9223, 7.42709, 47.8227, -92.7944, 160.637
0.304, 1, 1.72796, 62.896, 7.38985, 47.9097, -92.721, 160.436
0.308, 1, 1.78797, 62.8697, 7.35263, 47.9967, -92.6476, 160.235
0.312, 1, 1.84793, 62.8434, 7.31543, 48.0837, -92.5743, 160.034
0.316, 1, 1.90786, 62.8172, 7.27826, 48.1706, -92.501, 159.833
0.32, 1, 1.96776, 62.7909, 7.24111, 48.2574, -92.4277, 159.632
0.324, 1, 2.02761, 62.7647, 7.20398, 48.3442, -92.3545, 159.431
0.328, 1, 2.08743, 62.7385, 7.16688, 48.4309, -92.2814, 159.231
0.332, 1, 2.14721, 62.7123, 7.1298, 48.5176, -92.2083, 159.03
0.336, 1, 2.20695, 62.6861, 7.09274, 48.6042, -92.1352, 158.83
0.34, 1, 2.26665, 62.6599, 7.05571, 48.6908, -92.0622, 158.63
0.344, 1, 2.32632, 62.6338, 7.0187, 48.7773, -91.9892, 158.43
0.348, 1, 2.38594, 62.6077, 6.98171, 48.8637, -91.9163, 158.23
0.352, 1, 2.44553, 62.5816, 6.94475, 48.9501, -91.8434, 158.03
0.356, 1, 2.50508, 62.5555, 6.90781, 49.0365, -91.7706, 157.831
0.36, 1, 2.56459, 62.5294, 6.87089, 49.1228, -91.6978, 157.631
0.364, 1, 2.62407, 62.5033, 6.834, 49.209, -91.625, 157.432
0.368, 1, 2.6835, 62.4773, 6.79714, 49.2952, -91.5523, 157.233
0.372, 1, 2.74289, 62.4513, 6.76029, 49.3813, -91.4797, 157.033
0.376, 1, 2.80225, 62.4252, 6.72348, 49.4673, -91.4071, 156.834
0.38, 1, 2.86157, 62.3993, 6.68668, 49.5533, -91.3346, 156.636
0.384, 1, 2.92084, 62.3733, 6.64991, 49.6393, -91.2621, 156.437
0.388, 1, 2.98008, 62.3473, 6.61317, 49.7252, -91.1896, 156.238
0.392, 1, 3.03928, 62.3214, 6.57645, 49.811, -91.1172, 156.04
0.396, 1, 3.09844, 62.2955, 6.53975, 49.8968, -91.0449, 155.841
0.4, 1, 3.15756, 62.2696, 6.50308, 49.9825, -90.9726, 155.643
0.404, 1, 3.21663, 62.2437, 6.46643, 50.0681, -90.9003, 155.445
0.408, 1, 3.27567, 62.2178, 6.42981, 50.1537, -90.8281, 155.247
0.412, 1, 3.33467, 62.1919, 6.39321, 50.2393, -90.756, 155.049
0.416, 1, 3.39363, 62.1661, 6.35664, 50.3248, -90.6838, 154.852
0.42, 1, 3.45255, 62.1403, 6.32009, 50.4102, -90.6118, 154.654
0.424, 1, 3.51142, 62.1145, 6.28357, 50.4956, -90.5398, 154.457
0.428, 1, 3.57026, 62.0887, 6.24708, 50.5809, -90.4678, 154.26
0.432, 1, 3.62906, 62.063, 6.21061, 50.6661, -90.3959, 154.063
0.436, 1, 3.68781, 62.0372, 6.17416, 50.7513, -90.324, 153.866
0.44, 1, 3.74653, 62.0115, 6.13774, 50.8364, -90.2522, 153.669
0.444, 1, 3.8052, 61.9858, 6.10135, 50.9215, -90.1805, 153.472
0.448, 1, 3.86383, 61.9601, 6.06498, 51.0065, -90.1088, 153.276
0.452, 1, 3.92242, 61.9344, 6.02863, 51.0915, -90.0371, 153.079
0.456, 1, 3.98097, 61.9087, 5.99232, 51.1763, -89.9655, 152.883
0.46, 1, 4.03947, 61.8831, 5.95602, 51.2612, -89.894, 152.687
0.464, 1, 4.09794, 61.8575, 5.91976, 51.3459, -89.8225, 152.491
0.468, 1, 4.15636, 61.8319, 5.88352, 51.4307, -89.751, 152.295
0.472, 1, 4.21475, 61.8063, 5.84731, 51.5153, -89.6796, 152.099
0.476, 1, 4.27308, 61.7808, 5.81112, 51.5999, -89.6083, 151.904
0.48, 1, 4.33138, 61.7552, 5.77496, 51.6844, -89.537, 151.708
0.484, 1, 4.38964, 61.7297, 5.73882, 51.7689, -89.4657, 151.513
0.488, 1, 4.44785, 61.7042, 5.70271, 51.8533, -89.3945, 151.318
0.492, 1, 4.50602, 61.6787, 5.66663, 51.9376, -89.3234, 151.123
0.496, 1, 4.56415, 61.6532, 5.63057, 52.0219, -89.2523, 150.928
0.5, 1, 4.62223, 61.6278, 5.59454, 52.1061, -89.1812, 150.733
0.504, 1, 4.68028, 61.6023, 5.55854, 52.1903, -89.1103, 150.538
0.508, 1, 4.73828, 61.5769, 5.52257, 52.2743, -89.0393, 150.344
0.512, 1, 4.79623, 61.5515, 5.48662, 52.3584, -88.9684, 150.15
0.516, 1, 4.85415, 61.5261, 5.45069, 52.4423, -88.8976, 149.956
0.52, 1, 4.91202, 61.5008, 5.4148, 52.5262, -88.8268, 149.762
0.524, 1, 4.96985, 61.4754, 5.37893, 52.6101, -88.7561, 149.568
0.528, 1, 5.02763, 61.4501, 5.34308, 52.6939, -88.6855, 149.374
0.532, 1, 5.08537, 61.4248, 5.30727, 52.7776, -88.6148, 149.18
0.536, 1, 5.14307, 61.3995, 5.27148, 52.8612, -88.5443, 148.987
0.54, 1, 5.20072, 61.3743, 5.23572, 52.9448, -88.4738, 148.794
0.544, 1, 5.25833, 61.349, 5.19998, 53.0283, -88.4033, 148.601
0.548, 1, 5.3159, 61.3238, 5.16428, 53.1118, -88.3329, 148.408
0.552, 1, 5.37342, 61.2986, 5.1286, 53.1952, -88.2626, 148.215
0.556, 1, 5.4309, 61.2734, 5.09294, 53.2785, -88.1923, 148.022
0.56, 1, 5.48834, 61.2483, 5.05732, 53.3618, -88.122, 147.83
0.564, 1, 5.54572, 61.2231, 5.02172, 53.445, -88.0518, 147.637
0.568, 1, 5.60307, 61.198, 4.98615, 53.5282, -87.9817, 147.445
0.572, 1, 5.66037, 61.1729, 4.95061, 53.6112, -87.9116, 147.253
0.576, 1, 5.71763, 61.1478, 4.91509, 53.6943, -87.8416, 147.061
0.58, 1, 5.77484, 61.1227, 4.8796, 53.7772, -87.7716, 146.869
0.584, 1, 5.83201, 61.0977, 4.84414, 53.8601, -87.7017, 146.677
0.588, 1, 5.88913, 61.0726, 4.80871, 53.9429, -87.6318, 146.486
0.592, 1, 5.94621, 61.0476, 4.7733, 54.0257, -87.562, 146.295
0.596, 1, 6.00325, 61.0226, 4.73793, 54.1084, -87.4923, 146.103
0.6, 1, 6.06024, 60.9977, 4.70258, 54.191, -87.4226, 145.912
0.604, 1, 6.11718, 60.9727, 4.66725, 54.2736, -87.3529, 145.721
0.608, 1, 6.17408, 60.9478, 4.63196, 54.356, -87.2834, 145.531
0.612, 1, 6.23094, 60.9229, 4.5967, 54.4385, -87.2138, 145.34
0.616, 1, 6.28774, 60.898, 4.56146, 54.5208, -87.1443, 145.15
0.62, 1, 6.34451, 60.8731, 4.52625, 54.6031, -87.0749, 144.959
0.624, 1, 6.40123, 60.8483, 4.49107, 54.6854, -87.0056, 144.769
0.628, 1, 6.4579, 60.8234, 4.45591, 54.7675, -86.9363, 144.579
0.632, 1, 6.51453, 60.7986, 4.42079, 54.8496, -86.867, 144.389
0.636, 1, 6.57111, 60.7738, 4.38569, 54.9317, -86.7978, 144.2
0.64, 1, 6.62765, 60.749, 4.35062, 55.0136, -86.7287, 144.01
0.644, 1, 6.68414, 60.7243, 4.31558, 55.0955, -86.6596, 143.821
0.648, 1, 6.74058, 60.6996, 4.28057, 55.1774, -86.5905, 143.632
0.652, 1, 6.79698, 60.6749, 4.24559, 55.2592, -86.5216, 143.443
0.656, 1, 6.85333, 60.6502, 4.21064, 55.3409, -86.4526, 143.254
0.66, 1, 6.90964, 60.6255, 4.17571, 55.4225, -86.3838, 143.065
0.664, 1, 6.9659, 60.6008, 4.14081, 55.5041, -86.315, 142.876
0.668, 1, 7.02212, 60.5762, 4.10595, 55.5856, -86.2462, 142.688
0.672, 1, 7.07829, 60.5516, 4.07111, 55.667, -86.1775, 142.5
0.676, 1, 7.13441, 60.527, 4.03629, 55.7484, -86.1089, 142.311
0.68, 1, 7.19048, 60.5024, 4.00151, 55.8297, -86.0403, 142.123
0.684, 1, 7.24651, 60.4779, 3.96676, 55.9109, -85.9718, 141.936
0.688, 1, 7.3025, 60.4534, 3.93203, 55.9921, -85.9033, 141.748
0.692, 1, 7.35843, 60.4288, 3.89734, 56.0732, -85.8349, 141.56
0.696, 1, 7.41432, 60.4044, 3.86267, 56.1542, -85.7666, 141.373
0.7, 1, 7.47016, 60.3799, 3.82803, 56.2351, -85.6983, 141.186
0.704, 1, 7.52596, 60.3554, 3.79343, 56.316, -85.6301, 140.999
0.708, 1, 7.58171, 60.331, 3.75885, 56.3969, -85.5619, 140.812
0.712, 1, 7.63741, 60.3066, 3.7243, 56.4776, -85.4938, 140.625
0.716, 1, 7.69307, 60.2822, 3.68977, 56.5583, -85.4257, 140.439
0.72, 1, 7.74868, 60.2579, 3.65528, 56.6389, -85.3577, 140.252
0.724, 1, 7.80424, 60.2335, 3.62082, 56.7195, -85.2897, 140.066
0.728, 1, 7.85975, 60.2092, 3.58639, 56.8, -85.2218, 139.88
0.732, 1, 7.91522, 60.1849, 3.55198, 56.8804, -85.154, 139.694
0.736, 1, 7.97064, 60.1606, 3.51761, 56.9607, -85.0862, 139.508
0.74, 1, 8.02602, 60.1363, 3.48326, 57.041, -85.0185, 139.322
0.744, 1, 8.08134, 60.1121, 3.44895, 57.1212, -84.9508, 139.137
0.748, 1, 8.13662, 60.0879, 3.41466, 57.2014, -84.8832, 138.952
0.752, 1, 8.19185, 60.0637, 3.3804, 57.2814, -84.8157, 138.767
0.756, 1, 8.24703, 60.0395, 3.34617, 57.3615, -84.7482, 138.582
0.76, 1, 8.30217, 60.0153, 3.31197, 57.4414, -84.6808, 138.397
0.764, 1, 8.35726, 59.9912, 3.2778, 57.5213, -84.6134, 138.212
0.768, 1, 8.4123, 59.9671, 3.24367, 57.6011, -84.5461, 138.028
0.772, 1, 8.46729, 59.943, 3.20956, 57.6808, -84.4789, 137.843
0.776, 1, 8.52224, 59.9189, 3.17548, 57.7604, -84.4117, 137.659
0.78, 1, 8.57714, 59.8949, 3.14142, 57.84, -84.3445, 137.475
0.784, 1, 8.63199, 59.8708, 3.1074, 57.9195, -84.2775, 137.291
0.788, 1, 8.68679, 59.8468, 3.07341, 57.999, -84.2104, 137.107
0.792, 1, 8.74154, 59.8228, 3.03945, 58.0784, -84.1435, 136.924
0.796, 1, 8.79625, 59.7989, 3.00552, 58.1577, -84.0766, 136.74
0.8, 1, 8.85091, 59.7749, 2.97162, 58.2369, -84.0097, 136.557
0.804, 1, 8.90552, 59.751, 2.93775, 58.3161, -83.9429, 136.374
0.808, 1, 8.96009, 59.7271, 2.9039, 58.3952, -83.8762, 136.191
0.812, 1, 9.0146, 59.7032, 2.87009, 58.4743, -83.8095, 136.009
0.816, 1, 9.06907, 59.6793, 2.83631, 58.5532, -83.7429, 135.826
0.82, 1, 9.12349, 59.6555, 2.80255, 58.6321, -83.6764, 135.644
0.824, 1, 9.17786, 59.6316, 2.76883, 58.7109, -83.6099, 135.461
0.828, 1, 9.23218, 59.6078, 2.73514, 58.7897, -83.5435, 135.279
0.832, 1, 9.28646, 59.5841, 2.70147, 58.8684, -83.4771, 135.097
0.836, 1, 9.34069, 59.5603, 2.66784, 58.947, -83.4108, 134.915
0.84, 1, 9.39487, 59.5366, 2.63424, 59.0255, -83.3445, 134.734
0.844, 1, 9.449, 59.5129, 2.60066, 59.104, -83.2783, 134.552
0.848, 1, 9.50308, 59.4892, 2.56712, 59.1824, -83.2122, 134.371
0.852, 1, 9.55711, 59.4655, 2.5336, 59.2608, -83.1461, 134.19
0.856, 1, 9.6111, 59.4418, 2.50012, 59.339, -83.0801, 134.009
0.86, 1, 9.66504, 59.4182, 2.46666, 59.4172, -83.0141, 133.828
0.864, 1, 9.71893, 59.3946, 2.43324, 59.4953, -82.9482, 133.648
0.868, 1, 9.77277, 59.371, 2.39984, 59.5734, -82.8824, 133.467
0.872, 1, 9.82656, 59.3474, 2.36648, 59.6514, -82.8166, 133.287
0.876, 1, 9.88031, 59.3239, 2.33315, 59.7293, -82.7509, 133.107
0.88, 1, 9.934, 59.3003, 2.29984, 59.8072, -82.6852, 132.927
0.884, 1, 9.98765, 59.2768, 2.26657, 59.8849, -82.6196, 132.747
0.888, 1, 10.0413, 59.2534, 2.23332, 59.9626, -82.5541, 132.567
0.892, 1, 10.0948, 59.2299, 2.20011, 60.0403, -82.4886, 132.388
0.896, 1, 10.1483, 59.2064, 2.16692, 60.1178, -82.4231, 132.208
0.9, 1, 10.2018, 59.183, 2.13377, 60.1953, -82.3578, 132.029
0.904, 1, 10.2552, 59.1596, 2.10064, 60.2728, -82.2925, 131.85
0.908, 1, 10.3085, 59.1362, 2.06755, 60.3501, -82.2272, 131.671
0.912, 1, 10.3618, 59.1129, 2.03448, 60.4274, -82.162, 131.492
0.916, 1, 10.4151, 59.0896, 2.00145, 60.5046, -82.0969, 131.314
0.92, 1, 10.4683, 59.0662, 1.96845, 60.5818, -82.0318, 131.136
0.924, 1, 10.5215, 59.0429, 1.93547, 60.6588, -81.9668, 130.957
0.928, 1, 10.5746, 59.0197, 1.90253, 60.7358, -81.9018, 130.779
0.932, 1, 10.6277, 58.9964, 1.86961, 60.8128, -81.8369, 130.601
0.936, 1, 10.6807, 58.9732, 1.83673, 60.8896, -81.7721, 130.424
0.94, 1, 10.7336, 58.95, 1.80388, 60.9664, -81.7073, 130.246
0.944, 1, 10.7866, 58.9268, 1.77105, 61.0431, -81.6426, 130.069
0.948, 1, 10.8394, 58.9036, 1.73826, 61.1198, -81.578, 129.891
0.952, 1, 10.8923, 58.8805, 1.7055, 61.1964, -81.5134, 129.714
0.956, 1, 10.945, 58.8574, 1.67276, 61.2729, -81.4488, 129.538
0.96, 1, 10.9978, 58.8343, 1.64006, 61.3493, -81.3843, 129.361
0.964, 1, 11.0505, 58.8112, 1.60739, 61.4257, -81.3199, 129.184
0.968, 1, 11.1031, 58.7881, 1.57474, 61.502, -81.2556, 129.008
0.972, 1, 11.1557, 58.7651, 1.54213, 61.5782, -81.1913, 128.831
0.976, 1, 11.2082, 58.7421, 1.50955, 61.6544, -81.127, 128.655
0.98, 1, 11.2607, 58.7191, 1.47699, 61.7305, -81.0628, 128.479
0.984, 1, 11.3131, 58.6961, 1.44447, 61.8065, -80.9987, 128.304
0.988, 1, 11.3655, 58.6731, 1.41198, 61.8824, -80.9346, 128.128
0.992, 1, 11.4179, 58.6502, 1.37952, 61.9583, -80.8706, 127.953
0.996, 1, 11.4701, 58.6273, 1.34708, 62.0341, -80.8067, 127.777
1, 1, 11.5224, 58.6044, 1.31468, 62.1099, -80.7428, 127.602
1.004, 1, 11.5746, 58.5815, 1.28231, 62.1855, -80.679, 127.427
1.008, 1, 11.6267, 58.5587, 1.24997, 62.2611, -80.6152, 127.252
1.012, 1, 11.6788, 58.5359, 1.21766, 62.3367, -80.5515, 127.078
1.016, 1, 11.7309, 58.5131, 1.18537, 62.4121, -80.4879, 126.903
1.02, 1, 11.7829, 58.4903, 1.15312, 62.4875, -80.4243, 126.729
1.024, 1, 11.8348, 58.4675, 1.1209, 62.5628, -80.3607, 126.555
1.027, 1, 11.8867, 58.4448, 1.08871, 62.6381, -80.2973, 126.381
1.032, 1, 11.9386, 58.422, 1.05655, 62.7132, -80.2339, 126.207
1.036, 1, 11.9904, 58.3993, 1.02442, 62.7883, -80.1705, 126.033
1.04, 1, 12.0422, 58.3767, 0.992315, 62.8634, -80.1072, 125.86
1.044, 1, 12.0939, 58.354, 0.960244, 62.9383, -80.044, 125.687
1.048, 1, 12.1455, 58.3314, 0.928203, 63.0132, -79.9808, 125.513
1.052, 1, 12.1971, 58.3088, 0.896191, 63.0881, -79.9177, 125.34
1.055, 1, 12.2487, 58.2862, 0.86421, 63.1628, -79.8546, 125.168
1.06, 1, 12.3002, 58.2636, 0.832259, 63.2375, -79.7916, 124.995
1.064, 1, 12.3517, 58.2411, 0.800338, 63.3121, -79.7287, 124.822
1.068, 1, 12.4031, 58.2185, 0.768447, 63.3866, -79.6658, 124.65
1.072, 1, 12.4545, 58.196, 0.736586, 63.4611, -79.603, 124.478
1.076, 1, 12.5058, 58.1735, 0.704755, 63.5355, -79.5402, 124.306
1.08, 1, 12.5571, 58.1511, 0.672953, 63.6098, -79.4775, 124.134
1.084, 1, 12.6083, 58.1286, 0.641182, 63.6841, -79.4149, 123.962
1.088, 1, 12.6595, 58.1062, 0.609441, 63.7583, -79.3523, 123.791
1.091, 1, 12.7106, 58.0838, 0.57773, 63.8324, -79.2898, 123.619
1.096, 1, 12.7617, 58.0614, 0.546048, 63.9065, -79.2273, 123.448
1.1, 1, 12.8127, 58.0391, 0.514397, 63.9805, -79.1649, 123.277
1.104, 1, 12.8637, 58.0167, 0.482775, 64.0544, -79.1026, 123.106
1.108, 1, 12.9147, 57.9944, 0.451183, 64.1282, -79.0403, 122.935
1.112, 1, 12.9656, 57.9721, 0.419622, 64.202, -78.9781, 122.765
1.116, 1, 13.0164, 57.9498, 0.388089, 64.2757, -78.9159, 122.594
1.119, 1, 13.0672, 57.9276, 0.356587, 64.3493, -78.8538, 122.424
1.124, 1, 13.1179, 57.9053, 0.325115, 64.4229, -78.7917, 122.254
1.128, 1, 13.1686, 57.8831, 0.293672, 64.4964, -78.7297, 122.084
1.132, 1, 13.2193, 57.8609, 0.262259, 64.5698, -78.6678, 121.914
1.136, 1, 13.2699, 57.8388, 0.230875, 64.6432, -78.6059, 121.745
1.14, 1, 13.3205, 57.8166, 0.199521, 64.7165, -78.5441, 121.575
1.144, 1, 13.371, 57.7945, 0.168197, 64.7897, -78.4823, 121.406
1.147, 1, 13.4214, 57.7724, 0.136903, 64.8628, -78.4206, 121.237
1.152, 1, 13.4718, 57.7503, 0.105638, 64.9359, -78.359, 121.068
1.156, 1, 13.5222, 57.7282, 0.0744026, 65.0089, -78.2974, 120.899
1.16, 1, 13.5725, 57.7062, 0.0431968, 65.0818, -78.2359, 120.73
1.164, 1, 13.6228, 57.6842, 0.0120206, 65.1547, -78.1744, 120.562
1.168, 1, 13.673, 57.6621, -0.0191262, 65.2275, -78.113, 120.394
1.172, 1, 13.7232, 57.6402, -0.0502435, 65.3003, -78.0516, 120.225
1.175, 1, 13.7733, 57.6182, -0.0813314, 65.3729, -77.9903, 120.057
1.18, 1, 13.8234, 57.5963, -0.11239, 65.4455, -77.9291, 119.89
1.184, 1, 13.8734, 57.5743, -0.143419, 65.518, -77.8679, 119.722
1.188, 1, 13.9234, 57.5524, -0.174418, 65.5905, -77.8068, 119.554
1.192, 1, 13.9733, 57.5306, -0.205389, 65.6629, -77.7457, 119.387
1.196, 1, 14.0232, 57.5087, -0.23633, 65.7352, -77.6847, 119.22
1.2, 1, 14.0731, 57.4869, -0.267241, 65.8075, -77.6238, 119.053
1.204, 1, 14.1229, 57.465, -0.298124, 65.8797, -77.5629, 118.886
1.208, 1, 14.1726, 57.4433, -0.328977, 65.9518, -77.5021, 118.719
1.212, 1, 14.2223, 57.4215, -0.359801, 66.0238, -77.4413, 118.552
1.216, 1, 14.272, 57.3997, -0.390596, 66.0958, -77.3806, 118.386
1.22, 1, 14.3216, 57.378, -0.421361, 66.1677, -77.3199, 118.22
1.224, 1, 14.3712, 57.3563, -0.452098, 66.2396, -77.2593, 118.054
1.228, 1, 14.4207, 57.3346, -0.482805, 66.3113, -77.1988, 117.888
1.232, 1, 14.4701, 57.3129, -0.513484, 66.383, -77.1383, 117.722
1.236, 1, 14.5196, 57.2913, -0.544133, 66.4547, -77.0778, 117.556
1.24, 1, 14.5689, 57.2696, -0.574753, 66.5263, -77.0175, 117.391
1.244, 1, 14.6183, 57.248, -0.605344, 66.5978, -76.9572, 117.225
1.248, 1, 14.6675, 57.2264, -0.635907, 66.6692, -76.8969, 117.06
1.252, 1, 14.7168, 57.2049, -0.66644, 66.7406, -76.8367, 116.895
1.256, 1, 14.766, 57.1833, -0.696944, 66.8119, -76.7766, 116.73
1.26, 1, 14.8151, 57.1618, -0.72742, 66.8831, -76.7165, 116.566
1.264, 1, 14.8642, 57.1403, -0.757866, 66.9543, -76.6564, 116.401
1.267, 1, 14.9132, 57.1188, -0.788284, 67.0254, -76.5965, 116.237
1.272, 1, 14.9622, 57.0973, -0.818673, 67.0964, -76.5365, 116.072
1.276, 1, 15.0112, 57.0759, -0.849033, 67.1674, -76.4767, 115.908
1.28, 1, 15.0601, 57.0544, -0.879365, 67.2383, -76.4169, 115.744
1.284, 1, 15.109, 57.033, -0.909667, 67.3091, -76.3571, 115.581
1.288, 1, 15.1578, 57.0116, -0.939941, 67.3799, -76.2974, 115.417
1.292, 1, 15.2066, 56.9903, -0.970187, 67.4506, -76.2378, 115.253
1.295, 1, 15.2553, 56.9689, -1.0004, 67.5212, -76.1782, 115.09
1.3, 1, 15.304, 56.9476, -1.03059, 67.5917, -76.1187, 114.927
1.304, 1, 15.3526, 56.9263, -1.06075, 67.6622, -76.0592, 114.764
1.308, 1, 15.4012, 56.905, -1.09088, 67.7327, -75.9998, 114.601
1.312, 1, 15.4497, 56.8837, -1.12098, 67.803, -75.9405, 114.438
1.316, 1, 15.4982, 56.8625, -1.15106, 67.8733, -75.8812, 114.276
1.32, 1, 15.5466, 56.8413, -1.1811, 67.9436, -75.8219, 114.114
1.324, 1, 15.5951, 56.8201, -1.21112, 68.0137, -75.7628, 113.951
1.328, 1, 15.6434, 56.7989, -1.24111, 68.0838, -75.7036, 113.789
1.332, 1, 15.6917, 56.7777, -1.27107, 68.1538, -75.6446, 113.627
1.336, 1, 15.74, 56.7566, -1.301, 68.2238, -75.5855, 113.466
1.34, 1, 15.7882, 56.7354, -1.33091, 68.2937, -75.5266, 113.304
1.344, 1, 15.8364, 56.7143, -1.36079, 68.3635, -75.4677, 113.142
1.348, 1, 15.8845, 56.6932, -1.39063, 68.4333, -75.4088, 112.981
1.352, 1, 15.9326, 56.6722, -1.42045, 68.503, -75.35, 112.82
1.356, 1, 15.9806, 56.6511, -1.45024, 68.5726, -75.2913, 112.659
1.36, 1, 16.0286, 56.6301, -1.48001, 68.6422, -75.2326, 112.498
1.364, 1, 16.0766, 56.6091, -1.50974, 68.7117, -75.174, 112.337
1.368, 1, 16.1245, 56.5881, -1.53945, 68.7811, -75.1154, 112.177
1.372, 1, 16.1723, 56.5672, -1.56912, 68.8505, -75.0569, 112.016
1.376, 1, 16.2201, 56.5462, -1.59877, 68.9198, -74.9984, 111.856
1.38, 1, 16.2679, 56.5253, -1.6284, 68.9891, -74.94, 111.696
1.384, 1, 16.3156, 56.5044, -1.65799, 69.0582, -74.8817, 111.536
1.388, 1, 16.3633, 56.4835, -1.68756, 69.1273, -74.8234, 111.376
1.392, 1, 16.4109, 56.4626, -1.7171, 69.1964, -74.7652, 111.217
1.396, 1, 16.4585, 56.4418, -1.74661, 69.2654, -74.707, 111.057
1.4, 1, 16.5061, 56.4209, -1.77609, 69.3343, -74.6488, 110.898
1.404, 1, 16.5535, 56.4001, -1.80554, 69.4031, -74.5908, 110.739
1.408, 1, 16.601, 56.3793, -1.83497, 69.4719, -74.5327, 110.58
1.412, 1, 16.6484, 56.3586, -1.86437, 69.5406, -74.4748, 110.421
1.416, 1, 16.6958, 56.3378, -1.89374, 69.6093, -74.4169, 110.262
1.42, 1, 16.7431, 56.3171, -1.92309, 69.6779, -74.359, 110.103
1.424, 1, 16.7904, 56.2964, -1.9524, 69.7464, -74.3012, 109.945
1.428, 1, 16.8376, 56.2757, -1.98169, 69.8149, -74.2434, 109.787
1.432, 1, 16.8848, 56.255, -2.01095, 69.8833, -74.1858, 109.629
1.436, 1, 16.9319, 56.2344, -2.04019, 69.9516, -74.1281, 109.471
1.44, 1, 16.979, 56.2137, -2.06939, 70.0199, -74.0705, 109.313
1.444, 1, 17.0261, 56.1931, -2.09857, 70.0881, -74.013, 109.155
1.448, 1, 17.0731, 56.1725, -2.12772, 70.1562, -73.9555, 108.997
1.452, 1, 17.12, 56.1519, -2.15685, 70.2243, -73.8981, 108.84
1.456, 1, 17.167, 56.1314, -2.18595, 70.2923, -73.8407, 108.683
1.46, 1, 17.2138, 56.1109, -2.21502, 70.3602, -73.7834, 108.526
1.464, 1, 17.2607, 56.0903, -2.24406, 70.4281, -73.7261, 108.369
1.468, 1, 17.3075, 56.0698, -2.27308, 70.496, -73.6689, 108.212
1.472, 1, 17.3542, 56.0494, -2.30207, 70.5637, -73.6118, 108.055
1.476, 1, 17.4009, 56.0289, -2.33103, 70.6314, -73.5547, 107.899
1.48, 1, 17.4476, 56.0084, -2.35996, 70.6991, -73.4976, 107.742
1.484, 1, 17.4942, 55.988, -2.38887, 70.7666, -73.4406, 107.586
1.488, 1, 17.5408, 55.9676, -2.41775, 70.8341, -73.3837, 107.43
1.492, 1, 17.5873, 55.9472, -2.44661, 70.9016, -73.3268, 107.274
1.496, 1, 17.6338, 55.9269, -2.47543, 70.969, -73.2699, 107.118
1.5, 1, 17.6802, 55.9065, -2.50423, 71.0363, -73.2132, 106.962
1.504, 1, 17.7266, 55.8862, -2.53301, 71.1035, -73.1564, 106.807
1.508, 1, 17.773, 55.8659, -2.56176, 71.1707, -73.0997, 106.652
1.512, 1, 17.8193, 55.8456, -2.59048, 71.2379, -73.0431, 106.496
1.516, 1, 17.8656, 55.8253, -2.61917, 71.3049, -72.9865, 106.341
1.52, 1, 17.9118, 55.8051, -2.64784, 71.3719, -72.93, 106.186
1.524, 1, 17.958, 55.7848, -2.67648, 71.4389, -72.8735, 106.032
1.528, 1, 18.0041, 55.7646, -2.7051, 71.5058, -72.8171, 105.877
1.532, 1, 18.0502, 55.7444, -2.73368, 71.5726, -72.7607, 105.722
1.536, 1, 18.0963, 55.7242, -2.76225, 71.6394, -72.7044, 105.568
1.54, 1, 18.1423, 55.7041, -2.79078, 71.7061, -72.6482, 105.414
1.544, 1, 18.1883, 55.6839, -2.81929, 71.7727, -72.592, 105.26
1.548, 1, 18.2342, 55.6638, -2.84777, 71.8393, -72.5358, 105.106
1.552, 1, 18.2801, 55.6437, -2.87623, 71.9058, -72.4797, 104.952
1.556, 1, 18.3259, 55.6236, -2.90466, 71.9723, -72.4236, 104.798
1.56, 1, 18.3717, 55.6036, -2.93307, 72.0387, -72.3676, 104.645
1.564, 1, 18.4175, 55.5835, -2.96145, 72.105, -72.3117, 104.491
1.568, 1, 18.4632, 55.5635, -2.9898, 72.1713, -72.2558, 104.338
1.572, 1, 18.5089, 55.5435, -3.01813, 72.2375, -72.1999, 104.185
1.576, 1, 18.5545, 55.5235, -3.04643, 72.3036, -72.1441, 104.032
1.58, 1, 18.6001, 55.5035, -3.0747, 72.3697, -72.0884, 103.879
1.584, 1, 18.6457, 55.4835, -3.10295, 72.4357, -72.0327, 103.727
1.588, 1, 18.6912, 55.4636, -3.13117, 72.5017, -71.977, 103.574
1.592, 1, 18.7367, 55.4437, -3.15937, 72.5676, -71.9214, 103.422
1.596, 1, 18.7821, 55.4238, -3.18754, 72.6335, -71.8659, 103.269
1.6, 1, 18.8275, 55.4039, -3.21569, 72.6993, -71.8104, 103.117
1.604, 1, 18.8728, 55.384, -3.24381, 72.765, -71.7549, 102.965
1.608, 1, 18.9181, 55.3642, -3.2719, 72.8307, -71.6995, 102.813
1.612, 1, 18.9634, 55.3444, -3.29997, 72.8963, -71.6442, 102.662
1.616, 1, 19.0086, 55.3245, -3.32802, 72.9618, -71.5889, 102.51
1.62, 1, 19.0538, 55.3047, -3.35604, 73.0273, -71.5337, 102.359
1.624, 1, 19.0989, 55.285, -3.38403, 73.0928, -71.4785, 102.208
1.628, 1, 19.144, 55.2652, -3.412, 73.1581, -71.4233, 102.056
1.632, 1, 19.1891, 55.2455, -3.43994, 73.2234, -71.3682, 101.905
1.636, 1, 19.2341, 55.2257, -3.46786, 73.2887, -71.3132, 101.754
1.64, 1, 19.2791, 55.206, -3.49575, 73.3539, -71.2582, 101.604
1.644, 1, 19.324, 55.1864, -3.52361, 73.419, -71.2033, 101.453
1.648, 1, 19.3689, 55.1667, -3.55145, 73.4841, -71.1484, 101.303
1.652, 1, 19.4138, 55.147, -3.57927, 73.5491, -71.0935, 101.152
1.656, 1, 19.4586, 55.1274, -3.60706, 73.6141, -71.0387, 101.002
1.66, 1, 19.5034, 55.1078, -3.63483, 73.679, -70.984, 100.852
1.664, 1, 19.5481, 55.0882, -3.66257, 73.7438, -70.9293, 100.702
1.668, 1, 19.5928, 55.0686, -3.69028, 73.8086, -70.8746, 100.552
1.672, 1, 19.6374, 55.049, -3.71797, 73.8733, -70.82, 100.403
1.676, 1, 19.6821, 55.0295, -3.74564, 73.938, -70.7655, 100.253
1.68, 1, 19.7266, 55.01, -3.77328, 74.0026, -70.711, 100.104
1.684, 1, 19.7712, 54.9905, -3.8009, 74.0672, -70.6565, 99.9545
1.688, 1, 19.8157, 54.971, -3.82849, 74.1317, -70.6021, 99.8053
1.692, 1, 19.8601, 54.9515, -3.85606, 74.1961, -70.5478, 99.6564
1.696, 1, 19.9045, 54.932, -3.8836, 74.2605, -70.4935, 99.5075
1.7, 1, 19.9489, 54.9126, -3.91111, 74.3248, -70.4392, 99.3588
1.704, 1, 19.9932, 54.8932, -3.93861, 74.3891, -70.385, 99.2102
1.708, 1, 20.0375, 54.8738, -3.96608, 74.4533, -70.3308, 99.0617
1.712, 1, 20.0818, 54.8544, -3.99352, 74.5174, -70.2767, 98.9134
1.716, 1, 20.126, 54.835, -4.02094, 74.5815, -70.2227, 98.7652
1.72, 1, 20.1702, 54.8157, -4.04834, 74.6455, -70.1687, 98.6172
1.724, 1, 20.2143, 54.7963, -4.07571, 74.7095, -70.1147, 98.4692
1.728, 1, 20.2584, 54.777, -4.10305, 74.7734, -70.0608, 98.3214
1.732, 1, 20.3025, 54.7577, -4.13037, 74.8373, -70.0069, 98.1738
1.736, 1, 20.3465, 54.7384, -4.15767, 74.9011, -69.9531, 98.0262
1.74, 1, 20.3905, 54.7192, -4.18495, 74.9648, -69.8993, 97.8788
1.744, 1, 20.4344, 54.6999, -4.21219, 75.0285, -69.8456, 97.7316
1.748, 1, 20.4783, 54.6807, -4.23942, 75.0922, -69.7919, 97.5844
1.752, 1, 20.5222, 54.6615, -4.26662, 75.1557, -69.7383, 97.4374
1.756, 1, 20.566, 54.6423, -4.2938, 75.2193, -69.6847, 97.2905
1.76, 1, 20.6098, 54.6231, -4.32095, 75.2827, -69.6312, 97.1438
1.764, 1, 20.6535, 54.6039, -4.34808, 75.3462, -69.5777, 96.9972
1.768, 1, 20.6972, 54.5848, -4.37518, 75.4095, -69.5242, 96.8507
1.772, 1, 20.7409, 54.5656, -4.40226, 75.4728, -69.4708, 96.7043
1.776, 1, 20.7845, 54.5465, -4.42932, 75.5361, -69.4175, 96.5581
1.78, 1, 20.8281, 54.5274, -4.45635, 75.5992, -69.3642, 96.412
1.784, 1, 20.8717, 54.5083, -4.48336, 75.6624, -69.3109, 96.266
1.788, 1, 20.9152, 54.4893, -4.51035, 75.7254, -69.2577, 96.1201
1.792, 1, 20.9587, 54.4702, -4.53731, 75.7885, -69.2046, 95.9744
1.796, 1, 21.0021, 54.4512, -4.56425, 75.8514, -69.1514, 95.8288
1.8, 1, 21.0455, 54.4322, -4.59117, 75.9144, -69.0984, 95.6834
1.804, 1, 21.0889, 54.4132, -4.61806, 75.9772, -69.0453, 95.538
1.808, 1, 21.1322, 54.3942, -4.64493, 76.04, -68.9924, 95.3928
1.812, 1, 21.1755, 54.3752, -4.67177, 76.1028, -68.9394, 95.2477
1.816, 1, 21.2188, 54.3563, -4.69859, 76.1655, -68.8866, 95.1028
1.82, 1, 21.262, 54.3373, -4.72539, 76.2281, -68.8337, 94.9579
1.824, 1, 21.3052, 54.3184, -4.75217, 76.2907, -68.7809, 94.8132
1.828, 1, 21.3483, 54.2995, -4.77892, 76.3532, -68.7282, 94.6686
1.832, 1, 21.3914, 54.2806, -4.80565, 76.4157, -68.6755, 94.5242
1.836, 1, 21.4345, 54.2618, -4.83235, 76.4781, -68.6228, 94.3798
1.84, 1, 21.4775, 54.2429, -4.85904, 76.5405, -68.5702, 94.2356
1.844, 1, 21.5205, 54.2241, -4.8857, 76.6028, -68.5176, 94.0915
1.848, 1, 21.5634, 54.2053, -4.91233, 76.6651, -68.4651, 93.9476
1.852, 1, 21.6064, 54.1865, -4.93895, 76.7273, -68.4127, 93.8037
1.856, 1, 21.6492, 54.1677, -4.96554, 76.7894, -68.3602, 93.66
1.86, 1, 21.6921, 54.1489, -4.99211, 76.8515, -68.3078, 93.5164
1.864, 1, 21.7349, 54.1302, -5.01865, 76.9136, -68.2555, 93.3729
1.868, 1, 21.7777, 54.1114, -5.04518, 76.9756, -68.2032, 93.2296
1.872, 1, 21.8204, 54.0927, -5.07168, 77.0375, -68.151, 93.0864
1.876, 1, 21.8631, 54.074, -5.09815, 77.0994, -68.0987, 92.9433
1.88, 1, 21.9058, 54.0553, -5.12461, 77.1613, -68.0466, 92.8003
1.884, 1, 21.9484, 54.0366, -5.15104, 77.223, -67.9945, 92.6574
1.888, 1, 21.991, 54.018, -5.17745, 77.2848, -67.9424, 92.5147
1.892, 1, 22.0335, 53.9993, -5.20384, 77.3465, -67.8904, 92.3721
1.896, 1, 22.076, 53.9807, -5.23021, 77.4081, -67.8384, 92.2296
1.9, 1, 22.1185, 53.9621, -5.25655, 77.4697, -67.7864, 92.0872
1.904, 1, 22.161, 53.9435, -5.28287, 77.5312, -67.7345, 91.9449
1.908, 1, 22.2034, 53.9249, -5.30917, 77.5927, -67.6827, 91.8028
1.912, 1, 22.2457, 53.9063, -5.33544, 77.6541, -67.6309, 91.6608
1.916, 1, 22.2881, 53.8878, -5.3617, 77.7154, -67.5791, 91.5189
1.92, 1, 22.3304, 53.8693, -5.38793, 77.7768, -67.5274, 91.3771
1.924, 1, 22.3726, 53.8507, -5.41414, 77.838, -67.4757, 91.2355
1.928, 1, 22.4149, 53.8322, -5.44033, 77.8992, -67.4241, 91.0939
1.932, 1, 22.4571, 53.8138, -5.4665, 77.9604, -67.3725, 90.9525
1.936, 1, 22.4992, 53.7953, -5.49264, 78.0215, -67.3209, 90.8112
1.94, 1, 22.5414, 53.7768, -5.51876, 78.0826, -67.2694, 90.67
1.944, 1, 22.5834, 53.7584, -5.54486, 78.1436, -67.218, 90.5289
1.948, 1, 22.6255, 53.74, -5.57094, 78.2045, -67.1666, 90.388
1.952, 1, 22.6675, 53.7216, -5.597, 78.2654, -67.1152, 90.2472
1.956, 1, 22.7095, 53.7032, -5.62303, 78.3263, -67.0639, 90.1065
1.96, 1, 22.7514, 53.6848, -5.64904, 78.3871, -67.0126, 89.9659
1.964, 1, 22.7934, 53.6664, -5.67504, 78.4479, -66.9613, 89.8254
1.968, 1, 22.8352, 53.6481, -5.70101, 78.5086, -66.9101, 89.685
1.972, 1, 22.8771, 53.6298, -5.72695, 78.5692, -66.8589, 89.5448
1.976, 1, 22.9189, 53.6114, -5.75288, 78.6298, -66.8078, 89.4047
1.98, 1, 22.9607, 53.5931, -5.77879, 78.6904, -66.7567, 89.2647
1.984, 1, 23.0024, 53.5749, -5.80467, 78.7509, -66.7057, 89.1248
1.988, 1, 23.0441, 53.5566, -5.83053, 78.8113, -66.6547, 88.985
1.992, 1, 23.0858, 53.5383, -5.85637, 78.8717, -66.6038, 88.8453
1.996, 1, 23.1274, 53.5201, -5.88219, 78.9321, -66.5529, 88.7058
1.999, 1, 23.169, 53.5019, -5.90799, 78.9924, -66.502, 88.5663
2.004, 1, 23.2106, 53.4836, -5.93377, 79.0526, -66.4512, 88.427
2.008, 1, 23.2521, 53.4654, -5.95953, 79.1128, -66.4004, 88.2878
2.012, 1, 23.2936, 53.4473, -5.98526, 79.173, -66.3496, 88.1487
2.015, 1, 23.3351, 53.4291, -6.01098, 79.2331, -66.2989, 88.0097
2.019, 1, 23.3765, 53.4109, -6.03667, 79.2932, -66.2483, 87.8709
2.024, 1, 23.4179, 53.3928, -6.06234, 79.3532, -66.1977, 87.7321
2.028, 1, 23.4593, 53.3747, -6.08799, 79.4131, -66.1471, 87.5935
2.031, 1, 23.5006, 53.3566, -6.11362, 79.473, -66.0965, 87.455
2.036, 1, 23.5419, 53.3385, -6.13923, 79.5329, -66.0461, 87.3166
2.04, 1, 23.5832, 53.3204, -6.16482, 79.5927, -65.9956, 87.1783
2.044, 1, 23.6244, 53.3023, -6.19039, 79.6525, -65.9452, 87.0401
2.048, 1, 23.6656, 53.2843, -6.21593, 79.7122, -65.8948, 86.902
2.051, 1, 23.7068, 53.2663, -6.24146, 79.7718, -65.8445, 86.7641
2.055, 1, 23.7479, 53.2482, -6.26696, 79.8315, -65.7942, 86.6262
2.06, 1, 23.789, 53.2302, -6.29245, 79.891, -65.7439, 86.4885
2.064, 1, 23.8301, 53.2123, -6.31791, 79.9505, -65.6937, 86.3508
2.068, 1, 23.8711, 53.1943, -6.34336, 80.01, -65.6436, 86.2133
2.071, 1, 23.9121, 53.1763, -6.36878, 80.0694, -65.5935, 86.0759
2.076, 1, 23.953, 53.1584, -6.39418, 80.1288, -65.5434, 85.9386
2.08, 1, 23.994, 53.1404, -6.41956, 80.1882, -65.4933, 85.8015
2.084, 1, 24.0349, 53.1225, -6.44492, 80.2474, -65.4433, 85.6644
2.087, 1, 24.0757, 53.1046, -6.47027, 80.3067, -65.3933, 85.5274
2.092, 1, 24.1166, 53.0867, -6.49559, 80.3659, -65.3434, 85.3906
2.096, 1, 24.1574, 53.0689, -6.52089, 80.425, -65.2935, 85.2538
2.1, 1, 24.1981, 53.051, -6.54617, 80.4841, -65.2437, 85.1172
2.104, 1, 24.2389, 53.0331, -6.57143, 80.5431, -65.1939, 84.9807
2.107, 1, 24.2796, 53.0153, -6.59667, 80.6021, -65.1441, 84.8443
2.111, 1, 24.3202, 52.9975, -6.62189, 80.6611, -65.0944, 84.708
2.116, 1, 24.3609, 52.9797, -6.64709, 80.72, -65.0447, 84.5718
2.12, 1, 24.4015, 52.9619, -6.67227, 80.7788, -64.9951, 84.4357
2.124, 1, 24.4421, 52.9441, -6.69743, 80.8376, -64.9455, 84.2997
2.127, 1, 24.4826, 52.9264, -6.72257, 80.8964, -64.8959, 84.1638
2.132, 1, 24.5231, 52.9086, -6.74768, 80.9551, -64.8464, 84.0281
2.136, 1, 24.5636, 52.8909, -6.77278, 81.0138, -64.7969, 83.8924
2.14, 1, 24.604, 52.8732, -6.79786, 81.0724, -64.7474, 83.7569
2.143, 1, 24.6444, 52.8555, -6.82293, 81.131, -64.698, 83.6214
2.148, 1, 24.6848, 52.8378, -6.84797, 81.1895, -64.6486, 83.4861
2.152, 1, 24.7252, 52.8201, -6.87299, 81.248, -64.5993, 83.3508
2.156, 1, 24.7655, 52.8024, -6.89799, 81.3064, -64.55, 83.2157
2.16, 1, 24.8058, 52.7848, -6.92297, 81.3648, -64.5008, 83.0807
2.163, 1, 24.846, 52.7672, -6.94793, 81.4232, -64.4515, 82.9458
2.168, 1, 24.8863, 52.7495, -6.97288, 81.4815, -64.4024, 82.811
2.172, 1, 24.9265, 52.7319, -6.9978, 81.5398, -64.3532, 82.6763
2.176, 1, 24.9666, 52.7143, -7.0227, 81.598, -64.3041, 82.5417
2.179, 1, 25.0067, 52.6968, -7.04759, 81.6561, -64.255, 82.4072
2.184, 1, 25.0468, 52.6792, -7.07245, 81.7143, -64.206, 82.2728
2.188, 1, 25.0869, 52.6616, -7.0973, 81.7723, -64.157, 82.1385
2.192, 1, 25.1269, 52.6441, -7.12213, 81.8304, -64.1081, 82.0043
2.196, 1, 25.167, 52.6266, -7.14693, 81.8884, -64.0592, 81.8702
2.199, 1, 25.2069, 52.6091, -7.17172, 81.9463, -64.0103, 81.7363
2.204, 1, 25.2469, 52.5915, -7.19649, 82.0042, -63.9614, 81.6024
2.208, 1, 25.2868, 52.5741, -7.22124, 82.062, -63.9126, 81.4686
2.212, 1, 25.3267, 52.5566, -7.24598, 82.1199, -63.8639, 81.3349
2.216, 1, 25.3665, 52.5391, -7.27069, 82.1776, -63.8152, 81.2014
2.219, 1, 25.4063, 52.5217, -7.29538, 82.2353, -63.7665, 81.0679
2.224, 1, 25.4461, 52.5043, -7.32006, 82.293, -63.7178, 80.9346
2.228, 1, 25.4859, 52.4868, -7.34471, 82.3507, -63.6692, 80.8013
2.232, 1, 25.5256, 52.4694, -7.36935, 82.4082, -63.6206, 80.6681
2.235, 1, 25.5653, 52.452, -7.39397, 82.4658, -63.5721, 80.5351
2.24, 1, 25.605, 52.4347, -7.41857, 82.5233, -63.5236, 80.4021
2.244, 1, 25.6446, 52.4173, -7.44315, 82.5807, -63.4751, 80.2693
2.248, 1, 25.6842, 52.3999, -7.46771, 82.6382, -63.4267, 80.1365
2.252, 1, 25.7238, 52.3826, -7.49226, 82.6955, -63.3783, 80.0039
2.255, 1, 25.7634, 52.3653, -7.51678, 82.7529, -63.3299, 79.8713
2.259, 1, 25.8029, 52.348, -7.54129, 82.8101, -63.2816, 79.7389
2.264, 1, 25.8424, 52.3307, -7.56578, 82.8674, -63.2333, 79.6065
2.268, 1, 25.8818, 52.3134, -7.59025, 82.9246, -63.1851, 79.4743
2.272, 1, 25.9213, 52.2961, -7.6147, 82.9817, -63.1369, 79.3421
2.275, 1, 25.9607, 52.2788, -7.63913, 83.0388, -63.0887, 79.2101
2.28, 1, 26, 52.2616, -7.66355, 83.0959, -63.0406, 79.0781
2.284, 1, 26.0394, 52.2443, -7.68794, 83.1529, -62.9925, 78.9463
2.288, 1, 26.0787, 52.2271, -7.71232, 83.2099, -62.9444, 78.8145
2.291, 1, 26.118, 52.2099, -7.73668, 83.2669, -62.8964, 78.6828
2.296, 1, 26.1572, 52.1927, -7.76102, 83.3238, -62.8484, 78.5513
2.3, 1, 26.1965, 52.1755, -7.78535, 83.3806, -62.8004, 78.4198
2.304, 1, 26.2357, 52.1584, -7.80965, 83.4374, -62.7525, 78.2884
2.308, 1, 26.2748, 52.1412, -7.83394, 83.4942, -62.7046, 78.1572
2.311, 1, 26.314, 52.1241, -7.85821, 83.5509, -62.6567, 78.026
2.316, 1, 26.3531, 52.1069, -7.88246, 83.6076, -62.6089, 77.8949
2.32, 1, 26.3921, 52.0898, -7.9067, 83.6643, -62.5611, 77.7639
2.324, 1, 26.4312, 52.0727, -7.93091, 83.7209, -62.5134, 77.6331
2.328, 1, 26.4702, 52.0556, -7.95511, 83.7774, -62.4657, 77.5023
2.331, 1, 26.5092, 52.0385, -7.97929, 83.834, -62.418, 77.3716
2.336, 1, 26.5482, 52.0214, -8.00345, 83.8904, -62.3704, 77.241
2.34, 1, 26.5871, 52.0044, -8.0276, 83.9469, -62.3227, 77.1105
2.344, 1, 26.626, 51.9873, -8.05173, 84.0033, -62.2752, 76.9801
2.347, 1, 26.6649, 51.9703, -8.07584, 84.0596, -62.2276, 76.8498
2.352, 1, 26.7038, 51.9533, -8.09993, 84.1159, -62.1801, 76.7196
2.356, 1, 26.7426, 51.9363, -8.124, 84.1722, -62.1327, 76.5895
2.36, 1, 26.7814, 51.9193, -8.14806, 84.2284, -62.0852, 76.4594
2.364, 1, 26.8201, 51.9023, -8.1721, 84.2846, -62.0378, 76.3295
2.367, 1, 26.8589, 51.8853, -8.19612, 84.3408, -61.9905, 76.1997
2.372, 1, 26.8976, 51.8684, -8.22013, 84.3969, -61.9431, 76.07
2.376, 1, 26.9363, 51.8514, -8.24411, 84.453, -61.8958, 75.9403
2.38, 1, 26.9749, 51.8345, -8.26808, 84.509, -61.8486, 75.8108
2.383, 1, 27.0135, 51.8176, -8.29204, 84.565, -61.8014, 75.6813
2.388, 1, 27.0521, 51.8007, -8.31597, 84.6209, -61.7542, 75.5519
2.392, 1, 27.0907, 51.7838, -8.33989, 84.6768, -61.707, 75.4227
2.396, 1, 27.1292, 51.7669, -8.36379, 84.7327, -61.6599, 75.2935
2.4, 1, 27.1678, 51.75, -8.38767, 84.7885, -61.6128, 75.1644
2.403, 1, 27.2063, 51.7331, -8.41154, 84.8443, -61.5657, 75.0354
2.408, 1, 27.2447, 51.7163, -8.43539, 84.9001, -61.5187, 74.9065
2.412, 1, 27.2831, 51.6994, -8.45922, 84.9558, -61.4717, 74.7777
2.416, 1, 27.3215, 51.6826, -8.48304, 85.0114, -61.4248, 74.649
2.42, 1, 27.3599, 51.6658, -8.50683, 85.0671, -61.3778, 74.5204
2.423, 1, 27.3983, 51.649, -8.53061, 85.1227, -61.3309, 74.3919
2.428, 1, 27.4366, 51.6322, -8.55438, 85.1782, -61.2841, 74.2634
2.432, 1, 27.4749, 51.6154, -8.57812, 85.2337, -61.2373, 74.1351
2.436, 1, 27.5132, 51.5987, -8.60186, 85.2892, -61.1905, 74.0068
2.439, 1, 27.5514, 51.5819, -8.62557, 85.3446, -61.1437, 73.8786
2.444, 1, 27.5896, 51.5652, -8.64927, 85.4, -61.097, 73.7506
2.448, 1, 27.6278, 51.5485, -8.67295, 85.4553, -61.0503, 73.6226
2.452, 1, 27.666, 51.5317, -8.69661, 85.5107, -61.0037, 73.4947
2.456, 1, 27.7041, 51.515, -8.72025, 85.5659, -60.957, 73.3669
2.459, 1, 27.7422, 51.4983, -8.74389, 85.6212, -60.9104, 73.2392
2.464, 1, 27.7803, 51.4817, -8.7675, 85.6764, -60.8639, 73.1116
2.468, 1, 27.8183, 51.465, -8.7911, 85.7315, -60.8173, 72.984
2.472, 1, 27.8563, 51.4483, -8.81468, 85.7866, -60.7709, 72.8566
2.476, 1, 27.8944, 51.4317, -8.83824, 85.8417, -60.7244, 72.7292
2.479, 1, 27.9323, 51.415, -8.86179, 85.8968, -60.678, 72.602
2.484, 1, 27.9703, 51.3984, -8.88532, 85.9518, -60.6316, 72.4748
2.488, 1, 28.0082, 51.3818, -8.90883, 86.0067, -60.5852, 72.3477
2.492, 1, 28.0461, 51.3652, -8.93233, 86.0616, -60.5389, 72.2207
2.495, 1, 28.0839, 51.3486, -8.95581, 86.1165, -60.4926, 72.0938
2.5, 1, 28.1218, 51.332, -8.97928, 86.1714, -60.4463, 71.967
2.504, 1, 28.1596, 51.3155, -9.00273, 86.2262, -60.4001, 71.8402
2.508, 1, 28.1974, 51.2989, -9.02616, 86.281, -60.3539, 71.7136
2.512, 1, 28.2352, 51.2824, -9.04957, 86.3357, -60.3077, 71.587
2.515, 1, 28.2729, 51.2658, -9.07298, 86.3904, -60.2616, 71.4605
2.52, 1, 28.3106, 51.2493, -9.09636, 86.4451, -60.2155, 71.3342
2.524, 1, 28.3483, 51.2328, -9.11973, 86.4997, -60.1694, 71.2079
2.528, 1, 28.3859, 51.2163, -9.14308, 86.5543, -60.1233, 71.0816
2.531, 1, 28.4236, 51.1998, -9.16642, 86.6088, -60.0773, 70.9555
2.536, 1, 28.4612, 51.1833, -9.18974, 86.6633, -60.0313, 70.8295
2.54, 1, 28.4988, 51.1669, -9.21304, 86.7178, -59.9854, 70.7035
2.544, 1, 28.5363, 51.1504, -9.23633, 86.7722, -59.9395, 70.5777
2.548, 1, 28.5738, 51.134, -9.2596, 86.8266, -59.8936, 70.4519
2.551, 1, 28.6114, 51.1175, -9.28286, 86.881, -59.8477, 70.3262
2.556, 1, 28.6488, 51.1011, -9.3061, 86.9353, -59.8019, 70.2006
2.56, 1, 28.6863, 51.0847, -9.32933, 86.9896, -59.7561, 70.075
2.564, 1, 28.7237, 51.0683, -9.35254, 87.0439, -59.7104, 69.9496
2.568, 1, 28.7611, 51.0519, -9.37573, 87.0981, -59.6646, 69.8242
2.571, 1, 28.7985, 51.0356, -9.39891, 87.1523, -59.6189, 69.699
2.576, 1, 28.8358, 51.0192, -9.42207, 87.2064, -59.5732, 69.5738
2.58, 1, 28.8732, 51.0028, -9.44522, 87.2605, -59.5276, 69.4487
2.584, 1, 28.9105, 50.9865, -9.46835, 87.3146, -59.482, 69.3236
2.587, 1, 28.9478, 50.9702, -9.49147, 87.3686, -59.4364, 69.1987
2.592, 1, 28.985, 50.9539, -9.51457, 87.4226, -59.3909, 69.0738
2.596, 1, 29.0222, 50.9375, -9.53765, 87.4766, -59.3453, 68.9491
2.6, 1, 29.0594, 50.9212, -9.56073, 87.5305, -59.2999, 68.8244
2.604, 1, 29.0966, 50.905, -9.58378, 87.5844, -59.2544, 68.6998
2.607, 1, 29.1338, 50.8887, -9.60682, 87.6382, -59.209, 68.5753
2.612, 1, 29.1709, 50.8724, -9.62985, 87.6921, -59.1636, 68.4508
2.616, 1, 29.208, 50.8562, -9.65285, 87.7458, -59.1182, 68.3265
2.62, 1, 29.2451, 50.8399, -9.67585, 87.7996, -59.0729, 68.2022
2.624, 1, 29.2821, 50.8237, -9.69883, 87.8533, -59.0276, 68.078
2.627, 1, 29.3192, 50.8075, -9.72179, 87.907, -58.9823, 67.9539
2.632, 1, 29.3562, 50.7912, -9.74474, 87.9606, -58.937, 67.8298
2.636, 1, 29.3932, 50.775, -9.76767, 88.0142, -58.8918, 67.7059
2.64, 1, 29.4301, 50.7588, -9.79059, 88.0678, -58.8466, 67.582
2.643, 1, 29.4671, 50.7427, -9.8135, 88.1213, -58.8015, 67.4582
2.648, 1, 29.504, 50.7265, -9.83638, 88.1749, -58.7563, 67.3345
2.652, 1, 29.5409, 50.7103, -9.85926, 88.2283, -58.7112, 67.2109
2.656, 1, 29.5777, 50.6942, -9.88212, 88.2817, -58.6662, 67.0874
2.66, 1, 29.6146, 50.678, -9.90496, 88.3351, -58.6211, 66.9639
2.663, 1, 29.6514, 50.6619, -9.92779, 88.3885, -58.5761, 66.8405
2.668, 1, 29.6882, 50.6458, -9.9506, 88.4418, -58.5311, 66.7172
2.672, 1, 29.7249, 50.6297, -9.9734, 88.4951, -58.4862, 66.594
2.676, 1, 29.7617, 50.6136, -9.99619, 88.5484, -58.4412, 66.4708
2.679, 1, 29.7984, 50.5975, -10.019, 88.6016, -58.3964, 66.3478
2.684, 1, 29.8351, 50.5814, -10.0417, 88.6548, -58.3515, 66.2248
2.688, 1, 29.8718, 50.5654, -10.0645, 88.708, -58.3066, 66.1019
2.692, 1, 29.9084, 50.5493, -10.0872, 88.7611, -58.2618, 65.979
2.696, 1, 29.945, 50.5333, -10.1099, 88.8142, -58.2171, 65.8563
2.699, 1, 29.9816, 50.5172, -10.1326, 88.8672, -58.1723, 65.7336
2.704, 1, 30.0182, 50.5012, -10.1553, 88.9202, -58.1276, 65.611
2.708, 1, 30.0548, 50.4852, -10.1779, 88.9732, -58.0829, 65.4885
2.712, 1, 30.0913, 50.4692, -10.2006, 89.0262, -58.0382, 65.3661
2.716, 1, 30.1278, 50.4532, -10.2232, 89.0791, -57.9936, 65.2437
2.719, 1, 30.1643, 50.4372, -10.2459, 89.132, -57.949, 65.1214
2.724, 1, 30.2008, 50.4212, -10.2685, 89.1849, -57.9044, 64.9992
2.728, 1, 30.2372, 50.4053, -10.2911, 89.2377, -57.8598, 64.8771
2.732, 1, 30.2736, 50.3893, -10.3137, 89.2905, -57.8153, 64.755
2.735, 1, 30.31, 50.3734, -10.3362, 89.3432, -57.7708, 64.6331
2.74, 1, 30.3464, 50.3574, -10.3588, 89.3959, -57.7263, 64.5112
2.744, 1, 30.3827, 50.3415, -10.3813, 89.4486, -57.6819, 64.3893
2.748, 1, 30.419, 50.3256, -10.4038, 89.5013, -57.6375, 64.2676
2.752, 1, 30.4553, 50.3097, -10.4263, 89.5539, -57.5931, 64.1459
2.755, 1, 30.4916, 50.2938, -10.4488, 89.6065, -57.5487, 64.0243
2.76, 1, 30.5279, 50.2779, -10.4713, 89.659, -57.5044, 63.9028
2.764, 1, 30.5641, 50.262, -10.4938, 89.7115, -57.4601, 63.7814
2.768, 1, 30.6003, 50.2462, -10.5163, 89.764, -57.4158, 63.66
2.772, 1, 30.6365, 50.2303, -10.5387, 89.8165, -57.3716, 63.5387
2.775, 1, 30.6727, 50.2145, -10.5611, 89.8689, -57.3274, 63.4175
2.78, 1, 30.7088, 50.1986, -10.5835, 89.9213, -57.2832, 63.2964
2.784, 1, 30.7449, 50.1828, -10.6059, 89.9737, -57.239, 63.1753
2.788, 1, 30.781, 50.167, -10.6283, 90.026, -57.1949, 63.0543
2.791, 1, 30.8171, 50.1512, -10.6507, 90.0783, -57.1507, 62.9334
2.796, 1, 30.8532, 50.1354, -10.6731, 90.1305, -57.1067, 62.8126
2.8, 1, 30.8892, 50.1196, -10.6954, 90.1828, -57.0626, 62.6918
2.804, 1, 30.9252, 50.1038, -10.7177, 90.235, -57.0186, 62.5711
2.808, 1, 30.9612, 50.0881, -10.74, 90.2871, -56.9746, 62.4505
2.811, 1, 30.9972, 50.0723, -10.7623, 90.3393, -56.9306, 62.33
2.816, 1, 31.0331, 50.0566, -10.7846, 90.3914, -56.8867, 62.2095
2.82, 1, 31.069, 50.0408, -10.8069, 90.4434, -56.8427, 62.0891
2.824, 1, 31.1049, 50.0251, -10.8292, 90.4955, -56.7988, 61.9688
2.828, 1, 31.1408, 50.0094, -10.8514, 90.5475, -56.755, 61.8485
2.831, 1, 31.1767, 49.9937, -10.8737, 90.5995, -56.7111, 61.7284
2.836, 1, 31.2125, 49.978, -10.8959, 90.6514, -56.6673, 61.6083
2.84, 1, 31.2483, 49.9623, -10.9181, 90.7033, -56.6235, 61.4882
2.844, 1, 31.2841, 49.9466, -10.9403, 90.7552, -56.5798, 61.3683
2.847, 1, 31.3199, 49.9309, -10.9625, 90.807, -56.536, 61.2484
2.852, 1, 31.3556, 49.9153, -10.9846, 90.8588, -56.4923, 61.1286
2.856, 1, 31.3913, 49.8996, -11.0068, 90.9106, -56.4486, 61.0088
2.86, 1, 31.4271, 49.884, -11.0289, 90.9624, -56.405, 60.8892
2.864, 1, 31.4627, 49.8683, -11.0511, 91.0141, -56.3614, 60.7696
2.867, 1, 31.4984, 49.8527, -11.0732, 91.0658, -56.3177, 60.65
2.872, 1, 31.534, 49.8371, -11.0953, 91.1175, -56.2742, 60.5306
2.876, 1, 31.5697, 49.8215, -11.1174, 91.1691, -56.2306, 60.4112
2.88, 1, 31.6053, 49.8059, -11.1394, 91.2207, -56.1871, 60.2919
2.883, 1, 31.6408, 49.7903, -11.1615, 91.2723, -56.1436, 60.1727
2.888, 1, 31.6764, 49.7747, -11.1835, 91.3238, -56.1001, 60.0535
2.892, 1, 31.7119, 49.7592, -11.2056, 91.3753, -56.0567, 59.9344
2.896, 1, 31.7474, 49.7436, -11.2276, 91.4268, -56.0133, 59.8154
2.9, 1, 31.7829, 49.7281, -11.2496, 91.4782, -55.9699, 59.6964
2.903, 1, 31.8184, 49.7125, -11.2716, 91.5296, -55.9265, 59.5775
2.908, 1, 31.8538, 49.697, -11.2936, 91.581, -55.8831, 59.4587
2.912, 1, 31.8893, 49.6815, -11.3156, 91.6324, -55.8398, 59.34
2.916, 1, 31.9247, 49.666, -11.3375, 91.6837, -55.7965, 59.2213
2.92, 1, 31.9601, 49.6504, -11.3595, 91.735, -55.7533, 59.1027
2.923, 1, 31.9954, 49.635, -11.3814, 91.7863, -55.71, 58.9842
2.928, 1, 32.0308, 49.6195, -11.4033, 91.8375, -55.6668, 58.8657
2.932, 1, 32.0661, 49.604, -11.4252, 91.8887, -55.6236, 58.7473
2.936, 1, 32.1014, 49.5885, -11.4471, 91.9399, -55.5804, 58.629
2.939, 1, 32.1367, 49.5731, -11.469, 91.991, -55.5373, 58.5107
2.944, 1, 32.172, 49.5576, -11.4909, 92.0421, -55.4942, 58.3925
2.948, 1, 32.2072, 49.5422, -11.5127, 92.0932, -55.4511, 58.2744
2.952, 1, 32.2424, 49.5267, -11.5346, 92.1443, -55.408, 58.1564
2.956, 1, 32.2776, 49.5113, -11.5564, 92.1953, -55.365, 58.0384
2.959, 1, 32.3128, 49.4959, -11.5782, 92.2463, -55.322, 57.9205
2.964, 1, 32.348, 49.4805, -11.6, 92.2973, -55.279, 57.8026
2.968, 1, 32.3831, 49.4651, -11.6218, 92.3482, -55.236, 57.6848
2.972, 1, 32.4182, 49.4497, -11.6436, 92.3991, -55.1931, 57.5671
2.976, 1, 32.4533, 49.4343, -11.6653, 92.45, -55.1501, 57.4495
2.98, 1, 32.4884, 49.419, -11.6871, 92.5009, -55.1072, 57.3319
2.984, 1, 32.5235, 49.4036, -11.7088, 92.5517, -55.0644, 57.2144
2.988, 1, 32.5585, 49.3883, -11.7306, 92.6025, -55.0215, 57.097
2.992, 1, 32.5935, 49.3729, -11.7523, 92.6532, -54.9787, 56.9796
2.995, 1, 32.6286, 49.3576, -11.774, 92.704, -54.9359, 56.8623
3, 1, 32.6635, 49.3423, -11.7957, 92.7547, -54.8931, 56.745
3.004, 1, 32.6985, 49.3269, -11.8174, 92.8054, -54.8504, 56.6278
3.008, 1, 32.7334, 49.3116, -11.839, 92.856, -54.8077, 56.5107
3.012, 1, 32.7684, 49.2963, -11.8607, 92.9066, -54.765, 56.3937
3.015, 1, 32.8033, 49.281, -11.8823, 92.9572, -54.7223, 56.2767
3.02, 1, 32.8381, 49.2658, -11.904, 93.0078, -54.6796, 56.1598
3.024, 1, 32.873, 49.2505, -11.9256, 93.0583, -54.637, 56.0429
3.028, 1, 32.9079, 49.2352, -11.9472, 93.1088, -54.5944, 55.9262
3.031, 1, 32.9427, 49.22, -11.9688, 93.1593, -54.5518, 55.8094
3.036, 1, 32.9775, 49.2047, -11.9904, 93.2098, -54.5093, 55.6928
3.04, 1, 33.0123, 49.1895, -12.0119, 93.2602, -54.4667, 55.5762
3.044, 1, 33.047, 49.1742, -12.0335, 93.3106, -54.4242, 55.4597
3.048, 1, 33.0818, 49.159, -12.0551, 93.3609, -54.3817, 55.3432
3.051, 1, 33.1165, 49.1438, -12.0766, 93.4113, -54.3393, 55.2268
3.056, 1, 33.1512, 49.1286, -12.0981, 93.4616, -54.2968, 55.1105
3.06, 1, 33.1859, 49.1134, -12.1196, 93.5119, -54.2544, 54.9942
3.064, 1, 33.2206, 49.0982, -12.1411, 93.5621, -54.212, 54.878
3.068, 1, 33.2552, 49.083, -12.1626, 93.6124, -54.1697, 54.7619
3.071, 1, 33.2899, 49.0678, -12.1841, 93.6626, -54.1273, 54.6458
3.076, 1, 33.3245, 49.0527, -12.2056, 93.7127, -54.085, 54.5298
3.08, 1, 33.3591, 49.0375, -12.227, 93.7629, -54.0427, 54.4139
3.084, 1, 33.3936, 49.0224, -12.2484, 93.813, -54.0004, 54.298
3.087, 1, 33.4282, 49.0072, -12.2699, 93.8631, -53.9582, 54.1822
3.092, 1, 33.4627, 48.9921, -12.2913, 93.9131, -53.9159, 54.0664
3.096, 1, 33.4973, 48.977, -12.3127, 93.9632, -53.8737, 53.9507
3.1, 1, 33.5318, 48.9619, -12.3341, 94.0132, -53.8316, 53.8351
3.104, 1, 33.5662, 48.9468, -12.3555, 94.0632, -53.7894, 53.7195
3.107, 1, 33.6007, 48.9317, -12.3768, 94.1131, -53.7473, 53.604
3.112, 1, 33.6351, 48.9166, -12.3982, 94.1631, -53.7051, 53.4886
3.116, 1, 33.6696, 48.9015, -12.4196, 94.213, -53.6631, 53.3732
3.12, 1, 33.704, 48.8864, -12.4409, 94.2628, -53.621, 53.2579
3.124, 1, 33.7384, 48.8714, -12.4622, 94.3127, -53.5789, 53.1426
3.128, 1, 33.7727, 48.8563, -12.4835, 94.3625, -53.5369, 53.0274
3.132, 1, 33.8071, 48.8412, -12.5048, 94.4123, -53.4949, 52.9123
3.136, 1, 33.8414, 48.8262, -12.5261, 94.462, -53.4529, 52.7972
3.14, 1, 33.8757, 48.8112, -12.5474, 94.5118, -53.411, 52.6822
3.143, 1, 33.91, 48.7961, -12.5687, 94.5615, -53.369, 52.5673
3.148, 1, 33.9443, 48.7811, -12.5899, 94.6112, -53.3271, 52.4524
3.152, 1, 33.9786, 48.7661, -12.6112, 94.6608, -53.2852, 52.3376
3.156, 1, 34.0128, 48.7511, -12.6324, 94.7105, -53.2434, 52.2228
3.16, 1, 34.047, 48.7361, -12.6536, 94.7601, -53.2015, 52.1081
3.163, 1, 34.0812, 48.7211, -12.6748, 94.8097, -53.1597, 51.9935
3.168, 1, 34.1154, 48.7062, -12.696, 94.8592, -53.1179, 51.8789
3.172, 1, 34.1496, 48.6912, -12.7172, 94.9087, -53.0761, 51.7644
3.176, 1, 34.1837, 48.6762, -12.7384, 94.9583, -53.0344, 51.6499
3.179, 1, 34.2179, 48.6613, -12.7596, 95.0077, -52.9926, 51.5355
3.184, 1, 34.252, 48.6463, -12.7807, 95.0572, -52.9509, 51.4212
3.188, 1, 34.2861, 48.6314, -12.8019, 95.1066, -52.9092, 51.3069
3.192, 1, 34.3202, 48.6165, -12.823, 95.156, -52.8676, 51.1927
3.196, 1, 34.3542, 48.6015, -12.8441, 95.2054, -52.8259, 51.0785
3.199, 1, 34.3883, 48.5866, -12.8652, 95.2547, -52.7843, 50.9644
3.204, 1, 34.4223, 48.5717, -12.8863, 95.304, -52.7427, 50.8504
3.208, 1, 34.4563, 48.5568, -12.9074, 95.3533, -52.7011, 50.7364
3.212, 1, 34.4903, 48.5419, -12.9285, 95.4026, -52.6596, 50.6225
3.216, 1, 34.5243, 48.527, -12.9496, 95.4518, -52.618, 50.5086
3.22, 1, 34.5582, 48.5122, -12.9706, 95.5011, -52.5765, 50.3948
3.224, 1, 34.5921, 48.4973, -12.9917, 95.5502, -52.535, 50.2811
3.228, 1, 34.6261, 48.4824, -13.0127, 95.5994, -52.4935, 50.1674
3.232, 1, 34.66, 48.4676, -13.0337, 95.6486, -52.4521, 50.0538
3.235, 1, 34.6938, 48.4527, -13.0547, 95.6977, -52.4106, 49.9402
3.24, 1, 34.7277, 48.4379, -13.0757, 95.7468, -52.3692, 49.8267
3.244, 1, 34.7616, 48.4231, -13.0967, 95.7958, -52.3278, 49.7132
3.248, 1, 34.7954, 48.4082, -13.1177, 95.8449, -52.2865, 49.5998
3.252, 1, 34.8292, 48.3934, -13.1387, 95.8939, -52.2451, 49.4865
3.255, 1, 34.863, 48.3786, -13.1596, 95.9429, -52.2038, 49.3732
3.26, 1, 34.8968, 48.3638, -13.1806, 95.9919, -52.1625, 49.26
3.264, 1, 34.9306, 48.349, -13.2015, 96.0408, -52.1212, 49.1468
3.268, 1, 34.9643, 48.3342, -13.2224, 96.0897, -52.08, 49.0337
3.272, 1, 34.998, 48.3195, -13.2434, 96.1386, -52.0387, 48.9207
3.276, 1, 35.0317, 48.3047, -13.2643, 96.1875, -51.9975, 48.8077
3.28, 1, 35.0654, 48.2899, -13.2852, 96.2363, -51.9563, 48.6948
3.284, 1, 35.0991, 48.2752, -13.3061, 96.2851, -51.9151, 48.5819
3.288, 1, 35.1328, 48.2604, -13.3269, 96.3339, -51.874, 48.4691
3.291, 1, 35.1664, 48.2457, -13.3478, 96.3827, -51.8328, 48.3563
3.296, 1, 35.2001, 48.231, -13.3686, 96.4314, -51.7917, 48.2436
3.3, 1, 35.2337, 48.2162, -13.3895, 96.4801, -51.7506, 48.131
3.304, 1, 35.2672, 48.2015, -13.4103, 96.5288, -51.7095, 48.0184
3.308, 1, 35.3007, 48.1869, -13.4311, 96.5775, -51.6685, 47.9058
3.312, 1, 35.3339, 48.1723, -13.452, 96.6262, -51.6275, 47.7934
3.316, 1, 35.3665, 48.158, -13.4729, 96.6747, -51.5865, 47.681
3.32, 1, 35.3983, 48.1441, -13.4938, 96.7232, -51.5456, 47.5688
3.324, 1, 35.429, 48.1308, -13.5148, 96.7716, -51.5049, 47.457
3.328, 1, 35.4584, 48.1181, -13.5358, 96.8196, -51.4644, 47.3458
3.332, 1, 35.4865, 48.1061, -13.5568, 96.8672, -51.4243, 47.2356
3.336, 1, 35.5134, 48.0948, -13.5777, 96.9142, -51.3848, 47.1269
3.34, 1, 35.5391, 48.0842, -13.5983, 96.9602, -51.3461, 47.0204
3.344, 1, 35.5638, 48.0741, -13.6184, 97.005, -51.3085, 46.9167
3.347, 1, 35.5875, 48.0644, -13.6378, 97.0482, -51.2721, 46.8166
3.352, 1, 35.6103, 48.0551, -13.6564, 97.0895, -51.2373, 46.7209
3.356, 1, 35.632, 48.0463, -13.674, 97.1287, -51.2044, 46.6302
3.36, 1, 35.6526, 48.0379, -13.6904, 97.1653, -51.1736, 46.5453
3.364, 1, 35.6721, 48.0299, -13.7056, 97.1992, -51.145, 46.4667
3.368, 1, 35.6907, 48.0221, -13.7193, 97.2302, -51.119, 46.3951
3.372, 1, 35.7085, 48.0145, -13.7314, 97.2581, -51.0955, 46.3306
3.376, 1, 35.7256, 48.007, -13.742, 97.2828, -51.0747, 46.2735
3.38, 1, 35.7422, 47.9995, -13.7509, 97.3043, -51.0565, 46.2238
3.383, 1, 35.758, 47.9922, -13.7583, 97.3228, -51.0408, 46.1812
3.388, 1, 35.773, 47.985, -13.7643, 97.3383, -51.0276, 46.1454
3.392, 1, 35.7868, 47.9783, -13.769, 97.3512, -51.0167, 46.1157
3.396, 1, 35.7993, 47.9722, -13.7726, 97.3617, -51.0077, 46.0916
3.4, 2, 35.8103, 47.9666, -13.7754, 97.3701, -51.0005, 46.0723
3.403, 2, 35.8201, 47.9617, -13.7774, 97.3767, -50.9949, 46.0573
3.408, 2, 35.8288, 47.9574, -13.7788, 97.3817, -50.9905, 46.0457
3.412, 2, 35.8364, 47.9536, -13.7797, 97.3855, -50.9872, 46.037
3.416, 2, 35.8429, 47.9504, -13.7803, 97.3884, -50.9848, 46.0306
3.42, 2, 35.8486, 47.9477, -13.7806, 97.3904, -50.983, 46.026
3.424, 2, 35.8532, 47.9455, -13.7808, 97.3918, -50.9817, 46.0228
3.428, 2, 35.8569, 47.9438, -13.7809, 97.3928, -50.9808, 46.0206
3.432, 2, 35.8597, 47.9426, -13.7809, 97.3935, -50.9802, 46.019
3.436, 2, 35.8617, 47.9417, -13.7809, 97.3939, -50.9798, 46.018
3.439, 2, 35.8631, 47.9411, -13.7809, 97.3943, -50.9795, 46.0173
3.444, 2, 35.864, 47.9407, -13.7809, 97.3945, -50.9794, 46.0168
3.448, 2, 35.8647, 47.9404, -13.7809, 97.3946, -50.9792, 46.0165
3.452, 2, 35.8651, 47.9402, -13.7809, 97.3947, -50.9791, 46.0163
3.456, 2, 35.8654, 47.9401, -13.7809, 97.3948, -50.9791, 46.0161
3.46, 2, 35.8656, 47.94, -13.7809, 97.3948, -50.979, 46.016
3.464, 2, 35.8657, 47.9399, -13.7809, 97.3948, -50.979, 46.016
3.468, 2, 35.8658, 47.9399, -13.7809, 97.3949, -50.979, 46.0159
3.472, 2, 35.8659, 47.9399, -13.7809, 97.3949, -50.979, 46.0159
3.476, 2, 35.8659, 47.9399, -13.7809, 97.3949, -50.979, 46.0159
3.48, 2, 35.8659, 47.9399, -13.7809, 97.3949, -50.979, 46.0159
3.484, 2, 35.866, 47.9398, -13.7809, 97.3949, -50.979, 46.0159
3.488, 2, 35.866, 47.9398, -13.7809, 97.3949, -50.979, 46.0159
3.492, 2, 35.866, 47.9398, -13.7809, 97.3949, -50.979, 46.0158
3.495, 2, 35.866, 47.9398, -13.7809, 97.3949, -50.979, 46.0158
3.5, 2, 35.866, 47.9398, -13.7809, 97.3949, -50.979, 46.0158
3.504, 2, 35.866, 47.9398, -13.7809, 97.3949, -50.979, 46.0158
3.508, 2, 35.866, 47.9398, -13.7809, 97.3949, -50.979, 46.0158
3.512, 2, 35.866, 47.9398, -13.7809, 97.3949, -50.979, 46.0158
3.516, 2, 35.866, 47.9398, -13.7809, 97.3949, -50.979, 46.0158
3.52, 2, 35.866, 47.9398, -13.7809, 97.3949, -50.979, 46.0158
3.524, 2, 35.866, 47.9398, -13.7809, 97.3949, -50.979, 46.0158
3.528, 2, 35.866, 47.9398, -13.7809, 97.3949, -50.979, 46.0158
3.531, 2, 35.866, 47.9398, -13.7809, 97.3949, -50.979, 46.0158
3.536, 2, 35.866, 47.9398, -13.7809, 97.3949, -50.979, 46.0158
3.54, 2, 35.866, 47.9398, -13.7809, 97.3949, -50.979, 46.0158
3.544, 2, 35.866, 47.9398, -13.7809, 97.3949, -50.979, 46.0158
3.548, 2, 35.866, 47.9398, -13.7809, 97.3949, -50.979, 46.0158
3.552, 2, 35.866, 47.9398, -13.7809, 97.3949, -50.979, 46.0158
3.556, 2, 35.866, 47.9398, -13.7809, 97.3949, -50.979, 46.0158
3.56, 2, 35.866, 47.9398, -13.7809, 97.3949, -50.979, 46.0158
3.564, 2, 35.866, 47.9398, -13.7809, 97.3949, -50.979, 46.0158
3.568, 2, 35.866, 47.9398, -13.7809, 97.3949, -50.979, 46.0158
3.572, 2, 35.866, 47.9398, -13.7809, 97.3949, -50.979, 46.0158
3.576, 2, 35.866, 47.9398, -13.7809, 97.3949, -50.979, 46.0158
3.58, 2, 35.866, 47.9398, -13.7809, 97.3949, -50.979, 46.0158
3.584, 2, 35.866, 47.9398, -13.7809, 97.3949, -50.979, 46.0158
3.587, 2, 35.866, 47.9398, -13.7809, 97.3949, -50.979, 46.0158
3.592, 2, 35.866, 47.9398, -13.7809, 97.3949, -50.979, 46.0158
3.596, 2, 35.866, 47.9398, -13.7809, 97.3949, -50.979, 46.0158
3.6, 2, 35.866, 47.9398, -13.7809, 97.3949, -50.979, 46.0158
3.604, 2, 35.866, 47.9398, -13.7809, 97.3949, -50.979, 46.0158
3.608, 2, 35.866, 47.9398, -13.7809, 97.3949, -50.979, 46.0158
3.612, 2, 35.866, 47.9398, -13.7809, 97.3949, -50.979, 46.0158
3.616, 2, 35.866, 47.9398, -13.7809, 97.3949, -50.979, 46.0158
3.62, 2, 35.866, 47.9398, -13.7809, 97.3949, -50.979, 46.0158
3.624, 2, 35.866, 47.9398, -13.7809, 97.3949, -50.979, 46.0158
3.628, 2, 35.866, 47.9398, -13.7809, 97.3949, -50.979, 46.0158
3.632, 2, 35.866, 47.9398, -13.7809, 97.3949, -50.979, 46.0158
3.636, 2, 35.866, 47.9398, -13.7809, 97.3949, -50.979, 46.0158
3.64, 2, 35.866, 47.9398, -13.7809, 97.3949, -50.979, 46.0158
3.644, 2, 35.866, 47.9398, -13.7809, 97.3949, -50.979, 46.0158
3.648, 2, 35.866, 47.9398, -13.7809, 97.3949, -50.979, 46.0158
3.652, 2, 35.866, 47.9398, -13.7809, 97.3949, -50.979, 46.0158
3.656, 2, 35.866, 47.9398, -13.7809, 97.3949, -50.979, 46.0158
3.66, 2, 35.866, 47.9398, -13.7809, 97.3949, -50.979, 46.0158
3.664, 2, 35.866, 47.9398, -13.7809, 97.3949, -50.979, 46.0158
3.668, 2, 35.866, 47.9398, -13.7809, 97.3949, -50.979, 46.0158
3.672, 2, 35.866, 47.9398, -13.7809, 97.3949, -50.979, 46.0158
3.676, 2, 35.866, 47.9398, -13.7809, 97.3949, -50.979, 46.0158
3.679, 2, 35.866, 47.9398, -13.7809, 97.3949, -50.979, 46.0158
3.684, 2, 35.866, 47.9398, -13.7809, 97.3949, -50.979, 46.0158
3.688, 2, 35.866, 47.9398, -13.7809, 97.3949, -50.979, 46.0158
3.692, 2, 35.866, 47.9398, -13.7809, 97.3949, -50.979, 46.0158
3.696, 2, 35.866, 47.9398, -13.7809, 97.3949, -50.979, 46.0158
3.7, 2, 35.866, 47.9398, -13.7809, 97.3949, -50.979, 46.0158
3.704, 2, 35.866, 47.9398, -13.7809, 97.3949, -50.979, 46.0158
3.708, 2, 35.866, 47.9398, -13.7809, 97.3949, -50.979, 46.0158
3.712, 2, 35.866, 47.9398, -13.7809, 97.3949, -50.979, 46.0158
3.716, 2, 35.866, 47.9398, -13.7809, 97.3949, -50.979, 46.0158
3.72, 2, 35.866, 47.9398, -13.7809, 97.3949, -50.979, 46.0158
3.724, 2, 35.866, 47.9398, -13.7809, 97.3949, -50.979, 46.0158
3.728, 2, 35.866, 47.9398, -13.7809, 97.3949, -50.979, 46.0158
3.732, 2, 35.866, 47.9398, -13.7809, 97.3949, -50.979, 46.0158
3.735, 2, 35.866, 47.9398, -13.7809, 97.3949, -50.979, 46.0158
3.74, 2, 35.866, 47.9398, -13.7809, 97.3949, -50.979, 46.0158
3.744, 2, 35.866, 47.9398, -13.7809, 97.3949, -50.979, 46.0158
3.748, 2, 35.866, 47.9398, -13.7809, 97.3949, -50.979, 46.0158
3.752, 2, 35.866, 47.9398, -13.7809, 97.3949, -50.979, 46.0158
3.756, 2, 35.866, 47.9398, -13.7809, 97.3949, -50.979, 46.0158
3.76, 2, 35.866, 47.9398, -13.7809, 97.3949, -50.979, 46.0158
3.764, 2, 35.866, 47.9398, -13.7809, 97.3949, -50.979, 46.0158
3.768, 2, 35.866, 47.9398, -13.7809, 97.3949, -50.979, 46.0158
3.772, 2, 35.866, 47.9398, -13.7809, 97.3949, -50.979, 46.0158
3.776, 2, 35.866, 47.9398, -13.7809, 97.3949, -50.979, 46.0158
3.78, 2, 35.866, 47.9398, -13.7809, 97.3949, -50.979, 46.0158
3.784, 2, 35.866, 47.9398, -13.7809, 97.3949, -50.979, 46.0158
3.788, 2, 35.866, 47.9398, -13.7809, 97.3949, -50.979, 46.0158
3.792, 2, 35.866, 47.9398, -13.7809, 97.3949, -50.979, 46.0158
3.796, 2, 35.866, 47.9398, -13.7809, 97.3949, -50.979, 46.0158
3.8, 2, 35.866, 47.9398, -13.7809, 97.3949, -50.979, 46.0158
3.804, 2, 35.866, 47.9398, -13.7809, 97.3949, -50.979, 46.0158
3.808, 2, 35.866, 47.9398, -13.7809, 97.3949, -50.979, 46.0158
3.812, 2, 35.866, 47.9398, -13.7809, 97.3949, -50.979, 46.0158
3.816, 2, 35.866, 47.9398, -13.7809, 97.3949, -50.979, 46.0158
3.82, 2, 35.866, 47.9398, -13.7809, 97.3949, -50.979, 46.0158
3.824, 2, 35.866, 47.9398, -13.7809, 97.3949, -50.979, 46.0158
3.828, 2, 35.866, 47.9398, -13.7809, 97.3949, -50.979, 46.0158
3.832, 2, 35.866, 47.9398, -13.7809, 97.3949, -50.979, 46.0158
3.836, 2, 35.866, 47.9398, -13.7809, 97.3949, -50.979, 46.0158
3.84, 2, 35.866, 47.9398, -13.7809, 97.3949, -50.979, 46.0158
3.844, 2, 35.866, 47.9398, -13.7809, 97.3949, -50.979, 46.0158
3.848, 2, 35.866, 47.9398, -13.7809, 97.3949, -50.979, 46.0158
3.852, 2, 35.866, 47.9398, -13.7809, 97.3949, -50.979, 46.0158
3.856, 2, 35.866, 47.9398, -13.7809, 97.3949, -50.979, 46.0158
3.86, 2, 35.866, 47.9398, -13.7809, 97.3949, -50.979, 46.0158
3.864, 2, 35.866, 47.9398, -13.7809, 97.3949, -50.979, 46.0158
3.868, 2, 35.866, 47.9398, -13.7809, 97.3949, -50.979, 46.0158
3.872, 2, 35.866, 47.9398, -13.7809, 97.3949, -50.979, 46.0158
3.876, 2, 35.866, 47.9398, -13.7809, 97.3949, -50.979, 46.0158
3.88, 2, 35.866, 47.9398, -13.7809, 97.3949, -50.979, 46.0158
3.884, 2, 35.866, 47.9398, -13.7809, 97.3949, -50.979, 46.0158
3.888, 2, 35.866, 47.9398, -13.7809, 97.3949, -50.979, 46.0158
3.892, 2, 35.866, 47.9398, -13.7809, 97.3949, -50.979, 46.0158
3.896, 2, 35.866, 47.9398, -13.7809, 97.3949, -50.979, 46.0158
3.9, 2, 35.866, 47.9398, -13.7809, 97.3949, -50.979, 46.0158
3.904, 2, 35.866, 47.9398, -13.7809, 97.3949, -50.979, 46.0158
3.908, 2, 35.866, 47.9398, -13.7809, 97.3949, -50.979, 46.0158
3.912, 2, 35.866, 47.9398, -13.7809, 97.3949, -50.979, 46.0158
3.916, 2, 35.866, 47.9398, -13.7809, 97.3949, -50.979, 46.0158
3.92, 2, 35.866, 47.9398, -13.7809, 97.3949, -50.979, 46.0158
3.924, 2, 35.866, 47.9398, -13.7809, 97.3949, -50.979, 46.0158
3.928, 2, 35.866, 47.9398, -13.7809, 97.3949, -50.979, 46.0158
3.932, 2, 35.866, 47.9398, -13.7809, 97.3949, -50.979, 46.0158
3.936, 2, 35.866, 47.9398, -13.7809, 97.3949, -50.979, 46.0158
3.94, 2, 35.866, 47.9398, -13.7809, 97.3949, -50.979, 46.0158
3.944, 2, 35.866, 47.9398, -13.7809, 97.3949, -50.979, 46.0158
3.948, 2, 35.866, 47.9398, -13.7809, 97.3949, -50.979, 46.0158
3.952, 2, 35.866, 47.9398, -13.7809, 97.3949, -50.979, 46.0158
3.956, 2, 35.866, 47.9398, -13.7809, 97.3949, -50.979, 46.0158
3.96, 2, 35.866, 47.9398, -13.7809, 97.3949, -50.979, 46.0158
3.964, 2, 35.866, 47.9398, -13.7809, 97.3949, -50.979, 46.0158
3.968, 2, 35.866, 47.9398, -13.7809, 97.3949, -50.979, 46.0158
3.972, 2, 35.866, 47.9398, -13.7809, 97.3949, -50.979, 46.0158
3.976, 2, 35.866, 47.9398, -13.7809, 97.3949, -50.979, 46.0158
3.98, 2, 35.866, 47.9398, -13.7809, 97.3949, -50.979, 46.0158
3.984, 2, 35.866, 47.9398, -13.7809, 97.3949, -50.979, 46.0158
3.988, 2, 35.866, 47.9398, -13.7809, 97.3949, -50.979, 46.0158
3.992, 2, 35.866, 47.9398, -13.7809, 97.3949, -50.979, 46.0158
3.996, 2, 35.866, 47.9398, -13.7809, 97.3949, -50.979, 46.0158
3.999, 2, 35.866, 47.9398, -13.7809, 97.3949, -50.979, 46.0158
4.004, 2, 35.866, 47.9398, -13.7809, 97.3949, -50.979, 46.0158
4.008, 2, 35.866, 47.9398, -13.7809, 97.3949, -50.979, 46.0158
4.012, 2, 35.866, 47.9398, -13.7809, 97.3949, -50.979, 46.0158
4.016, 2, 35.866, 47.9398, -13.7809, 97.3949, -50.979, 46.0158
4.02, 2, 35.866, 47.9398, -13.7809, 97.3949, -50.979, 46.0158
4.024, 2, 35.866, 47.9398, -13.7809, 97.3949, -50.979, 46.0158
4.028, 2, 35.866, 47.9398, -13.7809, 97.3949, -50.979, 46.0158
4.032, 2, 35.866, 47.9398, -13.7809, 97.3949, -50.979, 46.0158
4.036, 2, 35.866, 47.9398, -13.7809, 97.3949, -50.979, 46.0158
4.04, 2, 35.866, 47.9398, -13.7809, 97.3949, -50.979, 46.0158
4.044, 2, 35.866, 47.9398, -13.7809, 97.3949, -50.979, 46.0158
4.048, 2, 35.866, 47.9398, -13.7809, 97.3949, -50.979, 46.0158
4.052, 2, 35.866, 47.9398, -13.7809, 97.3949, -50.979, 46.0158
4.056, 2, 35.866, 47.9398, -13.7809, 97.3949, -50.979, 46.0158
4.06, 2, 35.866, 47.9398, -13.7809, 97.3949, -50.979, 46.0158
4.064, 2, 35.866, 47.9398, -13.7809, 97.3949, -50.979, 46.0158
4.068, 2, 35.866, 47.9398, -13.7809, 97.3949, -50.979, 46.0158
4.072, 2, 35.866, 47.9398, -13.7809, 97.3949, -50.979, 46.0158
4.076, 2, 35.866, 47.9398, -13.7809, 97.3949, -50.979, 46.0158
4.08, 2, 35.866, 47.9398, -13.7809, 97.3949, -50.979, 46.0158
4.084, 2, 35.866, 47.9398, -13.7809, 97.3949, -50.979, 46.0158
4.088, 2, 35.866, 47.9398, -13.7809, 97.3949, -50.979, 46.0158
4.092, 2, 35.866, 47.9398, -13.7809, 97.3949, -50.979, 46.0158
4.096, 2, 35.866, 47.9398, -13.7809, 97.3949, -50.979, 46.0158
4.1, 2, 35.866, 47.9398, -13.7809, 97.3949, -50.979, 46.0158
4.104, 2, 35.866, 47.9398, -13.7809, 97.3949, -50.979, 46.0158
4.108, 2, 35.866, 47.9398, -13.7809, 97.3949, -50.979, 46.0158
4.112, 2, 35.866, 47.9398, -13.7809, 97.3949, -50.979, 46.0158
4.116, 2, 35.866, 47.9398, -13.7809, 97.3949, -50.979, 46.0158
4.12, 2, 35.866, 47.9398, -13.7809, 97.3949, -50.979, 46.0158
4.124, 2, 35.866, 47.9398, -13.7809, 97.3949, -50.979, 46.0158
4.128, 2, 35.866, 47.9398, -13.7809, 97.3949, -50.979, 46.0158
4.132, 2, 35.866, 47.9398, -13.7809, 97.3949, -50.979, 46.0158
4.136, 2, 35.866, 47.9398, -13.7809, 97.3949, -50.979, 46.0158
4.14, 2, 35.866, 47.9398, -13.7809, 97.3949, -50.979, 46.0158
4.144, 2, 35.866, 47.9398, -13.7809, 97.3949, -50.979, 46.0158
4.148, 2, 35.866, 47.9398, -13.7809, 97.3949, -50.979, 46.0158
4.152, 2, 35.866, 47.9398, -13.7809, 97.3949, -50.979, 46.0158
4.156, 2, 35.866, 47.9398, -13.7809, 97.3949, -50.979, 46.0158
4.16, 2, 35.866, 47.9398, -13.7809, 97.3949, -50.979, 46.0158
4.164, 2, 35.866, 47.9398, -13.7809, 97.3949, -50.979, 46.0158
4.168, 2, 35.866, 47.9398, -13.7809, 97.3949, -50.979, 46.0158
4.172, 2, 35.866, 47.9398, -13.7809, 97.3949, -50.979, 46.0158
4.176, 2, 35.866, 47.9398, -13.7809, 97.3949, -50.979, 46.0158
4.18, 2, 35.866, 47.9398, -13.7809, 97.3949, -50.979, 46.0158
4.184, 2, 35.866, 47.9398, -13.7809, 97.3949, -50.979, 46.0158
4.188, 2, 35.866, 47.9398, -13.7809, 97.3949, -50.979, 46.0158
4.192, 2, 35.866, 47.9398, -13.7809, 97.3949, -50.979, 46.0158
4.196, 2, 35.866, 47.9398, -13.7809, 97.3949, -50.979, 46.0158
4.2, 2, 35.866, 47.9398, -13.7809, 97.3949, -50.979, 46.0158
4.204, 2, 35.866, 47.9398, -13.7809, 97.3949, -50.979, 46.0158
4.208, 2, 35.866, 47.9398, -13.7809, 97.3949, -50.979, 46.0158
4.212, 2, 35.866, 47.9398, -13.7809, 97.3949, -50.979, 46.0158
4.216, 2, 35.866, 47.9398, -13.7809, 97.3949, -50.979, 46.0158
4.22, 2, 35.866, 47.9398, -13.7809, 97.3949, -50.979, 46.0158
4.224, 2, 35.866, 47.9398, -13.7809, 97.3949, -50.979, 46.0158
4.228, 2, 35.866, 47.9398, -13.7809, 97.3949, -50.979, 46.0158
4.232, 2, 35.866, 47.9398, -13.7809, 97.3949, -50.979, 46.0158
4.236, 2, 35.866, 47.9398, -13.7809, 97.3949, -50.979, 46.0158
4.24, 2, 35.866, 47.9398, -13.7809, 97.3949, -50.979, 46.0158
4.244, 2, 35.866, 47.9398, -13.7809, 97.3949, -50.979, 46.0158
4.248, 2, 35.866, 47.9398, -13.7809, 97.3949, -50.979, 46.0158
4.252, 2, 35.866, 47.9398, -13.7809, 97.3949, -50.979, 46.0158
4.256, 2, 35.866, 47.9398, -13.7809, 97.3949, -50.979, 46.0158
4.26, 2, 35.866, 47.9398, -13.7809, 97.3949, -50.979, 46.0158
4.264, 2, 35.866, 47.9398, -13.7809, 97.3949, -50.979, 46.0158
4.268, 2, 35.866, 47.9398, -13.7809, 97.3949, -50.979, 46.0158
4.272, 2, 35.866, 47.9398, -13.7809, 97.3949, -50.979, 46.0158
4.276, 2, 35.866, 47.9398, -13.7809, 97.3949, -50.979, 46.0158
4.28, 2, 35.866, 47.9398, -13.7809, 97.3949, -50.979, 46.0158
4.284, 2, 35.866, 47.9398, -13.7809, 97.3949, -50.979, 46.0158
4.288, 2, 35.866, 47.9398, -13.7809, 97.3949, -50.979, 46.0158
4.292, 2, 35.866, 47.9398, -13.7809, 97.3949, -50.979, 46.0158
4.296, 2, 35.866, 47.9398, -13.7809, 97.3949, -50.979, 46.0158
4.3, 2, 35.866, 47.9398, -13.7809, 97.3949, -50.979, 46.0158
4.304, 2, 35.866, 47.9398, -13.7809, 97.3949, -50.979, 46.0158
4.308, 2, 35.866, 47.9398, -13.7809, 97.3949, -50.979, 46.0158
4.312, 2, 35.866, 47.9398, -13.7809, 97.3949, -50.979, 46.0158
4.316, 2, 35.866, 47.9398, -13.7809, 97.3949, -50.979, 46.0158
4.32, 2, 35.866, 47.9398, -13.7809, 97.3949, -50.979, 46.0158
4.324, 2, 35.866, 47.9398, -13.7809, 97.3949, -50.979, 46.0158
4.328, 2, 35.866, 47.9398, -13.7809, 97.3949, -50.979, 46.0158
4.332, 2, 35.866, 47.9398, -13.7809, 97.3949, -50.979, 46.0158
4.336, 2, 35.866, 47.9398, -13.7809, 97.3949, -50.979, 46.0158
4.34, 2, 35.866, 47.9398, -13.7809, 97.3949, -50.979, 46.0158
4.344, 2, 35.866, 47.9398, -13.7809, 97.3949, -50.979, 46.0158
4.348, 2, 35.866, 47.9398, -13.7809, 97.3949, -50.979, 46.0158
4.352, 2, 35.866, 47.9398, -13.7809, 97.3949, -50.979, 46.0158
4.356, 2, 35.866, 47.9398, -13.7809, 97.3949, -50.979, 46.0158
4.36, 2, 35.866, 47.9398, -13.7809, 97.3949, -50.979, 46.0158
4.364, 2, 35.866, 47.9398, -13.7809, 97.3949, -50.979, 46.0158
4.368, 2, 35.866, 47.9398, -13.7809, 97.3949, -50.979, 46.0158
4.372, 2, 35.866, 47.9398, -13.7809, 97.3949, -50.979, 46.0158
4.376, 2, 35.866, 47.9398, -13.7809, 97.3949, -50.979, 46.0158
4.38, 2, 35.866, 47.9398, -13.7809, 97.3949, -50.979, 46.0158
4.384, 2, 35.866, 47.9398, -13.7809, 97.3949, -50.979, 46.0158
4.388, 2, 35.866, 47.9398, -13.7809, 97.3949, -50.979, 46.0158
4.392, 2, 35.866, 47.9398, -13.7809, 97.3949, -50.979, 46.0158
4.396, 2, 35.866, 47.9398, -13.7809, 97.3949, -50.979, 46.0158
4.4, 3, 35.866, 47.9398, -13.7809, 97.3949, -50.979, 46.0158
4.404, 3, 35.866, 47.9398, -13.7809, 97.3949, -50.979, 46.0158
4.408, 3, 35.866, 47.9398, -13.7809, 97.3949, -50.979, 46.0158
4.412, 3, 35.866, 47.9398, -13.7809, 97.3949, -50.979, 46.0158
4.416, 3, 35.866, 47.9398, -13.7809, 97.3949, -50.979, 46.0158
4.42, 3, 35.866, 47.9398, -13.7809, 97.3949, -50.979, 46.0158
4.424, 3, 35.866, 47.9398, -13.7809, 97.3949, -50.979, 46.0158
4.428, 3, 35.866, 47.9398, -13.7809, 97.3949, -50.979, 46.0158
4.432, 3, 35.866, 47.9398, -13.7809, 97.3949, -50.979, 46.0158
4.436, 4, 35.866, 47.9398, -13.7809, 97.3949, -50.979, 46.0158
4.44, 4, 35.866, 47.9398, -13.7809, 97.3949, -50.979, 46.0158
4.444, 4, 35.866, 47.9398, -13.7809, 97.3949, -50.979, 46.0158
4.448, 4, 35.866, 47.9398, -13.7809, 97.3949, -50.979, 46.0158
4.452, 4, 35.866, 47.9398, -13.7809, 97.3949, -50.979, 46.0158
4.456, 4, 35.866, 47.9398, -13.7809, 97.3949, -50.979, 46.0158
4.46, 4, 35.866, 47.9398, -13.7809, 97.3949, -50.979, 46.0158
4.464, 4, 35.866, 47.9398, -13.7809, 97.3949, -50.979, 46.0158
4.468, 4, 35.866, 47.9398, -13.7809, 97.3949, -50.979, 46.0158
4.472, 4, 35.866, 47.9398, -13.7809, 97.3949, -50.979, 46.0158
4.476, 4, 35.866, 47.9398, -13.7809, 97.3949, -50.979, 46.0158
4.48, 4, 35.866, 47.9398, -13.7809, 97.3949, -50.979, 46.0158
4.484, 4, 35.866, 47.9398, -13.7809, 97.3949, -50.979, 46.0158
4.488, 4, 35.866, 47.9398, -13.7809, 97.3949, -50.979, 46.0158
4.492, 4, 35.866, 47.9398, -13.7809, 97.3949, -50.979, 46.0158
4.496, 4, 35.866, 47.9398, -13.7809, 97.3949, -50.979, 46.0158
4.5, 4, 35.866, 47.9398, -13.7809, 97.3949, -50.979, 46.0158
4.504, 4, 35.866, 47.9398, -13.7809, 97.3949, -50.979, 46.0158
4.508, 4, 35.866, 47.9398, -13.7809, 97.3949, -50.979, 46.0158
4.512, 4, 35.866, 47.9398, -13.7809, 97.3949, -50.979, 46.0158
4.516, 4, 35.866, 47.9398, -13.7809, 97.3949, -50.979, 46.0158
4.52, 4, 35.866, 47.9398, -13.7809, 97.3949, -50.979, 46.0158
4.524, 4, 35.866, 47.9398, -13.7809, 97.3949, -50.979, 46.0158
4.528, 4, 35.866, 47.9398, -13.7809, 97.3949, -50.979, 46.0158
4.532, 4, 35.866, 47.9398, -13.7809, 97.3949, -50.979, 46.0158
4.536, 6, 35.866, 47.9398, -13.7809, 97.3949, -50.979, 46.0158
4.54, 6, 35.866, 47.9398, -13.7809, 97.3949, -50.979, 46.0158
4.544, 7, 35.866, 47.9398, -13.7809, 97.3949, -50.979, 46.0158
4.548, 8, 35.866, 47.9398, -13.7809, 97.3949, -50.979, 46.0158
4.552, 8, 35.866, 47.9398, -13.7809, 97.3949, -50.979, 46.0158
4.556, 8, 35.866, 47.9398, -13.7809, 97.3949, -50.979, 46.0158
4.56, 8, 35.866, 47.9398, -13.7809, 97.3949, -50.979, 46.0158
4.564, 8, 35.866, 47.9398, -13.7809, 97.3949, -50.979, 46.0158
4.568, 8, 35.866, 47.9398, -13.7809, 97.3949, -50.979, 46.0158
4.572, 9, 35.866, 47.9398, -13.7809, 97.3949, -50.979, 46.0158
4.576, 9, 35.866, 47.9398, -13.7809, 97.3949, -50.979, 46.0158
4.58, 9, 35.866, 47.9398, -13.7809, 97.3949, -50.979, 46.0158
4.584, 9, 35.866, 47.9399, -13.7809, 97.3949, -50.979, 46.0158
4.588, 9, 35.866, 47.94, -13.7809, 97.3949, -50.979, 46.0158
4.592, 9, 35.866, 47.9404, -13.7809, 97.3949, -50.979, 46.0158
4.596, 10, 35.8659, 47.9411, -13.7809, 97.3949, -50.9791, 46.0158
4.6, 10, 35.8658, 47.9424, -13.781, 97.3949, -50.9795, 46.0157
4.604, 10, 35.8656, 47.9442, -13.7811, 97.3948, -50.9802, 46.0155
4.608, 10, 35.8654, 47.9468, -13.7813, 97.3946, -50.9814, 46.015
4.612, 10, 35.8651, 47.9503, -13.7816, 97.3943, -50.9837, 46.0143
4.616, 10, 35.8648, 47.9548, -13.782, 97.3939, -50.9873, 46.0132
4.62, 10, 35.8644, 47.9604, -13.7827, 97.3932, -50.9928, 46.0115
4.624, 10, 35.8639, 47.9674, -13.7838, 97.3922, -51.0009, 46.0089
4.628, 10, 35.8634, 47.9761, -13.7852, 97.3908, -51.0122, 46.0054
4.632, 10, 35.8628, 47.9866, -13.7871, 97.3889, -51.0276, 46.0005
4.636, 10, 35.8621, 47.9993, -13.7896, 97.3864, -51.048, 45.9941
4.64, 10, 35.8614, 48.0141, -13.7929, 97.3831, -51.0744, 45.9858
4.644, 10, 35.8607, 48.0313, -13.797, 97.3789, -51.1078, 45.9753
4.648, 10, 35.86, 48.0509, -13.8021, 97.3737, -51.1494, 45.9622
4.652, 10, 35.8593, 48.0732, -13.8083, 97.3673, -51.1999, 45.9464
4.656, 10, 35.8587, 48.0984, -13.8157, 97.3597, -51.2606, 45.9273
4.66, 10, 35.8581, 48.1267, -13.8245, 97.3508, -51.3321, 45.9048
4.664, 10, 35.8576, 48.1583, -13.8346, 97.3403, -51.4154, 45.8787
4.668, 10, 35.8571, 48.1935, -13.8463, 97.3283, -51.5112, 45.8486
4.672, 10, 35.8567, 48.2323, -13.8595, 97.3146, -51.62, 45.8144
4.676, 10, 35.8563, 48.275, -13.8744, 97.2992, -51.7425, 45.776
4.68, 10, 35.856, 48.3215, -13.8909, 97.2821, -51.8789, 45.7331
4.684, 10, 35.8558, 48.3721, -13.9093, 97.2632, -52.0297, 45.6858
4.688, 10, 35.8557, 48.4266, -13.9293, 97.2424, -52.195, 45.6339
4.692, 10, 35.8555, 48.4853, -13.9512, 97.2198, -52.3749, 45.5774
4.696, 10, 35.8555, 48.5481, -13.9748, 97.1954, -52.5691, 45.5164
4.7, 10, 35.8555, 48.6149, -14.0002, 97.1691, -52.7777, 45.4509
4.704, 10, 35.8556, 48.6854, -14.0272, 97.1411, -53.0003, 45.381
4.708, 10, 35.8558, 48.7591, -14.0559, 97.1115, -53.2364, 45.3069
4.712, 10, 35.8561, 48.8356, -14.0861, 97.0801, -53.4854, 45.2288
4.716, 10, 35.8566, 48.9144, -14.1178, 97.0473, -53.7464, 45.1468
4.72, 10, 35.8573, 48.995, -14.1507, 97.0131, -54.0182, 45.0615
4.724, 10, 35.8581, 49.0768, -14.1848, 96.9777, -54.2993, 44.9733
4.728, 10, 35.859, 49.1596, -14.2198, 96.9414, -54.5881, 44.8826
4.732, 10, 35.86, 49.2432, -14.2555, 96.9043, -54.8827, 44.7902
4.736, 10, 35.861, 49.3273, -14.2917, 96.8668, -55.181, 44.6965
4.74, 12, 35.862, 49.4118, -14.3281, 96.829, -55.4809, 44.6024
4.744, 12, 35.863, 49.4961, -14.3644, 96.7914, -55.7802, 44.5085
4.748, 12, 35.8639, 49.5801, -14.4004, 96.754, -56.0767, 44.4154
4.752, 12, 35.8648, 49.6634, -14.4358, 96.7173, -56.3685, 44.3238
4.756, 12, 35.8656, 49.7457, -14.4704, 96.6814, -56.6535, 44.2344
4.76, 12, 35.8662, 49.8268, -14.504, 96.6467, -56.9299, 44.1476
4.764, 12, 35.8667, 49.9061, -14.5363, 96.6132, -57.1961, 44.0641
4.768, 12, 35.867, 49.9834, -14.5673, 96.5811, -57.4508, 43.9841
4.772, 12, 35.8671, 50.0582, -14.5968, 96.5507, -57.6929, 43.9081
4.776, 12, 35.8672, 50.13, -14.6246, 96.5219, -57.9217, 43.8363
4.78, 12, 35.8671, 50.1983, -14.6508, 96.4949, -58.1365, 43.7689
4.784, 12, 35.8668, 50.2627, -14.6752, 96.4697, -58.337, 43.7059
4.788, 12, 35.8662, 50.3229, -14.6979, 96.4463, -58.5229, 43.6476
4.792, 12, 35.8653, 50.3788, -14.7188, 96.4249, -58.6941, 43.5939
4.796, 12, 35.8638, 50.4302, -14.738, 96.4054, -58.8506, 43.545
4.8, 12, 35.8619, 50.477, -14.7554, 96.3879, -58.9922, 43.5009
4.804, 12, 35.8594, 50.5193, -14.7711, 96.3725, -59.1192, 43.4619
4.808, 12, 35.8564, 50.5572, -14.7849, 96.3595, -59.2316, 43.4279
4.812, 12, 35.8531, 50.5908, -14.7969, 96.3488, -59.3297, 43.3993
4.816, 12, 35.8497, 50.6204, -14.8071, 96.3407, -59.4138, 43.3761
4.82, 12, 35.8462, 50.6465, -14.8154, 96.3354, -59.4842, 43.3584
4.824, 12, 35.8428, 50.6695, -14.8218, 96.3327, -59.5417, 43.3463
4.828, 12, 35.8394, 50.6899, -14.8264, 96.3329, -59.587, 43.3396
4.832, 12, 35.8363, 50.7082, -14.8293, 96.3357, -59.6212, 43.338
4.836, 12, 35.8335, 50.7247, -14.8307, 96.3409, -59.6456, 43.341
4.84, 12, 35.8311, 50.7398, -14.8307, 96.3481, -59.6618, 43.3481
4.844, 12, 35.829, 50.7537, -14.8295, 96.357, -59.6713, 43.3583
4.848, 12, 35.8271, 50.7667, -14.8274, 96.3669, -59.6761, 43.3709
4.852, 12, 35.8253, 50.7791, -14.8247, 96.3773, -59.6781, 43.3848
4.856, 12, 35.8236, 50.7913, -14.8217, 96.3875, -59.6794, 43.3989
4.86, 12, 35.8215, 50.8034, -14.8185, 96.3967, -59.6819, 43.4122
4.864, 12, 35.8188, 50.8159, -14.8154, 96.4044, -59.6877, 43.4236
4.868, 12, 35.8153, 50.8291, -14.8128, 96.4098, -59.6988, 43.4321
4.872, 12, 35.8111, 50.8432, -14.8107, 96.4123, -59.7169, 43.4368
4.876, 12, 35.8063, 50.8587, -14.8093, 96.4114, -59.7438, 43.437
4.88, 12, 35.8007, 50.8759, -14.8087, 96.4068, -59.7808, 43.4321
4.884, 13, 35.7945, 50.8953, -14.8089, 96.3981, -59.8292, 43.4217
4.888, 13, 35.7879, 50.9173, -14.81, 96.3851, -59.8899, 43.4055
4.892, 13, 35.7811, 50.9425, -14.8118, 96.3678, -59.9636, 43.3834
4.896, 13, 35.7744, 50.971, -14.8144, 96.3462, -60.0509, 43.3555
4.9, 13, 35.768, 51.0033, -14.8177, 96.3202, -60.1524, 43.3217
4.904, 13, 35.7618, 51.0396, -14.8217, 96.2898, -60.2682, 43.2821
4.908, 13, 35.7561, 51.0797, -14.8263, 96.2552, -60.3988, 43.2369
4.912, 13, 35.7508, 51.1236, -14.8315, 96.2163, -60.544, 43.1861
4.916, 13, 35.7458, 51.1709, -14.8372, 96.1733, -60.7041, 43.1298
4.92, 13, 35.7412, 51.2214, -14.8436, 96.1263, -60.8787, 43.0682
4.924, 13, 35.7368, 51.2747, -14.8504, 96.0753, -61.0674, 43.0014
4.928, 13, 35.7327, 51.3304, -14.8578, 96.0207, -61.2696, 42.9298
4.932, 13, 35.7288, 51.3882, -14.8656, 95.9626, -61.4843, 42.8538
4.936, 13, 35.7252, 51.4478, -14.8738, 95.9015, -61.7103, 42.7737
4.94, 13, 35.722, 51.5087, -14.8823, 95.8376, -61.946, 42.6901
4.944, 13, 35.719, 51.5706, -14.891, 95.7717, -62.1898, 42.6036
4.948, 13, 35.7163, 51.6331, -14.9, 95.704, -62.4396, 42.515
4.952, 13, 35.7138, 51.6959, -14.9091, 95.6353, -62.6934, 42.425
4.956, 13, 35.7113, 51.7588, -14.9183, 95.5661, -62.949, 42.3343
4.96, 13, 35.7088, 51.8216, -14.9275, 95.497, -63.2041, 42.2439
4.964, 13, 35.7061, 51.8843, -14.9365, 95.4287, -63.4563, 42.1544
4.968, 13, 35.7031, 51.9467, -14.9454, 95.3617, -63.7037, 42.0666
4.972, 13, 35.6998, 52.0086, -14.9541, 95.2966, -63.9442, 41.9813
4.976, 13, 35.6963, 52.0696, -14.9624, 95.2339, -64.1759, 41.8991
4.98, 14, 35.6925, 52.1291, -14.9704, 95.1739, -64.3974, 41.8205
4.984, 14, 35.6886, 52.1869, -14.978, 95.117, -64.6075, 41.746
4.988, 14, 35.6846, 52.2422, -14.9851, 95.0636, -64.805, 41.6759
4.992, 14, 35.6807, 52.2949, -14.9918, 95.0137, -64.9892, 41.6105
4.996, 14, 35.6767, 52.3445, -14.998, 94.9675, -65.1596, 41.5501
5, 14, 35.6725, 52.3909, -15.0036, 94.9253, -65.3158, 41.4947
5.004, 14, 35.668, 52.434, -15.0088, 94.8869, -65.4576, 41.4444
5.008, 14, 35.663, 52.4736, -15.0133, 94.8523, -65.5851, 41.3992
5.012, 14, 35.6575, 52.5096, -15.0173, 94.8217, -65.6984, 41.3592
5.016, 14, 35.6514, 52.5419, -15.0205, 94.7947, -65.7978, 41.3243
5.02, 14, 35.6451, 52.5708, -15.023, 94.7714, -65.8838, 41.2944
5.024, 14, 35.6388, 52.5963, -15.0245, 94.7515, -65.957, 41.2694
5.028, 14, 35.6328, 52.6188, -15.025, 94.7349, -66.0179, 41.2492
5.032, 14, 35.6273, 52.6386, -15.0243, 94.7214, -66.0676, 41.2335
5.036, 14, 35.6222, 52.6563, -15.0226, 94.7106, -66.1068, 41.222
5.04, 14, 35.6176, 52.6722, -15.0198, 94.7022, -66.1369, 41.2143
5.044, 14, 35.6132, 52.6866, -15.0159, 94.6959, -66.159, 41.21
5.048, 14, 35.6088, 52.6997, -15.0111, 94.6912, -66.1749, 41.2085
5.052, 14, 35.6042, 52.7117, -15.0054, 94.6878, -66.1858, 41.2092
5.056, 14, 35.5995, 52.7229, -14.999, 94.685, -66.1937, 41.2114
5.06, 14, 35.5944, 52.7335, -14.9919, 94.6824, -66.2002, 41.2146
5.064, 14, 35.589, 52.744, -14.9844, 94.6796, -66.207, 41.218
5.068, 14, 35.5831, 52.7546, -14.9763, 94.6758, -66.216, 41.2211
5.072, 14, 35.5766, 52.7656, -14.9678, 94.6705, -66.229, 41.2231
5.076, 15, 35.5693, 52.7775, -14.9589, 94.6633, -66.2478, 41.2236
5.08, 15, 35.5611, 52.7904, -14.9494, 94.6535, -66.2741, 41.222
5.084, 15, 35.5522, 52.8047, -14.9391, 94.6406, -66.3093, 41.2179
5.088, 15, 35.5424, 52.8206, -14.928, 94.6242, -66.355, 41.2108
5.092, 15, 35.5319, 52.8384, -14.9157, 94.6038, -66.4124, 41.2006
5.096, 15, 35.5208, 52.8584, -14.9021, 94.579, -66.4826, 41.1871
5.1, 15, 35.5092, 52.8807, -14.8873, 94.5495, -66.5665, 41.1701
5.104, 15, 35.4973, 52.9052, -14.871, 94.515, -66.6648, 41.1496
5.108, 15, 35.4852, 52.932, -14.8534, 94.4754, -66.7779, 41.1255
5.112, 15, 35.4728, 52.9609, -14.8343, 94.4306, -66.9061, 41.098
5.116, 15, 35.4602, 52.9918, -14.8136, 94.3805, -67.0494, 41.067
5.12, 15, 35.4473, 53.0248, -14.7912, 94.3253, -67.2074, 41.0326
5.124, 16, 35.434, 53.0598, -14.767, 94.2652, -67.3795, 40.9951
5.128, 16, 35.4202, 53.0967, -14.7409, 94.2004, -67.565, 40.9546
5.132, 16, 35.4062, 53.1354, -14.7129, 94.1314, -67.7627, 40.9114
5.136, 16, 35.3919, 53.1756, -14.6831, 94.0585, -67.9715, 40.8658
5.14, 16, 35.3778, 53.2167, -14.6517, 93.9822, -68.19, 40.818
5.144, 16, 35.3639, 53.2583, -14.6191, 93.9031, -68.4164, 40.7685
5.148, 16, 35.3503, 53.3001, -14.5856, 93.8219, -68.649, 40.7176
5.152, 16, 35.3369, 53.342, -14.5513, 93.7392, -68.8857, 40.6658
5.156, 16, 35.3236, 53.3839, -14.5168, 93.6558, -69.1245, 40.6135
5.16, 16, 35.3101, 53.4261, -14.4822, 93.5724, -69.3633, 40.5613
5.164, 16, 35.2962, 53.4683, -14.4479, 93.4898, -69.5999, 40.5095
5.168, 16, 35.282, 53.5106, -14.4143, 93.4087, -69.8322, 40.4587
5.172, 16, 35.2676, 53.5525, -14.3815, 93.3297, -70.0584, 40.4092
5.176, 16, 35.2533, 53.5936, -14.3499, 93.2535, -70.2766, 40.3615
5.18, 16, 35.2391, 53.6336, -14.3197, 93.1806, -70.4854, 40.3158
5.184, 16, 35.2252, 53.6721, -14.291, 93.1115, -70.6832, 40.2725
5.188, 16, 35.2115, 53.7089, -14.2639, 93.0466, -70.8688, 40.2319
5.192, 16, 35.198, 53.744, -14.2387, 92.9862, -71.0411, 40.1942
5.196, 16, 35.1848, 53.7772, -14.2151, 92.9305, -71.1994, 40.1595
5.2, 16, 35.1718, 53.8085, -14.1933, 92.8795, -71.3431, 40.128
5.204, 16, 35.1592, 53.8377, -14.1729, 92.8331, -71.472, 40.0997
5.208, 16, 35.147, 53.8645, -14.154, 92.791, -71.586, 40.0745
5.212, 16, 35.1353, 53.889, -14.1361, 92.753, -71.6856, 40.0525
5.216, 16, 35.1241, 53.9111, -14.1191, 92.7186, -71.7712, 40.0333
5.22, 16, 35.1134, 53.9309, -14.1027, 92.6875, -71.8436, 40.017
5.224, 16, 35.1029, 53.9487, -14.0867, 92.6592, -71.9037, 40.0032
5.228, 16, 35.0923, 53.9649, -14.0709, 92.6332, -71.9528, 39.9918
5.232, 16, 35.0815, 53.98, -14.055, 92.6092, -71.9923, 39.9824
5.236, 16, 35.0702, 53.9941, -14.0389, 92.5867, -72.0237, 39.9748
5.24, 16, 35.0583, 54.0074, -14.0224, 92.5652, -72.049, 39.9686
5.244, 16, 35.046, 54.0201, -14.0052, 92.5441, -72.0702, 39.9637
5.248, 16, 35.033, 54.0321, -13.9869, 92.5229, -72.0895, 39.9596
5.252, 16, 35.0195, 54.0434, -13.9671, 92.501, -72.1091, 39.9562
5.256, 16, 35.0055, 54.0543, -13.9453, 92.4776, -72.1313, 39.953
5.26, 16, 34.9908, 54.0649, -13.921, 92.4522, -72.1585, 39.95
5.264, 16, 34.9751, 54.0754, -13.8935, 92.4239, -72.1928, 39.9468
5.268, 16, 34.9584, 54.0862, -13.8625, 92.3918, -72.2363, 39.9432
5.272, 16, 34.9404, 54.0973, -13.8274, 92.3552, -72.2911, 39.939
5.276, 16, 34.9211, 54.1087, -13.7877, 92.3132, -72.3588, 39.9341
5.28, 16, 34.9009, 54.1201, -13.743, 92.265, -72.441, 39.9284
5.284, 16, 34.8799, 54.1314, -13.693, 92.2099, -72.5389, 39.9218
5.288, 16, 34.8583, 54.1423, -13.6374, 92.1473, -72.6531, 39.9141
5.292, 18, 34.8364, 54.1529, -13.5759, 92.0769, -72.784, 39.9054
5.296, 18, 34.8141, 54.1632, -13.5084, 91.9985, -72.9313, 39.8956
5.3, 18, 34.7914, 54.1733, -13.4349, 91.9125, -73.0943, 39.8848
5.304, 18, 34.768, 54.1835, -13.3556, 91.8191, -73.2718, 39.873
5.308, 18, 34.7441, 54.1938, -13.2706, 91.7191, -73.4624, 39.8604
5.312, 18, 34.7198, 54.2043, -13.1807, 91.6134, -73.6645, 39.8471
5.316, 18, 34.6953, 54.2145, -13.0863, 91.5029, -73.8758, 39.8332
5.32, 18, 34.6708, 54.2245, -12.9885, 91.3887, -74.0944, 39.8187
5.324, 18, 34.6464, 54.2342, -12.8883, 91.272, -74.3177, 39.804
5.328, 18, 34.6219, 54.2438, -12.787, 91.1541, -74.5434, 39.7891
5.332, 18, 34.5973, 54.2534, -12.6856, 91.0364, -74.769, 39.7742
5.336, 18, 34.5722, 54.2635, -12.5853, 90.92, -74.9919, 39.7595
5.34, 18, 34.5467, 54.2743, -12.4873, 90.8063, -75.2097, 39.7452
5.344, 18, 34.5211, 54.2856, -12.3924, 90.6964, -75.4204, 39.7313
5.348, 18, 34.4955, 54.2975, -12.3016, 90.5912, -75.6219, 39.718
5.352, 18, 34.4704, 54.3097, -12.2157, 90.4918, -75.8125, 39.7054
5.356, 18, 34.4459, 54.322, -12.1352, 90.3987, -75.9908, 39.6936
5.36, 18, 34.4222, 54.3341, -12.0607, 90.3126, -76.1557, 39.6828
5.364, 18, 34.3992, 54.3459, -11.9924, 90.234, -76.3063, 39.673
5.368, 18, 34.3769, 54.3573, -11.9304, 90.163, -76.4419, 39.6642
5.372, 18, 34.3555, 54.3682, -11.8747, 90.0996, -76.5624, 39.6567
5.376, 18, 34.3349, 54.3785, -11.825, 90.0437, -76.6676, 39.6506
5.38, 18, 34.3154, 54.388, -11.781, 89.9949, -76.7579, 39.646
5.384, 18, 34.2971, 54.3967, -11.742, 89.9526, -76.8339, 39.6429
5.388, 18, 34.28, 54.4045, -11.7075, 89.9164, -76.8962, 39.6416
5.392, 18, 34.264, 54.4113, -11.6769, 89.8856, -76.946, 39.642
5.396, 18, 34.2489, 54.4171, -11.6494, 89.8593, -76.9844, 39.6442
5.4, 18, 34.2346, 54.422, -11.6243, 89.8369, -77.0127, 39.648
5.404, 18, 34.2209, 54.426, -11.6012, 89.8176, -77.0324, 39.6534
5.408, 18, 34.2078, 54.429, -11.5793, 89.8007, -77.0449, 39.6603
5.412, 18, 34.1952, 54.4311, -11.5581, 89.7855, -77.0519, 39.6685
5.416, 18, 34.1831, 54.4324, -11.5371, 89.7714, -77.0549, 39.6777
5.42, 18, 34.1712, 54.4328, -11.5158, 89.7576, -77.0555, 39.6878
5.424, 18, 34.1593, 54.4321, -11.4938, 89.7436, -77.0553, 39.6986
5.428, 18, 34.147, 54.4305, -11.4704, 89.7287, -77.056, 39.7098
5.432, 18, 34.1341, 54.4278, -11.445, 89.7123, -77.0591, 39.7213
5.436, 18, 34.1203, 54.4243, -11.4168, 89.6936, -77.066, 39.7331
5.44, 18, 34.1053, 54.42, -11.3851, 89.6718, -77.0782, 39.7451
5.444, 18, 34.0891, 54.4148, -11.3489, 89.6461, -77.097, 39.7574
5.448, 18, 34.0715, 54.4088, -11.3073, 89.6157, -77.1236, 39.7701
5.452, 18, 34.0523, 54.4019, -11.2596, 89.5799, -77.1589, 39.7834
5.456, 18, 34.0316, 54.394, -11.2051, 89.5378, -77.204, 39.7976
5.46, 18, 34.0096, 54.3848, -11.1431, 89.4888, -77.2594, 39.8129
5.464, 18, 33.9863, 54.3742, -11.0732, 89.4322, -77.3258, 39.8295
5.468, 18, 33.9618, 54.3622, -10.9951, 89.3676, -77.4033, 39.8477
5.472, 18, 33.936, 54.3488, -10.9085, 89.2948, -77.492, 39.8676
5.476, 18, 33.9089, 54.3341, -10.8131, 89.2137, -77.5917, 39.8894
5.48, 18, 33.8805, 54.3181, -10.7087, 89.1245, -77.702, 39.9131
5.484, 18, 33.8505, 54.3008, -10.5956, 89.0275, -77.8225, 39.9387
5.488, 18, 33.8192, 54.2822, -10.4739, 88.9231, -77.9523, 39.9661
5.492, 18, 33.7867, 54.2624, -10.3443, 88.812, -78.0907, 39.9952
5.496, 18, 33.7536, 54.2413, -10.2075, 88.6949, -78.2366, 40.0257
5.5, 18, 33.7201, 54.2192, -10.0647, 88.5727, -78.3889, 40.0576
5.504, 18, 33.6863, 54.1962, -9.91704, 88.4464, -78.5464, 40.0906
5.508, 20, 33.6522, 54.1726, -9.7658, 88.3171, -78.7076, 40.1243
5.512, 20, 33.6176, 54.1485, -9.61236, 88.186, -78.8711, 40.1584
5.516, 20, 33.5826, 54.1243, -9.45807, 88.0542, -79.0355, 40.1928
5.52, 20, 33.5471, 54.1001, -9.30427, 87.9229, -79.1994, 40.227
5.524, 20, 33.5111, 54.0763, -9.15228, 87.7931, -79.3613, 40.2608
5.528, 20, 33.4752, 54.0531, -9.0033, 87.6659, -79.52, 40.2939
5.532, 20, 33.4395, 54.0306, -8.85849, 87.5424, -79.6742, 40.3261
5.536, 20, 33.4045, 54.0093, -8.7189, 87.4233, -79.8228, 40.3571
5.54, 20, 33.3704, 53.9892, -8.58547, 87.3095, -79.9648, 40.3867
5.544, 20, 33.3375, 53.9706, -8.45902, 87.2017, -80.0993, 40.4148
5.548, 20, 33.3057, 53.9536, -8.34024, 87.1006, -80.2256, 40.4411
5.552, 20, 33.2752, 53.9381, -8.22966, 87.0065, -80.343, 40.4656
5.556, 20, 33.2459, 53.9242, -8.12765, 86.9199, -80.4512, 40.4882
5.56, 20, 33.2181, 53.9115, -8.03439, 86.8409, -80.5499, 40.5089
5.564, 20, 33.1918, 53.8999, -7.94989, 86.7695, -80.6388, 40.5277
5.568, 20, 33.1671, 53.8892, -7.87398, 86.7058, -80.7181, 40.5449
5.572, 20, 33.1439, 53.8793, -7.80633, 86.6495, -80.7878, 40.5607
5.576, 20, 33.1225, 53.8702, -7.74649, 86.6003, -80.848, 40.5753
5.58, 20, 33.1028, 53.8617, -7.69388, 86.5579, -80.899, 40.5892
5.584, 20, 33.0846, 53.854, -7.64784, 86.5219, -80.9412, 40.6027
5.588, 20, 33.0678, 53.8471, -7.60766, 86.4917, -80.9749, 40.6162
5.592, 20, 33.0519, 53.841, -7.57255, 86.4669, -81.0007, 40.63
5.596, 20, 33.0368, 53.8357, -7.54173, 86.4467, -81.0195, 40.6443
5.6, 20, 33.0221, 53.8309, -7.51436, 86.4305, -81.032, 40.6593
5.604, 20, 33.0077, 53.8266, -7.48961, 86.4174, -81.0392, 40.6752
5.608, 20, 32.9935, 53.8223, -7.46662, 86.4068, -81.0422, 40.692
5.612, 20, 32.9794, 53.8179, -7.44453, 86.3976, -81.0423, 40.7098
5.616, 20, 32.9654, 53.8129, -7.42245, 86.3891, -81.0405, 40.7285
5.62, 20, 32.9514, 53.8068, -7.39947, 86.3803, -81.0382, 40.7481
5.624, 20, 32.9372, 53.7996, -7.37468, 86.3702, -81.0367, 40.7688
5.628, 20, 32.9224, 53.791, -7.34708, 86.358, -81.0371, 40.7904
5.632, 20, 32.9068, 53.7808, -7.31568, 86.3428, -81.0407, 40.8132
5.636, 20, 32.89, 53.7689, -7.27945, 86.3235, -81.0483, 40.8373
5.64, 20, 32.8719, 53.7549, -7.23738, 86.2995, -81.061, 40.863
5.644, 20, 32.8523, 53.7388, -7.1885, 86.2699, -81.0796, 40.8907
5.648, 20, 32.8312, 53.7203, -7.13194, 86.2339, -81.1046, 40.9209
5.652, 20, 32.8083, 53.6994, -7.06693, 86.191, -81.1365, 40.9538
5.656, 20, 32.7839, 53.6759, -6.99281, 86.1407, -81.1757, 40.9902
5.66, 20, 32.7577, 53.65, -6.90899, 86.0825, -81.2222, 41.0303
5.664, 20, 32.7297, 53.6216, -6.81504, 86.0164, -81.2761, 41.0745
5.668, 20, 32.6999, 53.5908, -6.71065, 85.9421, -81.3372, 41.1233
5.672, 20, 32.668, 53.5575, -6.59566, 85.8597, -81.4055, 41.1767
5.676, 22, 32.6343, 53.5217, -6.47009, 85.7694, -81.4806, 41.2347
5.68, 22, 32.5986, 53.4834, -6.33418, 85.6714, -81.5623, 41.2975
5.684, 22, 32.5614, 53.4426, -6.1884, 85.5661, -81.6501, 41.3646
5.688, 22, 32.5227, 53.3994, -6.03344, 85.4541, -81.7437, 41.4359
5.692, 22, 32.483, 53.3541, -5.87019, 85.336, -81.8423, 41.5111
5.696, 22, 32.4426, 53.3069, -5.69971, 85.2126, -81.9455, 41.5895
5.7, 22, 32.4015, 53.2581, -5.52322, 85.0847, -82.0523, 41.6708
5.704, 22, 32.3597, 53.2081, -5.34201, 84.9534, -82.162, 41.7542
5.708, 22, 32.3172, 53.1572, -5.15745, 84.8196, -82.2738, 41.8391
5.712, 22, 32.2741, 53.1059, -4.97096, 84.6845, -82.3868, 41.9249
5.716, 22, 32.2304, 53.0544, -4.78394, 84.5489, -82.5001, 42.0109
5.72, 22, 32.1863, 53.0033, -4.59776, 84.414, -82.6129, 42.0966
5.724, 22, 32.142, 52.9527, -4.41375, 84.2806, -82.7244, 42.1812
5.728, 22, 32.0977, 52.9032, -4.23314, 84.1498, -82.8339, 42.2643
5.732, 22, 32.0538, 52.8549, -4.05709, 84.0223, -82.9405, 42.3452
5.736, 22, 32.0105, 52.8082, -3.88663, 83.8989, -83.0437, 42.4235
5.74, 22, 31.9681, 52.7633, -3.72267, 83.7803, -83.1429, 42.4988
5.744, 22, 31.9267, 52.7205, -3.56599, 83.6671, -83.2377, 42.5706
5.748, 22, 31.8869, 52.6797, -3.41723, 83.5597, -83.3276, 42.6388
5.752, 22, 31.8488, 52.6412, -3.27694, 83.4584, -83.4124, 42.7031
5.756, 22, 31.8127, 52.6049, -3.14552, 83.3636, -83.4917, 42.7635
5.76, 22, 31.7787, 52.5708, -3.02327, 83.2755, -83.5654, 42.8198
5.764, 22, 31.7469, 52.5388, -2.91041, 83.1944, -83.6331, 42.8722
5.768, 22, 31.7172, 52.509, -2.80703, 83.1203, -83.6947, 42.9211
5.772, 22, 31.6895, 52.4814, -2.71313, 83.0534, -83.75, 42.9667
5.776, 22, 31.6638, 52.4561, -2.62857, 82.9937, -83.7987, 43.0095
5.78, 22, 31.64, 52.4329, -2.55313, 82.9411, -83.8409, 43.0501
5.784, 22, 31.6179, 52.4119, -2.48644, 82.8956, -83.8764, 43.0891
5.788, 22, 31.5973, 52.3929, -2.42801, 82.8567, -83.9055, 43.1271
5.792, 22, 31.5781, 52.3759, -2.37721, 82.8242, -83.9283, 43.1646
5.796, 22, 31.5599, 52.3608, -2.3333, 82.7975, -83.9452, 43.2021
5.8, 22, 31.5422, 52.3475, -2.2954, 82.7759, -83.9568, 43.2402
5.804, 22, 31.5248, 52.3358, -2.2625, 82.7588, -83.9636, 43.2791
5.808, 22, 31.5075, 52.3255, -2.23351, 82.7451, -83.9665, 43.3191
5.812, 22, 31.4901, 52.3161, -2.20722, 82.7338, -83.9665, 43.3605
5.816, 22, 31.4726, 52.3073, -2.18237, 82.7237, -83.9648, 43.4031
5.82, 22, 31.455, 52.2984, -2.15761, 82.7135, -83.9625, 43.4471
5.824, 22, 31.4375, 52.2889, -2.13156, 82.702, -83.9607, 43.4925
5.828, 22, 31.4197, 52.2784, -2.10279, 82.6878, -83.9608, 43.5395
5.832, 22, 31.4015, 52.2668, -2.06988, 82.6698, -83.9637, 43.5883
5.836, 22, 31.3825, 52.2536, -2.03152, 82.6468, -83.9704, 43.6393
5.84, 22, 31.3624, 52.2386, -1.98655, 82.6178, -83.9817, 43.693
5.844, 22, 31.3408, 52.2216, -1.93401, 82.5818, -83.9983, 43.7499
5.848, 22, 31.3177, 52.2022, -1.8731, 82.538, -84.0209, 43.8107
5.852, 22, 31.293, 52.1801, -1.8032, 82.4857, -84.0498, 43.8762
5.856, 22, 31.2666, 52.1554, -1.72382, 82.4244, -84.0852, 43.947
5.86, 22, 31.2385, 52.1279, -1.63456, 82.3538, -84.1273, 44.0239
5.864, 22, 31.2087, 52.0978, -1.53509, 82.2739, -84.1758, 44.1075
5.868, 22, 31.1769, 52.065, -1.42523, 82.1846, -84.2308, 44.1983
5.872, 22, 31.1432, 52.0299, -1.30492, 82.0862, -84.2918, 44.2964
5.876, 22, 31.1075, 51.9923, -1.17437, 81.9792, -84.3585, 44.402
5.88, 22, 31.0698, 51.9525, -1.03401, 81.8639, -84.4305, 44.5149
5.884, 22, 31.0303, 51.9105, -0.884488, 81.7411, -84.5073, 44.6346
5.888, 22, 30.9895, 51.8664, -0.726689, 81.6115, -84.5885, 44.7606
5.892, 24, 30.9477, 51.8205, -0.561652, 81.4759, -84.6735, 44.8922
5.896, 24, 30.9052, 51.773, -0.390551, 81.3353, -84.7617, 45.0285
5.9, 24, 30.8621, 51.7244, -0.214654, 81.1906, -84.8523, 45.1686
5.904, 24, 30.8184, 51.6748, -0.0352872, 81.0431, -84.9449, 45.3114
5.908, 24, 30.7742, 51.6248, 0.146188, 80.8938, -85.0385, 45.4558
5.912, 24, 30.7293, 51.5746, 0.328406, 80.744, -85.1325, 45.6008
5.916, 24, 30.6839, 51.5245, 0.510019, 80.5947, -85.2262, 45.7452
5.92, 24, 30.6382, 51.4751, 0.689732, 80.447, -85.3188, 45.888
5.924, 24, 30.5926, 51.4265, 0.866316, 80.3019, -85.4099, 46.0284
5.928, 24, 30.5475, 51.3791, 1.03863, 80.1603, -85.4987, 46.1653
5.932, 24, 30.5032, 51.3332, 1.20563, 80.0232, -85.5848, 46.2979
5.936, 24, 30.46, 51.289, 1.36637, 79.8913, -85.6676, 46.4254
5.94, 24, 30.418, 51.2468, 1.52004, 79.7653, -85.7467, 46.5473
5.944, 24, 30.3776, 51.2068, 1.66591, 79.6457, -85.8218, 46.6628
5.948, 24, 30.3389, 51.1691, 1.80341, 79.5332, -85.8925, 46.7717
5.952, 24, 30.3019, 51.134, 1.93205, 79.4279, -85.9587, 46.8734
5.956, 24, 30.2669, 51.1016, 2.0515, 79.3302, -86.0201, 46.9677
5.96, 24, 30.2338, 51.0721, 2.16152, 79.2402, -86.0768, 47.0543
5.964, 24, 30.2028, 51.0455, 2.26199, 79.1579, -86.1288, 47.1329
5.968, 24, 30.1739, 51.0218, 2.35292, 79.0831, -86.1762, 47.2034
5.972, 24, 30.1472, 51.0009, 2.43442, 79.0158, -86.2193, 47.2656
5.976, 24, 30.1225, 50.9828, 2.5067, 78.9555, -86.2583, 47.3193
5.98, 24, 30.0999, 50.9673, 2.57007, 78.9019, -86.2936, 47.3645
5.984, 24, 30.0792, 50.9541, 2.62493, 78.8546, -86.3255, 47.4012
5.988, 24, 30.0602, 50.9432, 2.67182, 78.8131, -86.3543, 47.4298
5.992, 24, 30.0425, 50.9343, 2.71138, 78.7769, -86.3806, 47.4506
5.996, 24, 30.0259, 50.927, 2.74438, 78.7453, -86.4046, 47.4643
6, 24, 30.0099, 50.921, 2.77169, 78.7176, -86.4266, 47.4715
6.004, 24, 29.9945, 50.9158, 2.79431, 78.6931, -86.4471, 47.4733
6.008, 24, 29.9793, 50.9109, 2.81337, 78.6711, -86.4663, 47.4709
6.012, 24, 29.9642, 50.9059, 2.83006, 78.6508, -86.4846, 47.4656
6.016, 24, 29.949, 50.9007, 2.84563, 78.6313, -86.502, 47.4589
6.02, 24, 29.9337, 50.8949, 2.86141, 78.6119, -86.519, 47.4524
6.024, 24, 29.9182, 50.8883, 2.87871, 78.5917, -86.5355, 47.4477
6.028, 24, 29.9021, 50.8808, 2.89888, 78.5698, -86.552, 47.4462
6.032, 24, 29.8851, 50.8719, 2.92322, 78.5453, -86.5687, 47.4493
6.036, 24, 29.867, 50.8612, 2.95301, 78.5174, -86.5857, 47.4583
6.04, 24, 29.8475, 50.8483, 2.98942, 78.4853, -86.6036, 47.4743
6.044, 24, 29.8262, 50.8328, 3.03351, 78.4481, -86.6225, 47.498
