hehonglu123/Motion-Primitive-Planning/simulation/robotstudio_sim/scripts/fitting_output/movej/curve_exe_v500_fine.csv
timestamp, cmd_num, J1, J2, J3, J4, J5, J6
0, 1, -1.13838, 64.0129, 9.40939, 42.9264, -96.1219, 171.423
0.003, 1, -1.13838, 64.0129, 9.40939, 42.9264, -96.1219, 171.423
0.006, 1, -1.13838, 64.0129, 9.40939, 42.9264, -96.1219, 171.423
0.008, 1, -1.13838, 64.0129, 9.40939, 42.9264, -96.1219, 171.423
0.011, 1, -1.13838, 64.0129, 9.40939, 42.9264, -96.1219, 171.423
0.016, 1, -1.13838, 64.0129, 9.40939, 42.9264, -96.1219, 171.423
0.02, 1, -1.13838, 64.0129, 9.40939, 42.9264, -96.1219, 171.423
0.024, 1, -1.13838, 64.0129, 9.40939, 42.9264, -96.1219, 171.423
0.028, 1, -1.13838, 64.0129, 9.40939, 42.9264, -96.1219, 171.423
0.032, 1, -1.13837, 64.0129, 9.40939, 42.9264, -96.1219, 171.423
0.036, 1, -1.13831, 64.0128, 9.40939, 42.9264, -96.1219, 171.423
0.04, 1, -1.13809, 64.0128, 9.4094, 42.9264, -96.1219, 171.423
0.044, 1, -1.13756, 64.0126, 9.40941, 42.9264, -96.1219, 171.423
0.048, 1, -1.1366, 64.0124, 9.40944, 42.9264, -96.1219, 171.423
0.052, 1, -1.13507, 64.0119, 9.40947, 42.9266, -96.1218, 171.422
0.056, 1, -1.13292, 64.0111, 9.40948, 42.9268, -96.1216, 171.422
0.06, 1, -1.1301, 64.01, 9.40943, 42.9273, -96.1212, 171.421
0.064, 1, -1.12656, 64.0086, 9.40928, 42.9281, -96.1206, 171.419
0.068, 1, -1.12225, 64.0068, 9.40896, 42.9294, -96.1195, 171.416
0.072, 1, -1.11709, 64.0044, 9.40838, 42.9314, -96.1178, 171.411
0.076, 1, -1.11091, 64.0015, 9.40745, 42.9344, -96.1154, 171.404
0.08, 1, -1.10351, 63.998, 9.40606, 42.9386, -96.1119, 171.394
0.084, 1, -1.09469, 63.9938, 9.40406, 42.9443, -96.1072, 171.381
0.088, 1, -1.08429, 63.9887, 9.4013, 42.9519, -96.101, 171.363
0.092, 1, -1.07219, 63.9828, 9.39761, 42.9617, -96.0929, 171.341
0.096, 1, -1.05833, 63.9761, 9.39282, 42.9741, -96.0827, 171.312
0.1, 1, -1.04258, 63.9685, 9.38673, 42.9895, -96.0699, 171.276
0.104, 1, -1.02482, 63.9598, 9.37918, 43.0083, -96.0543, 171.233
0.108, 1, -1.00492, 63.9502, 9.37, 43.0309, -96.0357, 171.181
0.112, 1, -0.98278, 63.9396, 9.35905, 43.0575, -96.0136, 171.119
0.116, 1, -0.95839, 63.9281, 9.34618, 43.0885, -95.988, 171.048
0.12, 1, -0.931766, 63.9158, 9.33128, 43.1241, -95.9585, 170.966
0.124, 1, -0.90295, 63.9029, 9.31425, 43.1645, -95.925, 170.873
0.128, 1, -0.871989, 63.8894, 9.29506, 43.2097, -95.8876, 170.769
0.131, 1, -0.838921, 63.8753, 9.27368, 43.2598, -95.846, 170.653
0.136, 1, -0.803752, 63.8607, 9.25015, 43.3147, -95.8005, 170.527
0.139, 1, -0.766449, 63.8453, 9.22456, 43.3743, -95.7511, 170.39
0.144, 1, -0.726979, 63.8291, 9.19701, 43.4383, -95.6981, 170.243
0.148, 1, -0.685361, 63.8119, 9.16766, 43.5064, -95.6416, 170.086
0.152, 1, -0.641687, 63.7939, 9.13664, 43.5782, -95.582, 169.921
0.156, 1, -0.59609, 63.7749, 9.10415, 43.6535, -95.5196, 169.748
0.16, 1, -0.548688, 63.755, 9.07035, 43.7317, -95.4548, 169.568
0.164, 1, -0.499565, 63.7344, 9.03546, 43.8126, -95.3877, 169.382
0.168, 1, -0.448793, 63.7129, 8.99965, 43.8956, -95.3189, 169.191
0.172, 1, -0.396475, 63.6905, 8.96313, 43.9804, -95.2486, 168.996
0.176, 1, -0.342746, 63.6675, 8.92605, 44.0666, -95.1771, 168.797
0.18, 1, -0.287749, 63.6437, 8.88855, 44.1539, -95.1047, 168.596
0.184, 1, -0.231626, 63.6194, 8.85075, 44.242, -95.0316, 168.394
0.188, 1, -0.174527, 63.5945, 8.81275, 44.3308, -94.9581, 168.189
0.192, 1, -0.116606, 63.5692, 8.7746, 44.42, -94.8841, 167.984
0.196, 1, -0.0579902, 63.5435, 8.73635, 44.5096, -94.8099, 167.778
0.2, 1, 0.00122985, 63.5176, 8.69805, 44.5993, -94.7355, 167.571
0.204, 1, 0.0609734, 63.4915, 8.65973, 44.6892, -94.661, 167.364
0.208, 1, 0.121142, 63.4652, 8.62139, 44.7791, -94.5865, 167.157
0.212, 1, 0.181621, 63.4389, 8.58305, 44.8691, -94.5119, 166.95
0.216, 1, 0.242309, 63.4125, 8.54472, 44.959, -94.4373, 166.743
0.22, 1, 0.303127, 63.386, 8.5064, 45.049, -94.3628, 166.536
0.224, 1, 0.364022, 63.3595, 8.46809, 45.139, -94.2882, 166.329
0.228, 1, 0.424959, 63.3331, 8.4298, 45.2289, -94.2137, 166.122
0.232, 1, 0.485914, 63.3066, 8.39153, 45.3187, -94.1392, 165.915
0.236, 1, 0.546868, 63.2801, 8.35328, 45.4086, -94.0648, 165.708
0.24, 1, 0.607813, 63.2536, 8.31505, 45.4984, -93.9904, 165.501
0.244, 1, 0.668738, 63.2271, 8.27685, 45.5881, -93.916, 165.295
0.248, 1, 0.72964, 63.2007, 8.23866, 45.6778, -93.8417, 165.088
0.252, 1, 0.790515, 63.1742, 8.20049, 45.7674, -93.7674, 164.882
0.256, 1, 0.85136, 63.1478, 8.16234, 45.857, -93.6931, 164.676
0.26, 1, 0.912174, 63.1214, 8.12422, 45.9466, -93.6189, 164.469
0.264, 1, 0.972954, 63.095, 8.08612, 46.036, -93.5447, 164.263
0.268, 1, 1.0337, 63.0686, 8.04804, 46.1255, -93.4706, 164.057
0.272, 1, 1.09441, 63.0422, 8.00998, 46.2149, -93.3965, 163.852
0.276, 1, 1.15509, 63.0159, 7.97194, 46.3042, -93.3225, 163.646
0.28, 1, 1.21574, 62.9895, 7.93393, 46.3935, -93.2485, 163.44
0.284, 1, 1.27635, 62.9632, 7.89594, 46.4827, -93.1745, 163.235
0.288, 1, 1.33692, 62.9369, 7.85797, 46.5719, -93.1006, 163.03
0.292, 1, 1.39746, 62.9106, 7.82002, 46.661, -93.0268, 162.824
0.296, 1, 1.45796, 62.8843, 7.7821, 46.7501, -92.9529, 162.619
0.3, 1, 1.51842, 62.858, 7.7442, 46.8391, -92.8792, 162.414
0.304, 1, 1.57885, 62.8318, 7.70632, 46.9281, -92.8054, 162.21
0.308, 1, 1.63924, 62.8055, 7.66846, 47.017, -92.7317, 162.005
0.312, 1, 1.6996, 62.7793, 7.63063, 47.1058, -92.6581, 161.8
0.316, 1, 1.75992, 62.7531, 7.59282, 47.1946, -92.5845, 161.596
0.32, 1, 1.8202, 62.7269, 7.55503, 47.2834, -92.5109, 161.391
0.324, 1, 1.88045, 62.7008, 7.51727, 47.3721, -92.4374, 161.187
0.328, 1, 1.94066, 62.6746, 7.47953, 47.4607, -92.364, 160.983
0.332, 1, 2.00083, 62.6485, 7.44181, 47.5493, -92.2906, 160.779
0.336, 1, 2.06096, 62.6223, 7.40412, 47.6378, -92.2172, 160.575
0.34, 1, 2.12106, 62.5962, 7.36645, 47.7263, -92.1439, 160.372
0.344, 1, 2.18112, 62.5701, 7.3288, 47.8147, -92.0706, 160.168
0.348, 1, 2.24114, 62.5441, 7.29118, 47.9031, -91.9973, 159.965
0.352, 1, 2.30112, 62.518, 7.25358, 47.9914, -91.9241, 159.761
0.356, 1, 2.36107, 62.492, 7.216, 48.0797, -91.851, 159.558
0.36, 1, 2.42097, 62.466, 7.17845, 48.1679, -91.7779, 159.355
0.364, 1, 2.48084, 62.4399, 7.14092, 48.256, -91.7049, 159.152
0.368, 1, 2.54067, 62.414, 7.10342, 48.3441, -91.6319, 158.949
0.372, 1, 2.60046, 62.388, 7.06594, 48.4321, -91.5589, 158.747
0.376, 1, 2.66021, 62.362, 7.02848, 48.5201, -91.486, 158.544
0.38, 1, 2.71993, 62.3361, 6.99105, 48.608, -91.4131, 158.342
0.384, 1, 2.7796, 62.3102, 6.95365, 48.6959, -91.3403, 158.139
0.388, 1, 2.83924, 62.2843, 6.91626, 48.7837, -91.2675, 157.937
0.392, 1, 2.89884, 62.2584, 6.87891, 48.8714, -91.1948, 157.735
0.396, 1, 2.95839, 62.2325, 6.84157, 48.9591, -91.1222, 157.533
0.4, 1, 3.01791, 62.2066, 6.80427, 49.0467, -91.0495, 157.332
0.404, 1, 3.07739, 62.1808, 6.76698, 49.1343, -90.977, 157.13
0.408, 1, 3.13683, 62.155, 6.72972, 49.2218, -90.9044, 156.929
0.412, 1, 3.19623, 62.1292, 6.69249, 49.3092, -90.832, 156.727
0.416, 1, 3.25559, 62.1034, 6.65528, 49.3966, -90.7595, 156.526
0.42, 1, 3.31491, 62.0776, 6.6181, 49.4839, -90.6871, 156.325
0.424, 1, 3.37418, 62.0519, 6.58094, 49.5712, -90.6148, 156.124
0.428, 1, 3.43342, 62.0261, 6.54381, 49.6584, -90.5425, 155.923
0.432, 1, 3.49262, 62.0004, 6.5067, 49.7456, -90.4703, 155.723
0.436, 1, 3.55178, 61.9747, 6.46962, 49.8327, -90.3981, 155.522
0.44, 1, 3.61089, 61.949, 6.43256, 49.9197, -90.326, 155.322
0.444, 1, 3.66997, 61.9234, 6.39553, 50.0067, -90.2539, 155.121
0.448, 1, 3.72901, 61.8977, 6.35853, 50.0936, -90.1819, 154.921
0.452, 1, 3.788, 61.8721, 6.32155, 50.1804, -90.1099, 154.721
0.456, 1, 3.84695, 61.8465, 6.28459, 50.2672, -90.038, 154.522
0.46, 1, 3.90586, 61.8209, 6.24767, 50.354, -89.9661, 154.322
0.464, 1, 3.96473, 61.7953, 6.21077, 50.4406, -89.8943, 154.122
0.468, 1, 4.02356, 61.7698, 6.17389, 50.5272, -89.8225, 153.923
0.472, 1, 4.08235, 61.7442, 6.13704, 50.6138, -89.7507, 153.724
0.476, 1, 4.14109, 61.7187, 6.10022, 50.7003, -89.6791, 153.525
0.48, 1, 4.1998, 61.6932, 6.06342, 50.7867, -89.6074, 153.326
0.484, 1, 4.25846, 61.6677, 6.02665, 50.8731, -89.5359, 153.127
0.488, 1, 4.31708, 61.6423, 5.98991, 50.9594, -89.4643, 152.928
0.492, 1, 4.37565, 61.6168, 5.95319, 51.0456, -89.3929, 152.729
0.496, 1, 4.43419, 61.5914, 5.9165, 51.1318, -89.3214, 152.531
0.5, 1, 4.49268, 61.566, 5.87984, 51.2179, -89.2501, 152.333
0.504, 1, 4.55113, 61.5406, 5.8432, 51.3039, -89.1788, 152.135
0.508, 1, 4.60953, 61.5152, 5.80659, 51.3899, -89.1075, 151.937
0.512, 1, 4.6679, 61.4899, 5.77, 51.4758, -89.0363, 151.739
0.516, 1, 4.72622, 61.4645, 5.73345, 51.5617, -88.9651, 151.541
0.52, 1, 4.7845, 61.4392, 5.69692, 51.6475, -88.894, 151.344
0.524, 1, 4.84273, 61.4139, 5.66041, 51.7332, -88.823, 151.146
0.528, 1, 4.90093, 61.3887, 5.62394, 51.8189, -88.752, 150.949
0.532, 1, 4.95908, 61.3634, 5.58749, 51.9045, -88.681, 150.752
0.536, 1, 5.01718, 61.3382, 5.55107, 51.99, -88.6101, 150.555
0.54, 1, 5.07524, 61.3129, 5.51467, 52.0755, -88.5393, 150.358
0.544, 1, 5.13326, 61.2877, 5.47831, 52.1609, -88.4685, 150.162
0.548, 1, 5.19124, 61.2625, 5.44197, 52.2463, -88.3977, 149.965
0.552, 1, 5.24917, 61.2374, 5.40565, 52.3316, -88.3271, 149.769
0.556, 1, 5.30706, 61.2122, 5.36937, 52.4168, -88.2564, 149.572
0.56, 1, 5.3649, 61.1871, 5.33311, 52.502, -88.1859, 149.376
0.564, 1, 5.4227, 61.162, 5.29688, 52.587, -88.1153, 149.18
0.568, 1, 5.48045, 61.1369, 5.26068, 52.6721, -88.0449, 148.985
0.572, 1, 5.53816, 61.1118, 5.2245, 52.757, -87.9744, 148.789
0.576, 1, 5.59583, 61.0868, 5.18836, 52.8419, -87.9041, 148.594
0.58, 1, 5.65345, 61.0618, 5.15224, 52.9268, -87.8338, 148.398
0.584, 1, 5.71103, 61.0368, 5.11615, 53.0115, -87.7635, 148.203
0.588, 1, 5.76856, 61.0118, 5.08009, 53.0962, -87.6933, 148.008
0.592, 1, 5.82605, 60.9868, 5.04405, 53.1809, -87.6232, 147.813
0.596, 1, 5.88349, 60.9618, 5.00804, 53.2654, -87.5531, 147.619
0.6, 1, 5.94089, 60.9369, 4.97206, 53.3499, -87.4831, 147.424
0.604, 1, 5.99824, 60.912, 4.93611, 53.4344, -87.4131, 147.23
0.608, 1, 6.05555, 60.8871, 4.90019, 53.5187, -87.3432, 147.035
0.612, 1, 6.11282, 60.8622, 4.8643, 53.603, -87.2733, 146.841
0.616, 1, 6.17003, 60.8374, 4.82843, 53.6873, -87.2035, 146.647
0.62, 1, 6.22721, 60.8125, 4.7926, 53.7714, -87.1337, 146.454
0.624, 1, 6.28433, 60.7877, 4.75679, 53.8555, -87.064, 146.26
0.628, 1, 6.34142, 60.7629, 4.72101, 53.9396, -86.9944, 146.066
0.632, 1, 6.39845, 60.7381, 4.68526, 54.0235, -86.9248, 145.873
0.636, 1, 6.45544, 60.7134, 4.64953, 54.1074, -86.8552, 145.68
0.64, 1, 6.51239, 60.6886, 4.61384, 54.1913, -86.7858, 145.487
0.644, 1, 6.56929, 60.6639, 4.57818, 54.275, -86.7163, 145.294
0.648, 1, 6.62614, 60.6392, 4.54254, 54.3587, -86.647, 145.101
0.652, 1, 6.68295, 60.6146, 4.50693, 54.4424, -86.5777, 144.909
0.656, 1, 6.73971, 60.5899, 4.47135, 54.5259, -86.5084, 144.716
0.66, 1, 6.79642, 60.5653, 4.4358, 54.6094, -86.4392, 144.524
0.664, 1, 6.85309, 60.5406, 4.40028, 54.6929, -86.3701, 144.332
0.668, 1, 6.90971, 60.516, 4.36479, 54.7762, -86.301, 144.14
0.672, 1, 6.96629, 60.4915, 4.32933, 54.8595, -86.2319, 143.948
0.676, 1, 7.02282, 60.4669, 4.2939, 54.9427, -86.163, 143.757
0.68, 1, 7.0793, 60.4424, 4.25849, 55.0259, -86.094, 143.565
0.684, 1, 7.13574, 60.4179, 4.22312, 55.1089, -86.0252, 143.374
0.688, 1, 7.19213, 60.3934, 4.18777, 55.192, -85.9564, 143.183
0.692, 1, 7.24847, 60.3689, 4.15246, 55.2749, -85.8876, 142.992
0.696, 1, 7.30476, 60.3444, 4.11717, 55.3578, -85.819, 142.801
0.7, 1, 7.36101, 60.32, 4.08191, 55.4406, -85.7503, 142.611
0.704, 1, 7.41722, 60.2956, 4.04669, 55.5233, -85.6818, 142.42
0.708, 1, 7.47337, 60.2712, 4.01149, 55.606, -85.6133, 142.23
0.712, 1, 7.52948, 60.2468, 3.97632, 55.6886, -85.5448, 142.04
0.716, 1, 7.58554, 60.2225, 3.94118, 55.7711, -85.4764, 141.85
0.72, 1, 7.64155, 60.1981, 3.90607, 55.8536, -85.4081, 141.66
0.724, 1, 7.69752, 60.1738, 3.87099, 55.936, -85.3398, 141.47
0.728, 1, 7.75344, 60.1495, 3.83594, 56.0183, -85.2715, 141.28
0.732, 1, 7.80931, 60.1253, 3.80092, 56.1005, -85.2034, 141.091
0.736, 1, 7.86513, 60.101, 3.76593, 56.1827, -85.1353, 140.902
0.74, 1, 7.92091, 60.0768, 3.73097, 56.2648, -85.0672, 140.713
0.744, 1, 7.97663, 60.0526, 3.69604, 56.3469, -84.9992, 140.524
0.748, 1, 8.03232, 60.0284, 3.66114, 56.4288, -84.9313, 140.335
0.752, 1, 8.08795, 60.0042, 3.62627, 56.5107, -84.8634, 140.147
0.756, 1, 8.14354, 59.9801, 3.59143, 56.5926, -84.7956, 139.958
0.76, 1, 8.19907, 59.956, 3.55662, 56.6743, -84.7278, 139.77
0.764, 1, 8.25456, 59.9319, 3.52184, 56.756, -84.6601, 139.582
0.768, 1, 8.31001, 59.9078, 3.48709, 56.8376, -84.5925, 139.394
0.772, 1, 8.3654, 59.8837, 3.45237, 56.9192, -84.5249, 139.206
0.776, 1, 8.42074, 59.8597, 3.41768, 57.0007, -84.4574, 139.019
0.78, 1, 8.47604, 59.8357, 3.38302, 57.0821, -84.3899, 138.831
0.784, 1, 8.53129, 59.8117, 3.34839, 57.1634, -84.3225, 138.644
0.788, 1, 8.58649, 59.7877, 3.31379, 57.2447, -84.2551, 138.457
0.792, 1, 8.64165, 59.7637, 3.27922, 57.3258, -84.1878, 138.27
0.796, 1, 8.69675, 59.7398, 3.24468, 57.407, -84.1206, 138.083
0.8, 1, 8.75181, 59.7159, 3.21017, 57.488, -84.0534, 137.897
0.804, 1, 8.80682, 59.692, 3.17569, 57.569, -83.9863, 137.71
0.808, 1, 8.86178, 59.6681, 3.14124, 57.6499, -83.9193, 137.524
0.812, 1, 8.91669, 59.6443, 3.10683, 57.7307, -83.8523, 137.338
0.816, 1, 8.97156, 59.6204, 3.07244, 57.8115, -83.7853, 137.152
0.82, 1, 9.02637, 59.5966, 3.03808, 57.8922, -83.7185, 136.966
0.824, 1, 9.08114, 59.5728, 3.00375, 57.9728, -83.6516, 136.78
0.828, 1, 9.13586, 59.5491, 2.96946, 58.0534, -83.5849, 136.595
0.832, 1, 9.19053, 59.5253, 2.93519, 58.1339, -83.5182, 136.41
0.836, 1, 9.24515, 59.5016, 2.90096, 58.2143, -83.4515, 136.224
0.84, 1, 9.29972, 59.4779, 2.86675, 58.2946, -83.385, 136.04
0.844, 1, 9.35425, 59.4542, 2.83258, 58.3749, -83.3184, 135.855
0.848, 1, 9.40872, 59.4305, 2.79843, 58.4551, -83.252, 135.67
0.852, 1, 9.46315, 59.4069, 2.76432, 58.5352, -83.1856, 135.486
0.856, 1, 9.51753, 59.3833, 2.73024, 58.6152, -83.1192, 135.301
0.86, 1, 9.57186, 59.3597, 2.69618, 58.6952, -83.0529, 135.117
0.864, 1, 9.62614, 59.3361, 2.66216, 58.7751, -82.9867, 134.933
0.868, 1, 9.68037, 59.3125, 2.62817, 58.8549, -82.9205, 134.749
0.872, 1, 9.73455, 59.289, 2.59421, 58.9347, -82.8544, 134.566
0.876, 1, 9.78869, 59.2655, 2.56028, 59.0144, -82.7884, 134.382
0.88, 1, 9.84277, 59.242, 2.52638, 59.094, -82.7224, 134.199
0.884, 1, 9.89681, 59.2185, 2.49251, 59.1736, -82.6565, 134.016
0.888, 1, 9.9508, 59.1951, 2.45867, 59.253, -82.5906, 133.833
0.892, 1, 10.0047, 59.1716, 2.42487, 59.3324, -82.5248, 133.65
0.896, 1, 10.0586, 59.1482, 2.39109, 59.4118, -82.4591, 133.467
0.9, 1, 10.1125, 59.1248, 2.35734, 59.491, -82.3934, 133.285
0.904, 1, 10.1663, 59.1015, 2.32363, 59.5702, -82.3277, 133.103
0.908, 1, 10.22, 59.0781, 2.28994, 59.6493, -82.2622, 132.92
0.912, 1, 10.2737, 59.0548, 2.25629, 59.7284, -82.1967, 132.738
0.916, 1, 10.3273, 59.0315, 2.22267, 59.8073, -82.1312, 132.557
0.92, 1, 10.3809, 59.0082, 2.18907, 59.8862, -82.0658, 132.375
0.924, 1, 10.4345, 58.985, 2.15551, 59.9651, -82.0005, 132.193
0.928, 1, 10.488, 58.9617, 2.12198, 60.0438, -81.9352, 132.012
0.932, 1, 10.5414, 58.9385, 2.08848, 60.1225, -81.87, 131.831
0.936, 1, 10.5948, 58.9153, 2.05501, 60.2011, -81.8049, 131.65
0.94, 1, 10.6482, 58.8921, 2.02157, 60.2796, -81.7398, 131.469
0.944, 1, 10.7015, 58.869, 1.98817, 60.3581, -81.6748, 131.289
0.948, 1, 10.7547, 58.8459, 1.95479, 60.4365, -81.6098, 131.108
0.952, 1, 10.8079, 58.8227, 1.92144, 60.5148, -81.5449, 130.928
0.956, 1, 10.8611, 58.7997, 1.88813, 60.593, -81.48, 130.748
0.96, 1, 10.9142, 58.7766, 1.85485, 60.6712, -81.4152, 130.568
0.964, 1, 10.9673, 58.7535, 1.82159, 60.7493, -81.3505, 130.388
0.968, 1, 11.0203, 58.7305, 1.78837, 60.8274, -81.2858, 130.208
0.972, 1, 11.0732, 58.7075, 1.75518, 60.9053, -81.2212, 130.029
0.976, 1, 11.1261, 58.6845, 1.72202, 60.9832, -81.1567, 129.849
0.98, 1, 11.179, 58.6616, 1.68889, 61.061, -81.0922, 129.67
0.984, 1, 11.2318, 58.6386, 1.65579, 61.1387, -81.0278, 129.491
0.988, 1, 11.2846, 58.6157, 1.62272, 61.2164, -80.9634, 129.312
0.992, 1, 11.3373, 58.5928, 1.58968, 61.294, -80.8991, 129.134
0.996, 1, 11.3899, 58.57, 1.55668, 61.3715, -80.8348, 128.955
1, 1, 11.4425, 58.5471, 1.5237, 61.449, -80.7706, 128.777
1.004, 1, 11.4951, 58.5243, 1.49076, 61.5263, -80.7065, 128.599
1.008, 1, 11.5476, 58.5015, 1.45784, 61.6036, -80.6424, 128.421
1.012, 1, 11.6001, 58.4787, 1.42496, 61.6809, -80.5784, 128.243
1.016, 1, 11.6525, 58.4559, 1.39211, 61.758, -80.5145, 128.065
1.02, 1, 11.7049, 58.4332, 1.35929, 61.8351, -80.4506, 127.888
1.024, 1, 11.7572, 58.4104, 1.3265, 61.9121, -80.3868, 127.711
1.027, 1, 11.8095, 58.3877, 1.29374, 61.9891, -80.323, 127.533
1.032, 1, 11.8617, 58.365, 1.26101, 62.0659, -80.2593, 127.356
1.036, 1, 11.9138, 58.3424, 1.22831, 62.1427, -80.1957, 127.18
1.04, 1, 11.966, 58.3197, 1.19564, 62.2195, -80.1321, 127.003
1.044, 1, 12.018, 58.2971, 1.16301, 62.2961, -80.0685, 126.827
1.048, 1, 12.0701, 58.2745, 1.1304, 62.3727, -80.0051, 126.65
1.052, 1, 12.122, 58.252, 1.09783, 62.4492, -79.9417, 126.474
1.055, 1, 12.174, 58.2294, 1.06529, 62.5256, -79.8783, 126.298
1.06, 1, 12.2258, 58.2069, 1.03277, 62.602, -79.815, 126.122
1.064, 1, 12.2777, 58.1844, 1.00029, 62.6783, -79.7518, 125.947
1.068, 1, 12.3294, 58.1619, 0.967841, 62.7545, -79.6886, 125.771
1.072, 1, 12.3812, 58.1394, 0.935421, 62.8306, -79.6255, 125.596
1.076, 1, 12.4329, 58.117, 0.903032, 62.9067, -79.5625, 125.421
1.08, 1, 12.4845, 58.0945, 0.870673, 62.9827, -79.4995, 125.246
1.084, 1, 12.5361, 58.0721, 0.838345, 63.0586, -79.4366, 125.071
1.088, 1, 12.5876, 58.0497, 0.806048, 63.1345, -79.3737, 124.896
1.091, 1, 12.6391, 58.0274, 0.773782, 63.2103, -79.3109, 124.722
1.096, 1, 12.6905, 58.005, 0.741546, 63.286, -79.2481, 124.547
1.1, 1, 12.7419, 57.9827, 0.709341, 63.3616, -79.1854, 124.373
1.104, 1, 12.7932, 57.9604, 0.677167, 63.4372, -79.1228, 124.199
1.108, 1, 12.8445, 57.9381, 0.645023, 63.5127, -79.0602, 124.025
1.112, 1, 12.8958, 57.9159, 0.61291, 63.5881, -78.9977, 123.852
1.116, 1, 12.947, 57.8936, 0.580828, 63.6635, -78.9353, 123.678
1.119, 1, 12.9981, 57.8714, 0.548776, 63.7387, -78.8729, 123.505
1.124, 1, 13.0492, 57.8492, 0.516755, 63.814, -78.8106, 123.332
1.128, 1, 13.1002, 57.8271, 0.484764, 63.8891, -78.7483, 123.159
1.132, 1, 13.1512, 57.8049, 0.452804, 63.9642, -78.6861, 122.986
1.136, 1, 13.2022, 57.7828, 0.420874, 64.0391, -78.6239, 122.813
1.14, 1, 13.2531, 57.7607, 0.388975, 64.1141, -78.5618, 122.641
1.144, 1, 13.3039, 57.7386, 0.357106, 64.1889, -78.4998, 122.469
1.147, 1, 13.3547, 57.7165, 0.325267, 64.2637, -78.4378, 122.296
1.152, 1, 13.4055, 57.6945, 0.293459, 64.3384, -78.3759, 122.124
1.156, 1, 13.4562, 57.6725, 0.261682, 64.413, -78.314, 121.953
1.16, 1, 13.5068, 57.6505, 0.229935, 64.4876, -78.2523, 121.781
1.164, 1, 13.5575, 57.6285, 0.198218, 64.5621, -78.1905, 121.609
1.168, 1, 13.608, 57.6065, 0.166531, 64.6365, -78.1288, 121.438
1.172, 1, 13.6585, 57.5846, 0.134875, 64.7109, -78.0672, 121.267
1.175, 1, 13.709, 57.5627, 0.103249, 64.7851, -78.0057, 121.096
1.18, 1, 13.7594, 57.5408, 0.071653, 64.8594, -77.9442, 120.925
1.184, 1, 13.8098, 57.5189, 0.0400875, 64.9335, -77.8827, 120.754
1.188, 1, 13.8601, 57.497, 0.00855222, 65.0076, -77.8213, 120.584
1.192, 1, 13.9104, 57.4752, -0.0229529, 65.0816, -77.76, 120.413
1.196, 1, 13.9606, 57.4534, -0.0544278, 65.1555, -77.6987, 120.243
1.2, 1, 14.0108, 57.4316, -0.0858726, 65.2293, -77.6375, 120.073
1.204, 1, 14.0609, 57.4098, -0.117287, 65.3031, -77.5764, 119.903
1.208, 1, 14.111, 57.3881, -0.148672, 65.3768, -77.5153, 119.734
1.212, 1, 14.161, 57.3663, -0.180026, 65.4505, -77.4542, 119.564
1.216, 1, 14.211, 57.3446, -0.211351, 65.524, -77.3933, 119.395
1.22, 1, 14.2609, 57.3229, -0.242645, 65.5975, -77.3323, 119.225
1.224, 1, 14.3108, 57.3013, -0.27391, 65.671, -77.2715, 119.056
1.228, 1, 14.3606, 57.2796, -0.305144, 65.7443, -77.2107, 118.887
1.232, 1, 14.4104, 57.258, -0.336349, 65.8176, -77.1499, 118.719
1.236, 1, 14.4602, 57.2364, -0.367524, 65.8908, -77.0893, 118.55
1.24, 1, 14.5099, 57.2148, -0.398668, 65.964, -77.0286, 118.382
1.244, 1, 14.5595, 57.1932, -0.429783, 66.0371, -76.9681, 118.213
1.248, 1, 14.6091, 57.1717, -0.460868, 66.1101, -76.9076, 118.045
1.252, 1, 14.6587, 57.1502, -0.491924, 66.183, -76.8471, 117.877
1.256, 1, 14.7082, 57.1287, -0.522949, 66.2559, -76.7867, 117.71
1.26, 1, 14.7576, 57.1072, -0.553945, 66.3287, -76.7264, 117.542
1.264, 1, 14.807, 57.0857, -0.584911, 66.4014, -76.6661, 117.375
1.267, 1, 14.8564, 57.0643, -0.615847, 66.4741, -76.6059, 117.207
1.272, 1, 14.9057, 57.0429, -0.646753, 66.5467, -76.5457, 117.04
1.276, 1, 14.955, 57.0215, -0.67763, 66.6192, -76.4856, 116.873
1.28, 1, 15.0042, 57.0001, -0.708478, 66.6916, -76.4256, 116.706
1.284, 1, 15.0534, 56.9787, -0.739295, 66.764, -76.3656, 116.54
1.288, 1, 15.1025, 56.9574, -0.770083, 66.8363, -76.3057, 116.373
1.292, 1, 15.1516, 56.9361, -0.800842, 66.9086, -76.2458, 116.207
1.295, 1, 15.2006, 56.9148, -0.831571, 66.9807, -76.186, 116.041
1.3, 1, 15.2496, 56.8935, -0.862271, 67.0528, -76.1262, 115.875
1.304, 1, 15.2985, 56.8722, -0.892941, 67.1249, -76.0665, 115.709
1.308, 1, 15.3474, 56.851, -0.923581, 67.1968, -76.0069, 115.543
1.312, 1, 15.3963, 56.8298, -0.954193, 67.2687, -75.9473, 115.378
1.316, 1, 15.4451, 56.8086, -0.984774, 67.3406, -75.8877, 115.212
1.32, 1, 15.4938, 56.7874, -1.01533, 67.4123, -75.8283, 115.047
1.324, 1, 15.5425, 56.7663, -1.04585, 67.484, -75.7689, 114.882
1.328, 1, 15.5912, 56.7451, -1.07634, 67.5556, -75.7095, 114.717
1.332, 1, 15.6398, 56.724, -1.10681, 67.6272, -75.6502, 114.552
1.336, 1, 15.6884, 56.7029, -1.13725, 67.6987, -75.591, 114.388
1.34, 1, 15.7369, 56.6819, -1.16765, 67.7701, -75.5318, 114.223
1.344, 1, 15.7854, 56.6608, -1.19803, 67.8414, -75.4726, 114.059
1.348, 1, 15.8338, 56.6398, -1.22838, 67.9127, -75.4136, 113.895
1.352, 1, 15.8822, 56.6188, -1.2587, 67.9839, -75.3545, 113.731
1.356, 1, 15.9305, 56.5978, -1.28899, 68.0551, -75.2956, 113.567
1.36, 1, 15.9788, 56.5768, -1.31925, 68.1261, -75.2367, 113.404
1.364, 1, 16.027, 56.5558, -1.34948, 68.1971, -75.1778, 113.24
1.368, 1, 16.0752, 56.5349, -1.37968, 68.2681, -75.119, 113.077
1.372, 1, 16.1234, 56.514, -1.40986, 68.3389, -75.0603, 112.914
1.376, 1, 16.1715, 56.4931, -1.44, 68.4097, -75.0016, 112.751
1.38, 1, 16.2195, 56.4722, -1.47012, 68.4805, -74.943, 112.588
1.384, 1, 16.2675, 56.4514, -1.5002, 68.5511, -74.8844, 112.425
1.388, 1, 16.3155, 56.4305, -1.53026, 68.6217, -74.8259, 112.263
1.392, 1, 16.3634, 56.4097, -1.56029, 68.6923, -74.7675, 112.1
1.396, 1, 16.4113, 56.3889, -1.59029, 68.7627, -74.7091, 111.938
1.4, 1, 16.4591, 56.3682, -1.62026, 68.8331, -74.6507, 111.776
1.404, 1, 16.5069, 56.3474, -1.65021, 68.9035, -74.5924, 111.614
1.408, 1, 16.5546, 56.3267, -1.68012, 68.9737, -74.5342, 111.452
1.412, 1, 16.6023, 56.306, -1.71001, 69.0439, -74.476, 111.291
1.416, 1, 16.65, 56.2853, -1.73987, 69.114, -74.4179, 111.129
1.42, 1, 16.6976, 56.2646, -1.7697, 69.1841, -74.3598, 110.968
1.424, 1, 16.7451, 56.2439, -1.7995, 69.2541, -74.3018, 110.807
1.428, 1, 16.7926, 56.2233, -1.82927, 69.324, -74.2439, 110.646
1.432, 1, 16.8401, 56.2027, -1.85901, 69.3939, -74.186, 110.485
1.436, 1, 16.8875, 56.1821, -1.88873, 69.4637, -74.1281, 110.324
1.44, 1, 16.9349, 56.1615, -1.91842, 69.5334, -74.0704, 110.164
1.444, 1, 16.9822, 56.141, -1.94808, 69.6031, -74.0126, 110.003
1.448, 1, 17.0295, 56.1204, -1.97771, 69.6727, -73.9549, 109.843
1.452, 1, 17.0767, 56.0999, -2.00731, 69.7422, -73.8973, 109.683
1.456, 1, 17.1239, 56.0794, -2.03689, 69.8116, -73.8397, 109.523
1.46, 1, 17.1711, 56.0589, -2.06643, 69.881, -73.7822, 109.363
1.464, 1, 17.2182, 56.0385, -2.09595, 69.9504, -73.7248, 109.204
1.468, 1, 17.2653, 56.018, -2.12545, 70.0196, -73.6674, 109.044
1.472, 1, 17.3123, 55.9976, -2.15491, 70.0888, -73.61, 108.885
1.476, 1, 17.3592, 55.9772, -2.18434, 70.158, -73.5527, 108.726
1.48, 1, 17.4062, 55.9568, -2.21375, 70.2271, -73.4955, 108.567
1.484, 1, 17.4531, 55.9365, -2.24313, 70.2961, -73.4383, 108.408
1.488, 1, 17.4999, 55.9161, -2.27249, 70.365, -73.3811, 108.249
1.492, 1, 17.5467, 55.8958, -2.30181, 70.4339, -73.324, 108.09
1.496, 1, 17.5934, 55.8755, -2.33111, 70.5027, -73.267, 107.932
1.5, 1, 17.6401, 55.8552, -2.36038, 70.5714, -73.21, 107.774
1.504, 1, 17.6868, 55.8349, -2.38962, 70.6401, -73.1531, 107.615
1.508, 1, 17.7334, 55.8147, -2.41883, 70.7087, -73.0962, 107.458
1.512, 1, 17.78, 55.7945, -2.44802, 70.7773, -73.0394, 107.3
1.516, 1, 17.8265, 55.7743, -2.47718, 70.8458, -72.9827, 107.142
1.52, 1, 17.873, 55.7541, -2.50631, 70.9142, -72.926, 106.984
1.524, 1, 17.9195, 55.7339, -2.53542, 70.9825, -72.8693, 106.827
1.528, 1, 17.9659, 55.7137, -2.5645, 71.0508, -72.8127, 106.67
1.532, 1, 18.0122, 55.6936, -2.59355, 71.1191, -72.7561, 106.513
1.536, 1, 18.0585, 55.6735, -2.62257, 71.1872, -72.6997, 106.356
1.54, 1, 18.1048, 55.6534, -2.65157, 71.2553, -72.6432, 106.199
1.544, 1, 18.151, 55.6333, -2.68054, 71.3234, -72.5868, 106.042
1.548, 1, 18.1972, 55.6133, -2.70948, 71.3914, -72.5305, 105.886
1.552, 1, 18.2434, 55.5932, -2.73839, 71.4593, -72.4742, 105.729
1.556, 1, 18.2895, 55.5732, -2.76728, 71.5271, -72.418, 105.573
1.56, 1, 18.3355, 55.5532, -2.79614, 71.5949, -72.3618, 105.417
1.564, 1, 18.3815, 55.5332, -2.82498, 71.6626, -72.3057, 105.261
1.568, 1, 18.4275, 55.5132, -2.85378, 71.7303, -72.2496, 105.105
1.572, 1, 18.4734, 55.4933, -2.88256, 71.7979, -72.1936, 104.95
1.576, 1, 18.5193, 55.4734, -2.91132, 71.8654, -72.1376, 104.794
1.58, 1, 18.5651, 55.4535, -2.94004, 71.9329, -72.0817, 104.639
1.584, 1, 18.6109, 55.4336, -2.96874, 72.0003, -72.0258, 104.484
1.588, 1, 18.6567, 55.4137, -2.99742, 72.0676, -71.97, 104.329
1.592, 1, 18.7024, 55.3938, -3.02607, 72.1349, -71.9142, 104.174
1.596, 1, 18.7481, 55.374, -3.05469, 72.2021, -71.8585, 104.019
1.6, 1, 18.7937, 55.3542, -3.08328, 72.2693, -71.8028, 103.864
1.604, 1, 18.8393, 55.3344, -3.11185, 72.3364, -71.7472, 103.71
1.608, 1, 18.8848, 55.3146, -3.14039, 72.4034, -71.6917, 103.556
1.612, 1, 18.9303, 55.2948, -3.1689, 72.4704, -71.6362, 103.401
1.616, 1, 18.9758, 55.2751, -3.19739, 72.5373, -71.5807, 103.247
1.62, 1, 19.0212, 55.2554, -3.22585, 72.6042, -71.5253, 103.093
1.624, 1, 19.0666, 55.2357, -3.25429, 72.671, -71.47, 102.94
1.628, 1, 19.1119, 55.216, -3.2827, 72.7377, -71.4147, 102.786
1.632, 1, 19.1572, 55.1963, -3.31108, 72.8044, -71.3594, 102.633
1.636, 1, 19.2025, 55.1766, -3.33944, 72.871, -71.3042, 102.479
1.64, 1, 19.2477, 55.157, -3.36777, 72.9375, -71.2491, 102.326
1.644, 1, 19.2929, 55.1374, -3.39608, 73.004, -71.194, 102.173
1.648, 1, 19.338, 55.1178, -3.42435, 73.0704, -71.1389, 102.02
1.652, 1, 19.3831, 55.0982, -3.45261, 73.1368, -71.0839, 101.867
1.656, 1, 19.4281, 55.0786, -3.48083, 73.203, -71.029, 101.715
1.66, 1, 19.4731, 55.0591, -3.50904, 73.2693, -70.9741, 101.562
1.664, 1, 19.5181, 55.0396, -3.53721, 73.3355, -70.9192, 101.41
1.668, 1, 19.563, 55.0201, -3.56536, 73.4016, -70.8644, 101.258
1.672, 1, 19.6079, 55.0006, -3.59348, 73.4676, -70.8097, 101.105
1.676, 1, 19.6527, 54.9811, -3.62158, 73.5336, -70.755, 100.954
1.68, 1, 19.6975, 54.9616, -3.64966, 73.5996, -70.7003, 100.802
1.684, 1, 19.7423, 54.9422, -3.6777, 73.6654, -70.6458, 100.65
1.688, 1, 19.787, 54.9228, -3.70572, 73.7312, -70.5912, 100.499
1.692, 1, 19.8316, 54.9034, -3.73372, 73.797, -70.5367, 100.347
1.696, 1, 19.8763, 54.884, -3.76169, 73.8627, -70.4823, 100.196
1.7, 1, 19.9209, 54.8646, -3.78964, 73.9283, -70.4279, 100.045
1.704, 1, 19.9654, 54.8453, -3.81756, 73.9939, -70.3735, 99.8938
1.708, 1, 20.0099, 54.8259, -3.84545, 74.0594, -70.3192, 99.743
1.712, 1, 20.0544, 54.8066, -3.87332, 74.1249, -70.265, 99.5923
1.716, 1, 20.0988, 54.7873, -3.90116, 74.1903, -70.2108, 99.4417
1.72, 1, 20.1432, 54.7681, -3.92898, 74.2556, -70.1566, 99.2913
1.724, 1, 20.1876, 54.7488, -3.95677, 74.3209, -70.1025, 99.141
1.728, 1, 20.2319, 54.7295, -3.98454, 74.3861, -70.0485, 98.9908
1.732, 1, 20.2762, 54.7103, -4.01228, 74.4512, -69.9945, 98.8408
1.736, 1, 20.3204, 54.6911, -4.04, 74.5163, -69.9405, 98.6909
1.74, 1, 20.3646, 54.6719, -4.06769, 74.5814, -69.8866, 98.5412
1.744, 1, 20.4087, 54.6527, -4.09536, 74.6464, -69.8328, 98.3915
1.748, 1, 20.4528, 54.6336, -4.123, 74.7113, -69.779, 98.2421
1.752, 1, 20.4969, 54.6144, -4.15062, 74.7762, -69.7252, 98.0927
1.756, 1, 20.541, 54.5953, -4.17821, 74.841, -69.6715, 97.9435
1.76, 1, 20.5849, 54.5762, -4.20578, 74.9057, -69.6178, 97.7944
1.764, 1, 20.6289, 54.5571, -4.23332, 74.9704, -69.5642, 97.6455
1.768, 1, 20.6728, 54.538, -4.26084, 75.035, -69.5106, 97.4967
1.772, 1, 20.7167, 54.519, -4.28834, 75.0996, -69.4571, 97.348
1.776, 1, 20.7605, 54.4999, -4.31581, 75.1641, -69.4036, 97.1994
1.78, 1, 20.8043, 54.4809, -4.34325, 75.2286, -69.3502, 97.051
1.784, 1, 20.8481, 54.4619, -4.37067, 75.293, -69.2968, 96.9027
1.788, 1, 20.8918, 54.4429, -4.39807, 75.3574, -69.2435, 96.7546
1.792, 1, 20.9355, 54.424, -4.42544, 75.4216, -69.1902, 96.6066
1.796, 1, 20.9791, 54.405, -4.45279, 75.4859, -69.137, 96.4587
1.8, 1, 21.0227, 54.3861, -4.48012, 75.55, -69.0838, 96.3109
1.804, 1, 21.0663, 54.3671, -4.50742, 75.6142, -69.0307, 96.1633
1.808, 1, 21.1098, 54.3482, -4.53469, 75.6782, -68.9776, 96.0158
1.812, 1, 21.1533, 54.3294, -4.56194, 75.7422, -68.9245, 95.8684
1.816, 1, 21.1968, 54.3105, -4.58917, 75.8062, -68.8715, 95.7212
1.82, 1, 21.2402, 54.2916, -4.61637, 75.8701, -68.8186, 95.5741
1.824, 1, 21.2835, 54.2728, -4.64355, 75.9339, -68.7657, 95.4271
1.828, 1, 21.3269, 54.254, -4.67071, 75.9977, -68.7128, 95.2803
1.832, 1, 21.3702, 54.2352, -4.69784, 76.0614, -68.66, 95.1336
1.836, 1, 21.4134, 54.2164, -4.72495, 76.1251, -68.6072, 94.987
1.84, 1, 21.4566, 54.1976, -4.75203, 76.1887, -68.5545, 94.8405
1.844, 1, 21.4998, 54.1789, -4.77909, 76.2523, -68.5018, 94.6942
1.848, 1, 21.543, 54.1601, -4.80613, 76.3158, -68.4492, 94.548
1.852, 1, 21.5861, 54.1414, -4.83314, 76.3792, -68.3966, 94.4019
1.856, 1, 21.6292, 54.1227, -4.86013, 76.4426, -68.3441, 94.2559
1.86, 1, 21.6722, 54.104, -4.8871, 76.5059, -68.2916, 94.1101
1.864, 1, 21.7152, 54.0853, -4.91404, 76.5692, -68.2391, 93.9644
1.868, 1, 21.7581, 54.0667, -4.94096, 76.6324, -68.1867, 93.8188
1.872, 1, 21.8011, 54.048, -4.96786, 76.6956, -68.1344, 93.6734
1.876, 1, 21.8439, 54.0294, -4.99473, 76.7587, -68.0821, 93.5281
1.88, 1, 21.8868, 54.0108, -5.02158, 76.8218, -68.0298, 93.3829
1.884, 1, 21.9296, 53.9922, -5.04841, 76.8848, -67.9776, 93.2378
1.888, 1, 21.9724, 53.9736, -5.07521, 76.9478, -67.9254, 93.0929
1.892, 1, 22.0151, 53.9551, -5.10199, 77.0107, -67.8733, 92.9481
1.896, 1, 22.0578, 53.9365, -5.12875, 77.0735, -67.8212, 92.8034
1.9, 1, 22.1005, 53.918, -5.15548, 77.1363, -67.7691, 92.6588
1.904, 1, 22.1431, 53.8995, -5.18219, 77.199, -67.7171, 92.5144
1.908, 1, 22.1857, 53.881, -5.20888, 77.2617, -67.6652, 92.3701
1.912, 1, 22.2282, 53.8625, -5.23554, 77.3243, -67.6133, 92.2259
1.916, 1, 22.2707, 53.844, -5.26219, 77.3869, -67.5614, 92.0818
1.92, 1, 22.3132, 53.8256, -5.28881, 77.4494, -67.5096, 91.9378
1.924, 1, 22.3557, 53.8071, -5.3154, 77.5119, -67.4578, 91.794
1.928, 1, 22.3981, 53.7887, -5.34198, 77.5743, -67.4061, 91.6503
1.932, 1, 22.4404, 53.7703, -5.36853, 77.6367, -67.3544, 91.5067
1.936, 1, 22.4828, 53.7519, -5.39506, 77.699, -67.3028, 91.3633
1.94, 1, 22.5251, 53.7336, -5.42156, 77.7612, -67.2512, 91.22
1.944, 1, 22.5673, 53.7152, -5.44804, 77.8234, -67.1996, 91.0767
1.948, 1, 22.6096, 53.6969, -5.4745, 77.8856, -67.1481, 90.9337
1.952, 1, 22.6517, 53.6785, -5.50094, 77.9477, -67.0967, 90.7907
1.956, 1, 22.6939, 53.6602, -5.52736, 78.0097, -67.0452, 90.6478
1.96, 1, 22.736, 53.6419, -5.55375, 78.0717, -66.9939, 90.5051
1.964, 1, 22.7781, 53.6237, -5.58012, 78.1337, -66.9425, 90.3625
1.968, 1, 22.8201, 53.6054, -5.60647, 78.1955, -66.8912, 90.22
1.972, 1, 22.8622, 53.5872, -5.6328, 78.2574, -66.84, 90.0777
1.976, 1, 22.9041, 53.5689, -5.6591, 78.3192, -66.7888, 89.9354
1.98, 1, 22.9461, 53.5507, -5.68539, 78.3809, -66.7376, 89.7933
1.984, 1, 22.988, 53.5325, -5.71165, 78.4426, -66.6865, 89.6513
1.988, 1, 23.0298, 53.5143, -5.73788, 78.5042, -66.6354, 89.5094
1.992, 1, 23.0717, 53.4962, -5.7641, 78.5658, -66.5844, 89.3676
1.996, 1, 23.1135, 53.478, -5.79029, 78.6273, -66.5334, 89.226
1.999, 1, 23.1552, 53.4599, -5.81646, 78.6887, -66.4825, 89.0845
2.004, 1, 23.197, 53.4417, -5.84261, 78.7502, -66.4316, 88.9431
2.008, 1, 23.2387, 53.4236, -5.86874, 78.8115, -66.3807, 88.8018
2.012, 1, 23.2803, 53.4055, -5.89485, 78.8729, -66.3299, 88.6606
2.015, 1, 23.322, 53.3875, -5.92093, 78.9341, -66.2791, 88.5195
2.019, 1, 23.3635, 53.3694, -5.947, 78.9953, -66.2284, 88.3786
2.024, 1, 23.4051, 53.3513, -5.97304, 79.0565, -66.1777, 88.2378
2.028, 1, 23.4466, 53.3333, -5.99906, 79.1176, -66.127, 88.0971
2.031, 1, 23.4881, 53.3153, -6.02505, 79.1787, -66.0764, 87.9565
2.036, 1, 23.5296, 53.2973, -6.05103, 79.2397, -66.0259, 87.816
2.04, 1, 23.571, 53.2793, -6.07698, 79.3006, -65.9753, 87.6757
2.044, 1, 23.6124, 53.2613, -6.10292, 79.3615, -65.9249, 87.5354
2.048, 1, 23.6537, 53.2434, -6.12883, 79.4224, -65.8744, 87.3953
2.051, 1, 23.695, 53.2254, -6.15472, 79.4832, -65.824, 87.2553
2.055, 1, 23.7363, 53.2075, -6.18059, 79.544, -65.7737, 87.1154
2.06, 1, 23.7776, 53.1896, -6.20643, 79.6047, -65.7234, 86.9757
2.064, 1, 23.8188, 53.1717, -6.23226, 79.6653, -65.6731, 86.836
2.068, 1, 23.8599, 53.1538, -6.25807, 79.726, -65.6229, 86.6964
2.071, 1, 23.9011, 53.1359, -6.28385, 79.7865, -65.5727, 86.557
2.076, 1, 23.9422, 53.1181, -6.30961, 79.847, -65.5225, 86.4177
2.08, 1, 23.9833, 53.1002, -6.33535, 79.9075, -65.4724, 86.2785
2.084, 1, 24.0243, 53.0824, -6.36107, 79.9679, -65.4223, 86.1394
2.087, 1, 24.0653, 53.0646, -6.38677, 80.0282, -65.3723, 86.0005
2.092, 1, 24.1063, 53.0468, -6.41245, 80.0886, -65.3223, 85.8616
2.096, 1, 24.1473, 53.029, -6.43811, 80.1488, -65.2724, 85.7228
2.1, 1, 24.1882, 53.0112, -6.46375, 80.209, -65.2225, 85.5842
2.104, 1, 24.2291, 52.9935, -6.48936, 80.2692, -65.1726, 85.4457
2.107, 1, 24.2699, 52.9757, -6.51496, 80.3293, -65.1228, 85.3073
2.111, 1, 24.3107, 52.958, -6.54053, 80.3894, -65.073, 85.169
2.116, 1, 24.3515, 52.9403, -6.56609, 80.4494, -65.0233, 85.0308
2.12, 1, 24.3922, 52.9226, -6.59162, 80.5094, -64.9736, 84.8927
2.124, 1, 24.433, 52.9049, -6.61713, 80.5693, -64.9239, 84.7547
2.127, 1, 24.4736, 52.8873, -6.64263, 80.6292, -64.8743, 84.6169
2.132, 1, 24.5143, 52.8696, -6.6681, 80.689, -64.8247, 84.4791
2.136, 1, 24.5549, 52.852, -6.69355, 80.7488, -64.7751, 84.3415
2.14, 1, 24.5955, 52.8343, -6.71898, 80.8085, -64.7256, 84.204
2.143, 1, 24.636, 52.8167, -6.74439, 80.8682, -64.6762, 84.0666
2.148, 1, 24.6766, 52.7991, -6.76978, 80.9278, -64.6267, 83.9293
2.152, 1, 24.717, 52.7815, -6.79515, 80.9874, -64.5774, 83.7921
2.156, 1, 24.7575, 52.764, -6.8205, 81.047, -64.528, 83.655
2.16, 1, 24.7979, 52.7464, -6.84583, 81.1065, -64.4787, 83.518
2.163, 1, 24.8383, 52.7289, -6.87114, 81.1659, -64.4294, 83.3811
2.168, 1, 24.8787, 52.7113, -6.89643, 81.2253, -64.3802, 83.2444
2.172, 1, 24.919, 52.6938, -6.9217, 81.2846, -64.331, 83.1077
2.176, 1, 24.9593, 52.6763, -6.94695, 81.344, -64.2819, 82.9712
2.179, 1, 24.9995, 52.6588, -6.97218, 81.4032, -64.2328, 82.8348
2.184, 1, 25.0398, 52.6414, -6.99739, 81.4624, -64.1837, 82.6984
2.188, 1, 25.08, 52.6239, -7.02258, 81.5216, -64.1347, 82.5622
2.192, 1, 25.1201, 52.6065, -7.04776, 81.5807, -64.0856, 82.4261
2.196, 1, 25.1603, 52.589, -7.07291, 81.6398, -64.0367, 82.2901
2.199, 1, 25.2004, 52.5716, -7.09804, 81.6988, -63.9878, 82.1542
2.204, 1, 25.2405, 52.5542, -7.12315, 81.7578, -63.9389, 82.0184
2.208, 1, 25.2805, 52.5368, -7.14824, 81.8167, -63.89, 81.8827
2.212, 1, 25.3205, 52.5194, -7.17331, 81.8756, -63.8412, 81.7471
2.216, 1, 25.3605, 52.5021, -7.19837, 81.9344, -63.7925, 81.6116
2.219, 1, 25.4004, 52.4847, -7.2234, 81.9932, -63.7437, 81.4763
2.224, 1, 25.4404, 52.4674, -7.24841, 82.052, -63.695, 81.341
2.228, 1, 25.4802, 52.4501, -7.27341, 82.1107, -63.6464, 81.2058
2.232, 1, 25.5201, 52.4328, -7.29838, 82.1694, -63.5978, 81.0708
2.235, 1, 25.5599, 52.4155, -7.32334, 82.228, -63.5492, 80.9358
2.24, 1, 25.5997, 52.3982, -7.34828, 82.2865, -63.5007, 80.801
2.244, 1, 25.6395, 52.3809, -7.37319, 82.3451, -63.4522, 80.6662
2.248, 1, 25.6792, 52.3636, -7.39809, 82.4035, -63.4037, 80.5316
2.252, 1, 25.7189, 52.3464, -7.42297, 82.462, -63.3553, 80.3971
2.255, 1, 25.7586, 52.3292, -7.44783, 82.5204, -63.3069, 80.2626
2.259, 1, 25.7982, 52.312, -7.47267, 82.5787, -63.2585, 80.1283
2.264, 1, 25.8378, 52.2948, -7.49749, 82.637, -63.2102, 79.9941
2.268, 1, 25.8774, 52.2776, -7.5223, 82.6953, -63.1619, 79.8599
2.272, 1, 25.917, 52.2604, -7.54708, 82.7535, -63.1137, 79.7259
2.275, 1, 25.9565, 52.2432, -7.57185, 82.8116, -63.0655, 79.592
2.28, 1, 25.996, 52.2261, -7.59659, 82.8698, -63.0173, 79.4582
2.284, 1, 26.0354, 52.2089, -7.62132, 82.9278, -62.9692, 79.3245
2.288, 1, 26.0749, 52.1918, -7.64603, 82.9859, -62.9211, 79.1908
2.291, 1, 26.1143, 52.1747, -7.67072, 83.0439, -62.873, 79.0573
2.296, 1, 26.1536, 52.1576, -7.69539, 83.1018, -62.825, 78.9239
2.3, 1, 26.193, 52.1405, -7.72004, 83.1597, -62.777, 78.7906
2.304, 1, 26.2323, 52.1234, -7.74468, 83.2176, -62.729, 78.6574
2.308, 1, 26.2716, 52.1064, -7.76929, 83.2754, -62.6811, 78.5243
2.311, 1, 26.3108, 52.0893, -7.79389, 83.3332, -62.6332, 78.3913
2.316, 1, 26.35, 52.0723, -7.81846, 83.3909, -62.5854, 78.2584
2.32, 1, 26.3892, 52.0553, -7.84302, 83.4486, -62.5376, 78.1256
2.324, 1, 26.4284, 52.0383, -7.86757, 83.5062, -62.4898, 77.9928
2.328, 1, 26.4675, 52.0213, -7.89209, 83.5638, -62.4421, 77.8602
2.331, 1, 26.5066, 52.0043, -7.91659, 83.6214, -62.3944, 77.7277
2.336, 1, 26.5457, 51.9873, -7.94108, 83.6789, -62.3467, 77.5953
2.34, 1, 26.5848, 51.9703, -7.96555, 83.7364, -62.2991, 77.463
2.344, 1, 26.6238, 51.9534, -7.99, 83.7938, -62.2515, 77.3308
2.347, 1, 26.6628, 51.9365, -8.01443, 83.8512, -62.2039, 77.1987
2.352, 1, 26.7017, 51.9195, -8.03884, 83.9085, -62.1564, 77.0666
2.356, 1, 26.7407, 51.9026, -8.06324, 83.9658, -62.1089, 76.9347
2.36, 1, 26.7796, 51.8857, -8.08762, 84.023, -62.0615, 76.8029
2.364, 1, 26.8184, 51.8689, -8.11197, 84.0803, -62.014, 76.6712
2.367, 1, 26.8573, 51.852, -8.13632, 84.1374, -61.9667, 76.5395
2.372, 1, 26.8961, 51.8351, -8.16064, 84.1946, -61.9193, 76.408
2.376, 1, 26.9349, 51.8183, -8.18494, 84.2516, -61.872, 76.2766
2.38, 1, 26.9736, 51.8014, -8.20923, 84.3087, -61.8247, 76.1452
2.383, 1, 27.0124, 51.7846, -8.2335, 84.3657, -61.7775, 76.014
2.388, 1, 27.0511, 51.7678, -8.25775, 84.4227, -61.7303, 75.8829
2.392, 1, 27.0897, 51.751, -8.28199, 84.4796, -61.6831, 75.7518
2.396, 1, 27.1284, 51.7342, -8.3062, 84.5365, -61.636, 75.6208
2.4, 1, 27.167, 51.7175, -8.3304, 84.5933, -61.5889, 75.49
2.403, 1, 27.2056, 51.7007, -8.35458, 84.6501, -61.5418, 75.3592
2.408, 1, 27.2441, 51.684, -8.37875, 84.7068, -61.4947, 75.2286
2.412, 1, 27.2827, 51.6672, -8.40289, 84.7635, -61.4477, 75.098
2.416, 1, 27.3212, 51.6505, -8.42702, 84.8202, -61.4008, 74.9675
2.42, 1, 27.3596, 51.6338, -8.45113, 84.8768, -61.3538, 74.8371
2.423, 1, 27.3981, 51.6171, -8.47522, 84.9334, -61.3069, 74.7068
2.428, 1, 27.4365, 51.6004, -8.4993, 84.99, -61.2601, 74.5767
2.432, 1, 27.4749, 51.5837, -8.52335, 85.0465, -61.2132, 74.4466
2.436, 1, 27.5133, 51.5671, -8.5474, 85.1029, -61.1665, 74.3166
2.439, 1, 27.5516, 51.5504, -8.57142, 85.1594, -61.1197, 74.1867
2.444, 1, 27.5899, 51.5338, -8.59543, 85.2158, -61.073, 74.0568
2.448, 1, 27.6282, 51.5172, -8.61941, 85.2721, -61.0263, 73.9271
2.452, 1, 27.6664, 51.5005, -8.64338, 85.3284, -60.9796, 73.7975
2.456, 1, 27.7047, 51.4839, -8.66734, 85.3847, -60.933, 73.6679
2.459, 1, 27.7429, 51.4673, -8.69128, 85.4409, -60.8864, 73.5385
2.464, 1, 27.781, 51.4508, -8.7152, 85.4971, -60.8398, 73.4091
2.468, 1, 27.8192, 51.4342, -8.7391, 85.5532, -60.7933, 73.2799
2.472, 1, 27.8573, 51.4176, -8.76299, 85.6093, -60.7468, 73.1507
2.476, 1, 27.8954, 51.4011, -8.78685, 85.6654, -60.7003, 73.0216
2.479, 1, 27.9335, 51.3846, -8.81071, 85.7214, -60.6539, 72.8927
2.484, 1, 27.9715, 51.368, -8.83454, 85.7774, -60.6075, 72.7638
2.488, 1, 28.0095, 51.3515, -8.85836, 85.8333, -60.5611, 72.635
2.492, 1, 28.0475, 51.335, -8.88216, 85.8892, -60.5148, 72.5062
2.495, 1, 28.0854, 51.3186, -8.90595, 85.9451, -60.4685, 72.3776
2.5, 1, 28.1234, 51.3021, -8.92972, 86.0009, -60.4222, 72.2491
2.504, 1, 28.1613, 51.2856, -8.95347, 86.0567, -60.376, 72.1207
2.508, 1, 28.1992, 51.2692, -8.9772, 86.1124, -60.3298, 71.9923
2.512, 1, 28.237, 51.2527, -9.00092, 86.1682, -60.2836, 71.864
2.515, 1, 28.2748, 51.2363, -9.02462, 86.2238, -60.2375, 71.7359
2.52, 1, 28.3126, 51.2199, -9.04831, 86.2794, -60.1914, 71.6078
2.524, 1, 28.3504, 51.2035, -9.07198, 86.335, -60.1453, 71.4798
2.528, 1, 28.3881, 51.1871, -9.09563, 86.3906, -60.0993, 71.3519
2.531, 1, 28.4259, 51.1707, -9.11927, 86.4461, -60.0532, 71.2241
2.536, 1, 28.4636, 51.1543, -9.14288, 86.5016, -60.0073, 71.0964
2.54, 1, 28.5012, 51.138, -9.16649, 86.557, -59.9613, 70.9687
2.544, 1, 28.5389, 51.1216, -9.19007, 86.6124, -59.9154, 70.8412
2.548, 1, 28.5765, 51.1053, -9.21365, 86.6678, -59.8695, 70.7137
2.551, 1, 28.6141, 51.089, -9.2372, 86.7231, -59.8237, 70.5863
2.556, 1, 28.6516, 51.0727, -9.26074, 86.7784, -59.7779, 70.459
2.56, 1, 28.6892, 51.0563, -9.28426, 86.8336, -59.7321, 70.3318
2.564, 1, 28.7267, 51.0401, -9.30777, 86.8889, -59.6863, 70.2047
2.568, 1, 28.7642, 51.0238, -9.33126, 86.944, -59.6406, 70.0777
2.571, 1, 28.8016, 51.0075, -9.35473, 86.9992, -59.5949, 69.9508
2.576, 1, 28.8391, 50.9912, -9.37819, 87.0543, -59.5492, 69.8239
2.58, 1, 28.8765, 50.975, -9.40163, 87.1093, -59.5036, 69.6971
2.584, 1, 28.9138, 50.9588, -9.42506, 87.1643, -59.458, 69.5705
2.587, 1, 28.9512, 50.9425, -9.44847, 87.2193, -59.4124, 69.4439
2.592, 1, 28.9885, 50.9263, -9.47186, 87.2743, -59.3669, 69.3174
2.596, 1, 29.0258, 50.9101, -9.49524, 87.3292, -59.3214, 69.1909
2.6, 1, 29.0631, 50.8939, -9.5186, 87.384, -59.2759, 69.0646
2.604, 1, 29.1004, 50.8777, -9.54195, 87.4389, -59.2304, 68.9384
2.607, 1, 29.1376, 50.8616, -9.56528, 87.4937, -59.185, 68.8122
2.612, 1, 29.1748, 50.8454, -9.58859, 87.5484, -59.1396, 68.6861
2.616, 1, 29.212, 50.8293, -9.61189, 87.6032, -59.0943, 68.5601
2.62, 1, 29.2492, 50.8131, -9.63518, 87.6579, -59.049, 68.4342
2.624, 1, 29.2863, 50.797, -9.65845, 87.7125, -59.0037, 68.3084
2.627, 1, 29.3234, 50.7809, -9.6817, 87.7671, -58.9584, 68.1826
2.632, 1, 29.3605, 50.7648, -9.70494, 87.8217, -58.9132, 68.057
2.636, 1, 29.3975, 50.7487, -9.72816, 87.8763, -58.868, 67.9314
2.64, 1, 29.4346, 50.7326, -9.75137, 87.9307, -58.8228, 67.8059
2.643, 1, 29.4716, 50.7165, -9.77456, 87.9852, -58.7776, 67.6805
2.648, 1, 29.5086, 50.7005, -9.79774, 88.0397, -58.7325, 67.5551
2.652, 1, 29.5455, 50.6844, -9.8209, 88.0941, -58.6874, 67.4299
2.656, 1, 29.5825, 50.6684, -9.84404, 88.1484, -58.6424, 67.3047
2.66, 1, 29.6194, 50.6523, -9.86717, 88.2027, -58.5974, 67.1797
2.663, 1, 29.6563, 50.6363, -9.89029, 88.257, -58.5524, 67.0547
2.668, 1, 29.6931, 50.6203, -9.91338, 88.3113, -58.5074, 66.9297
2.672, 1, 29.73, 50.6043, -9.93647, 88.3655, -58.4625, 66.8049
2.676, 1, 29.7668, 50.5883, -9.95954, 88.4197, -58.4176, 66.6802
2.679, 1, 29.8036, 50.5723, -9.98259, 88.4738, -58.3727, 66.5555
2.684, 1, 29.8403, 50.5564, -10.0056, 88.528, -58.3278, 66.4309
2.688, 1, 29.8771, 50.5404, -10.0287, 88.582, -58.283, 66.3064
2.692, 1, 29.9138, 50.5245, -10.0517, 88.6361, -58.2382, 66.182
2.696, 1, 29.9505, 50.5085, -10.0747, 88.6901, -58.1935, 66.0576
2.699, 1, 29.9871, 50.4926, -10.0976, 88.7441, -58.1487, 65.9334
2.704, 1, 30.0238, 50.4767, -10.1206, 88.798, -58.104, 65.8092
2.708, 1, 30.0604, 50.4608, -10.1436, 88.8519, -58.0594, 65.6851
2.712, 1, 30.097, 50.4449, -10.1665, 88.9058, -58.0147, 65.5611
2.716, 1, 30.1336, 50.429, -10.1894, 88.9596, -57.9701, 65.4371
2.719, 1, 30.1701, 50.4131, -10.2123, 89.0134, -57.9255, 65.3132
2.724, 1, 30.2067, 50.3972, -10.2352, 89.0671, -57.881, 65.1895
2.728, 1, 30.2432, 50.3814, -10.2581, 89.1209, -57.8364, 65.0658
2.732, 1, 30.2797, 50.3655, -10.2809, 89.1746, -57.7919, 64.9421
2.735, 1, 30.3161, 50.3497, -10.3038, 89.2282, -57.7475, 64.8186
2.74, 1, 30.3525, 50.3339, -10.3266, 89.2819, -57.703, 64.6951
2.744, 1, 30.389, 50.3181, -10.3494, 89.3355, -57.6586, 64.5717
2.748, 1, 30.4253, 50.3023, -10.3722, 89.389, -57.6142, 64.4484
2.752, 1, 30.4617, 50.2865, -10.395, 89.4425, -57.5698, 64.3252
2.755, 1, 30.4981, 50.2707, -10.4178, 89.496, -57.5255, 64.2021
2.76, 1, 30.5344, 50.2549, -10.4406, 89.5495, -57.4812, 64.079
2.764, 1, 30.5707, 50.2392, -10.4633, 89.6029, -57.4369, 63.956
2.768, 1, 30.6069, 50.2234, -10.486, 89.6563, -57.3927, 63.8331
2.772, 1, 30.6432, 50.2077, -10.5087, 89.7096, -57.3485, 63.7102
2.775, 1, 30.6794, 50.1919, -10.5314, 89.763, -57.3043, 63.5875
2.78, 1, 30.7156, 50.1762, -10.5541, 89.8162, -57.2601, 63.4648
2.784, 1, 30.7518, 50.1605, -10.5768, 89.8695, -57.216, 63.3422
2.788, 1, 30.788, 50.1448, -10.5995, 89.9227, -57.1719, 63.2197
2.791, 1, 30.8241, 50.1291, -10.6221, 89.9759, -57.1278, 63.0972
2.796, 1, 30.8602, 50.1134, -10.6447, 90.029, -57.0837, 62.9748
2.8, 1, 30.8963, 50.0977, -10.6674, 90.0822, -57.0397, 62.8525
2.804, 1, 30.9324, 50.0821, -10.69, 90.1352, -56.9957, 62.7303
2.808, 1, 30.9684, 50.0664, -10.7125, 90.1883, -56.9518, 62.6082
2.811, 1, 31.0044, 50.0508, -10.7351, 90.2413, -56.9078, 62.4861
2.816, 1, 31.0404, 50.0351, -10.7577, 90.2943, -56.8639, 62.3641
2.82, 1, 31.0764, 50.0195, -10.7802, 90.3473, -56.82, 62.2422
2.824, 1, 31.1124, 50.0039, -10.8028, 90.4002, -56.7761, 62.1203
2.828, 1, 31.1483, 49.9883, -10.8253, 90.4531, -56.7323, 61.9986
2.831, 1, 31.1842, 49.9727, -10.8478, 90.5059, -56.6885, 61.8769
2.836, 1, 31.2201, 49.9571, -10.8703, 90.5587, -56.6447, 61.7552
2.84, 1, 31.256, 49.9415, -10.8927, 90.6115, -56.601, 61.6337
2.844, 1, 31.2918, 49.9259, -10.9152, 90.6643, -56.5573, 61.5122
2.847, 1, 31.3276, 49.9104, -10.9377, 90.717, -56.5136, 61.3908
2.852, 1, 31.3634, 49.8948, -10.9601, 90.7697, -56.4699, 61.2695
2.856, 1, 31.3992, 49.8793, -10.9825, 90.8224, -56.4262, 61.1483
2.86, 1, 31.435, 49.8638, -11.0049, 90.875, -56.3826, 61.0271
2.864, 1, 31.4707, 49.8482, -11.0273, 90.9276, -56.339, 60.906
2.867, 1, 31.5064, 49.8327, -11.0497, 90.9802, -56.2955, 60.785
2.872, 1, 31.5421, 49.8172, -11.0721, 91.0327, -56.2519, 60.664
2.876, 1, 31.5778, 49.8017, -11.0944, 91.0852, -56.2084, 60.5432
2.88, 1, 31.6134, 49.7862, -11.1167, 91.1377, -56.1649, 60.4224
2.883, 1, 31.6491, 49.7708, -11.1391, 91.1901, -56.1215, 60.3016
2.888, 1, 31.6847, 49.7553, -11.1614, 91.2425, -56.078, 60.181
2.892, 1, 31.7203, 49.7398, -11.1837, 91.2949, -56.0346, 60.0604
2.896, 1, 31.7558, 49.7244, -11.206, 91.3472, -55.9912, 59.9399
2.9, 1, 31.7914, 49.709, -11.2282, 91.3995, -55.9479, 59.8194
2.903, 1, 31.8269, 49.6935, -11.2505, 91.4518, -55.9046, 59.6991
2.908, 1, 31.8624, 49.6781, -11.2727, 91.5041, -55.8613, 59.5788
2.912, 1, 31.8979, 49.6627, -11.295, 91.5563, -55.818, 59.4585
2.916, 1, 31.9333, 49.6473, -11.3172, 91.6085, -55.7747, 59.3384
2.92, 1, 31.9687, 49.6319, -11.3394, 91.6606, -55.7315, 59.2183
2.923, 1, 32.0042, 49.6165, -11.3616, 91.7128, -55.6883, 59.0983
2.928, 1, 32.0396, 49.6012, -11.3838, 91.7649, -55.6451, 58.9783
2.932, 1, 32.0749, 49.5858, -11.4059, 91.8169, -55.602, 58.8585
2.936, 1, 32.1103, 49.5704, -11.4281, 91.8689, -55.5589, 58.7387
2.939, 1, 32.1456, 49.5551, -11.4502, 91.921, -55.5158, 58.6189
2.944, 1, 32.1809, 49.5398, -11.4724, 91.9729, -55.4727, 58.4993
2.948, 1, 32.2162, 49.5244, -11.4945, 92.0249, -55.4296, 58.3797
2.952, 1, 32.2515, 49.5091, -11.5166, 92.0768, -55.3866, 58.2602
2.956, 1, 32.2867, 49.4938, -11.5387, 92.1286, -55.3436, 58.1407
2.959, 1, 32.322, 49.4785, -11.5607, 92.1805, -55.3006, 58.0214
2.964, 1, 32.3572, 49.4632, -11.5828, 92.2323, -55.2577, 57.9021
2.968, 1, 32.3924, 49.4479, -11.6049, 92.2841, -55.2148, 57.7828
2.972, 1, 32.4275, 49.4327, -11.6269, 92.3359, -55.1719, 57.6637
2.976, 1, 32.4627, 49.4174, -11.6489, 92.3876, -55.129, 57.5445
2.98, 1, 32.4978, 49.4021, -11.6709, 92.4393, -55.0862, 57.4255
2.984, 1, 32.5329, 49.3869, -11.6929, 92.491, -55.0433, 57.3066
2.988, 1, 32.568, 49.3717, -11.7149, 92.5426, -55.0005, 57.1877
2.992, 1, 32.603, 49.3564, -11.7369, 92.5942, -54.9578, 57.0688
2.995, 1, 32.6381, 49.3412, -11.7588, 92.6458, -54.915, 56.9501
3, 1, 32.6731, 49.326, -11.7808, 92.6973, -54.8723, 56.8314
3.004, 1, 32.7081, 49.3108, -11.8027, 92.7489, -54.8296, 56.7128
3.008, 1, 32.7431, 49.2956, -11.8247, 92.8004, -54.7869, 56.5942
3.012, 1, 32.7781, 49.2804, -11.8466, 92.8518, -54.7443, 56.4757
3.015, 1, 32.813, 49.2652, -11.8685, 92.9033, -54.7016, 56.3573
3.02, 1, 32.8479, 49.2501, -11.8903, 92.9547, -54.659, 56.239
3.024, 1, 32.8828, 49.2349, -11.9122, 93.006, -54.6164, 56.1207
3.028, 1, 32.9177, 49.2197, -11.9341, 93.0574, -54.5739, 56.0025
3.031, 1, 32.9526, 49.2046, -11.9559, 93.1087, -54.5314, 55.8843
3.036, 1, 32.9874, 49.1895, -11.9778, 93.16, -54.4889, 55.7662
3.04, 1, 33.0223, 49.1743, -11.9996, 93.2112, -54.4464, 55.6482
3.044, 1, 33.0571, 49.1592, -12.0214, 93.2625, -54.4039, 55.5303
3.048, 1, 33.0919, 49.1441, -12.0432, 93.3137, -54.3615, 55.4124
3.051, 1, 33.1266, 49.129, -12.065, 93.3648, -54.3191, 55.2946
3.056, 1, 33.1614, 49.1139, -12.0868, 93.416, -54.2767, 55.1768
3.06, 1, 33.1961, 49.0988, -12.1085, 93.4671, -54.2343, 55.0592
3.064, 1, 33.2308, 49.0838, -12.1303, 93.5182, -54.192, 54.9415
3.068, 1, 33.2655, 49.0687, -12.152, 93.5692, -54.1497, 54.824
3.071, 1, 33.3002, 49.0536, -12.1737, 93.6203, -54.1074, 54.7065
3.076, 1, 33.3348, 49.0386, -12.1954, 93.6713, -54.0651, 54.5891
3.08, 1, 33.3694, 49.0235, -12.2172, 93.7222, -54.0229, 54.4717
3.084, 1, 33.4041, 49.0085, -12.2388, 93.7732, -53.9806, 54.3544
3.087, 1, 33.4386, 48.9935, -12.2605, 93.8241, -53.9384, 54.2372
3.092, 1, 33.4732, 48.9785, -12.2822, 93.875, -53.8963, 54.1201
3.096, 1, 33.5078, 48.9635, -12.3038, 93.9258, -53.8541, 54.003
3.1, 1, 33.5423, 48.9485, -12.3255, 93.9767, -53.812, 53.8859
3.104, 1, 33.5768, 48.9335, -12.3471, 94.0275, -53.7699, 53.769
3.107, 1, 33.6113, 48.9185, -12.3687, 94.0782, -53.7278, 53.6521
3.112, 1, 33.6458, 48.9035, -12.3903, 94.129, -53.6858, 53.5352
3.116, 1, 33.6803, 48.8885, -12.4119, 94.1797, -53.6437, 53.4184
3.12, 1, 33.7147, 48.8736, -12.4335, 94.2304, -53.6017, 53.3017
3.124, 1, 33.7491, 48.8586, -12.4551, 94.2811, -53.5597, 53.1851
3.128, 1, 33.7835, 48.8437, -12.4766, 94.3317, -53.5177, 53.0685
3.132, 1, 33.8179, 48.8288, -12.4982, 94.3823, -53.4758, 52.952
3.136, 1, 33.8523, 48.8138, -12.5197, 94.4329, -53.4339, 52.8355
3.14, 1, 33.8866, 48.7989, -12.5412, 94.4834, -53.392, 52.7191
3.143, 1, 33.9209, 48.784, -12.5628, 94.534, -53.3501, 52.6028
3.148, 1, 33.9553, 48.7691, -12.5843, 94.5845, -53.3083, 52.4865
3.152, 1, 33.9895, 48.7542, -12.6057, 94.6349, -53.2664, 52.3703
3.156, 1, 34.0238, 48.7393, -12.6272, 94.6854, -53.2246, 52.2542
3.16, 1, 34.0581, 48.7245, -12.6487, 94.7358, -53.1828, 52.1381
3.163, 1, 34.0923, 48.7096, -12.6701, 94.7862, -53.1411, 52.0221
3.168, 1, 34.1265, 48.6947, -12.6916, 94.8366, -53.0993, 51.9061
3.172, 1, 34.1607, 48.6799, -12.713, 94.8869, -53.0576, 51.7903
3.176, 1, 34.1949, 48.665, -12.7344, 94.9372, -53.0159, 51.6744
3.179, 1, 34.2291, 48.6502, -12.7558, 94.9875, -52.9742, 51.5587
3.184, 1, 34.2632, 48.6354, -12.7772, 95.0377, -52.9326, 51.443
3.188, 1, 34.2973, 48.6205, -12.7986, 95.088, -52.891, 51.3273
3.192, 1, 34.3314, 48.6057, -12.82, 95.1382, -52.8494, 51.2117
3.196, 1, 34.3655, 48.5909, -12.8414, 95.1883, -52.8078, 51.0962
3.199, 1, 34.3996, 48.5761, -12.8627, 95.2385, -52.7662, 50.9807
3.204, 1, 34.4337, 48.5613, -12.884, 95.2886, -52.7247, 50.8653
3.208, 1, 34.4677, 48.5465, -12.9054, 95.3387, -52.6832, 50.75
3.212, 1, 34.5017, 48.5318, -12.9267, 95.3888, -52.6417, 50.6347
3.216, 1, 34.5357, 48.517, -12.948, 95.4388, -52.6002, 50.5195
3.22, 1, 34.5697, 48.5022, -12.9693, 95.4888, -52.5587, 50.4044
3.224, 1, 34.6037, 48.4875, -12.9906, 95.5388, -52.5173, 50.2893
3.228, 1, 34.6376, 48.4727, -13.0119, 95.5888, -52.4759, 50.1742
3.232, 1, 34.6715, 48.458, -13.0331, 95.6387, -52.4345, 50.0592
3.235, 1, 34.7054, 48.4433, -13.0544, 95.6886, -52.3931, 49.9443
3.24, 1, 34.7393, 48.4286, -13.0756, 95.7385, -52.3518, 49.8295
3.244, 1, 34.7732, 48.4138, -13.0968, 95.7884, -52.3105, 49.7147
3.248, 1, 34.8071, 48.3991, -13.118, 95.8382, -52.2692, 49.5999
3.252, 1, 34.8409, 48.3844, -13.1393, 95.888, -52.2279, 49.4853
3.255, 1, 34.8747, 48.3697, -13.1604, 95.9378, -52.1866, 49.3707
3.26, 1, 34.9085, 48.3551, -13.1816, 95.9876, -52.1454, 49.2561
3.264, 1, 34.9423, 48.3404, -13.2028, 96.0373, -52.1042, 49.1416
3.268, 1, 34.9761, 48.3257, -13.224, 96.087, -52.063, 49.0272
3.272, 1, 35.0099, 48.3111, -13.2451, 96.1367, -52.0218, 48.9128
3.276, 1, 35.0436, 48.2964, -13.2663, 96.1863, -51.9807, 48.7985
3.28, 1, 35.0773, 48.2818, -13.2874, 96.236, -51.9395, 48.6842
3.284, 1, 35.111, 48.2671, -13.3085, 96.2856, -51.8984, 48.57
3.288, 1, 35.1447, 48.2525, -13.3296, 96.3351, -51.8573, 48.4558
3.291, 1, 35.1782, 48.2379, -13.3507, 96.3847, -51.8162, 48.3417
3.296, 1, 35.2115, 48.2234, -13.3718, 96.4342, -51.7752, 48.2277
3.3, 1, 35.2445, 48.209, -13.393, 96.4837, -51.7342, 48.1138
3.304, 1, 35.2771, 48.1948, -13.4141, 96.5331, -51.6933, 48
3.308, 1, 35.3093, 48.1808, -13.4352, 96.5824, -51.6524, 47.8864
3.312, 1, 35.341, 48.167, -13.4563, 96.6316, -51.6117, 47.7732
3.316, 1, 35.3723, 48.1534, -13.4774, 96.6806, -51.5711, 47.6604
3.32, 1, 35.403, 48.1402, -13.4984, 96.7293, -51.5308, 47.5482
3.324, 1, 35.4329, 48.1274, -13.5193, 96.7776, -51.4908, 47.4368
3.328, 1, 35.4619, 48.1151, -13.5402, 96.8254, -51.4512, 47.3267
3.332, 1, 35.49, 48.1033, -13.5608, 96.8725, -51.4122, 47.2181
3.336, 1, 35.5169, 48.0921, -13.5812, 96.9188, -51.374, 47.1116
3.34, 1, 35.5427, 48.0815, -13.6011, 96.9638, -51.3367, 47.0076
3.344, 1, 35.5675, 48.0714, -13.6205, 97.0076, -51.3006, 46.9069
3.347, 1, 35.5913, 48.0617, -13.6391, 97.0496, -51.2658, 46.8099
3.352, 1, 35.6141, 48.0524, -13.6569, 97.0897, -51.2327, 46.7174
3.356, 1, 35.636, 48.0435, -13.6738, 97.1277, -51.2013, 46.6299
3.36, 1, 35.6567, 48.035, -13.6895, 97.1632, -51.1719, 46.548
3.364, 1, 35.6762, 48.0269, -13.704, 97.1962, -51.1446, 46.472
3.368, 1, 35.6946, 48.0192, -13.7172, 97.2264, -51.1196, 46.4024
3.372, 1, 35.712, 48.0118, -13.729, 97.2537, -51.097, 46.3395
3.376, 1, 35.7286, 48.0046, -13.7394, 97.2781, -51.0768, 46.2833
3.38, 1, 35.7444, 47.9976, -13.7483, 97.2995, -51.059, 46.234
3.383, 1, 35.7593, 47.9908, -13.7559, 97.3181, -51.0435, 46.1913
3.388, 1, 35.7734, 47.9842, -13.7621, 97.334, -51.0303, 46.1548
3.392, 1, 35.7864, 47.978, -13.7671, 97.3473, -51.0192, 46.1243
3.396, 1, 35.7983, 47.9723, -13.7711, 97.3583, -51.01, 46.0991
3.4, 2, 35.8089, 47.9671, -13.7742, 97.3672, -51.0025, 46.0787
3.403, 2, 35.8183, 47.9624, -13.7765, 97.3743, -50.9965, 46.0624
3.408, 2, 35.8267, 47.9583, -13.7781, 97.3799, -50.9919, 46.0498
3.412, 2, 35.8342, 47.9546, -13.7793, 97.3841, -50.9883, 46.0401
3.416, 2, 35.8408, 47.9513, -13.78, 97.3873, -50.9855, 46.0329
3.42, 2, 35.8467, 47.9485, -13.7805, 97.3896, -50.9836, 46.0277
3.424, 2, 35.8516, 47.9462, -13.7807, 97.3913, -50.9821, 46.024
3.428, 2, 35.8556, 47.9444, -13.7808, 97.3924, -50.9811, 46.0214
3.432, 2, 35.8587, 47.943, -13.7809, 97.3932, -50.9804, 46.0196
3.436, 2, 35.861, 47.942, -13.7809, 97.3938, -50.98, 46.0184
3.439, 2, 35.8626, 47.9413, -13.7809, 97.3941, -50.9796, 46.0176
3.444, 2, 35.8637, 47.9408, -13.7809, 97.3944, -50.9794, 46.017
3.448, 2, 35.8644, 47.9405, -13.7809, 97.3946, -50.9793, 46.0166
3.452, 2, 35.8649, 47.9403, -13.7809, 97.3947, -50.9792, 46.0164
3.456, 2, 35.8653, 47.9401, -13.7809, 97.3948, -50.9791, 46.0162
3.46, 2, 35.8655, 47.94, -13.7809, 97.3948, -50.9791, 46.0161
3.464, 2, 35.8657, 47.94, -13.7809, 97.3948, -50.979, 46.016
3.468, 2, 35.8658, 47.9399, -13.7809, 97.3949, -50.979, 46.0159
3.472, 2, 35.8658, 47.9399, -13.7809, 97.3949, -50.979, 46.0159
3.476, 2, 35.8659, 47.9399, -13.7809, 97.3949, -50.979, 46.0159
3.48, 2, 35.8659, 47.9399, -13.7809, 97.3949, -50.979, 46.0159
3.484, 2, 35.866, 47.9398, -13.7809, 97.3949, -50.979, 46.0159
3.488, 2, 35.866, 47.9398, -13.7809, 97.3949, -50.979, 46.0159
3.492, 2, 35.866, 47.9398, -13.7809, 97.3949, -50.979, 46.0159
3.495, 2, 35.866, 47.9398, -13.7809, 97.3949, -50.979, 46.0158
3.5, 2, 35.866, 47.9398, -13.7809, 97.3949, -50.979, 46.0158
3.504, 2, 35.866, 47.9398, -13.7809, 97.3949, -50.979, 46.0158
3.508, 2, 35.866, 47.9398, -13.7809, 97.3949, -50.979, 46.0158
3.512, 2, 35.866, 47.9398, -13.7809, 97.3949, -50.979, 46.0158
3.516, 2, 35.866, 47.9398, -13.7809, 97.3949, -50.979, 46.0158
3.52, 2, 35.866, 47.9398, -13.7809, 97.3949, -50.979, 46.0158
3.524, 2, 35.866, 47.9398, -13.7809, 97.3949, -50.979, 46.0158
3.528, 2, 35.866, 47.9398, -13.7809, 97.3949, -50.979, 46.0158
3.531, 2, 35.866, 47.9398, -13.7809, 97.3949, -50.979, 46.0158
3.536, 2, 35.866, 47.9398, -13.7809, 97.3949, -50.979, 46.0158
3.54, 2, 35.866, 47.9398, -13.7809, 97.3949, -50.979, 46.0158
3.544, 2, 35.866, 47.9398, -13.7809, 97.3949, -50.979, 46.0158
3.548, 2, 35.866, 47.9398, -13.7809, 97.3949, -50.979, 46.0158
3.552, 2, 35.866, 47.9398, -13.7809, 97.3949, -50.979, 46.0158
3.556, 2, 35.866, 47.9398, -13.7809, 97.3949, -50.979, 46.0158
3.56, 2, 35.866, 47.9398, -13.7809, 97.3949, -50.979, 46.0158
3.564, 2, 35.866, 47.9398, -13.7809, 97.3949, -50.979, 46.0158
3.568, 2, 35.866, 47.9398, -13.7809, 97.3949, -50.979, 46.0158
3.572, 2, 35.866, 47.9398, -13.7809, 97.3949, -50.979, 46.0158
3.576, 2, 35.866, 47.9398, -13.7809, 97.3949, -50.979, 46.0158
3.58, 2, 35.866, 47.9398, -13.7809, 97.3949, -50.979, 46.0158
3.584, 2, 35.866, 47.9398, -13.7809, 97.3949, -50.979, 46.0158
3.587, 2, 35.866, 47.9398, -13.7809, 97.3949, -50.979, 46.0158
3.592, 2, 35.866, 47.9398, -13.7809, 97.3949, -50.979, 46.0158
3.596, 2, 35.866, 47.9398, -13.7809, 97.3949, -50.979, 46.0158
3.6, 2, 35.866, 47.9398, -13.7809, 97.3949, -50.979, 46.0158
3.604, 2, 35.866, 47.9398, -13.7809, 97.3949, -50.979, 46.0158
3.608, 2, 35.866, 47.9398, -13.7809, 97.3949, -50.979, 46.0158
3.612, 2, 35.866, 47.9398, -13.7809, 97.3949, -50.979, 46.0158
3.616, 2, 35.866, 47.9398, -13.7809, 97.3949, -50.979, 46.0158
3.62, 2, 35.866, 47.9398, -13.7809, 97.3949, -50.979, 46.0158
3.624, 2, 35.866, 47.9398, -13.7809, 97.3949, -50.979, 46.0158
3.628, 2, 35.866, 47.9398, -13.7809, 97.3949, -50.979, 46.0158
3.632, 2, 35.866, 47.9398, -13.7809, 97.3949, -50.979, 46.0158
3.636, 2, 35.866, 47.9398, -13.7809, 97.3949, -50.979, 46.0158
3.64, 2, 35.866, 47.9398, -13.7809, 97.3949, -50.979, 46.0158
3.644, 2, 35.866, 47.9398, -13.7809, 97.3949, -50.979, 46.0158
3.648, 2, 35.866, 47.9398, -13.7809, 97.3949, -50.979, 46.0158
3.652, 2, 35.866, 47.9398, -13.7809, 97.3949, -50.979, 46.0158
3.656, 2, 35.866, 47.9398, -13.7809, 97.3949, -50.979, 46.0158
3.66, 2, 35.866, 47.9398, -13.7809, 97.3949, -50.979, 46.0158
3.664, 2, 35.866, 47.9398, -13.7809, 97.3949, -50.979, 46.0158
3.668, 2, 35.866, 47.9398, -13.7809, 97.3949, -50.979, 46.0158
3.672, 2, 35.866, 47.9398, -13.7809, 97.3949, -50.979, 46.0158
3.676, 2, 35.866, 47.9398, -13.7809, 97.3949, -50.979, 46.0158
3.679, 2, 35.866, 47.9398, -13.7809, 97.3949, -50.979, 46.0158
3.684, 2, 35.866, 47.9398, -13.7809, 97.3949, -50.979, 46.0158
3.688, 2, 35.866, 47.9398, -13.7809, 97.3949, -50.979, 46.0158
3.692, 2, 35.866, 47.9398, -13.7809, 97.3949, -50.979, 46.0158
3.696, 2, 35.866, 47.9398, -13.7809, 97.3949, -50.979, 46.0158
3.7, 2, 35.866, 47.9398, -13.7809, 97.3949, -50.979, 46.0158
3.704, 2, 35.866, 47.9398, -13.7809, 97.3949, -50.979, 46.0158
3.708, 2, 35.866, 47.9398, -13.7809, 97.3949, -50.979, 46.0158
3.712, 2, 35.866, 47.9398, -13.7809, 97.3949, -50.979, 46.0158
3.716, 2, 35.866, 47.9398, -13.7809, 97.3949, -50.979, 46.0158
3.72, 2, 35.866, 47.9398, -13.7809, 97.3949, -50.979, 46.0158
3.724, 2, 35.866, 47.9398, -13.7809, 97.3949, -50.979, 46.0158
3.728, 2, 35.866, 47.9398, -13.7809, 97.3949, -50.979, 46.0158
3.732, 2, 35.866, 47.9398, -13.7809, 97.3949, -50.979, 46.0158
3.735, 2, 35.866, 47.9398, -13.7809, 97.3949, -50.979, 46.0158
3.74, 2, 35.866, 47.9398, -13.7809, 97.3949, -50.979, 46.0158
3.744, 2, 35.866, 47.9398, -13.7809, 97.3949, -50.979, 46.0158
3.748, 2, 35.866, 47.9398, -13.7809, 97.3949, -50.979, 46.0158
3.752, 2, 35.866, 47.9398, -13.7809, 97.3949, -50.979, 46.0158
3.756, 2, 35.866, 47.9398, -13.7809, 97.3949, -50.979, 46.0158
3.76, 2, 35.866, 47.9398, -13.7809, 97.3949, -50.979, 46.0158
3.764, 2, 35.866, 47.9398, -13.7809, 97.3949, -50.979, 46.0158
3.768, 2, 35.866, 47.9398, -13.7809, 97.3949, -50.979, 46.0158
3.772, 2, 35.866, 47.9398, -13.7809, 97.3949, -50.979, 46.0158
3.776, 2, 35.866, 47.9398, -13.7809, 97.3949, -50.979, 46.0158
3.78, 2, 35.866, 47.9398, -13.7809, 97.3949, -50.979, 46.0158
3.784, 2, 35.866, 47.9398, -13.7809, 97.3949, -50.979, 46.0158
3.788, 2, 35.866, 47.9398, -13.7809, 97.3949, -50.979, 46.0158
3.792, 2, 35.866, 47.9398, -13.7809, 97.3949, -50.979, 46.0158
3.796, 2, 35.866, 47.9398, -13.7809, 97.3949, -50.979, 46.0158
3.8, 2, 35.866, 47.9398, -13.7809, 97.3949, -50.979, 46.0158
3.804, 2, 35.866, 47.9398, -13.7809, 97.3949, -50.979, 46.0158
3.808, 2, 35.866, 47.9398, -13.7809, 97.3949, -50.979, 46.0158
3.812, 2, 35.866, 47.9398, -13.7809, 97.3949, -50.979, 46.0158
3.816, 2, 35.866, 47.9398, -13.7809, 97.3949, -50.979, 46.0158
3.82, 2, 35.866, 47.9398, -13.7809, 97.3949, -50.979, 46.0158
3.824, 2, 35.866, 47.9398, -13.7809, 97.3949, -50.979, 46.0158
3.828, 2, 35.866, 47.9398, -13.7809, 97.3949, -50.979, 46.0158
3.832, 2, 35.866, 47.9398, -13.7809, 97.3949, -50.979, 46.0158
3.836, 2, 35.866, 47.9398, -13.7809, 97.3949, -50.979, 46.0158
3.84, 2, 35.866, 47.9398, -13.7809, 97.3949, -50.979, 46.0158
3.844, 2, 35.866, 47.9398, -13.7809, 97.3949, -50.979, 46.0158
3.848, 2, 35.866, 47.9398, -13.7809, 97.3949, -50.979, 46.0158
3.852, 2, 35.866, 47.9398, -13.7809, 97.3949, -50.979, 46.0158
3.856, 2, 35.866, 47.9398, -13.7809, 97.3949, -50.979, 46.0158
3.86, 2, 35.866, 47.9398, -13.7809, 97.3949, -50.979, 46.0158
3.864, 2, 35.866, 47.9398, -13.7809, 97.3949, -50.979, 46.0158
3.868, 2, 35.866, 47.9398, -13.7809, 97.3949, -50.979, 46.0158
3.872, 2, 35.866, 47.9398, -13.7809, 97.3949, -50.979, 46.0158
3.876, 2, 35.866, 47.9398, -13.7809, 97.3949, -50.979, 46.0158
3.88, 2, 35.866, 47.9398, -13.7809, 97.3949, -50.979, 46.0158
3.884, 2, 35.866, 47.9398, -13.7809, 97.3949, -50.979, 46.0158
3.888, 2, 35.866, 47.9398, -13.7809, 97.3949, -50.979, 46.0158
3.892, 2, 35.866, 47.9398, -13.7809, 97.3949, -50.979, 46.0158
3.896, 2, 35.866, 47.9398, -13.7809, 97.3949, -50.979, 46.0158
3.9, 2, 35.866, 47.9398, -13.7809, 97.3949, -50.979, 46.0158
3.904, 2, 35.866, 47.9398, -13.7809, 97.3949, -50.979, 46.0158
3.908, 2, 35.866, 47.9398, -13.7809, 97.3949, -50.979, 46.0158
3.912, 2, 35.866, 47.9398, -13.7809, 97.3949, -50.979, 46.0158
3.916, 2, 35.866, 47.9398, -13.7809, 97.3949, -50.979, 46.0158
3.92, 2, 35.866, 47.9398, -13.7809, 97.3949, -50.979, 46.0158
3.924, 2, 35.866, 47.9398, -13.7809, 97.3949, -50.979, 46.0158
3.928, 2, 35.866, 47.9398, -13.7809, 97.3949, -50.979, 46.0158
3.932, 2, 35.866, 47.9398, -13.7809, 97.3949, -50.979, 46.0158
3.936, 2, 35.866, 47.9398, -13.7809, 97.3949, -50.979, 46.0158
3.94, 2, 35.866, 47.9398, -13.7809, 97.3949, -50.979, 46.0158
3.944, 2, 35.866, 47.9398, -13.7809, 97.3949, -50.979, 46.0158
3.948, 2, 35.866, 47.9398, -13.7809, 97.3949, -50.979, 46.0158
3.952, 2, 35.866, 47.9398, -13.7809, 97.3949, -50.979, 46.0158
3.956, 2, 35.866, 47.9398, -13.7809, 97.3949, -50.979, 46.0158
3.96, 2, 35.866, 47.9398, -13.7809, 97.3949, -50.979, 46.0158
3.964, 2, 35.866, 47.9398, -13.7809, 97.3949, -50.979, 46.0158
3.968, 2, 35.866, 47.9398, -13.7809, 97.3949, -50.979, 46.0158
3.972, 2, 35.866, 47.9398, -13.7809, 97.3949, -50.979, 46.0158
3.976, 2, 35.866, 47.9398, -13.7809, 97.3949, -50.979, 46.0158
3.98, 2, 35.866, 47.9398, -13.7809, 97.3949, -50.979, 46.0158
3.984, 2, 35.866, 47.9398, -13.7809, 97.3949, -50.979, 46.0158
3.988, 2, 35.866, 47.9398, -13.7809, 97.3949, -50.979, 46.0158
3.992, 2, 35.866, 47.9398, -13.7809, 97.3949, -50.979, 46.0158
3.996, 2, 35.866, 47.9398, -13.7809, 97.3949, -50.979, 46.0158
3.999, 2, 35.866, 47.9398, -13.7809, 97.3949, -50.979, 46.0158
4.004, 2, 35.866, 47.9398, -13.7809, 97.3949, -50.979, 46.0158
4.008, 2, 35.866, 47.9398, -13.7809, 97.3949, -50.979, 46.0158
4.012, 2, 35.866, 47.9398, -13.7809, 97.3949, -50.979, 46.0158
4.016, 2, 35.866, 47.9398, -13.7809, 97.3949, -50.979, 46.0158
4.02, 2, 35.866, 47.9398, -13.7809, 97.3949, -50.979, 46.0158
4.024, 2, 35.866, 47.9398, -13.7809, 97.3949, -50.979, 46.0158
4.028, 2, 35.866, 47.9398, -13.7809, 97.3949, -50.979, 46.0158
4.032, 2, 35.866, 47.9398, -13.7809, 97.3949, -50.979, 46.0158
4.036, 2, 35.866, 47.9398, -13.7809, 97.3949, -50.979, 46.0158
4.04, 2, 35.866, 47.9398, -13.7809, 97.3949, -50.979, 46.0158
4.044, 2, 35.866, 47.9398, -13.7809, 97.3949, -50.979, 46.0158
4.048, 2, 35.866, 47.9398, -13.7809, 97.3949, -50.979, 46.0158
4.052, 2, 35.866, 47.9398, -13.7809, 97.3949, -50.979, 46.0158
4.056, 2, 35.866, 47.9398, -13.7809, 97.3949, -50.979, 46.0158
4.06, 2, 35.866, 47.9398, -13.7809, 97.3949, -50.979, 46.0158
4.064, 2, 35.866, 47.9398, -13.7809, 97.3949, -50.979, 46.0158
4.068, 2, 35.866, 47.9398, -13.7809, 97.3949, -50.979, 46.0158
4.072, 2, 35.866, 47.9398, -13.7809, 97.3949, -50.979, 46.0158
4.076, 2, 35.866, 47.9398, -13.7809, 97.3949, -50.979, 46.0158
4.08, 2, 35.866, 47.9398, -13.7809, 97.3949, -50.979, 46.0158
4.084, 2, 35.866, 47.9398, -13.7809, 97.3949, -50.979, 46.0158
4.088, 2, 35.866, 47.9398, -13.7809, 97.3949, -50.979, 46.0158
4.092, 2, 35.866, 47.9398, -13.7809, 97.3949, -50.979, 46.0158
4.096, 2, 35.866, 47.9398, -13.7809, 97.3949, -50.979, 46.0158
4.1, 2, 35.866, 47.9398, -13.7809, 97.3949, -50.979, 46.0158
4.104, 2, 35.866, 47.9398, -13.7809, 97.3949, -50.979, 46.0158
4.108, 2, 35.866, 47.9398, -13.7809, 97.3949, -50.979, 46.0158
4.112, 2, 35.866, 47.9398, -13.7809, 97.3949, -50.979, 46.0158
4.116, 2, 35.866, 47.9398, -13.7809, 97.3949, -50.979, 46.0158
4.12, 2, 35.866, 47.9398, -13.7809, 97.3949, -50.979, 46.0158
4.124, 2, 35.866, 47.9398, -13.7809, 97.3949, -50.979, 46.0158
4.128, 2, 35.866, 47.9398, -13.7809, 97.3949, -50.979, 46.0158
4.132, 2, 35.866, 47.9398, -13.7809, 97.3949, -50.979, 46.0158
4.136, 2, 35.866, 47.9398, -13.7809, 97.3949, -50.979, 46.0158
4.14, 2, 35.866, 47.9398, -13.7809, 97.3949, -50.979, 46.0158
4.144, 2, 35.866, 47.9398, -13.7809, 97.3949, -50.979, 46.0158
4.148, 2, 35.866, 47.9398, -13.7809, 97.3949, -50.979, 46.0158
4.152, 2, 35.866, 47.9398, -13.7809, 97.3949, -50.979, 46.0158
4.156, 2, 35.866, 47.9398, -13.7809, 97.3949, -50.979, 46.0158
4.16, 2, 35.866, 47.9398, -13.7809, 97.3949, -50.979, 46.0158
4.164, 2, 35.866, 47.9398, -13.7809, 97.3949, -50.979, 46.0158
4.168, 2, 35.866, 47.9398, -13.7809, 97.3949, -50.979, 46.0158
4.172, 2, 35.866, 47.9398, -13.7809, 97.3949, -50.979, 46.0158
4.176, 2, 35.866, 47.9398, -13.7809, 97.3949, -50.979, 46.0158
4.18, 2, 35.866, 47.9398, -13.7809, 97.3949, -50.979, 46.0158
4.184, 2, 35.866, 47.9398, -13.7809, 97.3949, -50.979, 46.0158
4.188, 2, 35.866, 47.9398, -13.7809, 97.3949, -50.979, 46.0158
4.192, 2, 35.866, 47.9398, -13.7809, 97.3949, -50.979, 46.0158
4.196, 2, 35.866, 47.9398, -13.7809, 97.3949, -50.979, 46.0158
4.2, 2, 35.866, 47.9398, -13.7809, 97.3949, -50.979, 46.0158
4.204, 2, 35.866, 47.9398, -13.7809, 97.3949, -50.979, 46.0158
4.208, 2, 35.866, 47.9398, -13.7809, 97.3949, -50.979, 46.0158
4.212, 2, 35.866, 47.9398, -13.7809, 97.3949, -50.979, 46.0158
4.216, 2, 35.866, 47.9398, -13.7809, 97.3949, -50.979, 46.0158
4.22, 2, 35.866, 47.9398, -13.7809, 97.3949, -50.979, 46.0158
4.224, 2, 35.866, 47.9398, -13.7809, 97.3949, -50.979, 46.0158
4.228, 2, 35.866, 47.9398, -13.7809, 97.3949, -50.979, 46.0158
4.232, 2, 35.866, 47.9398, -13.7809, 97.3949, -50.979, 46.0158
4.236, 2, 35.866, 47.9398, -13.7809, 97.3949, -50.979, 46.0158
4.24, 2, 35.866, 47.9398, -13.7809, 97.3949, -50.979, 46.0158
4.244, 2, 35.866, 47.9398, -13.7809, 97.3949, -50.979, 46.0158
4.248, 2, 35.866, 47.9398, -13.7809, 97.3949, -50.979, 46.0158
4.252, 2, 35.866, 47.9398, -13.7809, 97.3949, -50.979, 46.0158
4.256, 2, 35.866, 47.9398, -13.7809, 97.3949, -50.979, 46.0158
4.26, 2, 35.866, 47.9398, -13.7809, 97.3949, -50.979, 46.0158
4.264, 2, 35.866, 47.9398, -13.7809, 97.3949, -50.979, 46.0158
4.268, 2, 35.866, 47.9398, -13.7809, 97.3949, -50.979, 46.0158
4.272, 2, 35.866, 47.9398, -13.7809, 97.3949, -50.979, 46.0158
4.276, 2, 35.866, 47.9398, -13.7809, 97.3949, -50.979, 46.0158
4.28, 2, 35.866, 47.9398, -13.7809, 97.3949, -50.979, 46.0158
4.284, 2, 35.866, 47.9398, -13.7809, 97.3949, -50.979, 46.0158
4.288, 2, 35.866, 47.9398, -13.7809, 97.3949, -50.979, 46.0158
4.292, 2, 35.866, 47.9398, -13.7809, 97.3949, -50.979, 46.0158
4.296, 2, 35.866, 47.9398, -13.7809, 97.3949, -50.979, 46.0158
4.3, 2, 35.866, 47.9398, -13.7809, 97.3949, -50.979, 46.0158
4.304, 2, 35.866, 47.9398, -13.7809, 97.3949, -50.979, 46.0158
4.308, 2, 35.866, 47.9398, -13.7809, 97.3949, -50.979, 46.0158
4.312, 2, 35.866, 47.9398, -13.7809, 97.3949, -50.979, 46.0158
4.316, 2, 35.866, 47.9398, -13.7809, 97.3949, -50.979, 46.0158
4.32, 2, 35.866, 47.9398, -13.7809, 97.3949, -50.979, 46.0158
4.324, 2, 35.866, 47.9398, -13.7809, 97.3949, -50.979, 46.0158
4.328, 2, 35.866, 47.9398, -13.7809, 97.3949, -50.979, 46.0158
4.332, 2, 35.866, 47.9398, -13.7809, 97.3949, -50.979, 46.0158
4.336, 2, 35.866, 47.9398, -13.7809, 97.3949, -50.979, 46.0158
4.34, 2, 35.866, 47.9398, -13.7809, 97.3949, -50.979, 46.0158
4.344, 2, 35.866, 47.9398, -13.7809, 97.3949, -50.979, 46.0158
4.348, 2, 35.866, 47.9398, -13.7809, 97.3949, -50.979, 46.0158
4.352, 2, 35.866, 47.9398, -13.7809, 97.3949, -50.979, 46.0158
4.356, 2, 35.866, 47.9398, -13.7809, 97.3949, -50.979, 46.0158
4.36, 2, 35.866, 47.9398, -13.7809, 97.3949, -50.979, 46.0158
4.364, 2, 35.866, 47.9398, -13.7809, 97.3949, -50.979, 46.0158
4.368, 2, 35.866, 47.9398, -13.7809, 97.3949, -50.979, 46.0158
4.372, 2, 35.866, 47.9398, -13.7809, 97.3949, -50.979, 46.0158
4.376, 2, 35.866, 47.9398, -13.7809, 97.3949, -50.979, 46.0158
4.38, 2, 35.866, 47.9398, -13.7809, 97.3949, -50.979, 46.0158
4.384, 2, 35.866, 47.9398, -13.7809, 97.3949, -50.979, 46.0158
4.388, 2, 35.866, 47.9398, -13.7809, 97.3949, -50.979, 46.0158
4.392, 2, 35.866, 47.9398, -13.7809, 97.3949, -50.979, 46.0158
4.396, 2, 35.866, 47.9398, -13.7809, 97.3949, -50.979, 46.0158
4.4, 3, 35.866, 47.9398, -13.7809, 97.3949, -50.979, 46.0158
4.404, 3, 35.866, 47.9398, -13.7809, 97.3949, -50.979, 46.0158
4.408, 3, 35.866, 47.9398, -13.7809, 97.3949, -50.979, 46.0158
4.412, 3, 35.866, 47.9398, -13.7809, 97.3949, -50.979, 46.0158
4.416, 3, 35.866, 47.9398, -13.7809, 97.3949, -50.979, 46.0158
4.42, 3, 35.866, 47.9398, -13.7809, 97.3949, -50.979, 46.0158
4.424, 3, 35.866, 47.9398, -13.7809, 97.3949, -50.979, 46.0158
4.428, 3, 35.866, 47.9398, -13.7809, 97.3949, -50.979, 46.0158
4.432, 3, 35.866, 47.9398, -13.7809, 97.3949, -50.979, 46.0158
4.436, 4, 35.866, 47.9398, -13.7809, 97.3949, -50.979, 46.0158
4.44, 4, 35.866, 47.9398, -13.7809, 97.3949, -50.979, 46.0158
4.444, 4, 35.866, 47.9398, -13.7809, 97.3949, -50.979, 46.0158
4.448, 4, 35.866, 47.9398, -13.7809, 97.3949, -50.979, 46.0158
4.452, 4, 35.866, 47.9398, -13.7809, 97.3949, -50.979, 46.0158
4.456, 4, 35.866, 47.9398, -13.7809, 97.3949, -50.979, 46.0158
4.46, 4, 35.866, 47.9398, -13.7809, 97.3949, -50.979, 46.0158
4.464, 4, 35.866, 47.9398, -13.7809, 97.3949, -50.979, 46.0158
4.468, 4, 35.866, 47.9398, -13.7809, 97.3949, -50.979, 46.0158
4.472, 4, 35.866, 47.9398, -13.7809, 97.3949, -50.979, 46.0158
4.476, 4, 35.866, 47.9398, -13.7809, 97.3949, -50.979, 46.0158
4.48, 4, 35.866, 47.9398, -13.7809, 97.3949, -50.979, 46.0158
4.484, 4, 35.866, 47.9398, -13.7809, 97.3949, -50.979, 46.0158
4.488, 4, 35.866, 47.9398, -13.7809, 97.3949, -50.979, 46.0158
4.492, 4, 35.866, 47.9398, -13.7809, 97.3949, -50.979, 46.0158
4.496, 4, 35.866, 47.9398, -13.7809, 97.3949, -50.979, 46.0158
4.5, 4, 35.866, 47.9398, -13.7809, 97.3949, -50.979, 46.0158
4.504, 4, 35.866, 47.9398, -13.7809, 97.3949, -50.979, 46.0158
4.508, 4, 35.866, 47.9398, -13.7809, 97.3949, -50.979, 46.0158
4.512, 4, 35.866, 47.9398, -13.7809, 97.3949, -50.979, 46.0158
4.516, 4, 35.866, 47.9398, -13.7809, 97.3949, -50.979, 46.0158
4.52, 4, 35.866, 47.9398, -13.7809, 97.3949, -50.979, 46.0158
4.524, 4, 35.866, 47.9398, -13.7809, 97.3949, -50.979, 46.0158
4.528, 4, 35.866, 47.9398, -13.7809, 97.3949, -50.979, 46.0158
4.532, 4, 35.866, 47.9398, -13.7809, 97.3949, -50.979, 46.0158
4.536, 5, 35.866, 47.9398, -13.7809, 97.3949, -50.979, 46.0158
4.54, 5, 35.866, 47.9398, -13.7809, 97.3949, -50.979, 46.0158
4.544, 5, 35.866, 47.9398, -13.7809, 97.3949, -50.979, 46.0158
4.548, 5, 35.866, 47.9398, -13.7809, 97.3949, -50.979, 46.0158
4.552, 5, 35.866, 47.9398, -13.7809, 97.3949, -50.979, 46.0158
4.556, 5, 35.866, 47.9398, -13.7809, 97.3949, -50.979, 46.0158
4.56, 5, 35.866, 47.9398, -13.7809, 97.3949, -50.979, 46.0158
4.564, 5, 35.866, 47.9398, -13.7809, 97.3949, -50.979, 46.0158
4.568, 5, 35.866, 47.9399, -13.7809, 97.3949, -50.979, 46.0158
4.572, 5, 35.866, 47.94, -13.7809, 97.3949, -50.979, 46.0158
4.576, 5, 35.866, 47.9404, -13.7809, 97.3949, -50.979, 46.0158
4.58, 5, 35.8659, 47.9411, -13.7809, 97.3949, -50.9791, 46.0158
4.584, 5, 35.8658, 47.9424, -13.781, 97.3949, -50.9795, 46.0157
4.588, 5, 35.8656, 47.9442, -13.7811, 97.3948, -50.9802, 46.0155
4.592, 5, 35.8654, 47.9468, -13.7813, 97.3946, -50.9814, 46.015
4.596, 5, 35.8651, 47.9503, -13.7816, 97.3943, -50.9837, 46.0143
4.6, 5, 35.8648, 47.9548, -13.782, 97.3939, -50.9873, 46.0132
4.604, 5, 35.8644, 47.9604, -13.7827, 97.3932, -50.9928, 46.0115
4.608, 5, 35.8639, 47.9674, -13.7838, 97.3922, -51.0009, 46.0089
4.612, 5, 35.8634, 47.9761, -13.7852, 97.3908, -51.0122, 46.0054
4.616, 5, 35.8628, 47.9866, -13.7871, 97.3889, -51.0276, 46.0005
4.62, 5, 35.8621, 47.9992, -13.7896, 97.3864, -51.048, 45.9941
4.624, 5, 35.8614, 48.0138, -13.7929, 97.3831, -51.0744, 45.9858
4.628, 5, 35.8608, 48.0305, -13.797, 97.3789, -51.1077, 45.9753
4.632, 5, 35.8602, 48.0493, -13.802, 97.3737, -51.149, 45.9624
4.636, 5, 35.8596, 48.0704, -13.8082, 97.3675, -51.1991, 45.9466
4.64, 5, 35.8591, 48.0939, -13.8155, 97.36, -51.2588, 45.9279
4.644, 5, 35.8588, 48.1198, -13.824, 97.3512, -51.3287, 45.9059
4.648, 5, 35.8585, 48.1481, -13.8338, 97.341, -51.4094, 45.8806
4.652, 5, 35.8583, 48.1789, -13.845, 97.3295, -51.5011, 45.8518
4.656, 5, 35.8583, 48.2122, -13.8575, 97.3166, -51.604, 45.8195
4.66, 5, 35.8584, 48.2479, -13.8713, 97.3023, -51.7179, 45.7837
4.664, 5, 35.8586, 48.2859, -13.8864, 97.2866, -51.8427, 45.7445
4.668, 5, 35.8589, 48.3262, -13.9028, 97.2696, -51.9777, 45.7022
4.672, 5, 35.8593, 48.3688, -13.9204, 97.2514, -52.1223, 45.6568
4.676, 5, 35.8597, 48.4139, -13.939, 97.2321, -52.2757, 45.6086
4.68, 5, 35.8602, 48.4614, -13.9585, 97.2118, -52.4371, 45.558
4.684, 5, 35.8606, 48.5111, -13.9789, 97.1906, -52.6053, 45.5051
4.688, 5, 35.861, 48.5631, -14.0001, 97.1687, -52.7797, 45.4504
4.692, 5, 35.8614, 48.617, -14.0219, 97.1461, -52.9591, 45.3941
4.696, 5, 35.8617, 48.6727, -14.0442, 97.123, -53.1429, 45.3364
4.7, 5, 35.8619, 48.7301, -14.067, 97.0994, -53.3302, 45.2776
4.704, 5, 35.8621, 48.789, -14.0901, 97.0755, -53.5203, 45.2179
4.708, 5, 35.8622, 48.8493, -14.1134, 97.0513, -53.7126, 45.1575
4.712, 5, 35.8622, 48.9108, -14.137, 97.0269, -53.9067, 45.0966
4.716, 5, 35.8622, 48.9734, -14.1608, 97.0024, -54.1021, 45.0353
4.72, 5, 35.8621, 49.0368, -14.1847, 96.9777, -54.2986, 44.9736
4.724, 5, 35.8619, 49.1009, -14.2087, 96.9528, -54.496, 44.9116
4.728, 5, 35.8618, 49.1655, -14.2328, 96.9279, -54.6942, 44.8494
4.732, 5, 35.8616, 49.2305, -14.257, 96.9029, -54.8931, 44.7869
4.736, 5, 35.8614, 49.2958, -14.2813, 96.8779, -55.0925, 44.7243
4.74, 5, 35.8612, 49.3614, -14.3057, 96.8527, -55.2925, 44.6615
4.744, 5, 35.861, 49.4272, -14.3301, 96.8275, -55.4931, 44.5986
4.748, 5, 35.8608, 49.4931, -14.3545, 96.8022, -55.6941, 44.5354
4.752, 5, 35.8606, 49.5589, -14.3791, 96.7769, -55.8957, 44.4721
4.756, 5, 35.8605, 49.6244, -14.4036, 96.7515, -56.0977, 44.4087
4.76, 5, 35.8604, 49.6892, -14.4282, 96.7261, -56.3, 44.3452
4.764, 5, 35.8604, 49.753, -14.4529, 96.7006, -56.5024, 44.2817
4.768, 5, 35.8604, 49.8157, -14.4774, 96.6752, -56.7046, 44.2182
4.772, 5, 35.8606, 49.8772, -14.5019, 96.6499, -56.906, 44.155
4.776, 5, 35.8608, 49.9375, -14.5263, 96.6247, -57.1062, 44.0921
4.78, 5, 35.861, 49.9967, -14.5503, 96.5998, -57.3045, 44.0299
4.784, 5, 35.8614, 50.0545, -14.5741, 96.5752, -57.4999, 43.9685
4.788, 5, 35.8617, 50.1111, -14.5973, 96.551, -57.6916, 43.9084
4.792, 5, 35.8621, 50.166, -14.6201, 96.5275, -57.8787, 43.8497
4.796, 5, 35.8625, 50.2191, -14.6421, 96.5047, -58.0601, 43.7927
4.8, 5, 35.8629, 50.2702, -14.6633, 96.4827, -58.2347, 43.7379
4.804, 5, 35.8633, 50.3194, -14.6836, 96.4617, -58.4017, 43.6855
4.808, 5, 35.8636, 50.3665, -14.7028, 96.4418, -58.56, 43.6358
4.812, 5, 35.8638, 50.4116, -14.7209, 96.423, -58.709, 43.589
4.816, 5, 35.8639, 50.4545, -14.7378, 96.4056, -58.8478, 43.5455
4.82, 5, 35.8638, 50.4952, -14.7534, 96.3894, -58.9761, 43.5052
4.824, 5, 35.8637, 50.5334, -14.7677, 96.3747, -59.0936, 43.4683
4.828, 5, 35.8636, 50.569, -14.7807, 96.3613, -59.2003, 43.4348
4.832, 5, 35.8633, 50.6018, -14.7924, 96.3492, -59.2962, 43.4047
4.836, 5, 35.863, 50.6319, -14.8029, 96.3385, -59.3816, 43.3779
4.84, 5, 35.8626, 50.6594, -14.812, 96.329, -59.4568, 43.3542
4.844, 5, 35.8622, 50.6843, -14.8201, 96.3208, -59.5222, 43.3337
4.848, 5, 35.8617, 50.7069, -14.827, 96.3138, -59.5785, 43.316
4.852, 5, 35.8612, 50.7271, -14.8329, 96.3078, -59.6263, 43.301
4.856, 5, 35.8607, 50.745, -14.8378, 96.3027, -59.6664, 43.2884
4.86, 5, 35.8602, 50.7608, -14.8419, 96.2986, -59.6996, 43.2779
4.864, 5, 35.8597, 50.7745, -14.8453, 96.2952, -59.7267, 43.2694
4.868, 5, 35.8592, 50.7865, -14.848, 96.2925, -59.7484, 43.2626
4.872, 6, 35.8587, 50.7969, -14.8501, 96.2904, -59.7655, 43.2572
4.876, 6, 35.8583, 50.8062, -14.8517, 96.2887, -59.7786, 43.2531
4.88, 6, 35.8579, 50.8142, -14.853, 96.2875, -59.7886, 43.25
4.884, 6, 35.8576, 50.8212, -14.8539, 96.2866, -59.7959, 43.2477
4.888, 6, 35.8573, 50.827, -14.8546, 96.286, -59.8011, 43.246
4.892, 6, 35.857, 50.8317, -14.8551, 96.2855, -59.8048, 43.2448
4.896, 6, 35.8568, 50.8352, -14.8554, 96.2852, -59.8074, 43.244
4.9, 6, 35.8567, 50.8379, -14.8557, 96.285, -59.8091, 43.2435
4.904, 6, 35.8566, 50.8397, -14.8558, 96.2848, -59.8103, 43.2431
4.908, 6, 35.8564, 50.8411, -14.8559, 96.2847, -59.8112, 43.2428
4.912, 6, 35.8562, 50.8423, -14.856, 96.2846, -59.8118, 43.2426
4.916, 6, 35.8558, 50.8436, -14.8561, 96.2846, -59.8123, 43.2425
4.92, 6, 35.8552, 50.8451, -14.8561, 96.2845, -59.8128, 43.2423
4.924, 6, 35.8543, 50.8471, -14.8562, 96.2843, -59.8137, 43.242
4.928, 6, 35.8531, 50.8498, -14.8562, 96.2839, -59.8152, 43.2416
4.932, 6, 35.8517, 50.8532, -14.8563, 96.2833, -59.8176, 43.2409
4.936, 6, 35.85, 50.8575, -14.8564, 96.2824, -59.8213, 43.2397
4.94, 6, 35.8481, 50.863, -14.8566, 96.2811, -59.827, 43.238
4.944, 6, 35.8459, 50.8698, -14.8568, 96.279, -59.8353, 43.2355
4.948, 6, 35.8435, 50.8782, -14.857, 96.2762, -59.847, 43.232
4.952, 6, 35.8407, 50.8884, -14.8573, 96.2723, -59.8628, 43.2272
4.956, 6, 35.8377, 50.9003, -14.8577, 96.2672, -59.8837, 43.2209
4.96, 6, 35.8344, 50.9141, -14.8582, 96.2606, -59.9107, 43.2128
4.964, 6, 35.831, 50.9297, -14.8587, 96.2522, -59.9448, 43.2025
4.968, 6, 35.8275, 50.9469, -14.8594, 96.2419, -59.9869, 43.1898
4.972, 6, 35.8239, 50.9658, -14.8602, 96.2294, -60.0379, 43.1744
4.976, 6, 35.8202, 50.9866, -14.8611, 96.2146, -60.0985, 43.1561
4.98, 6, 35.8164, 51.0091, -14.8621, 96.1973, -60.1691, 43.1348
4.984, 6, 35.8126, 51.0335, -14.8633, 96.1774, -60.25, 43.1104
4.988, 6, 35.8087, 51.0598, -14.8646, 96.1549, -60.3415, 43.0828
4.992, 6, 35.8047, 51.0881, -14.866, 96.1299, -60.4434, 43.0521
4.996, 6, 35.8006, 51.1182, -14.8675, 96.1024, -60.5555, 43.0183
5, 6, 35.7965, 51.1501, -14.8692, 96.0726, -60.6773, 42.9815
5.004, 6, 35.7923, 51.1838, -14.8709, 96.0404, -60.8081, 42.9421
5.008, 6, 35.7879, 51.2193, -14.8728, 96.0063, -60.9473, 42.9001
5.012, 6, 35.7833, 51.2568, -14.8748, 95.9703, -61.0939, 42.8559
5.016, 6, 35.7784, 51.2963, -14.8769, 95.9327, -61.247, 42.8097
5.02, 6, 35.7733, 51.3377, -14.8791, 95.8938, -61.4057, 42.7618
5.024, 6, 35.7678, 51.3809, -14.8813, 95.8537, -61.5692, 42.7125
5.028, 6, 35.7621, 51.4258, -14.8836, 95.8126, -61.7366, 42.662
5.032, 6, 35.7561, 51.4722, -14.886, 95.7707, -61.9073, 42.6106
5.036, 6, 35.7498, 51.5199, -14.8884, 95.7282, -62.0807, 42.5583
5.04, 6, 35.7432, 51.5687, -14.8908, 95.6851, -62.2562, 42.5053
5.044, 6, 35.7364, 51.6186, -14.8933, 95.6416, -62.4334, 42.4519
5.048, 6, 35.7292, 51.6693, -14.8958, 95.5978, -62.612, 42.398
5.052, 6, 35.7219, 51.7208, -14.8984, 95.5537, -62.7916, 42.3439
5.056, 6, 35.7143, 51.7728, -14.9009, 95.5095, -62.9721, 42.2894
5.06, 6, 35.7066, 51.8254, -14.9035, 95.465, -63.1534, 42.2347
5.064, 6, 35.6987, 51.8783, -14.9061, 95.4203, -63.3354, 42.1798
5.068, 6, 35.6907, 51.9315, -14.9087, 95.3755, -63.518, 42.1248
5.072, 6, 35.6827, 51.9849, -14.9112, 95.3306, -63.7011, 42.0695
5.076, 6, 35.6747, 52.0386, -14.9139, 95.2856, -63.8847, 42.0141
5.08, 6, 35.6666, 52.0924, -14.9165, 95.2404, -64.0689, 41.9586
5.084, 6, 35.6586, 52.1461, -14.9191, 95.1951, -64.2536, 41.9029
5.088, 6, 35.6507, 52.1997, -14.9217, 95.1497, -64.4387, 41.8471
5.092, 6, 35.6431, 52.2528, -14.9243, 95.1042, -64.6241, 41.7911
5.096, 6, 35.6358, 52.305, -14.9269, 95.0586, -64.8097, 41.7352
5.1, 6, 35.6289, 52.3563, -14.9295, 95.0131, -64.9953, 41.6792
5.104, 6, 35.6223, 52.4064, -14.9321, 94.9677, -65.1803, 41.6234
5.108, 6, 35.6161, 52.4552, -14.9347, 94.9226, -65.3643, 41.5679
5.112, 6, 35.6101, 52.5027, -14.9372, 94.8778, -65.5466, 41.5129
5.116, 6, 35.6044, 52.5488, -14.9397, 94.8337, -65.7265, 41.4587
5.12, 6, 35.599, 52.5936, -14.9421, 94.7904, -65.903, 41.4055
5.124, 6, 35.5937, 52.637, -14.9444, 94.7481, -66.0751, 41.3536
5.128, 6, 35.5886, 52.6789, -14.9467, 94.7072, -66.2418, 41.3033
5.132, 6, 35.5837, 52.7193, -14.9489, 94.6679, -66.402, 41.255
5.136, 6, 35.5789, 52.7582, -14.951, 94.6304, -66.5547, 41.2089
5.14, 6, 35.5742, 52.7954, -14.9529, 94.595, -66.6989, 41.1655
5.144, 6, 35.5695, 52.831, -14.9548, 94.5619, -66.8338, 41.1248
5.148, 6, 35.5649, 52.8649, -14.9565, 94.5313, -66.9588, 41.0871
5.152, 6, 35.5603, 52.8968, -14.9581, 94.5032, -67.0734, 41.0525
5.156, 6, 35.5559, 52.9267, -14.9596, 94.4777, -67.1773, 41.0212
5.16, 6, 35.5516, 52.9547, -14.961, 94.4548, -67.2705, 40.9931
5.164, 6, 35.5473, 52.9807, -14.9622, 94.4346, -67.3531, 40.9682
5.168, 6, 35.5432, 53.0047, -14.9633, 94.4168, -67.4253, 40.9464
5.172, 6, 35.5392, 53.0267, -14.9642, 94.4015, -67.4878, 40.9275
5.176, 6, 35.5354, 53.0468, -14.9651, 94.3885, -67.541, 40.9114
5.18, 6, 35.5318, 53.0648, -14.9658, 94.3775, -67.5858, 40.8979
5.184, 6, 35.5285, 53.0809, -14.9664, 94.3684, -67.623, 40.8867
5.188, 6, 35.5254, 53.095, -14.967, 94.3609, -67.6535, 40.8775
5.192, 6, 35.5226, 53.1075, -14.9674, 94.3549, -67.678, 40.8701
5.196, 7, 35.52, 53.1185, -14.9678, 94.3501, -67.6974, 40.8642
5.2, 7, 35.5177, 53.1281, -14.9681, 94.3464, -67.7125, 40.8597
5.204, 7, 35.5155, 53.1366, -14.9683, 94.3436, -67.7239, 40.8562
5.208, 7, 35.5135, 53.1439, -14.9685, 94.3416, -67.7325, 40.8536
5.212, 7, 35.5117, 53.15, -14.9686, 94.3401, -67.7386, 40.8518
5.216, 7, 35.5102, 53.1549, -14.9687, 94.339, -67.743, 40.8504
5.22, 7, 35.5089, 53.1587, -14.9688, 94.3382, -67.746, 40.8495
5.224, 7, 35.508, 53.1616, -14.9689, 94.3377, -67.7481, 40.8489
5.228, 7, 35.5072, 53.1636, -14.9689, 94.3374, -67.7496, 40.8485
5.232, 7, 35.5065, 53.1651, -14.969, 94.3372, -67.7505, 40.8482
5.236, 7, 35.5058, 53.1663, -14.969, 94.337, -67.7512, 40.848
5.24, 7, 35.5048, 53.1676, -14.9689, 94.3368, -67.7519, 40.8478
5.244, 7, 35.5034, 53.1691, -14.9688, 94.3366, -67.7525, 40.8476
5.248, 7, 35.5015, 53.1711, -14.9686, 94.3362, -67.7536, 40.8474
5.252, 7, 35.4992, 53.1736, -14.9682, 94.3355, -67.7552, 40.8471
5.256, 7, 35.4963, 53.1768, -14.9674, 94.3343, -67.758, 40.8466
5.26, 7, 35.493, 53.1808, -14.9663, 94.3324, -67.7623, 40.8458
5.264, 7, 35.4892, 53.1857, -14.9646, 94.3296, -67.7688, 40.8446
5.268, 7, 35.4849, 53.1916, -14.9621, 94.3256, -67.7781, 40.8429
5.272, 7, 35.48, 53.1986, -14.9586, 94.32, -67.7911, 40.8405
5.276, 7, 35.4744, 53.2068, -14.9539, 94.3123, -67.8087, 40.8373
5.28, 7, 35.4682, 53.2161, -14.9478, 94.3024, -67.8317, 40.833
5.284, 7, 35.4615, 53.2264, -14.94, 94.2896, -67.8611, 40.8276
5.288, 7, 35.4544, 53.2374, -14.9302, 94.2736, -67.8979, 40.8208
5.292, 7, 35.447, 53.249, -14.9184, 94.254, -67.9428, 40.8126
5.296, 7, 35.4393, 53.261, -14.9043, 94.2307, -67.9964, 40.8027
5.3, 7, 35.4314, 53.2733, -14.8878, 94.2034, -68.0592, 40.7912
5.304, 7, 35.4233, 53.2861, -14.8688, 94.172, -68.1312, 40.7779
5.308, 7, 35.4148, 53.2995, -14.8475, 94.1366, -68.2125, 40.7629
5.312, 7, 35.406, 53.3136, -14.8239, 94.0974, -68.3027, 40.7463
5.316, 7, 35.3966, 53.3284, -14.798, 94.0544, -68.4013, 40.7282
5.32, 7, 35.3869, 53.3439, -14.7701, 94.0081, -68.5078, 40.7086
5.324, 7, 35.3769, 53.3603, -14.7403, 93.9587, -68.6212, 40.6877
5.328, 7, 35.3664, 53.3775, -14.7089, 93.9065, -68.7409, 40.6656
5.332, 7, 35.3555, 53.3956, -14.6762, 93.8521, -68.8659, 40.6426
5.336, 7, 35.344, 53.4148, -14.6423, 93.7958, -68.9952, 40.6188
5.34, 7, 35.3318, 53.4352, -14.6074, 93.738, -69.128, 40.5944
5.344, 7, 35.3188, 53.4568, -14.5719, 93.679, -69.2635, 40.5694
5.348, 7, 35.3051, 53.4795, -14.5358, 93.6191, -69.4011, 40.5441
5.352, 7, 35.2905, 53.5032, -14.4992, 93.5585, -69.5403, 40.5185
5.356, 7, 35.2754, 53.5277, -14.4624, 93.4974, -69.6806, 40.4926
5.36, 7, 35.2597, 53.5528, -14.4253, 93.436, -69.8218, 40.4666
5.364, 7, 35.2437, 53.5784, -14.3881, 93.3742, -69.9637, 40.4405
5.368, 7, 35.2274, 53.6043, -14.3506, 93.3121, -70.1063, 40.4143
5.372, 7, 35.211, 53.6304, -14.3131, 93.2499, -70.2493, 40.3879
5.376, 7, 35.1944, 53.6566, -14.2754, 93.1874, -70.3928, 40.3615
5.38, 7, 35.1777, 53.6831, -14.2376, 93.1248, -70.5367, 40.335
5.384, 7, 35.1609, 53.7096, -14.1997, 93.0619, -70.681, 40.3084
5.388, 7, 35.144, 53.7362, -14.1617, 92.999, -70.8257, 40.2818
5.392, 7, 35.1271, 53.763, -14.1236, 92.9358, -70.9707, 40.2551
5.396, 7, 35.1102, 53.7898, -14.0854, 92.8725, -71.1161, 40.2283
5.4, 7, 35.0931, 53.8166, -14.0471, 92.8091, -71.2619, 40.2015
5.404, 7, 35.0761, 53.8436, -14.0087, 92.7455, -71.408, 40.1746
5.408, 7, 35.059, 53.8706, -13.9702, 92.6817, -71.5545, 40.1476
5.412, 7, 35.042, 53.8975, -13.9317, 92.6178, -71.7013, 40.1206
5.416, 7, 35.0253, 53.9244, -13.893, 92.5537, -71.8485, 40.0935
5.42, 7, 35.0088, 53.9511, -13.8543, 92.4896, -71.9959, 40.0664
5.424, 7, 34.9926, 53.9775, -13.8156, 92.4253, -72.1435, 40.0392
5.428, 7, 34.977, 54.0033, -13.7768, 92.3611, -72.2911, 40.012
5.432, 7, 34.9619, 54.0282, -13.7381, 92.2969, -72.4385, 39.9849
5.436, 7, 34.9473, 54.0521, -13.6996, 92.233, -72.5853, 39.9579
5.44, 7, 34.9334, 54.0748, -13.6614, 92.1695, -72.731, 39.931
5.444, 7, 34.9199, 54.0963, -13.6236, 92.1068, -72.8751, 39.9045
5.448, 7, 34.907, 54.1168, -13.5865, 92.0451, -73.0168, 39.8784
5.452, 7, 34.8945, 54.1364, -13.5502, 91.9849, -73.1552, 39.8529
5.456, 7, 34.8825, 54.1552, -13.5151, 91.9264, -73.2894, 39.8282
5.46, 7, 34.8708, 54.1734, -13.4813, 91.8702, -73.4185, 39.8045
5.464, 7, 34.8595, 54.1911, -13.449, 91.8166, -73.5416, 39.7818
5.468, 7, 34.8487, 54.2081, -13.4186, 91.766, -73.6579, 39.7604
5.472, 7, 34.8384, 54.2244, -13.3901, 91.7187, -73.7665, 39.7404
5.476, 7, 34.8285, 54.24, -13.3639, 91.675, -73.8667, 39.7219
5.48, 7, 34.819, 54.2549, -13.3399, 91.6352, -73.9582, 39.7051
5.484, 7, 34.8099, 54.2693, -13.3183, 91.5994, -74.0404, 39.69
5.488, 7, 34.8011, 54.2832, -13.2992, 91.5677, -74.1134, 39.6765
5.492, 7, 34.7926, 54.2966, -13.2824, 91.5399, -74.1771, 39.6648
5.496, 7, 34.7845, 54.3095, -13.268, 91.5161, -74.2319, 39.6547
5.5, 7, 34.7767, 54.3217, -13.2557, 91.4959, -74.2783, 39.6462
5.504, 7, 34.7696, 54.3332, -13.2455, 91.4791, -74.3169, 39.6391
5.508, 7, 34.7631, 54.3438, -13.2371, 91.4653, -74.3486, 39.6332
5.512, 8, 34.7572, 54.3535, -13.2303, 91.4542, -74.3742, 39.6285
5.516, 8, 34.7518, 54.3623, -13.225, 91.4454, -74.3943, 39.6248
5.52, 8, 34.747, 54.3703, -13.2208, 91.4387, -74.41, 39.6219
5.524, 8, 34.7426, 54.3775, -13.2176, 91.4335, -74.4217, 39.6198
5.528, 8, 34.7386, 54.3836, -13.2153, 91.4298, -74.4305, 39.6182
5.532, 8, 34.7351, 54.3888, -13.2136, 91.427, -74.4367, 39.617
5.536, 8, 34.7322, 54.3929, -13.2123, 91.4251, -74.4412, 39.6162
5.54, 8, 34.7298, 54.396, -13.2115, 91.4238, -74.4443, 39.6156
5.544, 8, 34.7279, 54.3983, -13.2109, 91.4229, -74.4464, 39.6152
5.548, 8, 34.7266, 54.3999, -13.2105, 91.4222, -74.4478, 39.615
5.552, 8, 34.7254, 54.4011, -13.2102, 91.4218, -74.4488, 39.6148
5.556, 8, 34.7242, 54.402, -13.21, 91.4215, -74.4495, 39.6147
5.56, 8, 34.7226, 54.4029, -13.2097, 91.4212, -74.4501, 39.6146
5.564, 8, 34.7206, 54.4038, -13.2093, 91.4209, -74.4507, 39.6146
5.568, 8, 34.718, 54.4049, -13.2086, 91.4203, -74.4517, 39.6146
5.572, 8, 34.7147, 54.4062, -13.2074, 91.4193, -74.4532, 39.6147
5.576, 8, 34.7107, 54.4078, -13.2054, 91.4177, -74.4556, 39.6149
5.58, 8, 34.7061, 54.4095, -13.2024, 91.4151, -74.4593, 39.6152
5.584, 8, 34.7008, 54.4114, -13.198, 91.4113, -74.4649, 39.6156
5.588, 8, 34.6949, 54.4134, -13.1917, 91.4058, -74.4728, 39.6163
5.592, 8, 34.6881, 54.4154, -13.1832, 91.3982, -74.4838, 39.6172
5.596, 8, 34.6804, 54.4174, -13.1718, 91.388, -74.4984, 39.6185
5.6, 8, 34.6718, 54.4192, -13.1572, 91.3749, -74.5173, 39.6201
5.604, 8, 34.6625, 54.4207, -13.1389, 91.3582, -74.5411, 39.6222
5.608, 8, 34.6525, 54.4216, -13.1163, 91.3376, -74.5706, 39.6247
5.612, 8, 34.6419, 54.4217, -13.0892, 91.3128, -74.6061, 39.6278
5.616, 8, 34.6309, 54.421, -13.0573, 91.2834, -74.648, 39.6314
5.62, 8, 34.6194, 54.4194, -13.0205, 91.2494, -74.6966, 39.6356
5.624, 8, 34.6073, 54.417, -12.9787, 91.2107, -74.7518, 39.6404
5.628, 8, 34.5946, 54.4138, -12.932, 91.1675, -74.8134, 39.6457
5.632, 8, 34.5811, 54.4099, -12.8807, 91.1199, -74.8813, 39.6516
5.636, 8, 34.5669, 54.4056, -12.825, 91.0682, -74.955, 39.658
5.64, 8, 34.5518, 54.4008, -12.7654, 91.0129, -75.0339, 39.6648
5.644, 8, 34.5361, 54.3957, -12.7023, 90.9543, -75.1175, 39.672
5.648, 8, 34.5197, 54.3904, -12.6361, 90.8928, -75.2051, 39.6796
5.652, 8, 34.5025, 54.3851, -12.5673, 90.8289, -75.2962, 39.6875
5.656, 8, 34.4845, 54.3799, -12.4964, 90.7631, -75.3901, 39.6957
5.66, 8, 34.4656, 54.3748, -12.4237, 90.6957, -75.4861, 39.704
5.664, 8, 34.4457, 54.3701, -12.3498, 90.6272, -75.5839, 39.7125
5.668, 8, 34.4249, 54.3656, -12.2748, 90.5577, -75.683, 39.721
5.672, 8, 34.4031, 54.3615, -12.199, 90.4876, -75.783, 39.7297
5.676, 8, 34.3807, 54.3576, -12.1227, 90.417, -75.8837, 39.7384
5.68, 8, 34.3577, 54.3539, -12.046, 90.346, -75.985, 39.7472
5.684, 8, 34.3343, 54.3503, -11.9689, 90.2748, -76.0867, 39.756
5.688, 8, 34.3106, 54.3467, -11.8915, 90.2033, -76.1887, 39.7648
5.692, 8, 34.2867, 54.3432, -11.8139, 90.1316, -76.2911, 39.7737
5.696, 8, 34.2627, 54.3398, -11.7361, 90.0597, -76.3937, 39.7825
5.7, 8, 34.2385, 54.3363, -11.6582, 89.9876, -76.4965, 39.7914
5.704, 8, 34.2143, 54.3329, -11.58, 89.9154, -76.5996, 39.8004
5.708, 8, 34.19, 54.3295, -11.5017, 89.843, -76.7029, 39.8093
5.712, 8, 34.1656, 54.3261, -11.4232, 89.7705, -76.8064, 39.8183
5.716, 8, 34.1411, 54.3226, -11.3446, 89.6979, -76.91, 39.8272
5.72, 8, 34.1166, 54.3192, -11.2659, 89.6251, -77.0139, 39.8362
5.724, 8, 34.0921, 54.3158, -11.187, 89.5522, -77.118, 39.8452
5.728, 8, 34.0675, 54.3124, -11.1079, 89.4791, -77.2222, 39.8542
5.732, 8, 34.0428, 54.3089, -11.0287, 89.406, -77.3267, 39.8633
5.736, 8, 34.0182, 54.3055, -10.9494, 89.3326, -77.4313, 39.8723
5.74, 8, 33.9934, 54.302, -10.8699, 89.2592, -77.5361, 39.8814
5.744, 8, 33.9687, 54.2986, -10.7902, 89.1856, -77.6412, 39.8905
5.748, 8, 33.9441, 54.2951, -10.7104, 89.1119, -77.7464, 39.8996
5.752, 8, 33.9197, 54.2915, -10.6306, 89.038, -77.8518, 39.9087
5.756, 8, 33.8957, 54.2877, -10.5506, 88.9641, -77.9573, 39.9178
5.76, 8, 33.8722, 54.2839, -10.4706, 88.8901, -78.0628, 39.927
5.764, 8, 33.849, 54.2799, -10.3907, 88.8162, -78.1683, 39.9361
5.768, 8, 33.8263, 54.2757, -10.3109, 88.7424, -78.2737, 39.9452
5.772, 8, 33.804, 54.2713, -10.2315, 88.6688, -78.3786, 39.9543
5.776, 8, 33.7821, 54.2667, -10.1527, 88.5958, -78.4828, 39.9633
5.78, 8, 33.7606, 54.2618, -10.0746, 88.5234, -78.5861, 39.9723
5.784, 8, 33.7398, 54.2565, -9.99753, 88.4519, -78.688, 39.9811
5.788, 8, 33.7196, 54.2508, -9.9219, 88.3817, -78.7882, 39.9898
5.792, 8, 33.7002, 54.2448, -9.84807, 88.3131, -78.886, 39.9983
5.796, 8, 33.6816, 54.2386, -9.77646, 88.2465, -78.981, 40.0065
5.8, 8, 33.6638, 54.2325, -9.7075, 88.1824, -79.0724, 40.0144
5.804, 8, 33.6467, 54.2266, -9.64163, 88.1211, -79.1598, 40.022
5.808, 8, 33.6303, 54.2211, -9.57929, 88.0631, -79.2424, 40.0291
5.812, 8, 33.6146, 54.2162, -9.52087, 88.0088, -79.3199, 40.0358
5.816, 8, 33.5998, 54.2121, -9.46669, 87.9585, -79.3916, 40.0421
5.82, 8, 33.5858, 54.2086, -9.41704, 87.9124, -79.4574, 40.0477
5.824, 8, 33.5726, 54.206, -9.37208, 87.8708, -79.5168, 40.0529
5.828, 8, 33.5601, 54.2043, -9.33193, 87.8336, -79.5698, 40.0575
5.832, 8, 33.5483, 54.2036, -9.29657, 87.801, -79.6163, 40.0615
5.836, 8, 33.5372, 54.2038, -9.26589, 87.7729, -79.6566, 40.065
5.84, 8, 33.5267, 54.205, -9.2397, 87.7489, -79.6908, 40.0679
5.844, 8, 33.5171, 54.2068, -9.21771, 87.7289, -79.7194, 40.0704
5.848, 8, 33.5082, 54.209, -9.19956, 87.7125, -79.7429, 40.0724
5.852, 9, 33.5002, 54.2114, -9.18484, 87.6993, -79.7619, 40.0741
5.856, 9, 33.493, 54.2139, -9.17314, 87.6888, -79.7768, 40.0753
5.86, 9, 33.4866, 54.2162, -9.16402, 87.6808, -79.7884, 40.0763
5.864, 9, 33.4809, 54.2183, -9.15705, 87.6747, -79.7972, 40.0771
5.868, 9, 33.4758, 54.2202, -9.15184, 87.6702, -79.8037, 40.0776
5.872, 9, 33.4714, 54.2218, -9.14803, 87.6669, -79.8084, 40.078
5.876, 9, 33.4676, 54.2232, -9.1453, 87.6646, -79.8117, 40.0783
5.88, 9, 33.4646, 54.2242, -9.14338, 87.663, -79.814, 40.0785
5.884, 9, 33.4623, 54.225, -9.14205, 87.6619, -79.8156, 40.0787
5.888, 9, 33.4606, 54.2256, -9.14114, 87.6612, -79.8167, 40.0788
5.892, 9, 33.4592, 54.226, -9.1405, 87.6607, -79.8174, 40.0788
5.896, 9, 33.4579, 54.2262, -9.14, 87.6603, -79.8179, 40.0789
5.9, 9, 33.4563, 54.2264, -9.13953, 87.66, -79.8183, 40.0789
5.904, 9, 33.4543, 54.2265, -9.13893, 87.6597, -79.8188, 40.0791
5.908, 9, 33.4517, 54.2265, -9.13803, 87.6591, -79.8193, 40.0793
5.912, 9, 33.4486, 54.2264, -9.13659, 87.6583, -79.8202, 40.0798
5.916, 9, 33.4447, 54.226, -9.1343, 87.6568, -79.8215, 40.0806
5.92, 9, 33.4402, 54.2254, -9.13081, 87.6546, -79.8236, 40.0819
5.924, 9, 33.4349, 54.2243, -9.12567, 87.6512, -79.8267, 40.0838
5.928, 9, 33.4287, 54.2227, -9.11837, 87.6463, -79.8311, 40.0866
5.932, 9, 33.4215, 54.2205, -9.10832, 87.6394, -79.8372, 40.0905
5.936, 9, 33.4131, 54.2173, -9.09488, 87.6301, -79.8454, 40.0959
5.94, 9, 33.4034, 54.2131, -9.07736, 87.6179, -79.8561, 40.1029
5.944, 9, 33.3927, 54.2076, -9.05508, 87.6022, -79.8699, 40.1119
5.948, 9, 33.381, 54.2007, -9.02739, 87.5826, -79.8871, 40.1231
5.952, 9, 33.3684, 54.1921, -8.99372, 87.5585, -79.9081, 40.137
5.956, 9, 33.3551, 54.1817, -8.9536, 87.5296, -79.9332, 40.1536
5.96, 9, 33.3411, 54.1695, -8.90673, 87.4957, -79.9627, 40.173
5.964, 9, 33.3262, 54.1553, -8.85296, 87.4567, -79.9965, 40.1954
5.968, 9, 33.3105, 54.1392, -8.79232, 87.4126, -80.0348, 40.2208
5.972, 9, 33.2937, 54.1213, -8.72499, 87.3636, -80.0773, 40.2489
5.976, 9, 33.2759, 54.1017, -8.65131, 87.3098, -80.1239, 40.2798
5.98, 9, 33.2571, 54.0805, -8.57174, 87.2517, -80.1742, 40.3132
5.984, 9, 33.2374, 54.0578, -8.48683, 87.1897, -80.2279, 40.3488
5.988, 9, 33.2169, 54.0339, -8.39721, 87.1242, -80.2847, 40.3865
5.992, 9, 33.1954, 54.0089, -8.30356, 87.0557, -80.3439, 40.4258
5.996, 9, 33.173, 53.9831, -8.20655, 86.9848, -80.4053, 40.4665
6, 9, 33.1494, 53.9566, -8.10681, 86.912, -80.4684, 40.5083
6.004, 9, 33.1246, 53.9296, -8.00494, 86.8378, -80.5328, 40.551
6.008, 9, 33.0987, 53.9022, -7.90144, 86.7624, -80.5981, 40.5943
6.012, 9, 33.0716, 53.8745, -7.79672, 86.6862, -80.6642, 40.6381
6.016, 9, 33.0435, 53.8467, -7.6911, 86.6094, -80.7308, 40.6822
6.02, 9, 33.0147, 53.8188, -7.58482, 86.5321, -80.7979, 40.7265
6.024, 9, 32.9854, 53.7907, -7.47805, 86.4546, -80.8652, 40.7711
6.028, 9, 32.9557, 53.7626, -7.37091, 86.3768, -80.9327, 40.8158
6.032, 9, 32.9257, 53.7343, -7.26346, 86.2988, -81.0004, 40.8606
6.036, 9, 32.8955, 53.7061, -7.15577, 86.2206, -81.0683, 40.9055
6.04, 9, 32.8652, 53.6777, -7.04787, 86.1423, -81.1363, 40.9504
6.044, 9, 32.8348, 53.6494, -6.93979, 86.0638, -81.2044, 40.9955
6.048, 9, 32.8043, 53.621, -6.83153, 85.9852, -81.2726, 41.0406
6.052, 9, 32.7737, 53.5925, -6.72311, 85.9065, -81.3409, 41.0858
6.056, 9, 32.7431, 53.564, -6.61454, 85.8277, -81.4093, 41.1311
6.06, 9, 32.7124, 53.5355, -6.50582, 85.7488, -81.4778, 41.1764
6.064, 9, 32.6816, 53.507, -6.39696, 85.6698, -81.5464, 41.2218
6.068, 9, 32.6509, 53.4784, -6.28795, 85.5907, -81.615, 41.2672
