hehonglu123/Motion-Primitive-Planning/simulation/robotstudio_sim/scripts/fitting_output/movej/curve_exe_v50_fine.csv
timestamp, cmd_num, J1, J2, J3, J4, J5, J6
0, 1, -1.13838, 64.0129, 9.40939, 42.9264, -96.1219, 171.423
0.002, 1, -1.13838, 64.0129, 9.40939, 42.9264, -96.1219, 171.423
0.004, 1, -1.13838, 64.0129, 9.40939, 42.9264, -96.1219, 171.423
0.008, 1, -1.13838, 64.0129, 9.40939, 42.9264, -96.1219, 171.423
0.011, 1, -1.13838, 64.0129, 9.40939, 42.9264, -96.1219, 171.423
0.016, 1, -1.13838, 64.0129, 9.40939, 42.9264, -96.1219, 171.423
0.02, 1, -1.13838, 64.0129, 9.40939, 42.9264, -96.1219, 171.423
0.024, 1, -1.13838, 64.0129, 9.40939, 42.9264, -96.1219, 171.423
0.028, 1, -1.13838, 64.0129, 9.40939, 42.9264, -96.1219, 171.423
0.032, 1, -1.13837, 64.0129, 9.40939, 42.9264, -96.1219, 171.423
0.036, 1, -1.13831, 64.0128, 9.40939, 42.9264, -96.1219, 171.423
0.04, 1, -1.13809, 64.0128, 9.4094, 42.9264, -96.1219, 171.423
0.044, 1, -1.13756, 64.0126, 9.40941, 42.9264, -96.1219, 171.423
0.048, 1, -1.1366, 64.0124, 9.40944, 42.9264, -96.1219, 171.423
0.052, 1, -1.13507, 64.0119, 9.40947, 42.9266, -96.1218, 171.422
0.056, 1, -1.13292, 64.0111, 9.40948, 42.9268, -96.1216, 171.422
0.06, 1, -1.1301, 64.01, 9.40943, 42.9273, -96.1212, 171.421
0.064, 1, -1.12656, 64.0086, 9.40928, 42.9281, -96.1206, 171.419
0.068, 1, -1.12225, 64.0068, 9.40896, 42.9294, -96.1195, 171.416
0.072, 1, -1.11709, 64.0044, 9.40838, 42.9314, -96.1178, 171.411
0.076, 1, -1.11091, 64.0015, 9.40745, 42.9344, -96.1154, 171.404
0.08, 1, -1.10351, 63.998, 9.40606, 42.9386, -96.1119, 171.394
0.084, 1, -1.09469, 63.9938, 9.40406, 42.9443, -96.1072, 171.381
0.088, 1, -1.08429, 63.9887, 9.4013, 42.9519, -96.101, 171.363
0.092, 1, -1.07219, 63.9828, 9.39761, 42.9617, -96.0929, 171.341
0.096, 1, -1.05833, 63.9761, 9.39282, 42.9741, -96.0827, 171.312
0.1, 1, -1.04258, 63.9685, 9.38673, 42.9895, -96.0699, 171.276
0.104, 1, -1.02482, 63.9598, 9.37918, 43.0083, -96.0543, 171.233
0.108, 1, -1.00491, 63.9502, 9.37, 43.0309, -96.0357, 171.181
0.112, 1, -0.98278, 63.9396, 9.35905, 43.0575, -96.0136, 171.119
0.116, 1, -0.958389, 63.9281, 9.34618, 43.0885, -95.988, 171.048
0.12, 1, -0.931766, 63.9158, 9.33128, 43.1241, -95.9585, 170.966
0.124, 1, -0.90295, 63.9029, 9.31425, 43.1645, -95.925, 170.873
0.128, 1, -0.871989, 63.8894, 9.29506, 43.2097, -95.8876, 170.769
0.131, 1, -0.838921, 63.8753, 9.27368, 43.2598, -95.846, 170.653
0.136, 1, -0.803752, 63.8607, 9.25015, 43.3147, -95.8005, 170.527
0.139, 1, -0.766449, 63.8453, 9.22456, 43.3743, -95.7511, 170.39
0.144, 1, -0.726979, 63.8291, 9.19701, 43.4383, -95.6981, 170.243
0.148, 1, -0.685361, 63.8119, 9.16766, 43.5064, -95.6416, 170.086
0.152, 1, -0.641687, 63.7939, 9.13664, 43.5782, -95.582, 169.921
0.156, 1, -0.59609, 63.7749, 9.10415, 43.6535, -95.5196, 169.748
0.16, 1, -0.548689, 63.755, 9.07035, 43.7317, -95.4548, 169.568
0.164, 1, -0.499565, 63.7344, 9.03546, 43.8126, -95.3877, 169.382
0.168, 1, -0.448793, 63.7129, 8.99965, 43.8956, -95.3189, 169.191
0.172, 1, -0.396475, 63.6905, 8.96313, 43.9804, -95.2486, 168.996
0.176, 1, -0.342746, 63.6675, 8.92605, 44.0666, -95.1771, 168.797
0.18, 1, -0.287749, 63.6437, 8.88855, 44.1539, -95.1047, 168.596
0.184, 1, -0.231626, 63.6194, 8.85075, 44.242, -95.0316, 168.394
0.188, 1, -0.174527, 63.5945, 8.81275, 44.3308, -94.9581, 168.189
0.192, 1, -0.116606, 63.5692, 8.7746, 44.42, -94.8841, 167.984
0.196, 1, -0.0579902, 63.5435, 8.73635, 44.5096, -94.8099, 167.778
0.2, 1, 0.00122985, 63.5176, 8.69805, 44.5993, -94.7355, 167.571
0.204, 1, 0.0609734, 63.4915, 8.65973, 44.6892, -94.661, 167.364
0.208, 1, 0.121142, 63.4652, 8.62139, 44.7791, -94.5865, 167.157
0.212, 1, 0.181621, 63.4389, 8.58305, 44.8691, -94.5119, 166.95
0.216, 1, 0.242309, 63.4125, 8.54472, 44.959, -94.4373, 166.743
0.22, 1, 0.303127, 63.386, 8.5064, 45.049, -94.3628, 166.536
0.224, 1, 0.364022, 63.3595, 8.46809, 45.139, -94.2882, 166.329
0.228, 1, 0.424959, 63.3331, 8.4298, 45.2289, -94.2137, 166.122
0.232, 1, 0.485914, 63.3066, 8.39153, 45.3187, -94.1392, 165.915
0.236, 1, 0.546868, 63.2801, 8.35328, 45.4086, -94.0648, 165.708
0.24, 1, 0.607813, 63.2536, 8.31505, 45.4984, -93.9904, 165.501
0.244, 1, 0.668738, 63.2271, 8.27685, 45.5881, -93.916, 165.295
0.248, 1, 0.72964, 63.2007, 8.23866, 45.6778, -93.8417, 165.088
0.252, 1, 0.790515, 63.1742, 8.20049, 45.7674, -93.7674, 164.882
0.256, 1, 0.85136, 63.1478, 8.16234, 45.857, -93.6931, 164.676
0.26, 1, 0.912174, 63.1214, 8.12422, 45.9466, -93.6189, 164.469
0.264, 1, 0.972954, 63.095, 8.08612, 46.036, -93.5447, 164.263
0.268, 1, 1.0337, 63.0686, 8.04804, 46.1255, -93.4706, 164.057
0.272, 1, 1.09441, 63.0422, 8.00998, 46.2149, -93.3965, 163.852
0.276, 1, 1.15509, 63.0159, 7.97194, 46.3042, -93.3225, 163.646
0.28, 1, 1.21574, 62.9895, 7.93393, 46.3935, -93.2485, 163.44
0.284, 1, 1.27635, 62.9632, 7.89594, 46.4827, -93.1745, 163.235
0.288, 1, 1.33692, 62.9369, 7.85797, 46.5719, -93.1006, 163.03
0.292, 1, 1.39746, 62.9106, 7.82002, 46.661, -93.0268, 162.824
0.296, 1, 1.45796, 62.8843, 7.7821, 46.7501, -92.9529, 162.619
0.3, 1, 1.51842, 62.858, 7.7442, 46.8391, -92.8792, 162.414
0.304, 1, 1.57885, 62.8318, 7.70632, 46.9281, -92.8054, 162.21
0.308, 1, 1.63924, 62.8055, 7.66846, 47.017, -92.7317, 162.005
0.312, 1, 1.6996, 62.7793, 7.63063, 47.1058, -92.6581, 161.8
0.316, 1, 1.75992, 62.7531, 7.59282, 47.1946, -92.5845, 161.596
0.32, 1, 1.8202, 62.7269, 7.55503, 47.2834, -92.5109, 161.391
0.324, 1, 1.88045, 62.7008, 7.51727, 47.3721, -92.4374, 161.187
0.328, 1, 1.94066, 62.6746, 7.47953, 47.4607, -92.364, 160.983
0.332, 1, 2.00083, 62.6485, 7.44181, 47.5493, -92.2906, 160.779
0.336, 1, 2.06096, 62.6223, 7.40412, 47.6378, -92.2172, 160.575
0.34, 1, 2.12106, 62.5962, 7.36645, 47.7263, -92.1439, 160.372
0.344, 1, 2.18112, 62.5701, 7.3288, 47.8147, -92.0706, 160.168
0.348, 1, 2.24114, 62.5441, 7.29118, 47.9031, -91.9973, 159.965
0.352, 1, 2.30112, 62.518, 7.25358, 47.9914, -91.9241, 159.761
0.356, 1, 2.36107, 62.492, 7.216, 48.0797, -91.851, 159.558
0.36, 1, 2.42097, 62.466, 7.17845, 48.1679, -91.7779, 159.355
0.364, 1, 2.48084, 62.4399, 7.14092, 48.256, -91.7049, 159.152
0.368, 1, 2.54067, 62.414, 7.10342, 48.3441, -91.6319, 158.949
0.372, 1, 2.60046, 62.388, 7.06594, 48.4321, -91.5589, 158.747
0.376, 1, 2.66021, 62.362, 7.02848, 48.5201, -91.486, 158.544
0.38, 1, 2.71993, 62.3361, 6.99105, 48.608, -91.4131, 158.342
0.384, 1, 2.7796, 62.3102, 6.95365, 48.6959, -91.3403, 158.139
0.388, 1, 2.83924, 62.2843, 6.91626, 48.7837, -91.2675, 157.937
0.392, 1, 2.89884, 62.2584, 6.87891, 48.8714, -91.1948, 157.735
0.396, 1, 2.95839, 62.2325, 6.84157, 48.9591, -91.1222, 157.533
0.4, 1, 3.01791, 62.2066, 6.80427, 49.0467, -91.0495, 157.332
0.404, 1, 3.07739, 62.1808, 6.76698, 49.1343, -90.977, 157.13
0.408, 1, 3.13683, 62.155, 6.72972, 49.2218, -90.9044, 156.929
0.412, 1, 3.19623, 62.1292, 6.69249, 49.3092, -90.832, 156.727
0.416, 1, 3.25559, 62.1034, 6.65528, 49.3966, -90.7595, 156.526
0.42, 1, 3.31491, 62.0776, 6.6181, 49.4839, -90.6871, 156.325
0.424, 1, 3.37418, 62.0519, 6.58094, 49.5712, -90.6148, 156.124
0.428, 1, 3.43342, 62.0261, 6.54381, 49.6584, -90.5425, 155.923
0.432, 1, 3.49262, 62.0004, 6.5067, 49.7456, -90.4703, 155.723
0.436, 1, 3.55178, 61.9747, 6.46962, 49.8327, -90.3981, 155.522
0.44, 1, 3.61089, 61.949, 6.43256, 49.9197, -90.326, 155.322
0.444, 1, 3.66997, 61.9234, 6.39553, 50.0067, -90.2539, 155.121
0.448, 1, 3.72901, 61.8977, 6.35853, 50.0936, -90.1819, 154.921
0.452, 1, 3.788, 61.8721, 6.32155, 50.1804, -90.1099, 154.721
0.456, 1, 3.84695, 61.8465, 6.28459, 50.2672, -90.038, 154.522
0.46, 1, 3.90586, 61.8209, 6.24767, 50.354, -89.9661, 154.322
0.464, 1, 3.96473, 61.7953, 6.21077, 50.4406, -89.8943, 154.122
0.468, 1, 4.02356, 61.7698, 6.17389, 50.5272, -89.8225, 153.923
0.472, 1, 4.08235, 61.7442, 6.13704, 50.6138, -89.7507, 153.724
0.476, 1, 4.14109, 61.7187, 6.10022, 50.7003, -89.6791, 153.525
0.48, 1, 4.1998, 61.6932, 6.06342, 50.7867, -89.6074, 153.326
0.484, 1, 4.25846, 61.6677, 6.02665, 50.8731, -89.5359, 153.127
0.488, 1, 4.31708, 61.6423, 5.98991, 50.9594, -89.4643, 152.928
0.492, 1, 4.37565, 61.6168, 5.95319, 51.0456, -89.3929, 152.729
0.496, 1, 4.43419, 61.5914, 5.9165, 51.1318, -89.3214, 152.531
0.5, 1, 4.49268, 61.566, 5.87984, 51.2179, -89.2501, 152.333
0.504, 1, 4.55113, 61.5406, 5.8432, 51.3039, -89.1788, 152.135
0.508, 1, 4.60953, 61.5152, 5.80659, 51.3899, -89.1075, 151.937
0.512, 1, 4.6679, 61.4899, 5.77, 51.4758, -89.0363, 151.739
0.516, 1, 4.72622, 61.4645, 5.73345, 51.5617, -88.9651, 151.541
0.52, 1, 4.7845, 61.4392, 5.69692, 51.6475, -88.894, 151.344
0.524, 1, 4.84273, 61.4139, 5.66041, 51.7332, -88.823, 151.146
0.528, 1, 4.90093, 61.3887, 5.62394, 51.8189, -88.752, 150.949
0.532, 1, 4.95908, 61.3634, 5.58749, 51.9045, -88.681, 150.752
0.536, 1, 5.01718, 61.3382, 5.55107, 51.99, -88.6101, 150.555
0.54, 1, 5.07524, 61.3129, 5.51467, 52.0755, -88.5393, 150.358
0.544, 1, 5.13326, 61.2877, 5.47831, 52.1609, -88.4685, 150.162
0.548, 1, 5.19124, 61.2625, 5.44197, 52.2463, -88.3977, 149.965
0.552, 1, 5.24917, 61.2374, 5.40565, 52.3316, -88.3271, 149.769
0.556, 1, 5.30706, 61.2122, 5.36937, 52.4168, -88.2564, 149.572
0.56, 1, 5.3649, 61.1871, 5.33311, 52.502, -88.1859, 149.376
0.564, 1, 5.4227, 61.162, 5.29688, 52.587, -88.1153, 149.18
0.568, 1, 5.48045, 61.1369, 5.26068, 52.6721, -88.0449, 148.985
0.572, 1, 5.53816, 61.1118, 5.2245, 52.757, -87.9744, 148.789
0.576, 1, 5.59583, 61.0868, 5.18836, 52.8419, -87.9041, 148.594
0.58, 1, 5.65345, 61.0618, 5.15224, 52.9268, -87.8338, 148.398
0.584, 1, 5.71103, 61.0368, 5.11615, 53.0115, -87.7635, 148.203
0.588, 1, 5.76856, 61.0118, 5.08009, 53.0962, -87.6933, 148.008
0.592, 1, 5.82605, 60.9868, 5.04405, 53.1809, -87.6232, 147.813
0.596, 1, 5.88349, 60.9618, 5.00804, 53.2654, -87.5531, 147.619
0.6, 1, 5.94089, 60.9369, 4.97206, 53.3499, -87.4831, 147.424
0.604, 1, 5.99824, 60.912, 4.93611, 53.4344, -87.4131, 147.23
0.608, 1, 6.05555, 60.8871, 4.90019, 53.5187, -87.3432, 147.035
0.612, 1, 6.11282, 60.8622, 4.8643, 53.603, -87.2733, 146.841
0.616, 1, 6.17003, 60.8374, 4.82843, 53.6873, -87.2035, 146.647
0.62, 1, 6.22721, 60.8125, 4.7926, 53.7714, -87.1337, 146.454
0.624, 1, 6.28433, 60.7877, 4.75679, 53.8555, -87.064, 146.26
0.628, 1, 6.34142, 60.7629, 4.72101, 53.9396, -86.9944, 146.066
0.632, 1, 6.39845, 60.7381, 4.68526, 54.0235, -86.9248, 145.873
0.636, 1, 6.45544, 60.7134, 4.64953, 54.1074, -86.8552, 145.68
0.64, 1, 6.51239, 60.6886, 4.61384, 54.1913, -86.7858, 145.487
0.644, 1, 6.56929, 60.6639, 4.57818, 54.275, -86.7163, 145.294
0.648, 1, 6.62614, 60.6392, 4.54254, 54.3587, -86.647, 145.101
0.652, 1, 6.68295, 60.6146, 4.50693, 54.4424, -86.5777, 144.909
0.656, 1, 6.73971, 60.5899, 4.47135, 54.5259, -86.5084, 144.716
0.66, 1, 6.79642, 60.5653, 4.4358, 54.6094, -86.4392, 144.524
0.664, 1, 6.85309, 60.5406, 4.40028, 54.6929, -86.3701, 144.332
0.668, 1, 6.90971, 60.516, 4.36479, 54.7762, -86.301, 144.14
0.672, 1, 6.96629, 60.4915, 4.32933, 54.8595, -86.2319, 143.948
0.676, 1, 7.02282, 60.4669, 4.2939, 54.9427, -86.163, 143.757
0.68, 1, 7.0793, 60.4424, 4.25849, 55.0259, -86.094, 143.565
0.684, 1, 7.13574, 60.4179, 4.22312, 55.1089, -86.0252, 143.374
0.688, 1, 7.19213, 60.3934, 4.18777, 55.192, -85.9564, 143.183
0.692, 1, 7.24847, 60.3689, 4.15246, 55.2749, -85.8876, 142.992
0.696, 1, 7.30476, 60.3444, 4.11717, 55.3578, -85.819, 142.801
0.7, 1, 7.36101, 60.32, 4.08191, 55.4406, -85.7503, 142.611
0.704, 1, 7.41722, 60.2956, 4.04669, 55.5233, -85.6818, 142.42
0.708, 1, 7.47337, 60.2712, 4.01149, 55.606, -85.6133, 142.23
0.712, 1, 7.52948, 60.2468, 3.97632, 55.6886, -85.5448, 142.04
0.716, 1, 7.58554, 60.2225, 3.94118, 55.7711, -85.4764, 141.85
0.72, 1, 7.64155, 60.1981, 3.90607, 55.8536, -85.4081, 141.66
0.724, 1, 7.69752, 60.1738, 3.87099, 55.936, -85.3398, 141.47
0.728, 1, 7.75344, 60.1495, 3.83594, 56.0183, -85.2715, 141.28
0.732, 1, 7.80931, 60.1253, 3.80092, 56.1005, -85.2034, 141.091
0.736, 1, 7.86513, 60.101, 3.76593, 56.1827, -85.1353, 140.902
0.74, 1, 7.92091, 60.0768, 3.73097, 56.2648, -85.0672, 140.713
0.744, 1, 7.97663, 60.0526, 3.69604, 56.3469, -84.9992, 140.524
0.748, 1, 8.03232, 60.0284, 3.66114, 56.4288, -84.9313, 140.335
0.752, 1, 8.08795, 60.0042, 3.62627, 56.5107, -84.8634, 140.147
0.756, 1, 8.14354, 59.9801, 3.59143, 56.5926, -84.7956, 139.958
0.76, 1, 8.19907, 59.956, 3.55662, 56.6743, -84.7278, 139.77
0.764, 1, 8.25456, 59.9319, 3.52184, 56.756, -84.6601, 139.582
0.768, 1, 8.31001, 59.9078, 3.48709, 56.8376, -84.5925, 139.394
0.772, 1, 8.3654, 59.8837, 3.45237, 56.9192, -84.5249, 139.206
0.776, 1, 8.42074, 59.8597, 3.41768, 57.0007, -84.4574, 139.019
0.78, 1, 8.47604, 59.8357, 3.38302, 57.0821, -84.3899, 138.831
0.784, 1, 8.53129, 59.8117, 3.34839, 57.1634, -84.3225, 138.644
0.788, 1, 8.58649, 59.7877, 3.31379, 57.2447, -84.2551, 138.457
0.792, 1, 8.64165, 59.7637, 3.27922, 57.3258, -84.1878, 138.27
0.796, 1, 8.69675, 59.7398, 3.24468, 57.407, -84.1206, 138.083
0.8, 1, 8.75181, 59.7159, 3.21017, 57.488, -84.0534, 137.897
0.804, 1, 8.80682, 59.692, 3.17569, 57.569, -83.9863, 137.71
0.808, 1, 8.86178, 59.6681, 3.14124, 57.6499, -83.9193, 137.524
0.812, 1, 8.91669, 59.6443, 3.10683, 57.7307, -83.8523, 137.338
0.816, 1, 8.97156, 59.6204, 3.07244, 57.8115, -83.7853, 137.152
0.82, 1, 9.02637, 59.5966, 3.03808, 57.8922, -83.7185, 136.966
0.824, 1, 9.08114, 59.5728, 3.00375, 57.9728, -83.6516, 136.78
0.828, 1, 9.13586, 59.5491, 2.96946, 58.0534, -83.5849, 136.595
0.832, 1, 9.19053, 59.5253, 2.93519, 58.1339, -83.5182, 136.41
0.836, 1, 9.24515, 59.5016, 2.90096, 58.2143, -83.4515, 136.224
0.84, 1, 9.29972, 59.4779, 2.86675, 58.2946, -83.385, 136.04
0.844, 1, 9.35425, 59.4542, 2.83258, 58.3749, -83.3184, 135.855
0.848, 1, 9.40872, 59.4305, 2.79843, 58.4551, -83.252, 135.67
0.852, 1, 9.46315, 59.4069, 2.76432, 58.5352, -83.1856, 135.486
0.856, 1, 9.51753, 59.3833, 2.73024, 58.6152, -83.1192, 135.301
0.86, 1, 9.57186, 59.3597, 2.69618, 58.6952, -83.0529, 135.117
0.864, 1, 9.62614, 59.3361, 2.66216, 58.7751, -82.9867, 134.933
0.868, 1, 9.68037, 59.3125, 2.62817, 58.8549, -82.9205, 134.749
0.872, 1, 9.73455, 59.289, 2.59421, 58.9347, -82.8544, 134.566
0.876, 1, 9.78869, 59.2655, 2.56028, 59.0144, -82.7884, 134.382
0.88, 1, 9.84277, 59.242, 2.52638, 59.094, -82.7224, 134.199
0.884, 1, 9.89681, 59.2185, 2.49251, 59.1736, -82.6565, 134.016
0.888, 1, 9.9508, 59.1951, 2.45867, 59.253, -82.5906, 133.833
0.892, 1, 10.0047, 59.1716, 2.42487, 59.3324, -82.5248, 133.65
0.896, 1, 10.0586, 59.1482, 2.39109, 59.4118, -82.4591, 133.467
0.9, 1, 10.1125, 59.1248, 2.35734, 59.491, -82.3934, 133.285
0.904, 1, 10.1663, 59.1015, 2.32363, 59.5702, -82.3277, 133.103
0.908, 1, 10.22, 59.0781, 2.28994, 59.6493, -82.2622, 132.92
0.912, 1, 10.2737, 59.0548, 2.25629, 59.7284, -82.1967, 132.738
0.916, 1, 10.3273, 59.0315, 2.22267, 59.8073, -82.1312, 132.557
0.92, 1, 10.3809, 59.0082, 2.18907, 59.8862, -82.0658, 132.375
0.924, 1, 10.4345, 58.985, 2.15551, 59.9651, -82.0005, 132.193
0.928, 1, 10.488, 58.9617, 2.12198, 60.0438, -81.9352, 132.012
0.932, 1, 10.5414, 58.9385, 2.08848, 60.1225, -81.87, 131.831
0.936, 1, 10.5948, 58.9153, 2.05501, 60.2011, -81.8049, 131.65
0.94, 1, 10.6482, 58.8921, 2.02157, 60.2796, -81.7398, 131.469
0.944, 1, 10.7015, 58.869, 1.98817, 60.3581, -81.6748, 131.289
0.948, 1, 10.7547, 58.8459, 1.95479, 60.4365, -81.6098, 131.108
0.952, 1, 10.8079, 58.8227, 1.92144, 60.5148, -81.5449, 130.928
0.956, 1, 10.8611, 58.7997, 1.88813, 60.593, -81.48, 130.748
0.96, 1, 10.9142, 58.7766, 1.85485, 60.6712, -81.4152, 130.568
0.964, 1, 10.9673, 58.7535, 1.82159, 60.7493, -81.3505, 130.388
0.968, 1, 11.0203, 58.7305, 1.78837, 60.8274, -81.2858, 130.208
0.972, 1, 11.0732, 58.7075, 1.75518, 60.9053, -81.2212, 130.029
0.976, 1, 11.1261, 58.6845, 1.72202, 60.9832, -81.1567, 129.849
0.98, 1, 11.179, 58.6616, 1.68889, 61.061, -81.0922, 129.67
0.984, 1, 11.2318, 58.6386, 1.65579, 61.1387, -81.0278, 129.491
0.988, 1, 11.2846, 58.6157, 1.62272, 61.2164, -80.9634, 129.312
0.992, 1, 11.3373, 58.5928, 1.58968, 61.294, -80.8991, 129.134
0.996, 1, 11.3899, 58.57, 1.55668, 61.3715, -80.8348, 128.955
1, 1, 11.4425, 58.5471, 1.5237, 61.449, -80.7706, 128.777
1.004, 1, 11.4951, 58.5243, 1.49076, 61.5263, -80.7065, 128.599
1.008, 1, 11.5476, 58.5015, 1.45784, 61.6036, -80.6424, 128.421
1.012, 1, 11.6001, 58.4787, 1.42496, 61.6809, -80.5784, 128.243
1.016, 1, 11.6525, 58.4559, 1.39211, 61.758, -80.5145, 128.065
1.02, 1, 11.7049, 58.4332, 1.35929, 61.8351, -80.4506, 127.888
1.024, 1, 11.7572, 58.4104, 1.3265, 61.9121, -80.3868, 127.711
1.027, 1, 11.8095, 58.3877, 1.29374, 61.9891, -80.323, 127.533
1.032, 1, 11.8617, 58.365, 1.26101, 62.0659, -80.2593, 127.356
1.036, 1, 11.9138, 58.3424, 1.22831, 62.1427, -80.1957, 127.18
1.04, 1, 11.966, 58.3197, 1.19564, 62.2195, -80.1321, 127.003
1.044, 1, 12.018, 58.2971, 1.16301, 62.2961, -80.0685, 126.827
1.048, 1, 12.0701, 58.2745, 1.1304, 62.3727, -80.0051, 126.65
1.052, 1, 12.122, 58.252, 1.09783, 62.4492, -79.9417, 126.474
1.055, 1, 12.174, 58.2294, 1.06529, 62.5256, -79.8783, 126.298
1.06, 1, 12.2258, 58.2069, 1.03277, 62.602, -79.815, 126.122
1.064, 1, 12.2777, 58.1844, 1.00029, 62.6783, -79.7518, 125.947
1.068, 1, 12.3294, 58.1619, 0.967841, 62.7545, -79.6886, 125.771
1.072, 1, 12.3812, 58.1394, 0.935421, 62.8306, -79.6255, 125.596
1.076, 1, 12.4329, 58.117, 0.903032, 62.9067, -79.5625, 125.421
1.08, 1, 12.4845, 58.0945, 0.870673, 62.9827, -79.4995, 125.246
1.084, 1, 12.5361, 58.0721, 0.838345, 63.0586, -79.4366, 125.071
1.088, 1, 12.5876, 58.0497, 0.806048, 63.1345, -79.3737, 124.896
1.091, 1, 12.6391, 58.0274, 0.773782, 63.2103, -79.3109, 124.722
1.096, 1, 12.6905, 58.005, 0.741546, 63.286, -79.2481, 124.547
1.1, 1, 12.7419, 57.9827, 0.709341, 63.3616, -79.1854, 124.373
1.104, 1, 12.7932, 57.9604, 0.677167, 63.4372, -79.1228, 124.199
1.108, 1, 12.8445, 57.9381, 0.645023, 63.5127, -79.0602, 124.025
1.112, 1, 12.8958, 57.9159, 0.61291, 63.5881, -78.9977, 123.852
1.116, 1, 12.947, 57.8936, 0.580828, 63.6635, -78.9353, 123.678
1.119, 1, 12.9981, 57.8714, 0.548776, 63.7387, -78.8729, 123.505
1.124, 1, 13.0492, 57.8492, 0.516755, 63.814, -78.8106, 123.332
1.128, 1, 13.1002, 57.8271, 0.484764, 63.8891, -78.7483, 123.159
1.132, 1, 13.1512, 57.8049, 0.452804, 63.9642, -78.6861, 122.986
1.136, 1, 13.2022, 57.7828, 0.420874, 64.0391, -78.6239, 122.813
1.14, 1, 13.2531, 57.7607, 0.388975, 64.1141, -78.5618, 122.641
1.144, 1, 13.3039, 57.7386, 0.357106, 64.1889, -78.4998, 122.469
1.147, 1, 13.3547, 57.7165, 0.325267, 64.2637, -78.4378, 122.296
1.152, 1, 13.4055, 57.6945, 0.293459, 64.3384, -78.3759, 122.124
1.156, 1, 13.4562, 57.6725, 0.261682, 64.413, -78.314, 121.953
1.16, 1, 13.5068, 57.6505, 0.229935, 64.4876, -78.2523, 121.781
1.164, 1, 13.5575, 57.6285, 0.198218, 64.5621, -78.1905, 121.609
1.168, 1, 13.608, 57.6065, 0.166531, 64.6365, -78.1288, 121.438
1.172, 1, 13.6585, 57.5846, 0.134875, 64.7109, -78.0672, 121.267
1.175, 1, 13.709, 57.5627, 0.103249, 64.7851, -78.0057, 121.096
1.18, 1, 13.7594, 57.5408, 0.071653, 64.8594, -77.9442, 120.925
1.184, 1, 13.8098, 57.5189, 0.0400875, 64.9335, -77.8827, 120.754
1.188, 1, 13.8601, 57.497, 0.00855222, 65.0076, -77.8213, 120.584
1.192, 1, 13.9104, 57.4752, -0.0229529, 65.0816, -77.76, 120.413
1.196, 1, 13.9606, 57.4534, -0.0544278, 65.1555, -77.6987, 120.243
1.2, 1, 14.0108, 57.4316, -0.0858726, 65.2293, -77.6375, 120.073
1.204, 1, 14.0609, 57.4098, -0.117287, 65.3031, -77.5764, 119.903
1.208, 1, 14.111, 57.3881, -0.148672, 65.3768, -77.5153, 119.734
1.212, 1, 14.161, 57.3663, -0.180026, 65.4505, -77.4542, 119.564
1.216, 1, 14.211, 57.3446, -0.211351, 65.524, -77.3933, 119.395
1.22, 1, 14.2609, 57.3229, -0.242645, 65.5975, -77.3323, 119.225
1.224, 1, 14.3108, 57.3013, -0.27391, 65.671, -77.2715, 119.056
1.228, 1, 14.3606, 57.2796, -0.305144, 65.7443, -77.2107, 118.887
1.232, 1, 14.4104, 57.258, -0.336349, 65.8176, -77.1499, 118.719
1.236, 1, 14.4602, 57.2364, -0.367524, 65.8908, -77.0893, 118.55
1.24, 1, 14.5099, 57.2148, -0.398668, 65.964, -77.0286, 118.382
1.244, 1, 14.5595, 57.1932, -0.429783, 66.0371, -76.9681, 118.213
1.248, 1, 14.6091, 57.1717, -0.460868, 66.1101, -76.9076, 118.045
1.252, 1, 14.6587, 57.1502, -0.491924, 66.183, -76.8471, 117.877
1.256, 1, 14.7082, 57.1287, -0.522949, 66.2559, -76.7867, 117.71
1.26, 1, 14.7576, 57.1072, -0.553945, 66.3287, -76.7264, 117.542
1.264, 1, 14.807, 57.0857, -0.584911, 66.4014, -76.6661, 117.375
1.267, 1, 14.8564, 57.0643, -0.615847, 66.4741, -76.6059, 117.207
1.272, 1, 14.9057, 57.0429, -0.646753, 66.5467, -76.5457, 117.04
1.276, 1, 14.955, 57.0215, -0.67763, 66.6192, -76.4856, 116.873
1.28, 1, 15.0042, 57.0001, -0.708478, 66.6916, -76.4256, 116.706
1.284, 1, 15.0534, 56.9787, -0.739295, 66.764, -76.3656, 116.54
1.288, 1, 15.1025, 56.9574, -0.770083, 66.8363, -76.3057, 116.373
1.292, 1, 15.1516, 56.9361, -0.800842, 66.9086, -76.2458, 116.207
1.295, 1, 15.2006, 56.9148, -0.831571, 66.9807, -76.186, 116.041
1.3, 1, 15.2496, 56.8935, -0.862271, 67.0528, -76.1262, 115.875
1.304, 1, 15.2985, 56.8722, -0.892941, 67.1249, -76.0665, 115.709
1.308, 1, 15.3474, 56.851, -0.923581, 67.1968, -76.0069, 115.543
1.312, 1, 15.3963, 56.8298, -0.954193, 67.2687, -75.9473, 115.378
1.316, 1, 15.4451, 56.8086, -0.984774, 67.3406, -75.8877, 115.212
1.32, 1, 15.4938, 56.7874, -1.01533, 67.4123, -75.8283, 115.047
1.324, 1, 15.5425, 56.7663, -1.04585, 67.484, -75.7689, 114.882
1.328, 1, 15.5912, 56.7451, -1.07634, 67.5556, -75.7095, 114.717
1.332, 1, 15.6398, 56.724, -1.10681, 67.6272, -75.6502, 114.552
1.336, 1, 15.6884, 56.7029, -1.13725, 67.6987, -75.591, 114.388
1.34, 1, 15.7369, 56.6819, -1.16765, 67.7701, -75.5318, 114.223
1.344, 1, 15.7854, 56.6608, -1.19803, 67.8414, -75.4726, 114.059
1.348, 1, 15.8338, 56.6398, -1.22838, 67.9127, -75.4136, 113.895
1.352, 1, 15.8822, 56.6188, -1.2587, 67.9839, -75.3545, 113.731
1.356, 1, 15.9305, 56.5978, -1.28899, 68.0551, -75.2956, 113.567
1.36, 1, 15.9788, 56.5768, -1.31925, 68.1261, -75.2367, 113.404
1.364, 1, 16.027, 56.5558, -1.34948, 68.1971, -75.1778, 113.24
1.368, 1, 16.0752, 56.5349, -1.37968, 68.2681, -75.119, 113.077
1.372, 1, 16.1234, 56.514, -1.40986, 68.3389, -75.0603, 112.914
1.376, 1, 16.1715, 56.4931, -1.44, 68.4097, -75.0016, 112.751
1.38, 1, 16.2195, 56.4722, -1.47012, 68.4805, -74.943, 112.588
1.384, 1, 16.2675, 56.4514, -1.5002, 68.5511, -74.8844, 112.425
1.388, 1, 16.3155, 56.4305, -1.53026, 68.6217, -74.8259, 112.263
1.392, 1, 16.3634, 56.4097, -1.56029, 68.6923, -74.7675, 112.1
1.396, 1, 16.4113, 56.3889, -1.59029, 68.7627, -74.7091, 111.938
1.4, 1, 16.4591, 56.3682, -1.62026, 68.8331, -74.6507, 111.776
1.404, 1, 16.5069, 56.3474, -1.65021, 68.9035, -74.5924, 111.614
1.408, 1, 16.5546, 56.3267, -1.68012, 68.9737, -74.5342, 111.452
1.412, 1, 16.6023, 56.306, -1.71001, 69.0439, -74.476, 111.291
1.416, 1, 16.65, 56.2853, -1.73987, 69.114, -74.4179, 111.129
1.42, 1, 16.6976, 56.2646, -1.7697, 69.1841, -74.3598, 110.968
1.424, 1, 16.7451, 56.2439, -1.7995, 69.2541, -74.3018, 110.807
1.428, 1, 16.7926, 56.2233, -1.82927, 69.324, -74.2439, 110.646
1.432, 1, 16.8401, 56.2027, -1.85901, 69.3939, -74.186, 110.485
1.436, 1, 16.8875, 56.1821, -1.88873, 69.4637, -74.1281, 110.324
1.44, 1, 16.9349, 56.1615, -1.91842, 69.5334, -74.0704, 110.164
1.444, 1, 16.9822, 56.141, -1.94808, 69.6031, -74.0126, 110.003
1.448, 1, 17.0295, 56.1204, -1.97771, 69.6727, -73.9549, 109.843
1.452, 1, 17.0767, 56.0999, -2.00731, 69.7422, -73.8973, 109.683
1.456, 1, 17.1239, 56.0794, -2.03689, 69.8116, -73.8397, 109.523
1.46, 1, 17.1711, 56.0589, -2.06643, 69.881, -73.7822, 109.363
1.464, 1, 17.2182, 56.0385, -2.09595, 69.9504, -73.7248, 109.204
1.468, 1, 17.2653, 56.018, -2.12545, 70.0196, -73.6674, 109.044
1.472, 1, 17.3123, 55.9976, -2.15491, 70.0888, -73.61, 108.885
1.476, 1, 17.3592, 55.9772, -2.18434, 70.158, -73.5527, 108.726
1.48, 1, 17.4062, 55.9568, -2.21375, 70.2271, -73.4955, 108.567
1.484, 1, 17.4531, 55.9365, -2.24313, 70.2961, -73.4383, 108.408
1.488, 1, 17.4999, 55.9161, -2.27249, 70.365, -73.3811, 108.249
1.492, 1, 17.5467, 55.8958, -2.30181, 70.4339, -73.324, 108.09
1.496, 1, 17.5934, 55.8755, -2.33111, 70.5027, -73.267, 107.932
1.5, 1, 17.6401, 55.8552, -2.36038, 70.5714, -73.21, 107.774
1.504, 1, 17.6868, 55.8349, -2.38962, 70.6401, -73.1531, 107.615
1.508, 1, 17.7334, 55.8147, -2.41883, 70.7087, -73.0962, 107.458
1.512, 1, 17.78, 55.7945, -2.44802, 70.7773, -73.0394, 107.3
1.516, 1, 17.8265, 55.7743, -2.47718, 70.8458, -72.9827, 107.142
1.52, 1, 17.873, 55.7541, -2.50631, 70.9142, -72.926, 106.984
1.524, 1, 17.9195, 55.7339, -2.53542, 70.9825, -72.8693, 106.827
1.528, 1, 17.9659, 55.7137, -2.5645, 71.0508, -72.8127, 106.67
1.532, 1, 18.0122, 55.6936, -2.59355, 71.1191, -72.7561, 106.513
1.536, 1, 18.0585, 55.6735, -2.62257, 71.1872, -72.6997, 106.356
1.54, 1, 18.1048, 55.6534, -2.65157, 71.2553, -72.6432, 106.199
1.544, 1, 18.151, 55.6333, -2.68054, 71.3234, -72.5868, 106.042
1.548, 1, 18.1972, 55.6133, -2.70948, 71.3914, -72.5305, 105.886
1.552, 1, 18.2434, 55.5932, -2.73839, 71.4593, -72.4742, 105.729
1.556, 1, 18.2895, 55.5732, -2.76728, 71.5271, -72.418, 105.573
1.56, 1, 18.3355, 55.5532, -2.79614, 71.5949, -72.3618, 105.417
1.564, 1, 18.3815, 55.5332, -2.82498, 71.6626, -72.3057, 105.261
1.568, 1, 18.4275, 55.5132, -2.85378, 71.7303, -72.2496, 105.105
1.572, 1, 18.4734, 55.4933, -2.88256, 71.7979, -72.1936, 104.95
1.576, 1, 18.5193, 55.4734, -2.91132, 71.8654, -72.1376, 104.794
1.58, 1, 18.5651, 55.4535, -2.94004, 71.9329, -72.0817, 104.639
1.584, 1, 18.6109, 55.4336, -2.96874, 72.0003, -72.0258, 104.484
1.588, 1, 18.6567, 55.4137, -2.99742, 72.0676, -71.97, 104.329
1.592, 1, 18.7024, 55.3938, -3.02607, 72.1349, -71.9142, 104.174
1.596, 1, 18.7481, 55.374, -3.05469, 72.2021, -71.8585, 104.019
1.6, 1, 18.7937, 55.3542, -3.08328, 72.2693, -71.8028, 103.864
1.604, 1, 18.8393, 55.3344, -3.11185, 72.3364, -71.7472, 103.71
1.608, 1, 18.8848, 55.3146, -3.14039, 72.4034, -71.6917, 103.556
1.612, 1, 18.9303, 55.2948, -3.1689, 72.4704, -71.6362, 103.401
1.616, 1, 18.9758, 55.2751, -3.19739, 72.5373, -71.5807, 103.247
1.62, 1, 19.0212, 55.2554, -3.22585, 72.6042, -71.5253, 103.093
1.624, 1, 19.0666, 55.2357, -3.25429, 72.671, -71.47, 102.94
1.628, 1, 19.1119, 55.216, -3.2827, 72.7377, -71.4147, 102.786
1.632, 1, 19.1572, 55.1963, -3.31108, 72.8044, -71.3594, 102.633
1.636, 1, 19.2025, 55.1766, -3.33944, 72.871, -71.3042, 102.479
1.64, 1, 19.2477, 55.157, -3.36777, 72.9375, -71.2491, 102.326
1.644, 1, 19.2929, 55.1374, -3.39608, 73.004, -71.194, 102.173
1.648, 1, 19.338, 55.1178, -3.42435, 73.0704, -71.1389, 102.02
1.652, 1, 19.3831, 55.0982, -3.45261, 73.1368, -71.0839, 101.867
1.656, 1, 19.4281, 55.0786, -3.48083, 73.203, -71.029, 101.715
1.66, 1, 19.4731, 55.0591, -3.50904, 73.2693, -70.9741, 101.562
1.664, 1, 19.5181, 55.0396, -3.53721, 73.3355, -70.9192, 101.41
1.668, 1, 19.563, 55.0201, -3.56536, 73.4016, -70.8644, 101.258
1.672, 1, 19.6079, 55.0006, -3.59348, 73.4676, -70.8097, 101.105
1.676, 1, 19.6527, 54.9811, -3.62158, 73.5336, -70.755, 100.954
1.68, 1, 19.6975, 54.9616, -3.64966, 73.5996, -70.7003, 100.802
1.684, 1, 19.7423, 54.9422, -3.6777, 73.6654, -70.6458, 100.65
1.688, 1, 19.787, 54.9228, -3.70572, 73.7312, -70.5912, 100.499
1.692, 1, 19.8316, 54.9034, -3.73372, 73.797, -70.5367, 100.347
1.696, 1, 19.8763, 54.884, -3.76169, 73.8627, -70.4823, 100.196
1.7, 1, 19.9209, 54.8646, -3.78964, 73.9283, -70.4279, 100.045
1.704, 1, 19.9654, 54.8453, -3.81756, 73.9939, -70.3735, 99.8938
1.708, 1, 20.0099, 54.8259, -3.84545, 74.0594, -70.3192, 99.743
1.712, 1, 20.0544, 54.8066, -3.87332, 74.1249, -70.265, 99.5923
1.716, 1, 20.0988, 54.7873, -3.90116, 74.1903, -70.2108, 99.4417
1.72, 1, 20.1432, 54.7681, -3.92898, 74.2556, -70.1566, 99.2913
1.724, 1, 20.1876, 54.7488, -3.95677, 74.3209, -70.1025, 99.141
1.728, 1, 20.2319, 54.7295, -3.98454, 74.3861, -70.0485, 98.9908
1.732, 1, 20.2762, 54.7103, -4.01228, 74.4512, -69.9945, 98.8408
1.736, 1, 20.3204, 54.6911, -4.04, 74.5163, -69.9405, 98.6909
1.74, 1, 20.3646, 54.6719, -4.06769, 74.5814, -69.8866, 98.5412
1.744, 1, 20.4087, 54.6527, -4.09536, 74.6464, -69.8328, 98.3915
1.748, 1, 20.4528, 54.6336, -4.123, 74.7113, -69.779, 98.2421
1.752, 1, 20.4969, 54.6144, -4.15062, 74.7762, -69.7252, 98.0927
1.756, 1, 20.541, 54.5953, -4.17821, 74.841, -69.6715, 97.9435
1.76, 1, 20.5849, 54.5762, -4.20578, 74.9057, -69.6178, 97.7944
1.764, 1, 20.6289, 54.5571, -4.23332, 74.9704, -69.5642, 97.6455
1.768, 1, 20.6728, 54.538, -4.26084, 75.035, -69.5106, 97.4967
1.772, 1, 20.7167, 54.519, -4.28834, 75.0996, -69.4571, 97.348
1.776, 1, 20.7605, 54.4999, -4.31581, 75.1641, -69.4036, 97.1994
1.78, 1, 20.8043, 54.4809, -4.34325, 75.2286, -69.3502, 97.051
1.784, 1, 20.8481, 54.4619, -4.37067, 75.293, -69.2968, 96.9027
1.788, 1, 20.8918, 54.4429, -4.39807, 75.3574, -69.2435, 96.7546
1.792, 1, 20.9355, 54.424, -4.42544, 75.4216, -69.1902, 96.6066
1.796, 1, 20.9791, 54.405, -4.45279, 75.4859, -69.137, 96.4587
1.8, 1, 21.0227, 54.3861, -4.48012, 75.55, -69.0838, 96.3109
1.804, 1, 21.0663, 54.3671, -4.50742, 75.6142, -69.0307, 96.1633
1.808, 1, 21.1098, 54.3482, -4.53469, 75.6782, -68.9776, 96.0158
1.812, 1, 21.1533, 54.3294, -4.56194, 75.7422, -68.9245, 95.8684
1.816, 1, 21.1968, 54.3105, -4.58917, 75.8062, -68.8715, 95.7212
1.82, 1, 21.2402, 54.2916, -4.61637, 75.8701, -68.8186, 95.5741
1.824, 1, 21.2835, 54.2728, -4.64355, 75.9339, -68.7657, 95.4271
1.828, 1, 21.3269, 54.254, -4.67071, 75.9977, -68.7128, 95.2803
1.832, 1, 21.3702, 54.2352, -4.69784, 76.0614, -68.66, 95.1336
1.836, 1, 21.4134, 54.2164, -4.72495, 76.1251, -68.6072, 94.987
1.84, 1, 21.4566, 54.1976, -4.75203, 76.1887, -68.5545, 94.8405
1.844, 1, 21.4998, 54.1789, -4.77909, 76.2523, -68.5018, 94.6942
1.848, 1, 21.543, 54.1601, -4.80613, 76.3158, -68.4492, 94.548
1.852, 1, 21.5861, 54.1414, -4.83314, 76.3792, -68.3966, 94.4019
1.856, 1, 21.6292, 54.1227, -4.86013, 76.4426, -68.3441, 94.2559
1.86, 1, 21.6722, 54.104, -4.8871, 76.5059, -68.2916, 94.1101
1.864, 1, 21.7152, 54.0853, -4.91404, 76.5692, -68.2391, 93.9644
1.868, 1, 21.7581, 54.0667, -4.94096, 76.6324, -68.1867, 93.8188
1.872, 1, 21.8011, 54.048, -4.96786, 76.6956, -68.1344, 93.6734
1.876, 1, 21.8439, 54.0294, -4.99473, 76.7587, -68.0821, 93.5281
1.88, 1, 21.8868, 54.0108, -5.02158, 76.8218, -68.0298, 93.3829
1.884, 1, 21.9296, 53.9922, -5.04841, 76.8848, -67.9776, 93.2378
1.888, 1, 21.9724, 53.9736, -5.07521, 76.9478, -67.9254, 93.0929
1.892, 1, 22.0151, 53.9551, -5.10199, 77.0107, -67.8733, 92.9481
1.896, 1, 22.0578, 53.9365, -5.12875, 77.0735, -67.8212, 92.8034
1.9, 1, 22.1005, 53.918, -5.15548, 77.1363, -67.7691, 92.6588
1.904, 1, 22.1431, 53.8995, -5.18219, 77.199, -67.7171, 92.5144
1.908, 1, 22.1857, 53.881, -5.20888, 77.2617, -67.6652, 92.3701
1.912, 1, 22.2282, 53.8625, -5.23554, 77.3243, -67.6133, 92.2259
1.916, 1, 22.2707, 53.844, -5.26219, 77.3869, -67.5614, 92.0818
1.92, 1, 22.3132, 53.8256, -5.28881, 77.4494, -67.5096, 91.9378
1.924, 1, 22.3557, 53.8071, -5.3154, 77.5119, -67.4578, 91.794
1.928, 1, 22.3981, 53.7887, -5.34198, 77.5743, -67.4061, 91.6503
1.932, 1, 22.4404, 53.7703, -5.36853, 77.6367, -67.3544, 91.5067
1.936, 1, 22.4828, 53.7519, -5.39506, 77.699, -67.3028, 91.3633
1.94, 1, 22.5251, 53.7336, -5.42156, 77.7612, -67.2512, 91.22
1.944, 1, 22.5673, 53.7152, -5.44804, 77.8234, -67.1996, 91.0767
1.948, 1, 22.6096, 53.6969, -5.4745, 77.8856, -67.1481, 90.9337
1.952, 1, 22.6517, 53.6785, -5.50094, 77.9477, -67.0967, 90.7907
1.956, 1, 22.6939, 53.6602, -5.52736, 78.0097, -67.0452, 90.6478
1.96, 1, 22.736, 53.6419, -5.55375, 78.0717, -66.9939, 90.5051
1.964, 1, 22.7781, 53.6237, -5.58012, 78.1337, -66.9425, 90.3625
1.968, 1, 22.8201, 53.6054, -5.60647, 78.1955, -66.8912, 90.22
1.972, 1, 22.8622, 53.5872, -5.6328, 78.2574, -66.84, 90.0777
1.976, 1, 22.9041, 53.5689, -5.6591, 78.3192, -66.7888, 89.9354
1.98, 1, 22.9461, 53.5507, -5.68539, 78.3809, -66.7376, 89.7933
1.984, 1, 22.988, 53.5325, -5.71165, 78.4426, -66.6865, 89.6513
1.988, 1, 23.0298, 53.5143, -5.73788, 78.5042, -66.6354, 89.5094
1.992, 1, 23.0717, 53.4962, -5.7641, 78.5658, -66.5844, 89.3676
1.996, 1, 23.1135, 53.478, -5.79029, 78.6273, -66.5334, 89.226
1.999, 1, 23.1552, 53.4599, -5.81646, 78.6887, -66.4825, 89.0845
2.004, 1, 23.197, 53.4417, -5.84261, 78.7502, -66.4316, 88.9431
2.008, 1, 23.2387, 53.4236, -5.86874, 78.8115, -66.3807, 88.8018
2.012, 1, 23.2803, 53.4055, -5.89485, 78.8729, -66.3299, 88.6606
2.015, 1, 23.322, 53.3875, -5.92093, 78.9341, -66.2791, 88.5195
2.019, 1, 23.3635, 53.3694, -5.947, 78.9953, -66.2284, 88.3786
2.024, 1, 23.4051, 53.3513, -5.97304, 79.0565, -66.1777, 88.2378
2.028, 1, 23.4466, 53.3333, -5.99906, 79.1176, -66.127, 88.0971
2.031, 1, 23.4881, 53.3153, -6.02505, 79.1787, -66.0764, 87.9565
2.036, 1, 23.5296, 53.2973, -6.05103, 79.2397, -66.0259, 87.816
2.04, 1, 23.571, 53.2793, -6.07698, 79.3006, -65.9753, 87.6757
2.044, 1, 23.6124, 53.2613, -6.10292, 79.3615, -65.9249, 87.5354
2.048, 1, 23.6537, 53.2434, -6.12883, 79.4224, -65.8744, 87.3953
2.051, 1, 23.695, 53.2254, -6.15472, 79.4832, -65.824, 87.2553
2.055, 1, 23.7363, 53.2075, -6.18059, 79.544, -65.7737, 87.1154
2.06, 1, 23.7776, 53.1896, -6.20643, 79.6047, -65.7234, 86.9757
2.064, 1, 23.8188, 53.1717, -6.23226, 79.6653, -65.6731, 86.836
2.068, 1, 23.8599, 53.1538, -6.25807, 79.726, -65.6229, 86.6964
2.071, 1, 23.9011, 53.1359, -6.28385, 79.7865, -65.5727, 86.557
2.076, 1, 23.9422, 53.1181, -6.30961, 79.847, -65.5225, 86.4177
2.08, 1, 23.9833, 53.1002, -6.33535, 79.9075, -65.4724, 86.2785
2.084, 1, 24.0243, 53.0824, -6.36107, 79.9679, -65.4223, 86.1394
2.087, 1, 24.0653, 53.0646, -6.38677, 80.0282, -65.3723, 86.0005
2.092, 1, 24.1063, 53.0468, -6.41245, 80.0886, -65.3223, 85.8616
2.096, 1, 24.1473, 53.029, -6.43811, 80.1488, -65.2724, 85.7228
2.1, 1, 24.1882, 53.0112, -6.46375, 80.209, -65.2225, 85.5842
2.104, 1, 24.2291, 52.9935, -6.48936, 80.2692, -65.1726, 85.4457
2.107, 1, 24.2699, 52.9757, -6.51496, 80.3293, -65.1228, 85.3073
2.111, 1, 24.3107, 52.958, -6.54053, 80.3894, -65.073, 85.169
2.116, 1, 24.3515, 52.9403, -6.56609, 80.4494, -65.0233, 85.0308
2.12, 1, 24.3922, 52.9226, -6.59162, 80.5094, -64.9736, 84.8927
2.124, 1, 24.433, 52.9049, -6.61713, 80.5693, -64.9239, 84.7547
2.127, 1, 24.4736, 52.8873, -6.64263, 80.6292, -64.8743, 84.6169
2.132, 1, 24.5143, 52.8696, -6.6681, 80.689, -64.8247, 84.4791
2.136, 1, 24.5549, 52.852, -6.69355, 80.7488, -64.7751, 84.3415
2.14, 1, 24.5955, 52.8343, -6.71898, 80.8085, -64.7256, 84.204
2.143, 1, 24.636, 52.8167, -6.74439, 80.8682, -64.6762, 84.0666
2.148, 1, 24.6766, 52.7991, -6.76978, 80.9278, -64.6267, 83.9293
2.152, 1, 24.717, 52.7815, -6.79515, 80.9874, -64.5774, 83.7921
2.156, 1, 24.7575, 52.764, -6.8205, 81.047, -64.528, 83.655
2.16, 1, 24.7979, 52.7464, -6.84583, 81.1065, -64.4787, 83.518
2.163, 1, 24.8383, 52.7289, -6.87114, 81.1659, -64.4294, 83.3811
2.168, 1, 24.8787, 52.7113, -6.89643, 81.2253, -64.3802, 83.2444
2.172, 1, 24.919, 52.6938, -6.9217, 81.2846, -64.331, 83.1077
2.176, 1, 24.9593, 52.6763, -6.94695, 81.344, -64.2819, 82.9712
2.179, 1, 24.9995, 52.6588, -6.97218, 81.4032, -64.2328, 82.8348
2.184, 1, 25.0398, 52.6414, -6.99739, 81.4624, -64.1837, 82.6984
2.188, 1, 25.08, 52.6239, -7.02258, 81.5216, -64.1347, 82.5622
2.192, 1, 25.1201, 52.6065, -7.04776, 81.5807, -64.0856, 82.4261
2.196, 1, 25.1603, 52.589, -7.07291, 81.6398, -64.0367, 82.2901
2.199, 1, 25.2004, 52.5716, -7.09804, 81.6988, -63.9878, 82.1542
2.204, 1, 25.2405, 52.5542, -7.12315, 81.7578, -63.9389, 82.0184
2.208, 1, 25.2805, 52.5368, -7.14824, 81.8167, -63.89, 81.8827
2.212, 1, 25.3205, 52.5194, -7.17331, 81.8756, -63.8412, 81.7471
2.216, 1, 25.3605, 52.5021, -7.19837, 81.9344, -63.7925, 81.6116
2.219, 1, 25.4004, 52.4847, -7.2234, 81.9932, -63.7437, 81.4763
2.224, 1, 25.4404, 52.4674, -7.24841, 82.052, -63.695, 81.341
2.228, 1, 25.4802, 52.4501, -7.27341, 82.1107, -63.6464, 81.2058
2.232, 1, 25.5201, 52.4328, -7.29838, 82.1694, -63.5978, 81.0708
2.235, 1, 25.5599, 52.4155, -7.32334, 82.228, -63.5492, 80.9358
2.24, 1, 25.5997, 52.3982, -7.34828, 82.2865, -63.5007, 80.801
2.244, 1, 25.6395, 52.3809, -7.37319, 82.3451, -63.4522, 80.6662
2.248, 1, 25.6792, 52.3636, -7.39809, 82.4035, -63.4037, 80.5316
2.252, 1, 25.7189, 52.3464, -7.42297, 82.462, -63.3553, 80.3971
2.255, 1, 25.7586, 52.3292, -7.44783, 82.5204, -63.3069, 80.2626
2.259, 1, 25.7982, 52.312, -7.47267, 82.5787, -63.2585, 80.1283
2.264, 1, 25.8378, 52.2948, -7.49749, 82.637, -63.2102, 79.9941
2.268, 1, 25.8774, 52.2776, -7.5223, 82.6953, -63.1619, 79.8599
2.272, 1, 25.917, 52.2604, -7.54708, 82.7535, -63.1137, 79.7259
2.275, 1, 25.9565, 52.2432, -7.57185, 82.8116, -63.0655, 79.592
2.28, 1, 25.996, 52.2261, -7.59659, 82.8698, -63.0173, 79.4582
2.284, 1, 26.0354, 52.2089, -7.62132, 82.9278, -62.9692, 79.3245
2.288, 1, 26.0749, 52.1918, -7.64603, 82.9859, -62.9211, 79.1908
2.291, 1, 26.1143, 52.1747, -7.67072, 83.0439, -62.873, 79.0573
2.296, 1, 26.1536, 52.1576, -7.69539, 83.1018, -62.825, 78.9239
2.3, 1, 26.193, 52.1405, -7.72004, 83.1597, -62.777, 78.7906
2.304, 1, 26.2323, 52.1234, -7.74468, 83.2176, -62.729, 78.6574
2.308, 1, 26.2716, 52.1064, -7.76929, 83.2754, -62.6811, 78.5243
2.311, 1, 26.3108, 52.0893, -7.79389, 83.3332, -62.6332, 78.3913
2.316, 1, 26.35, 52.0723, -7.81846, 83.3909, -62.5854, 78.2584
2.32, 1, 26.3892, 52.0553, -7.84302, 83.4486, -62.5376, 78.1256
2.324, 1, 26.4284, 52.0383, -7.86757, 83.5062, -62.4898, 77.9928
2.328, 1, 26.4675, 52.0213, -7.89209, 83.5638, -62.4421, 77.8602
2.331, 1, 26.5066, 52.0043, -7.91659, 83.6214, -62.3944, 77.7277
2.336, 1, 26.5457, 51.9873, -7.94108, 83.6789, -62.3467, 77.5953
2.34, 1, 26.5848, 51.9703, -7.96555, 83.7364, -62.2991, 77.463
2.344, 1, 26.6238, 51.9534, -7.99, 83.7938, -62.2515, 77.3308
2.347, 1, 26.6628, 51.9365, -8.01443, 83.8512, -62.2039, 77.1987
2.352, 1, 26.7017, 51.9195, -8.03884, 83.9085, -62.1564, 77.0666
2.356, 1, 26.7407, 51.9026, -8.06324, 83.9658, -62.1089, 76.9347
2.36, 1, 26.7796, 51.8857, -8.08762, 84.023, -62.0615, 76.8029
2.364, 1, 26.8184, 51.8689, -8.11197, 84.0803, -62.014, 76.6712
2.367, 1, 26.8573, 51.852, -8.13632, 84.1374, -61.9667, 76.5395
2.372, 1, 26.8961, 51.8351, -8.16064, 84.1946, -61.9193, 76.408
2.376, 1, 26.9349, 51.8183, -8.18494, 84.2516, -61.872, 76.2766
2.38, 1, 26.9736, 51.8014, -8.20923, 84.3087, -61.8247, 76.1452
2.383, 1, 27.0124, 51.7846, -8.2335, 84.3657, -61.7775, 76.014
2.388, 1, 27.0511, 51.7678, -8.25775, 84.4227, -61.7303, 75.8829
2.392, 1, 27.0897, 51.751, -8.28199, 84.4796, -61.6831, 75.7518
2.396, 1, 27.1284, 51.7342, -8.3062, 84.5365, -61.636, 75.6208
2.4, 1, 27.167, 51.7175, -8.3304, 84.5933, -61.5889, 75.49
2.403, 1, 27.2056, 51.7007, -8.35458, 84.6501, -61.5418, 75.3592
2.408, 1, 27.2441, 51.684, -8.37875, 84.7068, -61.4947, 75.2286
2.412, 1, 27.2827, 51.6672, -8.40289, 84.7635, -61.4477, 75.098
2.416, 1, 27.3212, 51.6505, -8.42702, 84.8202, -61.4008, 74.9675
2.42, 1, 27.3596, 51.6338, -8.45113, 84.8768, -61.3538, 74.8371
2.423, 1, 27.3981, 51.6171, -8.47522, 84.9334, -61.3069, 74.7068
2.428, 1, 27.4365, 51.6004, -8.4993, 84.99, -61.2601, 74.5767
2.432, 1, 27.4749, 51.5837, -8.52335, 85.0465, -61.2132, 74.4466
2.436, 1, 27.5133, 51.5671, -8.5474, 85.1029, -61.1665, 74.3166
2.439, 1, 27.5516, 51.5504, -8.57142, 85.1594, -61.1197, 74.1867
2.444, 1, 27.5899, 51.5338, -8.59543, 85.2158, -61.073, 74.0568
2.448, 1, 27.6282, 51.5172, -8.61941, 85.2721, -61.0263, 73.9271
2.452, 1, 27.6664, 51.5005, -8.64338, 85.3284, -60.9796, 73.7975
2.456, 1, 27.7047, 51.4839, -8.66734, 85.3847, -60.933, 73.6679
2.459, 1, 27.7429, 51.4673, -8.69128, 85.4409, -60.8864, 73.5385
2.464, 1, 27.781, 51.4508, -8.7152, 85.4971, -60.8398, 73.4091
2.468, 1, 27.8192, 51.4342, -8.7391, 85.5532, -60.7933, 73.2799
2.472, 1, 27.8573, 51.4176, -8.76299, 85.6093, -60.7468, 73.1507
2.476, 1, 27.8954, 51.4011, -8.78685, 85.6654, -60.7003, 73.0216
2.479, 1, 27.9335, 51.3846, -8.81071, 85.7214, -60.6539, 72.8927
2.484, 1, 27.9715, 51.368, -8.83454, 85.7774, -60.6075, 72.7638
2.488, 1, 28.0095, 51.3515, -8.85836, 85.8333, -60.5611, 72.635
2.492, 1, 28.0475, 51.335, -8.88216, 85.8892, -60.5148, 72.5062
2.495, 1, 28.0854, 51.3186, -8.90595, 85.9451, -60.4685, 72.3776
2.5, 1, 28.1234, 51.3021, -8.92972, 86.0009, -60.4222, 72.2491
2.504, 1, 28.1613, 51.2856, -8.95347, 86.0567, -60.376, 72.1207
2.508, 1, 28.1992, 51.2692, -8.9772, 86.1124, -60.3298, 71.9923
2.512, 1, 28.237, 51.2527, -9.00092, 86.1682, -60.2836, 71.864
2.515, 1, 28.2748, 51.2363, -9.02462, 86.2238, -60.2375, 71.7359
2.52, 1, 28.3126, 51.2199, -9.04831, 86.2794, -60.1914, 71.6078
2.524, 1, 28.3504, 51.2035, -9.07198, 86.335, -60.1453, 71.4798
2.528, 1, 28.3881, 51.1871, -9.09563, 86.3906, -60.0993, 71.3519
2.531, 1, 28.4259, 51.1707, -9.11927, 86.4461, -60.0532, 71.2241
2.536, 1, 28.4636, 51.1543, -9.14288, 86.5016, -60.0073, 71.0964
2.54, 1, 28.5012, 51.138, -9.16649, 86.557, -59.9613, 70.9687
2.544, 1, 28.5389, 51.1216, -9.19007, 86.6124, -59.9154, 70.8412
2.548, 1, 28.5765, 51.1053, -9.21365, 86.6678, -59.8695, 70.7137
2.551, 1, 28.6141, 51.089, -9.2372, 86.7231, -59.8237, 70.5863
2.556, 1, 28.6516, 51.0727, -9.26074, 86.7784, -59.7779, 70.459
2.56, 1, 28.6892, 51.0563, -9.28426, 86.8336, -59.7321, 70.3318
2.564, 1, 28.7267, 51.0401, -9.30777, 86.8889, -59.6863, 70.2047
2.568, 1, 28.7642, 51.0238, -9.33126, 86.944, -59.6406, 70.0777
2.571, 1, 28.8016, 51.0075, -9.35473, 86.9992, -59.5949, 69.9508
2.576, 1, 28.8391, 50.9912, -9.37819, 87.0543, -59.5492, 69.8239
2.58, 1, 28.8765, 50.975, -9.40163, 87.1093, -59.5036, 69.6971
2.584, 1, 28.9138, 50.9588, -9.42506, 87.1643, -59.458, 69.5705
2.587, 1, 28.9512, 50.9425, -9.44847, 87.2193, -59.4124, 69.4439
2.592, 1, 28.9885, 50.9263, -9.47186, 87.2743, -59.3669, 69.3174
2.596, 1, 29.0258, 50.9101, -9.49524, 87.3292, -59.3214, 69.1909
2.6, 1, 29.0631, 50.8939, -9.5186, 87.384, -59.2759, 69.0646
2.604, 1, 29.1004, 50.8777, -9.54195, 87.4389, -59.2304, 68.9384
2.607, 1, 29.1376, 50.8616, -9.56528, 87.4937, -59.185, 68.8122
2.612, 1, 29.1748, 50.8454, -9.58859, 87.5484, -59.1396, 68.6861
2.616, 1, 29.212, 50.8293, -9.61189, 87.6032, -59.0943, 68.5601
2.62, 1, 29.2492, 50.8131, -9.63518, 87.6579, -59.049, 68.4342
2.624, 1, 29.2863, 50.797, -9.65845, 87.7125, -59.0037, 68.3084
2.627, 1, 29.3234, 50.7809, -9.6817, 87.7671, -58.9584, 68.1826
2.632, 1, 29.3605, 50.7648, -9.70494, 87.8217, -58.9132, 68.057
2.636, 1, 29.3975, 50.7487, -9.72816, 87.8763, -58.868, 67.9314
2.64, 1, 29.4346, 50.7326, -9.75137, 87.9307, -58.8228, 67.8059
2.643, 1, 29.4716, 50.7165, -9.77456, 87.9852, -58.7776, 67.6805
2.648, 1, 29.5086, 50.7005, -9.79774, 88.0397, -58.7325, 67.5551
2.652, 1, 29.5455, 50.6844, -9.8209, 88.0941, -58.6874, 67.4299
2.656, 1, 29.5825, 50.6684, -9.84404, 88.1484, -58.6424, 67.3047
2.66, 1, 29.6194, 50.6523, -9.86717, 88.2027, -58.5974, 67.1797
2.663, 1, 29.6563, 50.6363, -9.89029, 88.257, -58.5524, 67.0547
2.668, 1, 29.6931, 50.6203, -9.91338, 88.3113, -58.5074, 66.9297
2.672, 1, 29.73, 50.6043, -9.93647, 88.3655, -58.4625, 66.8049
2.676, 1, 29.7668, 50.5883, -9.95954, 88.4197, -58.4176, 66.6802
2.679, 1, 29.8036, 50.5723, -9.98259, 88.4738, -58.3727, 66.5555
2.684, 1, 29.8403, 50.5564, -10.0056, 88.528, -58.3278, 66.4309
2.688, 1, 29.8771, 50.5404, -10.0287, 88.582, -58.283, 66.3064
2.692, 1, 29.9138, 50.5245, -10.0517, 88.6361, -58.2382, 66.182
2.696, 1, 29.9505, 50.5085, -10.0747, 88.6901, -58.1935, 66.0576
2.699, 1, 29.9871, 50.4926, -10.0976, 88.7441, -58.1487, 65.9334
2.704, 1, 30.0238, 50.4767, -10.1206, 88.798, -58.104, 65.8092
2.708, 1, 30.0604, 50.4608, -10.1436, 88.8519, -58.0594, 65.6851
2.712, 1, 30.097, 50.4449, -10.1665, 88.9058, -58.0147, 65.5611
2.716, 1, 30.1336, 50.429, -10.1894, 88.9596, -57.9701, 65.4371
2.719, 1, 30.1701, 50.4131, -10.2123, 89.0134, -57.9255, 65.3132
2.724, 1, 30.2067, 50.3972, -10.2352, 89.0671, -57.881, 65.1895
2.728, 1, 30.2432, 50.3814, -10.2581, 89.1209, -57.8364, 65.0658
2.732, 1, 30.2797, 50.3655, -10.2809, 89.1746, -57.7919, 64.9421
2.735, 1, 30.3161, 50.3497, -10.3038, 89.2282, -57.7475, 64.8186
2.74, 1, 30.3525, 50.3339, -10.3266, 89.2819, -57.703, 64.6951
2.744, 1, 30.389, 50.3181, -10.3494, 89.3355, -57.6586, 64.5717
2.748, 1, 30.4253, 50.3023, -10.3722, 89.389, -57.6142, 64.4484
2.752, 1, 30.4617, 50.2865, -10.395, 89.4425, -57.5698, 64.3252
2.755, 1, 30.4981, 50.2707, -10.4178, 89.496, -57.5255, 64.2021
2.76, 1, 30.5344, 50.2549, -10.4406, 89.5495, -57.4812, 64.079
2.764, 1, 30.5707, 50.2392, -10.4633, 89.6029, -57.4369, 63.956
2.768, 1, 30.6069, 50.2234, -10.486, 89.6563, -57.3927, 63.8331
2.772, 1, 30.6432, 50.2077, -10.5087, 89.7096, -57.3485, 63.7102
2.775, 1, 30.6794, 50.1919, -10.5314, 89.763, -57.3043, 63.5875
2.78, 1, 30.7156, 50.1762, -10.5541, 89.8162, -57.2601, 63.4648
2.784, 1, 30.7518, 50.1605, -10.5768, 89.8695, -57.216, 63.3422
2.788, 1, 30.788, 50.1448, -10.5995, 89.9227, -57.1719, 63.2197
2.791, 1, 30.8241, 50.1291, -10.6221, 89.9759, -57.1278, 63.0972
2.796, 1, 30.8602, 50.1134, -10.6447, 90.029, -57.0837, 62.9748
2.8, 1, 30.8963, 50.0977, -10.6674, 90.0822, -57.0397, 62.8525
2.804, 1, 30.9324, 50.0821, -10.69, 90.1352, -56.9957, 62.7303
2.808, 1, 30.9684, 50.0664, -10.7125, 90.1883, -56.9518, 62.6082
2.811, 1, 31.0044, 50.0508, -10.7351, 90.2413, -56.9078, 62.4861
2.816, 1, 31.0404, 50.0351, -10.7577, 90.2943, -56.8639, 62.3641
2.82, 1, 31.0764, 50.0195, -10.7802, 90.3473, -56.82, 62.2422
2.824, 1, 31.1124, 50.0039, -10.8028, 90.4002, -56.7761, 62.1203
2.828, 1, 31.1483, 49.9883, -10.8253, 90.4531, -56.7323, 61.9986
2.831, 1, 31.1842, 49.9727, -10.8478, 90.5059, -56.6885, 61.8769
2.836, 1, 31.2201, 49.9571, -10.8703, 90.5587, -56.6447, 61.7552
2.84, 1, 31.256, 49.9415, -10.8927, 90.6115, -56.601, 61.6337
2.844, 1, 31.2918, 49.9259, -10.9152, 90.6643, -56.5573, 61.5122
2.847, 1, 31.3276, 49.9104, -10.9377, 90.717, -56.5136, 61.3908
2.852, 1, 31.3634, 49.8948, -10.9601, 90.7697, -56.4699, 61.2695
2.856, 1, 31.3992, 49.8793, -10.9825, 90.8224, -56.4262, 61.1483
2.86, 1, 31.435, 49.8638, -11.0049, 90.875, -56.3826, 61.0271
2.864, 1, 31.4707, 49.8482, -11.0273, 90.9276, -56.339, 60.906
2.867, 1, 31.5064, 49.8327, -11.0497, 90.9802, -56.2955, 60.785
2.872, 1, 31.5421, 49.8172, -11.0721, 91.0327, -56.2519, 60.664
2.876, 1, 31.5778, 49.8017, -11.0944, 91.0852, -56.2084, 60.5432
2.88, 1, 31.6134, 49.7862, -11.1167, 91.1377, -56.1649, 60.4224
2.883, 1, 31.6491, 49.7708, -11.1391, 91.1901, -56.1215, 60.3016
2.888, 1, 31.6847, 49.7553, -11.1614, 91.2425, -56.078, 60.181
2.892, 1, 31.7203, 49.7398, -11.1837, 91.2949, -56.0346, 60.0604
2.896, 1, 31.7558, 49.7244, -11.206, 91.3472, -55.9912, 59.9399
2.9, 1, 31.7914, 49.709, -11.2282, 91.3995, -55.9479, 59.8194
2.903, 1, 31.8269, 49.6935, -11.2505, 91.4518, -55.9046, 59.6991
2.908, 1, 31.8624, 49.6781, -11.2727, 91.5041, -55.8613, 59.5788
2.912, 1, 31.8979, 49.6627, -11.295, 91.5563, -55.818, 59.4585
2.916, 1, 31.9333, 49.6473, -11.3172, 91.6085, -55.7747, 59.3384
2.92, 1, 31.9687, 49.6319, -11.3394, 91.6606, -55.7315, 59.2183
2.923, 1, 32.0042, 49.6165, -11.3616, 91.7128, -55.6883, 59.0983
2.928, 1, 32.0396, 49.6012, -11.3838, 91.7649, -55.6451, 58.9783
2.932, 1, 32.0749, 49.5858, -11.4059, 91.8169, -55.602, 58.8585
2.936, 1, 32.1103, 49.5704, -11.4281, 91.8689, -55.5589, 58.7387
2.939, 1, 32.1456, 49.5551, -11.4502, 91.921, -55.5158, 58.6189
2.944, 1, 32.1809, 49.5398, -11.4724, 91.9729, -55.4727, 58.4993
2.948, 1, 32.2162, 49.5244, -11.4945, 92.0249, -55.4296, 58.3797
2.952, 1, 32.2515, 49.5091, -11.5166, 92.0768, -55.3866, 58.2602
2.956, 1, 32.2867, 49.4938, -11.5387, 92.1286, -55.3436, 58.1407
2.959, 1, 32.322, 49.4785, -11.5607, 92.1805, -55.3006, 58.0214
2.964, 1, 32.3572, 49.4632, -11.5828, 92.2323, -55.2577, 57.9021
2.968, 1, 32.3924, 49.4479, -11.6049, 92.2841, -55.2148, 57.7828
2.972, 1, 32.4275, 49.4327, -11.6269, 92.3359, -55.1719, 57.6637
2.976, 1, 32.4627, 49.4174, -11.6489, 92.3876, -55.129, 57.5445
2.98, 1, 32.4978, 49.4021, -11.6709, 92.4393, -55.0862, 57.4255
2.984, 1, 32.5329, 49.3869, -11.6929, 92.491, -55.0433, 57.3066
2.988, 1, 32.568, 49.3717, -11.7149, 92.5426, -55.0005, 57.1877
2.992, 1, 32.603, 49.3564, -11.7369, 92.5942, -54.9578, 57.0688
2.995, 1, 32.6381, 49.3412, -11.7588, 92.6458, -54.915, 56.9501
3, 1, 32.6731, 49.326, -11.7808, 92.6973, -54.8723, 56.8314
3.004, 1, 32.7081, 49.3108, -11.8027, 92.7489, -54.8296, 56.7128
3.008, 1, 32.7431, 49.2956, -11.8247, 92.8004, -54.7869, 56.5942
3.012, 1, 32.7781, 49.2804, -11.8466, 92.8518, -54.7443, 56.4757
3.015, 1, 32.813, 49.2652, -11.8685, 92.9033, -54.7016, 56.3573
3.02, 1, 32.8479, 49.2501, -11.8903, 92.9547, -54.659, 56.239
3.024, 1, 32.8828, 49.2349, -11.9122, 93.006, -54.6164, 56.1207
3.028, 1, 32.9177, 49.2197, -11.9341, 93.0574, -54.5739, 56.0025
3.031, 1, 32.9526, 49.2046, -11.9559, 93.1087, -54.5314, 55.8843
3.036, 1, 32.9874, 49.1895, -11.9778, 93.16, -54.4889, 55.7662
3.04, 1, 33.0223, 49.1743, -11.9996, 93.2112, -54.4464, 55.6482
3.044, 1, 33.0571, 49.1592, -12.0214, 93.2625, -54.4039, 55.5303
3.048, 1, 33.0919, 49.1441, -12.0432, 93.3137, -54.3615, 55.4124
3.051, 1, 33.1266, 49.129, -12.065, 93.3648, -54.3191, 55.2946
3.056, 1, 33.1614, 49.1139, -12.0868, 93.416, -54.2767, 55.1768
3.06, 1, 33.1961, 49.0988, -12.1085, 93.4671, -54.2343, 55.0592
3.064, 1, 33.2308, 49.0838, -12.1303, 93.5182, -54.192, 54.9415
3.068, 1, 33.2655, 49.0687, -12.152, 93.5692, -54.1497, 54.824
3.071, 1, 33.3002, 49.0536, -12.1737, 93.6203, -54.1074, 54.7065
3.076, 1, 33.3348, 49.0386, -12.1954, 93.6713, -54.0651, 54.5891
3.08, 1, 33.3694, 49.0235, -12.2172, 93.7222, -54.0229, 54.4717
3.084, 1, 33.4041, 49.0085, -12.2388, 93.7732, -53.9806, 54.3544
3.087, 1, 33.4386, 48.9935, -12.2605, 93.8241, -53.9384, 54.2372
3.092, 1, 33.4732, 48.9785, -12.2822, 93.875, -53.8963, 54.1201
3.096, 1, 33.5078, 48.9635, -12.3038, 93.9258, -53.8541, 54.003
3.1, 1, 33.5423, 48.9485, -12.3255, 93.9767, -53.812, 53.8859
3.104, 1, 33.5768, 48.9335, -12.3471, 94.0275, -53.7699, 53.769
3.107, 1, 33.6113, 48.9185, -12.3687, 94.0782, -53.7278, 53.6521
3.112, 1, 33.6458, 48.9035, -12.3903, 94.129, -53.6858, 53.5352
3.116, 1, 33.6803, 48.8885, -12.4119, 94.1797, -53.6437, 53.4184
3.12, 1, 33.7147, 48.8736, -12.4335, 94.2304, -53.6017, 53.3017
3.124, 1, 33.7491, 48.8586, -12.4551, 94.2811, -53.5597, 53.1851
3.128, 1, 33.7835, 48.8437, -12.4766, 94.3317, -53.5177, 53.0685
3.132, 1, 33.8179, 48.8288, -12.4982, 94.3823, -53.4758, 52.952
3.136, 1, 33.8523, 48.8138, -12.5197, 94.4329, -53.4339, 52.8355
3.14, 1, 33.8866, 48.7989, -12.5412, 94.4834, -53.392, 52.7191
3.143, 1, 33.9209, 48.784, -12.5628, 94.534, -53.3501, 52.6028
3.148, 1, 33.9553, 48.7691, -12.5843, 94.5845, -53.3083, 52.4865
3.152, 1, 33.9895, 48.7542, -12.6057, 94.6349, -53.2664, 52.3703
3.156, 1, 34.0238, 48.7393, -12.6272, 94.6854, -53.2246, 52.2542
3.16, 1, 34.0581, 48.7245, -12.6487, 94.7358, -53.1828, 52.1381
3.163, 1, 34.0923, 48.7096, -12.6701, 94.7862, -53.1411, 52.0221
3.168, 1, 34.1265, 48.6947, -12.6916, 94.8366, -53.0993, 51.9061
3.172, 1, 34.1607, 48.6799, -12.713, 94.8869, -53.0576, 51.7903
3.176, 1, 34.1949, 48.665, -12.7344, 94.9372, -53.0159, 51.6744
3.179, 1, 34.2291, 48.6502, -12.7558, 94.9875, -52.9742, 51.5587
3.184, 1, 34.2632, 48.6354, -12.7772, 95.0377, -52.9326, 51.443
3.188, 1, 34.2973, 48.6205, -12.7986, 95.088, -52.891, 51.3273
3.192, 1, 34.3314, 48.6057, -12.82, 95.1382, -52.8494, 51.2117
3.196, 1, 34.3655, 48.5909, -12.8414, 95.1883, -52.8078, 51.0962
3.199, 1, 34.3996, 48.5761, -12.8627, 95.2385, -52.7662, 50.9807
3.204, 1, 34.4337, 48.5613, -12.884, 95.2886, -52.7247, 50.8653
3.208, 1, 34.4677, 48.5465, -12.9054, 95.3387, -52.6832, 50.75
3.212, 1, 34.5017, 48.5318, -12.9267, 95.3888, -52.6417, 50.6347
3.216, 1, 34.5357, 48.517, -12.948, 95.4388, -52.6002, 50.5195
3.22, 1, 34.5697, 48.5022, -12.9693, 95.4888, -52.5587, 50.4044
3.224, 1, 34.6037, 48.4875, -12.9906, 95.5388, -52.5173, 50.2893
3.228, 1, 34.6376, 48.4727, -13.0119, 95.5888, -52.4759, 50.1742
3.232, 1, 34.6715, 48.458, -13.0331, 95.6387, -52.4345, 50.0592
3.235, 1, 34.7054, 48.4433, -13.0544, 95.6886, -52.3931, 49.9443
3.24, 1, 34.7393, 48.4286, -13.0756, 95.7385, -52.3518, 49.8295
3.244, 1, 34.7732, 48.4138, -13.0968, 95.7884, -52.3105, 49.7147
3.248, 1, 34.8071, 48.3991, -13.118, 95.8382, -52.2692, 49.5999
3.252, 1, 34.8409, 48.3844, -13.1393, 95.888, -52.2279, 49.4853
3.255, 1, 34.8747, 48.3697, -13.1604, 95.9378, -52.1866, 49.3707
3.26, 1, 34.9085, 48.3551, -13.1816, 95.9876, -52.1454, 49.2561
3.264, 1, 34.9423, 48.3404, -13.2028, 96.0373, -52.1042, 49.1416
3.268, 1, 34.9761, 48.3257, -13.224, 96.087, -52.063, 49.0272
3.272, 1, 35.0099, 48.3111, -13.2451, 96.1367, -52.0218, 48.9128
3.276, 1, 35.0436, 48.2964, -13.2663, 96.1863, -51.9807, 48.7985
3.28, 1, 35.0773, 48.2818, -13.2874, 96.236, -51.9395, 48.6842
3.284, 1, 35.111, 48.2671, -13.3085, 96.2856, -51.8984, 48.57
3.288, 1, 35.1447, 48.2525, -13.3296, 96.3351, -51.8573, 48.4558
3.291, 1, 35.1782, 48.2379, -13.3507, 96.3847, -51.8162, 48.3417
3.296, 1, 35.2115, 48.2234, -13.3718, 96.4342, -51.7752, 48.2277
3.3, 1, 35.2445, 48.209, -13.393, 96.4837, -51.7342, 48.1138
3.304, 1, 35.2771, 48.1948, -13.4141, 96.5331, -51.6933, 48
3.308, 1, 35.3093, 48.1808, -13.4352, 96.5824, -51.6524, 47.8864
3.312, 1, 35.341, 48.167, -13.4563, 96.6316, -51.6117, 47.7732
3.316, 1, 35.3723, 48.1534, -13.4774, 96.6806, -51.5711, 47.6604
3.32, 1, 35.403, 48.1402, -13.4984, 96.7293, -51.5308, 47.5482
3.324, 1, 35.4329, 48.1274, -13.5193, 96.7776, -51.4908, 47.4368
3.328, 1, 35.4619, 48.1151, -13.5402, 96.8254, -51.4512, 47.3267
3.332, 1, 35.49, 48.1033, -13.5608, 96.8725, -51.4122, 47.2181
3.336, 1, 35.5169, 48.0921, -13.5812, 96.9188, -51.374, 47.1116
3.34, 1, 35.5427, 48.0815, -13.6011, 96.9638, -51.3367, 47.0076
3.344, 1, 35.5675, 48.0714, -13.6205, 97.0076, -51.3006, 46.9069
3.347, 1, 35.5913, 48.0617, -13.6391, 97.0496, -51.2658, 46.8099
3.352, 1, 35.6141, 48.0524, -13.6569, 97.0897, -51.2327, 46.7174
3.356, 1, 35.636, 48.0435, -13.6738, 97.1277, -51.2013, 46.6299
3.36, 1, 35.6567, 48.035, -13.6895, 97.1632, -51.1719, 46.548
3.364, 1, 35.6762, 48.0269, -13.704, 97.1962, -51.1446, 46.472
3.368, 1, 35.6946, 48.0192, -13.7172, 97.2264, -51.1196, 46.4024
3.372, 1, 35.712, 48.0118, -13.729, 97.2537, -51.097, 46.3395
3.376, 1, 35.7286, 48.0046, -13.7394, 97.2781, -51.0768, 46.2833
3.38, 1, 35.7444, 47.9976, -13.7483, 97.2995, -51.059, 46.234
3.383, 1, 35.7593, 47.9908, -13.7559, 97.3181, -51.0435, 46.1913
3.388, 1, 35.7734, 47.9842, -13.7621, 97.334, -51.0303, 46.1548
3.392, 1, 35.7864, 47.978, -13.7671, 97.3473, -51.0192, 46.1243
3.396, 1, 35.7983, 47.9723, -13.7711, 97.3583, -51.01, 46.0991
3.4, 2, 35.8089, 47.9671, -13.7742, 97.3672, -51.0025, 46.0787
3.403, 2, 35.8183, 47.9624, -13.7765, 97.3743, -50.9965, 46.0624
3.408, 2, 35.8267, 47.9583, -13.7781, 97.3799, -50.9919, 46.0498
3.412, 2, 35.8342, 47.9546, -13.7793, 97.3841, -50.9883, 46.0401
3.416, 2, 35.8408, 47.9513, -13.78, 97.3873, -50.9855, 46.0329
3.42, 2, 35.8467, 47.9485, -13.7805, 97.3896, -50.9836, 46.0277
3.424, 2, 35.8516, 47.9462, -13.7807, 97.3913, -50.9821, 46.024
3.428, 2, 35.8556, 47.9444, -13.7808, 97.3924, -50.9811, 46.0214
3.432, 2, 35.8587, 47.943, -13.7809, 97.3932, -50.9804, 46.0196
3.436, 2, 35.861, 47.942, -13.7809, 97.3938, -50.98, 46.0184
3.439, 2, 35.8626, 47.9413, -13.7809, 97.3941, -50.9796, 46.0176
3.444, 2, 35.8637, 47.9408, -13.7809, 97.3944, -50.9794, 46.017
3.448, 2, 35.8644, 47.9405, -13.7809, 97.3946, -50.9793, 46.0166
3.452, 2, 35.8649, 47.9403, -13.7809, 97.3947, -50.9792, 46.0164
3.456, 2, 35.8653, 47.9401, -13.7809, 97.3948, -50.9791, 46.0162
3.46, 2, 35.8655, 47.94, -13.7809, 97.3948, -50.9791, 46.0161
3.464, 2, 35.8657, 47.94, -13.7809, 97.3948, -50.979, 46.016
3.468, 2, 35.8658, 47.9399, -13.7809, 97.3949, -50.979, 46.0159
3.472, 2, 35.8658, 47.9399, -13.7809, 97.3949, -50.979, 46.0159
3.476, 2, 35.8659, 47.9399, -13.7809, 97.3949, -50.979, 46.0159
3.48, 2, 35.8659, 47.9399, -13.7809, 97.3949, -50.979, 46.0159
3.484, 2, 35.866, 47.9398, -13.7809, 97.3949, -50.979, 46.0159
3.488, 2, 35.866, 47.9398, -13.7809, 97.3949, -50.979, 46.0159
3.492, 2, 35.866, 47.9398, -13.7809, 97.3949, -50.979, 46.0159
3.495, 2, 35.866, 47.9398, -13.7809, 97.3949, -50.979, 46.0158
3.5, 2, 35.866, 47.9398, -13.7809, 97.3949, -50.979, 46.0158
3.504, 2, 35.866, 47.9398, -13.7809, 97.3949, -50.979, 46.0158
3.508, 2, 35.866, 47.9398, -13.7809, 97.3949, -50.979, 46.0158
3.512, 2, 35.866, 47.9398, -13.7809, 97.3949, -50.979, 46.0158
3.516, 2, 35.866, 47.9398, -13.7809, 97.3949, -50.979, 46.0158
3.52, 2, 35.866, 47.9398, -13.7809, 97.3949, -50.979, 46.0158
3.524, 2, 35.866, 47.9398, -13.7809, 97.3949, -50.979, 46.0158
3.528, 2, 35.866, 47.9398, -13.7809, 97.3949, -50.979, 46.0158
3.531, 2, 35.866, 47.9398, -13.7809, 97.3949, -50.979, 46.0158
3.536, 2, 35.866, 47.9398, -13.7809, 97.3949, -50.979, 46.0158
3.54, 2, 35.866, 47.9398, -13.7809, 97.3949, -50.979, 46.0158
3.544, 2, 35.866, 47.9398, -13.7809, 97.3949, -50.979, 46.0158
3.548, 2, 35.866, 47.9398, -13.7809, 97.3949, -50.979, 46.0158
3.552, 2, 35.866, 47.9398, -13.7809, 97.3949, -50.979, 46.0158
3.556, 2, 35.866, 47.9398, -13.7809, 97.3949, -50.979, 46.0158
3.56, 2, 35.866, 47.9398, -13.7809, 97.3949, -50.979, 46.0158
3.564, 2, 35.866, 47.9398, -13.7809, 97.3949, -50.979, 46.0158
3.568, 2, 35.866, 47.9398, -13.7809, 97.3949, -50.979, 46.0158
3.572, 2, 35.866, 47.9398, -13.7809, 97.3949, -50.979, 46.0158
3.576, 2, 35.866, 47.9398, -13.7809, 97.3949, -50.979, 46.0158
3.58, 2, 35.866, 47.9398, -13.7809, 97.3949, -50.979, 46.0158
3.584, 2, 35.866, 47.9398, -13.7809, 97.3949, -50.979, 46.0158
3.587, 2, 35.866, 47.9398, -13.7809, 97.3949, -50.979, 46.0158
3.592, 2, 35.866, 47.9398, -13.7809, 97.3949, -50.979, 46.0158
3.596, 2, 35.866, 47.9398, -13.7809, 97.3949, -50.979, 46.0158
3.6, 2, 35.866, 47.9398, -13.7809, 97.3949, -50.979, 46.0158
3.604, 2, 35.866, 47.9398, -13.7809, 97.3949, -50.979, 46.0158
3.608, 2, 35.866, 47.9398, -13.7809, 97.3949, -50.979, 46.0158
3.612, 2, 35.866, 47.9398, -13.7809, 97.3949, -50.979, 46.0158
3.616, 2, 35.866, 47.9398, -13.7809, 97.3949, -50.979, 46.0158
3.62, 2, 35.866, 47.9398, -13.7809, 97.3949, -50.979, 46.0158
3.624, 2, 35.866, 47.9398, -13.7809, 97.3949, -50.979, 46.0158
3.628, 2, 35.866, 47.9398, -13.7809, 97.3949, -50.979, 46.0158
3.632, 2, 35.866, 47.9398, -13.7809, 97.3949, -50.979, 46.0158
3.636, 2, 35.866, 47.9398, -13.7809, 97.3949, -50.979, 46.0158
3.64, 2, 35.866, 47.9398, -13.7809, 97.3949, -50.979, 46.0158
3.644, 2, 35.866, 47.9398, -13.7809, 97.3949, -50.979, 46.0158
3.648, 2, 35.866, 47.9398, -13.7809, 97.3949, -50.979, 46.0158
3.652, 2, 35.866, 47.9398, -13.7809, 97.3949, -50.979, 46.0158
3.656, 2, 35.866, 47.9398, -13.7809, 97.3949, -50.979, 46.0158
3.66, 2, 35.866, 47.9398, -13.7809, 97.3949, -50.979, 46.0158
3.664, 2, 35.866, 47.9398, -13.7809, 97.3949, -50.979, 46.0158
3.668, 2, 35.866, 47.9398, -13.7809, 97.3949, -50.979, 46.0158
3.672, 2, 35.866, 47.9398, -13.7809, 97.3949, -50.979, 46.0158
3.676, 2, 35.866, 47.9398, -13.7809, 97.3949, -50.979, 46.0158
3.679, 2, 35.866, 47.9398, -13.7809, 97.3949, -50.979, 46.0158
3.684, 2, 35.866, 47.9398, -13.7809, 97.3949, -50.979, 46.0158
3.688, 2, 35.866, 47.9398, -13.7809, 97.3949, -50.979, 46.0158
3.692, 2, 35.866, 47.9398, -13.7809, 97.3949, -50.979, 46.0158
3.696, 2, 35.866, 47.9398, -13.7809, 97.3949, -50.979, 46.0158
3.7, 2, 35.866, 47.9398, -13.7809, 97.3949, -50.979, 46.0158
3.704, 2, 35.866, 47.9398, -13.7809, 97.3949, -50.979, 46.0158
3.708, 2, 35.866, 47.9398, -13.7809, 97.3949, -50.979, 46.0158
3.712, 2, 35.866, 47.9398, -13.7809, 97.3949, -50.979, 46.0158
3.716, 2, 35.866, 47.9398, -13.7809, 97.3949, -50.979, 46.0158
3.72, 2, 35.866, 47.9398, -13.7809, 97.3949, -50.979, 46.0158
3.724, 2, 35.866, 47.9398, -13.7809, 97.3949, -50.979, 46.0158
3.728, 2, 35.866, 47.9398, -13.7809, 97.3949, -50.979, 46.0158
3.732, 2, 35.866, 47.9398, -13.7809, 97.3949, -50.979, 46.0158
3.735, 2, 35.866, 47.9398, -13.7809, 97.3949, -50.979, 46.0158
3.74, 2, 35.866, 47.9398, -13.7809, 97.3949, -50.979, 46.0158
3.744, 2, 35.866, 47.9398, -13.7809, 97.3949, -50.979, 46.0158
3.748, 2, 35.866, 47.9398, -13.7809, 97.3949, -50.979, 46.0158
3.752, 2, 35.866, 47.9398, -13.7809, 97.3949, -50.979, 46.0158
3.756, 2, 35.866, 47.9398, -13.7809, 97.3949, -50.979, 46.0158
3.76, 2, 35.866, 47.9398, -13.7809, 97.3949, -50.979, 46.0158
3.764, 2, 35.866, 47.9398, -13.7809, 97.3949, -50.979, 46.0158
3.768, 2, 35.866, 47.9398, -13.7809, 97.3949, -50.979, 46.0158
3.772, 2, 35.866, 47.9398, -13.7809, 97.3949, -50.979, 46.0158
3.776, 2, 35.866, 47.9398, -13.7809, 97.3949, -50.979, 46.0158
3.78, 2, 35.866, 47.9398, -13.7809, 97.3949, -50.979, 46.0158
3.784, 2, 35.866, 47.9398, -13.7809, 97.3949, -50.979, 46.0158
3.788, 2, 35.866, 47.9398, -13.7809, 97.3949, -50.979, 46.0158
3.792, 2, 35.866, 47.9398, -13.7809, 97.3949, -50.979, 46.0158
3.796, 2, 35.866, 47.9398, -13.7809, 97.3949, -50.979, 46.0158
3.8, 2, 35.866, 47.9398, -13.7809, 97.3949, -50.979, 46.0158
3.804, 2, 35.866, 47.9398, -13.7809, 97.3949, -50.979, 46.0158
3.808, 2, 35.866, 47.9398, -13.7809, 97.3949, -50.979, 46.0158
3.812, 2, 35.866, 47.9398, -13.7809, 97.3949, -50.979, 46.0158
3.816, 2, 35.866, 47.9398, -13.7809, 97.3949, -50.979, 46.0158
3.82, 2, 35.866, 47.9398, -13.7809, 97.3949, -50.979, 46.0158
3.824, 2, 35.866, 47.9398, -13.7809, 97.3949, -50.979, 46.0158
3.828, 2, 35.866, 47.9398, -13.7809, 97.3949, -50.979, 46.0158
3.832, 2, 35.866, 47.9398, -13.7809, 97.3949, -50.979, 46.0158
3.836, 2, 35.866, 47.9398, -13.7809, 97.3949, -50.979, 46.0158
3.84, 2, 35.866, 47.9398, -13.7809, 97.3949, -50.979, 46.0158
3.844, 2, 35.866, 47.9398, -13.7809, 97.3949, -50.979, 46.0158
3.848, 2, 35.866, 47.9398, -13.7809, 97.3949, -50.979, 46.0158
3.852, 2, 35.866, 47.9398, -13.7809, 97.3949, -50.979, 46.0158
3.856, 2, 35.866, 47.9398, -13.7809, 97.3949, -50.979, 46.0158
3.86, 2, 35.866, 47.9398, -13.7809, 97.3949, -50.979, 46.0158
3.864, 2, 35.866, 47.9398, -13.7809, 97.3949, -50.979, 46.0158
3.868, 2, 35.866, 47.9398, -13.7809, 97.3949, -50.979, 46.0158
3.872, 2, 35.866, 47.9398, -13.7809, 97.3949, -50.979, 46.0158
3.876, 2, 35.866, 47.9398, -13.7809, 97.3949, -50.979, 46.0158
3.88, 2, 35.866, 47.9398, -13.7809, 97.3949, -50.979, 46.0158
3.884, 2, 35.866, 47.9398, -13.7809, 97.3949, -50.979, 46.0158
3.888, 2, 35.866, 47.9398, -13.7809, 97.3949, -50.979, 46.0158
3.892, 2, 35.866, 47.9398, -13.7809, 97.3949, -50.979, 46.0158
3.896, 2, 35.866, 47.9398, -13.7809, 97.3949, -50.979, 46.0158
3.9, 2, 35.866, 47.9398, -13.7809, 97.3949, -50.979, 46.0158
3.904, 2, 35.866, 47.9398, -13.7809, 97.3949, -50.979, 46.0158
3.908, 2, 35.866, 47.9398, -13.7809, 97.3949, -50.979, 46.0158
3.912, 2, 35.866, 47.9398, -13.7809, 97.3949, -50.979, 46.0158
3.916, 2, 35.866, 47.9398, -13.7809, 97.3949, -50.979, 46.0158
3.92, 2, 35.866, 47.9398, -13.7809, 97.3949, -50.979, 46.0158
3.924, 2, 35.866, 47.9398, -13.7809, 97.3949, -50.979, 46.0158
3.928, 2, 35.866, 47.9398, -13.7809, 97.3949, -50.979, 46.0158
3.932, 2, 35.866, 47.9398, -13.7809, 97.3949, -50.979, 46.0158
3.936, 2, 35.866, 47.9398, -13.7809, 97.3949, -50.979, 46.0158
3.94, 2, 35.866, 47.9398, -13.7809, 97.3949, -50.979, 46.0158
3.944, 2, 35.866, 47.9398, -13.7809, 97.3949, -50.979, 46.0158
3.948, 2, 35.866, 47.9398, -13.7809, 97.3949, -50.979, 46.0158
3.952, 2, 35.866, 47.9398, -13.7809, 97.3949, -50.979, 46.0158
3.956, 2, 35.866, 47.9398, -13.7809, 97.3949, -50.979, 46.0158
3.96, 2, 35.866, 47.9398, -13.7809, 97.3949, -50.979, 46.0158
3.964, 2, 35.866, 47.9398, -13.7809, 97.3949, -50.979, 46.0158
3.968, 2, 35.866, 47.9398, -13.7809, 97.3949, -50.979, 46.0158
3.972, 2, 35.866, 47.9398, -13.7809, 97.3949, -50.979, 46.0158
3.976, 2, 35.866, 47.9398, -13.7809, 97.3949, -50.979, 46.0158
3.98, 2, 35.866, 47.9398, -13.7809, 97.3949, -50.979, 46.0158
3.984, 2, 35.866, 47.9398, -13.7809, 97.3949, -50.979, 46.0158
3.988, 2, 35.866, 47.9398, -13.7809, 97.3949, -50.979, 46.0158
3.992, 2, 35.866, 47.9398, -13.7809, 97.3949, -50.979, 46.0158
3.996, 2, 35.866, 47.9398, -13.7809, 97.3949, -50.979, 46.0158
3.999, 2, 35.866, 47.9398, -13.7809, 97.3949, -50.979, 46.0158
4.004, 2, 35.866, 47.9398, -13.7809, 97.3949, -50.979, 46.0158
4.008, 2, 35.866, 47.9398, -13.7809, 97.3949, -50.979, 46.0158
4.012, 2, 35.866, 47.9398, -13.7809, 97.3949, -50.979, 46.0158
4.016, 2, 35.866, 47.9398, -13.7809, 97.3949, -50.979, 46.0158
4.02, 2, 35.866, 47.9398, -13.7809, 97.3949, -50.979, 46.0158
4.024, 2, 35.866, 47.9398, -13.7809, 97.3949, -50.979, 46.0158
4.028, 2, 35.866, 47.9398, -13.7809, 97.3949, -50.979, 46.0158
4.032, 2, 35.866, 47.9398, -13.7809, 97.3949, -50.979, 46.0158
4.036, 2, 35.866, 47.9398, -13.7809, 97.3949, -50.979, 46.0158
4.04, 2, 35.866, 47.9398, -13.7809, 97.3949, -50.979, 46.0158
4.044, 2, 35.866, 47.9398, -13.7809, 97.3949, -50.979, 46.0158
4.048, 2, 35.866, 47.9398, -13.7809, 97.3949, -50.979, 46.0158
4.052, 2, 35.866, 47.9398, -13.7809, 97.3949, -50.979, 46.0158
4.056, 2, 35.866, 47.9398, -13.7809, 97.3949, -50.979, 46.0158
4.06, 2, 35.866, 47.9398, -13.7809, 97.3949, -50.979, 46.0158
4.064, 2, 35.866, 47.9398, -13.7809, 97.3949, -50.979, 46.0158
4.068, 2, 35.866, 47.9398, -13.7809, 97.3949, -50.979, 46.0158
4.072, 2, 35.866, 47.9398, -13.7809, 97.3949, -50.979, 46.0158
4.076, 2, 35.866, 47.9398, -13.7809, 97.3949, -50.979, 46.0158
4.08, 2, 35.866, 47.9398, -13.7809, 97.3949, -50.979, 46.0158
4.084, 2, 35.866, 47.9398, -13.7809, 97.3949, -50.979, 46.0158
4.088, 2, 35.866, 47.9398, -13.7809, 97.3949, -50.979, 46.0158
4.092, 2, 35.866, 47.9398, -13.7809, 97.3949, -50.979, 46.0158
4.096, 2, 35.866, 47.9398, -13.7809, 97.3949, -50.979, 46.0158
4.1, 2, 35.866, 47.9398, -13.7809, 97.3949, -50.979, 46.0158
4.104, 2, 35.866, 47.9398, -13.7809, 97.3949, -50.979, 46.0158
4.108, 2, 35.866, 47.9398, -13.7809, 97.3949, -50.979, 46.0158
4.112, 2, 35.866, 47.9398, -13.7809, 97.3949, -50.979, 46.0158
4.116, 2, 35.866, 47.9398, -13.7809, 97.3949, -50.979, 46.0158
4.12, 2, 35.866, 47.9398, -13.7809, 97.3949, -50.979, 46.0158
4.124, 2, 35.866, 47.9398, -13.7809, 97.3949, -50.979, 46.0158
4.128, 2, 35.866, 47.9398, -13.7809, 97.3949, -50.979, 46.0158
4.132, 2, 35.866, 47.9398, -13.7809, 97.3949, -50.979, 46.0158
4.136, 2, 35.866, 47.9398, -13.7809, 97.3949, -50.979, 46.0158
4.14, 2, 35.866, 47.9398, -13.7809, 97.3949, -50.979, 46.0158
4.144, 2, 35.866, 47.9398, -13.7809, 97.3949, -50.979, 46.0158
4.148, 2, 35.866, 47.9398, -13.7809, 97.3949, -50.979, 46.0158
4.152, 2, 35.866, 47.9398, -13.7809, 97.3949, -50.979, 46.0158
4.156, 2, 35.866, 47.9398, -13.7809, 97.3949, -50.979, 46.0158
4.16, 2, 35.866, 47.9398, -13.7809, 97.3949, -50.979, 46.0158
4.164, 2, 35.866, 47.9398, -13.7809, 97.3949, -50.979, 46.0158
4.168, 2, 35.866, 47.9398, -13.7809, 97.3949, -50.979, 46.0158
4.172, 2, 35.866, 47.9398, -13.7809, 97.3949, -50.979, 46.0158
4.176, 2, 35.866, 47.9398, -13.7809, 97.3949, -50.979, 46.0158
4.18, 2, 35.866, 47.9398, -13.7809, 97.3949, -50.979, 46.0158
4.184, 2, 35.866, 47.9398, -13.7809, 97.3949, -50.979, 46.0158
4.188, 2, 35.866, 47.9398, -13.7809, 97.3949, -50.979, 46.0158
4.192, 2, 35.866, 47.9398, -13.7809, 97.3949, -50.979, 46.0158
4.196, 2, 35.866, 47.9398, -13.7809, 97.3949, -50.979, 46.0158
4.2, 2, 35.866, 47.9398, -13.7809, 97.3949, -50.979, 46.0158
4.204, 2, 35.866, 47.9398, -13.7809, 97.3949, -50.979, 46.0158
4.208, 2, 35.866, 47.9398, -13.7809, 97.3949, -50.979, 46.0158
4.212, 2, 35.866, 47.9398, -13.7809, 97.3949, -50.979, 46.0158
4.216, 2, 35.866, 47.9398, -13.7809, 97.3949, -50.979, 46.0158
4.22, 2, 35.866, 47.9398, -13.7809, 97.3949, -50.979, 46.0158
4.224, 2, 35.866, 47.9398, -13.7809, 97.3949, -50.979, 46.0158
4.228, 2, 35.866, 47.9398, -13.7809, 97.3949, -50.979, 46.0158
4.232, 2, 35.866, 47.9398, -13.7809, 97.3949, -50.979, 46.0158
4.236, 2, 35.866, 47.9398, -13.7809, 97.3949, -50.979, 46.0158
4.24, 2, 35.866, 47.9398, -13.7809, 97.3949, -50.979, 46.0158
4.244, 2, 35.866, 47.9398, -13.7809, 97.3949, -50.979, 46.0158
4.248, 2, 35.866, 47.9398, -13.7809, 97.3949, -50.979, 46.0158
4.252, 2, 35.866, 47.9398, -13.7809, 97.3949, -50.979, 46.0158
4.256, 2, 35.866, 47.9398, -13.7809, 97.3949, -50.979, 46.0158
4.26, 2, 35.866, 47.9398, -13.7809, 97.3949, -50.979, 46.0158
4.264, 2, 35.866, 47.9398, -13.7809, 97.3949, -50.979, 46.0158
4.268, 2, 35.866, 47.9398, -13.7809, 97.3949, -50.979, 46.0158
4.272, 2, 35.866, 47.9398, -13.7809, 97.3949, -50.979, 46.0158
4.276, 2, 35.866, 47.9398, -13.7809, 97.3949, -50.979, 46.0158
4.28, 2, 35.866, 47.9398, -13.7809, 97.3949, -50.979, 46.0158
4.284, 2, 35.866, 47.9398, -13.7809, 97.3949, -50.979, 46.0158
4.288, 2, 35.866, 47.9398, -13.7809, 97.3949, -50.979, 46.0158
4.292, 2, 35.866, 47.9398, -13.7809, 97.3949, -50.979, 46.0158
4.296, 2, 35.866, 47.9398, -13.7809, 97.3949, -50.979, 46.0158
4.3, 2, 35.866, 47.9398, -13.7809, 97.3949, -50.979, 46.0158
4.304, 2, 35.866, 47.9398, -13.7809, 97.3949, -50.979, 46.0158
4.308, 2, 35.866, 47.9398, -13.7809, 97.3949, -50.979, 46.0158
4.312, 2, 35.866, 47.9398, -13.7809, 97.3949, -50.979, 46.0158
4.316, 2, 35.866, 47.9398, -13.7809, 97.3949, -50.979, 46.0158
4.32, 2, 35.866, 47.9398, -13.7809, 97.3949, -50.979, 46.0158
4.324, 2, 35.866, 47.9398, -13.7809, 97.3949, -50.979, 46.0158
4.328, 2, 35.866, 47.9398, -13.7809, 97.3949, -50.979, 46.0158
4.332, 2, 35.866, 47.9398, -13.7809, 97.3949, -50.979, 46.0158
4.336, 2, 35.866, 47.9398, -13.7809, 97.3949, -50.979, 46.0158
4.34, 2, 35.866, 47.9398, -13.7809, 97.3949, -50.979, 46.0158
4.344, 2, 35.866, 47.9398, -13.7809, 97.3949, -50.979, 46.0158
4.348, 2, 35.866, 47.9398, -13.7809, 97.3949, -50.979, 46.0158
4.352, 2, 35.866, 47.9398, -13.7809, 97.3949, -50.979, 46.0158
4.356, 2, 35.866, 47.9398, -13.7809, 97.3949, -50.979, 46.0158
4.36, 2, 35.866, 47.9398, -13.7809, 97.3949, -50.979, 46.0158
4.364, 2, 35.866, 47.9398, -13.7809, 97.3949, -50.979, 46.0158
4.368, 2, 35.866, 47.9398, -13.7809, 97.3949, -50.979, 46.0158
4.372, 2, 35.866, 47.9398, -13.7809, 97.3949, -50.979, 46.0158
4.376, 2, 35.866, 47.9398, -13.7809, 97.3949, -50.979, 46.0158
4.38, 2, 35.866, 47.9398, -13.7809, 97.3949, -50.979, 46.0158
4.384, 2, 35.866, 47.9398, -13.7809, 97.3949, -50.979, 46.0158
4.388, 2, 35.866, 47.9398, -13.7809, 97.3949, -50.979, 46.0158
4.392, 2, 35.866, 47.9398, -13.7809, 97.3949, -50.979, 46.0158
4.396, 2, 35.866, 47.9398, -13.7809, 97.3949, -50.979, 46.0158
4.4, 3, 35.866, 47.9398, -13.7809, 97.3949, -50.979, 46.0158
4.404, 3, 35.866, 47.9398, -13.7809, 97.3949, -50.979, 46.0158
4.408, 3, 35.866, 47.9398, -13.7809, 97.3949, -50.979, 46.0158
4.412, 3, 35.866, 47.9398, -13.7809, 97.3949, -50.979, 46.0158
4.416, 3, 35.866, 47.9398, -13.7809, 97.3949, -50.979, 46.0158
4.42, 3, 35.866, 47.9398, -13.7809, 97.3949, -50.979, 46.0158
4.424, 3, 35.866, 47.9398, -13.7809, 97.3949, -50.979, 46.0158
4.428, 3, 35.866, 47.9398, -13.7809, 97.3949, -50.979, 46.0158
4.432, 3, 35.866, 47.9398, -13.7809, 97.3949, -50.979, 46.0158
4.436, 4, 35.866, 47.9398, -13.7809, 97.3949, -50.979, 46.0158
4.44, 4, 35.866, 47.9398, -13.7809, 97.3949, -50.979, 46.0158
4.444, 4, 35.866, 47.9398, -13.7809, 97.3949, -50.979, 46.0158
4.448, 4, 35.866, 47.9398, -13.7809, 97.3949, -50.979, 46.0158
4.452, 4, 35.866, 47.9398, -13.7809, 97.3949, -50.979, 46.0158
4.456, 4, 35.866, 47.9398, -13.7809, 97.3949, -50.979, 46.0158
4.46, 4, 35.866, 47.9398, -13.7809, 97.3949, -50.979, 46.0158
4.464, 4, 35.866, 47.9398, -13.7809, 97.3949, -50.979, 46.0158
4.468, 4, 35.866, 47.9398, -13.7809, 97.3949, -50.979, 46.0158
4.472, 4, 35.866, 47.9398, -13.7809, 97.3949, -50.979, 46.0158
4.476, 4, 35.866, 47.9398, -13.7809, 97.3949, -50.979, 46.0158
4.48, 4, 35.866, 47.9398, -13.7809, 97.3949, -50.979, 46.0158
4.484, 4, 35.866, 47.9398, -13.7809, 97.3949, -50.979, 46.0158
4.488, 4, 35.866, 47.9398, -13.7809, 97.3949, -50.979, 46.0158
4.492, 4, 35.866, 47.9398, -13.7809, 97.3949, -50.979, 46.0158
4.496, 4, 35.866, 47.9398, -13.7809, 97.3949, -50.979, 46.0158
4.5, 4, 35.866, 47.9398, -13.7809, 97.3949, -50.979, 46.0158
4.504, 4, 35.866, 47.9398, -13.7809, 97.3949, -50.979, 46.0158
4.508, 4, 35.866, 47.9398, -13.7809, 97.3949, -50.979, 46.0158
4.512, 4, 35.866, 47.9398, -13.7809, 97.3949, -50.979, 46.0158
4.516, 4, 35.866, 47.9398, -13.7809, 97.3949, -50.979, 46.0158
4.52, 4, 35.866, 47.9398, -13.7809, 97.3949, -50.979, 46.0158
4.524, 4, 35.866, 47.9398, -13.7809, 97.3949, -50.979, 46.0158
4.528, 4, 35.866, 47.9398, -13.7809, 97.3949, -50.979, 46.0158
4.532, 4, 35.866, 47.9398, -13.7809, 97.3949, -50.979, 46.0158
4.536, 5, 35.866, 47.9398, -13.7809, 97.3949, -50.979, 46.0158
4.54, 5, 35.866, 47.9398, -13.7809, 97.3949, -50.979, 46.0158
4.544, 5, 35.866, 47.9398, -13.7809, 97.3949, -50.979, 46.0158
4.548, 5, 35.866, 47.9398, -13.7809, 97.3949, -50.979, 46.0158
4.552, 5, 35.866, 47.9398, -13.7809, 97.3949, -50.979, 46.0158
4.556, 5, 35.866, 47.9398, -13.7809, 97.3949, -50.979, 46.0158
4.56, 5, 35.866, 47.9398, -13.7809, 97.3949, -50.979, 46.0158
4.564, 5, 35.866, 47.9398, -13.7809, 97.3949, -50.979, 46.0158
4.568, 5, 35.866, 47.9398, -13.7809, 97.3949, -50.979, 46.0158
4.572, 5, 35.866, 47.9398, -13.7809, 97.3949, -50.979, 46.0158
4.576, 5, 35.866, 47.9399, -13.7809, 97.3949, -50.979, 46.0158
4.58, 5, 35.866, 47.94, -13.7809, 97.3949, -50.979, 46.0158
4.584, 5, 35.866, 47.9404, -13.7809, 97.3949, -50.979, 46.0158
4.588, 5, 35.8659, 47.9411, -13.7809, 97.3949, -50.9791, 46.0158
4.592, 5, 35.8658, 47.9421, -13.781, 97.3949, -50.9794, 46.0157
4.596, 5, 35.8657, 47.9435, -13.7811, 97.3948, -50.98, 46.0155
4.6, 5, 35.8656, 47.9452, -13.7812, 97.3947, -50.9811, 46.0151
4.604, 5, 35.8654, 47.9472, -13.7814, 97.3944, -50.9829, 46.0146
4.608, 5, 35.8653, 47.9493, -13.7818, 97.3941, -50.9855, 46.0138
4.612, 5, 35.8652, 47.9516, -13.7822, 97.3937, -50.9892, 46.0126
4.616, 5, 35.8651, 47.954, -13.7828, 97.393, -50.9941, 46.0111
4.62, 5, 35.8651, 47.9566, -13.7836, 97.3923, -51.0003, 46.0091
4.624, 5, 35.865, 47.9594, -13.7845, 97.3913, -51.0079, 46.0067
4.628, 5, 35.865, 47.9625, -13.7856, 97.3902, -51.017, 46.0039
4.632, 5, 35.865, 47.9659, -13.7869, 97.3888, -51.0276, 46.0006
4.636, 5, 35.865, 47.9693, -13.7884, 97.3873, -51.0396, 45.9968
4.64, 5, 35.8651, 47.9729, -13.79, 97.3856, -51.053, 45.9926
4.644, 5, 35.8652, 47.9766, -13.7918, 97.3838, -51.0677, 45.988
4.648, 5, 35.8653, 47.9805, -13.7937, 97.3818, -51.0834, 45.983
4.652, 5, 35.8654, 47.9846, -13.7957, 97.3797, -51.1001, 45.9778
4.656, 5, 35.8655, 47.989, -13.7978, 97.3775, -51.1174, 45.9723
4.66, 5, 35.8656, 47.9938, -13.8, 97.3753, -51.1354, 45.9667
4.664, 5, 35.8656, 47.999, -13.8022, 97.373, -51.1536, 45.961
4.668, 5, 35.8657, 48.0046, -13.8044, 97.3706, -51.1722, 45.9552
4.672, 5, 35.8657, 48.0103, -13.8067, 97.3683, -51.1909, 45.9493
4.676, 5, 35.8657, 48.0163, -13.809, 97.3659, -51.2097, 45.9434
4.68, 5, 35.8657, 48.0223, -13.8113, 97.3635, -51.2287, 45.9374
4.684, 5, 35.8657, 48.0284, -13.8136, 97.3611, -51.2477, 45.9315
4.688, 5, 35.8657, 48.0346, -13.8159, 97.3587, -51.2667, 45.9255
4.692, 5, 35.8657, 48.0408, -13.8183, 97.3563, -51.2858, 45.9195
4.696, 5, 35.8656, 48.0471, -13.8206, 97.354, -51.3049, 45.9135
4.7, 5, 35.8656, 48.0533, -13.8229, 97.3515, -51.324, 45.9075
4.704, 5, 35.8656, 48.0596, -13.8252, 97.3491, -51.3431, 45.9015
4.708, 5, 35.8656, 48.0658, -13.8276, 97.3467, -51.3622, 45.8955
4.712, 5, 35.8656, 48.0721, -13.8299, 97.3443, -51.3813, 45.8895
4.716, 5, 35.8655, 48.0784, -13.8322, 97.3419, -51.4005, 45.8835
4.72, 5, 35.8655, 48.0847, -13.8345, 97.3395, -51.4196, 45.8775
4.724, 5, 35.8655, 48.091, -13.8369, 97.3371, -51.4387, 45.8715
4.728, 5, 35.8655, 48.0973, -13.8392, 97.3347, -51.4579, 45.8655
4.732, 5, 35.8655, 48.1036, -13.8415, 97.3323, -51.4771, 45.8594
4.736, 5, 35.8654, 48.1099, -13.8439, 97.3299, -51.4962, 45.8534
4.74, 5, 35.8654, 48.1162, -13.8462, 97.3275, -51.5154, 45.8474
4.744, 5, 35.8654, 48.1225, -13.8485, 97.3251, -51.5346, 45.8414
4.748, 5, 35.8654, 48.1288, -13.8509, 97.3227, -51.5537, 45.8354
4.752, 5, 35.8654, 48.1351, -13.8532, 97.3203, -51.5729, 45.8294
4.756, 5, 35.8653, 48.1414, -13.8555, 97.3178, -51.5921, 45.8233
4.76, 5, 35.8653, 48.1477, -13.8579, 97.3154, -51.6113, 45.8173
4.764, 5, 35.8653, 48.154, -13.8602, 97.313, -51.6305, 45.8113
4.768, 5, 35.8653, 48.1603, -13.8625, 97.3106, -51.6497, 45.8053
4.772, 5, 35.8652, 48.1666, -13.8649, 97.3082, -51.6689, 45.7992
4.776, 5, 35.8652, 48.1729, -13.8672, 97.3058, -51.6881, 45.7932
4.78, 5, 35.8652, 48.1793, -13.8696, 97.3034, -51.7073, 45.7872
4.784, 5, 35.8652, 48.1856, -13.8719, 97.3009, -51.7265, 45.7811
4.788, 5, 35.8652, 48.1919, -13.8742, 97.2985, -51.7457, 45.7751
4.792, 5, 35.8651, 48.1982, -13.8766, 97.2961, -51.7649, 45.7691
4.796, 5, 35.8651, 48.2045, -13.8789, 97.2937, -51.7842, 45.763
4.8, 5, 35.8651, 48.2109, -13.8813, 97.2913, -51.8034, 45.757
4.804, 5, 35.8651, 48.2172, -13.8836, 97.2889, -51.8226, 45.7509
4.808, 5, 35.8651, 48.2235, -13.8859, 97.2864, -51.8419, 45.7449
4.812, 5, 35.865, 48.2298, -13.8883, 97.284, -51.8611, 45.7389
4.816, 5, 35.865, 48.2362, -13.8906, 97.2816, -51.8804, 45.7328
4.82, 5, 35.865, 48.2425, -13.893, 97.2792, -51.8996, 45.7268
4.824, 5, 35.865, 48.2488, -13.8953, 97.2768, -51.9189, 45.7207
4.828, 5, 35.865, 48.2551, -13.8977, 97.2743, -51.9381, 45.7147
4.832, 5, 35.8649, 48.2615, -13.9, 97.2719, -51.9574, 45.7086
4.836, 5, 35.8649, 48.2678, -13.9023, 97.2695, -51.9767, 45.7026
4.84, 5, 35.8649, 48.2741, -13.9047, 97.2671, -51.9959, 45.6965
4.844, 5, 35.8649, 48.2805, -13.907, 97.2647, -52.0152, 45.6905
4.848, 5, 35.8648, 48.2868, -13.9094, 97.2622, -52.0345, 45.6844
4.852, 5, 35.8648, 48.2932, -13.9117, 97.2598, -52.0538, 45.6784
4.856, 5, 35.8648, 48.2995, -13.9141, 97.2574, -52.0731, 45.6723
4.86, 5, 35.8648, 48.3058, -13.9164, 97.255, -52.0924, 45.6663
4.864, 5, 35.8648, 48.3122, -13.9188, 97.2525, -52.1117, 45.6602
4.868, 5, 35.8647, 48.3185, -13.9211, 97.2501, -52.131, 45.6541
4.872, 5, 35.8647, 48.3249, -13.9235, 97.2477, -52.1503, 45.6481
4.876, 5, 35.8647, 48.3312, -13.9258, 97.2452, -52.1696, 45.642
4.88, 5, 35.8647, 48.3376, -13.9282, 97.2428, -52.1889, 45.636
4.884, 5, 35.8647, 48.3439, -13.9305, 97.2404, -52.2082, 45.6299
4.888, 5, 35.8646, 48.3503, -13.9329, 97.238, -52.2276, 45.6238
4.892, 5, 35.8646, 48.3566, -13.9352, 97.2355, -52.2469, 45.6177
4.896, 5, 35.8646, 48.363, -13.9376, 97.2331, -52.2662, 45.6117
4.9, 5, 35.8646, 48.3693, -13.9399, 97.2307, -52.2856, 45.6056
4.904, 5, 35.8646, 48.3757, -13.9423, 97.2282, -52.3049, 45.5995
4.908, 5, 35.8645, 48.3821, -13.9447, 97.2258, -52.3242, 45.5935
4.912, 5, 35.8645, 48.3884, -13.947, 97.2234, -52.3436, 45.5874
4.916, 5, 35.8645, 48.3948, -13.9494, 97.2209, -52.3629, 45.5813
4.92, 5, 35.8645, 48.4011, -13.9517, 97.2185, -52.3823, 45.5752
4.924, 5, 35.8644, 48.4075, -13.9541, 97.2161, -52.4017, 45.5691
4.928, 5, 35.8644, 48.4139, -13.9564, 97.2136, -52.421, 45.5631
4.932, 5, 35.8644, 48.4202, -13.9588, 97.2112, -52.4404, 45.557
4.936, 5, 35.8644, 48.4266, -13.9612, 97.2088, -52.4598, 45.5509
4.94, 5, 35.8644, 48.433, -13.9635, 97.2063, -52.4792, 45.5448
4.944, 5, 35.8643, 48.4394, -13.9659, 97.2039, -52.4986, 45.5387
4.948, 5, 35.8643, 48.4457, -13.9682, 97.2015, -52.518, 45.5326
4.952, 5, 35.8643, 48.4521, -13.9706, 97.199, -52.5373, 45.5266
4.956, 5, 35.8643, 48.4585, -13.973, 97.1966, -52.5568, 45.5205
4.96, 5, 35.8643, 48.4649, -13.9753, 97.1941, -52.5762, 45.5144
4.964, 5, 35.8642, 48.4712, -13.9777, 97.1917, -52.5956, 45.5083
4.968, 5, 35.8642, 48.4776, -13.98, 97.1893, -52.615, 45.5022
4.972, 5, 35.8642, 48.484, -13.9824, 97.1868, -52.6344, 45.4961
4.976, 5, 35.8642, 48.4904, -13.9848, 97.1844, -52.6538, 45.49
4.98, 5, 35.8642, 48.4968, -13.9871, 97.1819, -52.6732, 45.4839
4.984, 5, 35.8641, 48.5032, -13.9895, 97.1795, -52.6927, 45.4778
4.988, 5, 35.8641, 48.5096, -13.9919, 97.1771, -52.7121, 45.4717
4.992, 5, 35.8641, 48.5159, -13.9942, 97.1746, -52.7315, 45.4656
4.996, 5, 35.8641, 48.5223, -13.9966, 97.1722, -52.751, 45.4595
5, 5, 35.864, 48.5287, -13.999, 97.1697, -52.7704, 45.4534
5.004, 5, 35.864, 48.5351, -14.0013, 97.1673, -52.7899, 45.4473
5.008, 5, 35.864, 48.5415, -14.0037, 97.1648, -52.8093, 45.4412
5.012, 5, 35.864, 48.5479, -14.0061, 97.1624, -52.8288, 45.435
5.016, 5, 35.864, 48.5543, -14.0084, 97.1599, -52.8483, 45.4289
5.02, 5, 35.8639, 48.5607, -14.0108, 97.1575, -52.8677, 45.4228
5.024, 5, 35.8639, 48.5671, -14.0132, 97.155, -52.8872, 45.4167
5.028, 5, 35.8639, 48.5735, -14.0155, 97.1526, -52.9067, 45.4106
5.032, 5, 35.8639, 48.5799, -14.0179, 97.1502, -52.9262, 45.4045
5.036, 5, 35.8639, 48.5863, -14.0203, 97.1477, -52.9457, 45.3984
5.04, 5, 35.8638, 48.5927, -14.0227, 97.1452, -52.9652, 45.3922
5.044, 5, 35.8638, 48.5991, -14.025, 97.1428, -52.9846, 45.3861
5.048, 5, 35.8638, 48.6056, -14.0274, 97.1404, -53.0042, 45.38
5.052, 5, 35.8638, 48.612, -14.0298, 97.1379, -53.0237, 45.3739
5.056, 5, 35.8638, 48.6184, -14.0322, 97.1354, -53.0432, 45.3677
5.06, 5, 35.8637, 48.6248, -14.0345, 97.133, -53.0627, 45.3616
5.064, 5, 35.8637, 48.6312, -14.0369, 97.1305, -53.0822, 45.3555
5.068, 5, 35.8637, 48.6376, -14.0393, 97.1281, -53.1017, 45.3494
5.072, 5, 35.8637, 48.644, -14.0417, 97.1256, -53.1213, 45.3432
5.076, 5, 35.8636, 48.6505, -14.044, 97.1232, -53.1408, 45.3371
5.08, 5, 35.8636, 48.6569, -14.0464, 97.1207, -53.1603, 45.331
5.084, 5, 35.8636, 48.6633, -14.0488, 97.1183, -53.1799, 45.3248
5.088, 5, 35.8636, 48.6697, -14.0512, 97.1158, -53.1994, 45.3187
5.092, 5, 35.8636, 48.6762, -14.0536, 97.1133, -53.219, 45.3125
5.096, 5, 35.8635, 48.6826, -14.0559, 97.1109, -53.2385, 45.3064
5.1, 5, 35.8635, 48.689, -14.0583, 97.1084, -53.2581, 45.3003
5.104, 5, 35.8635, 48.6954, -14.0607, 97.106, -53.2776, 45.2941
5.108, 5, 35.8635, 48.7019, -14.0631, 97.1035, -53.2972, 45.288
5.112, 5, 35.8634, 48.7083, -14.0655, 97.1011, -53.3168, 45.2818
5.116, 5, 35.8634, 48.7148, -14.0678, 97.0986, -53.3364, 45.2757
5.12, 5, 35.8634, 48.7212, -14.0702, 97.0961, -53.3559, 45.2695
5.124, 5, 35.8634, 48.7276, -14.0726, 97.0937, -53.3755, 45.2634
5.128, 5, 35.8634, 48.7341, -14.075, 97.0912, -53.3951, 45.2572
5.132, 5, 35.8633, 48.7405, -14.0774, 97.0887, -53.4147, 45.2511
5.136, 5, 35.8633, 48.7469, -14.0798, 97.0863, -53.4343, 45.2449
5.14, 5, 35.8633, 48.7534, -14.0822, 97.0838, -53.4539, 45.2388
5.144, 5, 35.8633, 48.7598, -14.0845, 97.0813, -53.4735, 45.2326
5.148, 5, 35.8633, 48.7663, -14.0869, 97.0789, -53.4931, 45.2265
5.152, 5, 35.8632, 48.7727, -14.0893, 97.0764, -53.5128, 45.2203
5.156, 5, 35.8632, 48.7792, -14.0917, 97.074, -53.5324, 45.2141
5.16, 5, 35.8632, 48.7856, -14.0941, 97.0715, -53.552, 45.208
5.164, 5, 35.8632, 48.7921, -14.0965, 97.069, -53.5716, 45.2018
5.168, 5, 35.8632, 48.7985, -14.0989, 97.0666, -53.5913, 45.1957
5.172, 5, 35.8631, 48.805, -14.1013, 97.0641, -53.6109, 45.1895
5.176, 5, 35.8631, 48.8115, -14.1037, 97.0616, -53.6306, 45.1833
5.18, 5, 35.8631, 48.8179, -14.1061, 97.0591, -53.6502, 45.1771
5.184, 5, 35.8631, 48.8244, -14.1084, 97.0567, -53.6699, 45.171
5.188, 5, 35.863, 48.8308, -14.1108, 97.0542, -53.6895, 45.1648
5.192, 5, 35.863, 48.8373, -14.1132, 97.0517, -53.7092, 45.1586
5.196, 5, 35.863, 48.8438, -14.1156, 97.0493, -53.7289, 45.1525
5.2, 5, 35.863, 48.8502, -14.118, 97.0468, -53.7485, 45.1463
5.204, 5, 35.863, 48.8567, -14.1204, 97.0443, -53.7682, 45.1401
5.208, 5, 35.8629, 48.8632, -14.1228, 97.0418, -53.7879, 45.1339
5.212, 5, 35.8629, 48.8697, -14.1252, 97.0394, -53.8076, 45.1277
5.216, 5, 35.8629, 48.8761, -14.1276, 97.0369, -53.8273, 45.1216
5.22, 5, 35.8629, 48.8826, -14.13, 97.0344, -53.847, 45.1154
5.224, 5, 35.8629, 48.8891, -14.1324, 97.0319, -53.8667, 45.1092
5.228, 5, 35.8628, 48.8955, -14.1348, 97.0295, -53.8864, 45.103
5.232, 5, 35.8628, 48.902, -14.1372, 97.027, -53.9061, 45.0968
5.236, 5, 35.8628, 48.9085, -14.1396, 97.0245, -53.9258, 45.0906
5.24, 5, 35.8628, 48.915, -14.142, 97.022, -53.9455, 45.0844
5.244, 5, 35.8627, 48.9215, -14.1444, 97.0195, -53.9653, 45.0782
5.248, 5, 35.8627, 48.928, -14.1468, 97.0171, -53.985, 45.072
5.252, 5, 35.8627, 48.9344, -14.1492, 97.0146, -54.0047, 45.0658
5.256, 5, 35.8627, 48.9409, -14.1516, 97.0121, -54.0245, 45.0597
5.26, 5, 35.8627, 48.9474, -14.154, 97.0096, -54.0442, 45.0535
5.264, 5, 35.8626, 48.9539, -14.1564, 97.0071, -54.0639, 45.0473
5.268, 5, 35.8626, 48.9604, -14.1588, 97.0047, -54.0837, 45.041
5.272, 5, 35.8626, 48.9669, -14.1612, 97.0022, -54.1035, 45.0348
5.276, 5, 35.8626, 48.9734, -14.1636, 96.9997, -54.1232, 45.0286
5.28, 5, 35.8625, 48.9799, -14.166, 96.9972, -54.143, 45.0224
5.284, 5, 35.8625, 48.9864, -14.1684, 96.9947, -54.1628, 45.0162
5.288, 5, 35.8625, 48.9929, -14.1708, 96.9922, -54.1825, 45.01
5.292, 5, 35.8625, 48.9994, -14.1732, 96.9897, -54.2023, 45.0038
5.296, 5, 35.8625, 49.0059, -14.1757, 96.9873, -54.2221, 44.9976
5.3, 5, 35.8624, 49.0124, -14.1781, 96.9848, -54.2419, 44.9914
5.304, 5, 35.8624, 49.0189, -14.1805, 96.9823, -54.2617, 44.9852
5.308, 5, 35.8624, 49.0254, -14.1829, 96.9798, -54.2815, 44.979
5.312, 5, 35.8624, 49.0319, -14.1853, 96.9773, -54.3013, 44.9727
5.316, 5, 35.8624, 49.0384, -14.1877, 96.9748, -54.3211, 44.9665
5.32, 5, 35.8623, 49.045, -14.1901, 96.9723, -54.3409, 44.9603
5.324, 5, 35.8623, 49.0515, -14.1925, 96.9698, -54.3607, 44.9541
5.328, 5, 35.8623, 49.058, -14.1949, 96.9673, -54.3805, 44.9478
5.332, 5, 35.8623, 49.0645, -14.1974, 96.9648, -54.4004, 44.9416
5.336, 5, 35.8622, 49.071, -14.1998, 96.9624, -54.4202, 44.9354
5.34, 5, 35.8622, 49.0775, -14.2022, 96.9599, -54.44, 44.9292
5.344, 5, 35.8622, 49.0841, -14.2046, 96.9574, -54.4599, 44.9229
5.348, 5, 35.8622, 49.0906, -14.207, 96.9549, -54.4797, 44.9167
5.352, 5, 35.8622, 49.0971, -14.2094, 96.9524, -54.4996, 44.9105
5.356, 5, 35.8621, 49.1036, -14.2118, 96.9499, -54.5194, 44.9042
5.36, 5, 35.8621, 49.1102, -14.2143, 96.9474, -54.5393, 44.898
5.364, 5, 35.8621, 49.1167, -14.2167, 96.9449, -54.5592, 44.8918
5.368, 5, 35.8621, 49.1232, -14.2191, 96.9424, -54.579, 44.8855
5.372, 5, 35.8621, 49.1298, -14.2215, 96.9399, -54.5989, 44.8793
5.376, 5, 35.862, 49.1363, -14.2239, 96.9374, -54.6188, 44.8731
5.38, 5, 35.862, 49.1428, -14.2264, 96.9349, -54.6387, 44.8668
5.384, 5, 35.862, 49.1494, -14.2288, 96.9324, -54.6585, 44.8606
5.388, 5, 35.862, 49.1559, -14.2312, 96.9299, -54.6784, 44.8543
5.392, 5, 35.8619, 49.1624, -14.2336, 96.9274, -54.6983, 44.8481
5.396, 5, 35.8619, 49.169, -14.236, 96.9249, -54.7182, 44.8418
5.4, 5, 35.8619, 49.1755, -14.2385, 96.9224, -54.7381, 44.8356
5.404, 5, 35.8619, 49.1821, -14.2409, 96.9199, -54.7581, 44.8293
5.408, 5, 35.8619, 49.1886, -14.2433, 96.9174, -54.778, 44.8231
5.412, 5, 35.8618, 49.1952, -14.2457, 96.9149, -54.7979, 44.8168
5.416, 5, 35.8618, 49.2017, -14.2482, 96.9124, -54.8178, 44.8106
5.42, 5, 35.8618, 49.2083, -14.2506, 96.9099, -54.8377, 44.8043
5.424, 5, 35.8618, 49.2148, -14.253, 96.9074, -54.8577, 44.798
5.428, 5, 35.8617, 49.2214, -14.2554, 96.9049, -54.8776, 44.7918
5.432, 5, 35.8617, 49.2279, -14.2579, 96.9024, -54.8976, 44.7855
5.436, 5, 35.8617, 49.2345, -14.2603, 96.8998, -54.9175, 44.7793
5.44, 5, 35.8617, 49.2411, -14.2627, 96.8973, -54.9375, 44.773
5.444, 5, 35.8617, 49.2476, -14.2652, 96.8948, -54.9574, 44.7667
5.448, 5, 35.8616, 49.2542, -14.2676, 96.8923, -54.9774, 44.7605
5.452, 5, 35.8616, 49.2607, -14.27, 96.8898, -54.9974, 44.7542
5.456, 5, 35.8616, 49.2673, -14.2725, 96.8873, -55.0173, 44.7479
5.46, 5, 35.8616, 49.2739, -14.2749, 96.8848, -55.0373, 44.7416
5.464, 5, 35.8616, 49.2804, -14.2773, 96.8823, -55.0573, 44.7354
5.468, 5, 35.8615, 49.287, -14.2797, 96.8798, -55.0773, 44.7291
5.472, 5, 35.8615, 49.2936, -14.2822, 96.8773, -55.0973, 44.7228
5.476, 5, 35.8615, 49.3002, -14.2846, 96.8747, -55.1173, 44.7165
5.48, 5, 35.8615, 49.3067, -14.2871, 96.8722, -55.1373, 44.7103
5.484, 5, 35.8614, 49.3133, -14.2895, 96.8697, -55.1573, 44.704
5.488, 5, 35.8614, 49.3199, -14.2919, 96.8672, -55.1773, 44.6977
5.492, 5, 35.8614, 49.3265, -14.2944, 96.8647, -55.1973, 44.6914
5.496, 5, 35.8614, 49.333, -14.2968, 96.8622, -55.2173, 44.6851
5.5, 5, 35.8614, 49.3396, -14.2992, 96.8596, -55.2374, 44.6788
5.504, 5, 35.8613, 49.3462, -14.3017, 96.8571, -55.2574, 44.6725
5.508, 5, 35.8613, 49.3528, -14.3041, 96.8546, -55.2774, 44.6663
5.512, 5, 35.8613, 49.3594, -14.3066, 96.8521, -55.2975, 44.66
5.516, 5, 35.8613, 49.366, -14.309, 96.8496, -55.3175, 44.6537
5.52, 5, 35.8612, 49.3726, -14.3114, 96.847, -55.3376, 44.6474
5.524, 5, 35.8612, 49.3792, -14.3139, 96.8445, -55.3576, 44.6411
5.528, 5, 35.8612, 49.3858, -14.3163, 96.842, -55.3777, 44.6348
5.532, 5, 35.8612, 49.3923, -14.3188, 96.8395, -55.3977, 44.6285
5.536, 5, 35.8612, 49.3989, -14.3212, 96.837, -55.4178, 44.6222
5.54, 5, 35.8611, 49.4055, -14.3236, 96.8344, -55.4379, 44.6159
5.544, 5, 35.8611, 49.4121, -14.3261, 96.8319, -55.458, 44.6096
5.548, 5, 35.8611, 49.4187, -14.3285, 96.8294, -55.4781, 44.6033
5.552, 5, 35.8611, 49.4254, -14.331, 96.8269, -55.4981, 44.597
5.556, 5, 35.861, 49.432, -14.3334, 96.8243, -55.5182, 44.5907
5.56, 5, 35.861, 49.4386, -14.3359, 96.8218, -55.5383, 44.5843
5.564, 5, 35.861, 49.4452, -14.3383, 96.8193, -55.5584, 44.578
5.568, 5, 35.861, 49.4518, -14.3408, 96.8168, -55.5785, 44.5717
5.572, 5, 35.861, 49.4584, -14.3432, 96.8142, -55.5987, 44.5654
5.576, 5, 35.8609, 49.465, -14.3457, 96.8117, -55.6188, 44.5591
5.58, 5, 35.8609, 49.4716, -14.3481, 96.8092, -55.6389, 44.5528
5.584, 5, 35.8609, 49.4782, -14.3506, 96.8066, -55.659, 44.5465
5.588, 5, 35.8609, 49.4849, -14.353, 96.8041, -55.6792, 44.5401
5.592, 5, 35.8609, 49.4915, -14.3555, 96.8016, -55.6993, 44.5338
5.596, 5, 35.8608, 49.4981, -14.3579, 96.799, -55.7194, 44.5275
5.6, 5, 35.8608, 49.5047, -14.3604, 96.7965, -55.7396, 44.5212
5.604, 5, 35.8608, 49.5113, -14.3628, 96.794, -55.7597, 44.5148
5.608, 5, 35.8608, 49.518, -14.3653, 96.7915, -55.7799, 44.5085
5.612, 5, 35.8607, 49.5246, -14.3677, 96.7889, -55.8, 44.5022
5.616, 5, 35.8607, 49.5312, -14.3702, 96.7864, -55.8202, 44.4958
5.62, 5, 35.8607, 49.5378, -14.3726, 96.7838, -55.8404, 44.4895
5.624, 5, 35.8607, 49.5445, -14.3751, 96.7813, -55.8606, 44.4832
5.628, 5, 35.8607, 49.5511, -14.3775, 96.7788, -55.8807, 44.4768
5.632, 5, 35.8606, 49.5577, -14.38, 96.7762, -55.9009, 44.4705
5.636, 5, 35.8606, 49.5644, -14.3825, 96.7737, -55.9211, 44.4642
5.64, 5, 35.8606, 49.571, -14.3849, 96.7712, -55.9413, 44.4578
5.644, 5, 35.8606, 49.5777, -14.3874, 96.7686, -55.9615, 44.4515
5.648, 5, 35.8605, 49.5843, -14.3898, 96.7661, -55.9817, 44.4451
5.652, 5, 35.8605, 49.591, -14.3923, 96.7635, -56.0019, 44.4388
5.656, 5, 35.8605, 49.5976, -14.3948, 96.761, -56.0221, 44.4324
5.66, 5, 35.8605, 49.6042, -14.3972, 96.7585, -56.0424, 44.4261
5.664, 5, 35.8605, 49.6109, -14.3997, 96.7559, -56.0626, 44.4197
5.668, 5, 35.8604, 49.6175, -14.4021, 96.7534, -56.0828, 44.4134
5.672, 5, 35.8604, 49.6242, -14.4046, 96.7508, -56.1031, 44.407
5.676, 5, 35.8604, 49.6308, -14.4071, 96.7483, -56.1233, 44.4007
5.68, 5, 35.8604, 49.6375, -14.4095, 96.7457, -56.1435, 44.3943
5.684, 5, 35.8603, 49.6442, -14.412, 96.7432, -56.1638, 44.388
5.688, 5, 35.8603, 49.6508, -14.4145, 96.7406, -56.184, 44.3816
5.692, 5, 35.8603, 49.6575, -14.4169, 96.7381, -56.2043, 44.3753
5.696, 5, 35.8603, 49.6641, -14.4194, 96.7355, -56.2246, 44.3689
5.7, 5, 35.8603, 49.6708, -14.4219, 96.733, -56.2448, 44.3625
5.704, 5, 35.8602, 49.6775, -14.4243, 96.7305, -56.2651, 44.3562
5.708, 5, 35.8602, 49.6841, -14.4268, 96.7279, -56.2854, 44.3498
5.712, 5, 35.8602, 49.6908, -14.4293, 96.7254, -56.3057, 44.3434
5.716, 5, 35.8602, 49.6975, -14.4317, 96.7228, -56.326, 44.3371
5.72, 5, 35.8601, 49.7041, -14.4342, 96.7203, -56.3463, 44.3307
5.724, 5, 35.8601, 49.7108, -14.4367, 96.7177, -56.3666, 44.3243
5.728, 5, 35.8601, 49.7175, -14.4391, 96.7152, -56.3869, 44.3179
5.732, 5, 35.8601, 49.7242, -14.4416, 96.7126, -56.4072, 44.3116
5.736, 5, 35.8601, 49.7308, -14.4441, 96.71, -56.4275, 44.3052
5.74, 5, 35.86, 49.7375, -14.4466, 96.7075, -56.4478, 44.2988
5.744, 5, 35.86, 49.7442, -14.449, 96.7049, -56.4681, 44.2924
5.748, 5, 35.86, 49.7509, -14.4515, 96.7024, -56.4884, 44.286
5.752, 5, 35.86, 49.7576, -14.454, 96.6998, -56.5088, 44.2797
5.756, 5, 35.8599, 49.7642, -14.4565, 96.6973, -56.5291, 44.2733
5.76, 5, 35.8599, 49.7709, -14.4589, 96.6947, -56.5495, 44.2669
5.764, 5, 35.8599, 49.7776, -14.4614, 96.6922, -56.5698, 44.2605
5.768, 5, 35.8599, 49.7843, -14.4639, 96.6896, -56.5902, 44.2541
5.772, 5, 35.8599, 49.791, -14.4664, 96.687, -56.6105, 44.2477
5.776, 5, 35.8598, 49.7977, -14.4689, 96.6845, -56.6309, 44.2413
5.78, 5, 35.8598, 49.8044, -14.4713, 96.6819, -56.6513, 44.2349
5.784, 5, 35.8598, 49.8111, -14.4738, 96.6794, -56.6716, 44.2285
5.788, 5, 35.8598, 49.8178, -14.4763, 96.6768, -56.692, 44.2221
5.792, 5, 35.8597, 49.8245, -14.4788, 96.6742, -56.7124, 44.2157
5.796, 5, 35.8597, 49.8312, -14.4813, 96.6717, -56.7328, 44.2093
5.8, 5, 35.8597, 49.8379, -14.4837, 96.6691, -56.7532, 44.2029
5.804, 5, 35.8597, 49.8446, -14.4862, 96.6665, -56.7736, 44.1965
5.808, 5, 35.8597, 49.8513, -14.4887, 96.664, -56.794, 44.1901
5.812, 5, 35.8596, 49.858, -14.4912, 96.6614, -56.8144, 44.1837
5.816, 5, 35.8596, 49.8647, -14.4937, 96.6589, -56.8348, 44.1773
5.82, 5, 35.8596, 49.8714, -14.4962, 96.6563, -56.8552, 44.1709
5.824, 5, 35.8596, 49.8781, -14.4986, 96.6537, -56.8756, 44.1645
5.828, 5, 35.8595, 49.8849, -14.5011, 96.6512, -56.8961, 44.1581
5.832, 5, 35.8595, 49.8916, -14.5036, 96.6486, -56.9165, 44.1516
5.836, 5, 35.8595, 49.8983, -14.5061, 96.646, -56.9369, 44.1452
5.84, 5, 35.8595, 49.905, -14.5086, 96.6434, -56.9574, 44.1388
5.844, 5, 35.8595, 49.9117, -14.5111, 96.6409, -56.9778, 44.1324
5.848, 5, 35.8594, 49.9185, -14.5136, 96.6383, -56.9983, 44.126
5.852, 5, 35.8594, 49.9252, -14.5161, 96.6357, -57.0187, 44.1195
5.856, 5, 35.8594, 49.9319, -14.5185, 96.6332, -57.0392, 44.1131
5.86, 5, 35.8594, 49.9386, -14.521, 96.6306, -57.0597, 44.1067
5.864, 5, 35.8593, 49.9454, -14.5235, 96.628, -57.0801, 44.1003
5.868, 5, 35.8593, 49.9521, -14.526, 96.6254, -57.1006, 44.0938
5.872, 5, 35.8593, 49.9588, -14.5285, 96.6229, -57.1211, 44.0874
5.876, 5, 35.8593, 49.9656, -14.531, 96.6203, -57.1416, 44.081
5.88, 5, 35.8593, 49.9723, -14.5335, 96.6177, -57.1621, 44.0745
5.884, 5, 35.8592, 49.979, -14.536, 96.6151, -57.1826, 44.0681
5.888, 5, 35.8592, 49.9858, -14.5385, 96.6125, -57.2031, 44.0617
5.892, 5, 35.8592, 49.9925, -14.541, 96.61, -57.2236, 44.0552
5.896, 5, 35.8592, 49.9993, -14.5435, 96.6074, -57.2441, 44.0488
5.9, 5, 35.8591, 50.006, -14.546, 96.6048, -57.2646, 44.0423
5.904, 5, 35.8591, 50.0128, -14.5485, 96.6022, -57.2851, 44.0359
5.908, 5, 35.8591, 50.0195, -14.551, 96.5997, -57.3057, 44.0295
5.912, 5, 35.8591, 50.0262, -14.5535, 96.5971, -57.3262, 44.023
5.916, 5, 35.8591, 50.033, -14.556, 96.5945, -57.3467, 44.0166
5.92, 5, 35.859, 50.0398, -14.5585, 96.5919, -57.3673, 44.0101
5.924, 5, 35.859, 50.0465, -14.561, 96.5893, -57.3878, 44.0037
5.928, 5, 35.859, 50.0533, -14.5635, 96.5867, -57.4084, 43.9972
5.932, 5, 35.859, 50.06, -14.566, 96.5842, -57.4289, 43.9908
5.936, 5, 35.8589, 50.0668, -14.5685, 96.5816, -57.4495, 43.9843
5.94, 5, 35.8589, 50.0735, -14.571, 96.579, -57.4701, 43.9778
5.944, 5, 35.8589, 50.0803, -14.5735, 96.5764, -57.4907, 43.9714
5.948, 5, 35.8589, 50.0871, -14.576, 96.5738, -57.5112, 43.9649
5.952, 5, 35.8589, 50.0938, -14.5785, 96.5712, -57.5318, 43.9585
5.956, 5, 35.8588, 50.1006, -14.581, 96.5686, -57.5524, 43.952
5.96, 5, 35.8588, 50.1074, -14.5835, 96.5661, -57.573, 43.9455
5.964, 5, 35.8588, 50.1141, -14.586, 96.5635, -57.5936, 43.9391
5.968, 5, 35.8588, 50.1209, -14.5885, 96.5609, -57.6142, 43.9326
5.972, 5, 35.8587, 50.1277, -14.591, 96.5583, -57.6348, 43.9261
5.976, 5, 35.8587, 50.1345, -14.5936, 96.5557, -57.6554, 43.9196
5.98, 5, 35.8587, 50.1413, -14.5961, 96.5531, -57.6761, 43.9132
5.984, 5, 35.8587, 50.148, -14.5986, 96.5505, -57.6967, 43.9067
5.988, 5, 35.8587, 50.1548, -14.6011, 96.5479, -57.7173, 43.9002
5.992, 5, 35.8586, 50.1616, -14.6036, 96.5453, -57.7379, 43.8937
5.996, 5, 35.8586, 50.1684, -14.6061, 96.5427, -57.7586, 43.8873
6, 5, 35.8586, 50.1752, -14.6086, 96.5401, -57.7792, 43.8808
6.004, 5, 35.8586, 50.182, -14.6111, 96.5375, -57.7999, 43.8743
6.008, 5, 35.8585, 50.1887, -14.6137, 96.5349, -57.8205, 43.8678
6.012, 5, 35.8585, 50.1955, -14.6162, 96.5323, -57.8412, 43.8613
6.016, 5, 35.8585, 50.2023, -14.6187, 96.5297, -57.8619, 43.8548
6.02, 5, 35.8585, 50.2091, -14.6212, 96.5272, -57.8825, 43.8483
6.024, 5, 35.8584, 50.2159, -14.6237, 96.5245, -57.9032, 43.8419
6.028, 5, 35.8584, 50.2227, -14.6262, 96.5219, -57.9239, 43.8354
6.032, 5, 35.8584, 50.2295, -14.6288, 96.5193, -57.9446, 43.8289
6.036, 5, 35.8584, 50.2363, -14.6313, 96.5167, -57.9653, 43.8224
6.04, 5, 35.8584, 50.2431, -14.6338, 96.5141, -57.986, 43.8159
6.044, 5, 35.8583, 50.2499, -14.6363, 96.5116, -58.0067, 43.8094
6.048, 5, 35.8583, 50.2567, -14.6388, 96.5089, -58.0274, 43.8029
6.052, 5, 35.8583, 50.2635, -14.6414, 96.5063, -58.0481, 43.7964
6.056, 5, 35.8583, 50.2704, -14.6439, 96.5037, -58.0688, 43.7899
6.06, 5, 35.8582, 50.2772, -14.6464, 96.5011, -58.0895, 43.7834
6.064, 5, 35.8582, 50.284, -14.6489, 96.4985, -58.1103, 43.7768
6.068, 5, 35.8582, 50.2908, -14.6514, 96.4959, -58.131, 43.7703
