hehonglu123/Motion-Primitive-Planning/ILC/recorded_data/realrobot/from_NX/iteration_20/run_3.csv
timestamp, cmd_num, J1, J2, J3, J4, J5, J6
0.001107, -1, 39.6301, 32.4471, 11.8318, 12.5453, 113.713, -48.8724
0.004734, -1, 39.6301, 32.4471, 11.8318, 12.5453, 113.713, -48.8724
0.007736, -1, 39.6301, 32.4471, 11.8319, 12.5453, 113.713, -48.8724
0.029665, -1, 39.6301, 32.4471, 11.8319, 12.5453, 113.713, -48.8725
0.031047, -1, 39.6301, 32.4471, 11.8319, 12.5453, 113.713, -48.8725
0.033654, -1, 39.6301, 32.4471, 11.8318, 12.5453, 113.713, -48.8725
0.039663, -1, 39.6301, 32.4471, 11.8318, 12.5453, 113.713, -48.8725
0.047629, -1, 39.6301, 32.4471, 11.8319, 12.5453, 113.713, -48.8724
0.055627, -1, 39.6295, 32.447, 11.8319, 12.5453, 113.713, -48.8724
0.0636, -1, 39.6272, 32.4466, 11.8318, 12.5453, 113.713, -48.8724
0.071657, -1, 39.6219, 32.4452, 11.8318, 12.5454, 113.713, -48.8727
0.080659, -1, 39.6132, 32.4423, 11.8317, 12.5453, 113.712, -48.8739
0.087615, -1, 39.6, 32.4371, 11.8317, 12.5453, 113.71, -48.8785
0.095672, -1, 39.5803, 32.4285, 11.8318, 12.5453, 113.707, -48.8898
0.1036, -1, 39.5517, 32.4159, 11.8322, 12.5453, 113.7, -48.9103
0.111628, -1, 39.5133, 32.3984, 11.8343, 12.5453, 113.688, -48.9438
0.119602, -1, 39.4639, 32.3747, 11.8392, 12.5453, 113.669, -48.9941
0.127624, -1, 39.4019, 32.3443, 11.8475, 12.5453, 113.641, -49.0658
0.135671, -1, 39.3265, 32.3065, 11.8603, 12.5454, 113.604, -49.16
0.143609, -1, 39.2373, 32.2609, 11.8781, 12.5456, 113.558, -49.28
0.151601, -1, 39.1343, 32.2073, 11.9006, 12.5462, 113.501, -49.4253
0.159663, -1, 39.0171, 32.146, 11.9273, 12.5472, 113.433, -49.5953
0.167701, -1, 38.8866, 32.0772, 11.958, 12.5487, 113.357, -49.7876
0.17561, -1, 38.7438, 32.0018, 11.992, 12.5506, 113.274, -49.9995
0.18372, -1, 38.5894, 31.9206, 12.0282, 12.5527, 113.184, -50.2272
0.191598, -1, 38.425, 31.8344, 12.066, 12.5551, 113.089, -50.4671
0.199606, -1, 38.2528, 31.7442, 12.1048, 12.5575, 112.991, -50.7153
0.207657, -1, 38.0744, 31.651, 12.1439, 12.5599, 112.891, -50.9686
0.215597, -1, 37.8909, 31.5556, 12.1828, 12.5623, 112.789, -51.2252
0.224045, -1, 37.7033, 31.4587, 12.2216, 12.5647, 112.687, -51.4836
0.2316, -1, 37.5131, 31.3611, 12.2604, 12.5671, 112.585, -51.7432
0.239652, -1, 37.3215, 31.2631, 12.2992, 12.5696, 112.482, -52.0026
0.248435, -1, 37.1294, 31.1652, 12.3381, 12.5721, 112.379, -52.2624
0.255601, -1, 36.9372, 31.0675, 12.3768, 12.5748, 112.276, -52.5224
0.263639, -1, 36.7451, 30.9698, 12.4156, 12.5773, 112.173, -52.7827
0.272584, -1, 36.5534, 30.872, 12.4545, 12.5798, 112.07, -53.0432
0.279746, -1, 36.3618, 30.7743, 12.4934, 12.5824, 111.967, -53.3035
0.2877, -1, 36.1702, 30.6765, 12.5322, 12.585, 111.865, -53.564
0.296502, -1, 35.9786, 30.5785, 12.5711, 12.5876, 111.762, -53.8246
0.303705, -1, 35.7871, 30.4805, 12.61, 12.5902, 111.659, -54.0852
0.311603, -1, 35.5953, 30.3825, 12.6489, 12.5927, 111.556, -54.3454
0.320576, -1, 35.4032, 30.2843, 12.6877, 12.5953, 111.453, -54.6057
0.327631, -1, 35.2108, 30.186, 12.7265, 12.5979, 111.349, -54.8664
0.335756, -1, 35.0184, 30.0877, 12.7655, 12.6005, 111.246, -55.1272
0.344584, -1, 34.8262, 29.9892, 12.8044, 12.6031, 111.143, -55.3878
0.478996, -1, 31.6453, 28.3633, 13.4463, 12.6467, 109.443, -59.6948
0.481349, -1, 31.5484, 28.3139, 13.4658, 12.6481, 109.391, -59.8253
0.482721, -1, 31.5484, 28.3139, 13.4658, 12.6481, 109.391, -59.8253
0.484617, -1, 31.5484, 28.3139, 13.4658, 12.6495, 109.34, -59.9559
0.48599, -1, 31.4517, 28.2646, 13.4852, 12.6495, 109.34, -59.9559
0.487282, -1, 31.4517, 28.2646, 13.4852, 12.6495, 109.34, -59.9559
0.489992, -1, 31.3551, 28.2153, 13.5047, 12.6509, 109.288, -60.0866
0.493792, -1, 31.2587, 28.1661, 13.5241, 12.6523, 109.237, -60.2173
0.49504, -1, 31.2587, 28.1661, 13.5241, 12.6523, 109.237, -60.2173
0.49697, -1, 31.1624, 28.1168, 13.5437, 12.6537, 109.185, -60.3479
0.498343, -1, 31.1624, 28.1168, 13.5437, 12.6537, 109.185, -60.3479
0.499678, -1, 31.1624, 28.1168, 13.5437, 12.6537, 109.185, -60.3479
0.50174, -1, 31.0661, 28.0676, 13.5632, 12.6551, 109.134, -60.4787
0.503021, -1, 31.0661, 28.0676, 13.5632, 12.6551, 109.134, -60.4787
0.504975, -1, 30.9699, 28.0183, 13.5828, 12.6565, 109.082, -60.6095
0.507326, -1, 30.9699, 28.0183, 13.5828, 12.6565, 109.082, -60.6095
0.509467, -1, 30.8737, 27.969, 13.6023, 12.6579, 109.03, -60.7401
0.510725, -1, 30.8737, 27.969, 13.6023, 12.6579, 109.03, -60.7401
0.512107, -1, 30.8737, 27.969, 13.6023, 12.6579, 109.03, -60.7401
0.515018, -1, 30.7777, 27.9197, 13.6217, 12.6593, 108.979, -60.8707
0.51768, -1, 30.7777, 27.9197, 13.6217, 12.6593, 108.927, -61.0014
0.519635, -1, 30.6817, 27.8704, 13.6412, 12.6607, 108.927, -61.0014
0.530608, -1, 30.3938, 27.7225, 13.6997, 12.665, 108.772, -61.3933
0.535656, -1, 30.2978, 27.6731, 13.7192, 12.6663, 108.721, -61.524
0.543592, -1, 30.1056, 27.5744, 13.7582, 12.6691, 108.618, -61.7858
0.551587, -1, 29.9131, 27.4756, 13.7972, 12.6718, 108.514, -62.0474
0.562148, -1, 29.6235, 27.3276, 13.8555, 12.6757, 108.36, -62.4399
0.567587, -1, 29.5266, 27.2782, 13.875, 12.677, 108.308, -62.5708
0.576596, -1, 29.3326, 27.1794, 13.9139, 12.6796, 108.205, -62.8326
0.583651, -1, 29.1384, 27.0805, 13.9529, 12.6822, 108.101, -63.0942
0.59159, -1, 28.944, 26.9816, 13.9919, 12.6847, 107.998, -63.3556
0.599643, -1, 28.7498, 26.8827, 14.0308, 12.6873, 107.894, -63.6172
0.607577, -1, 28.5557, 26.7838, 14.0697, 12.6897, 107.791, -63.8789
0.615595, -1, 28.3618, 26.685, 14.1088, 12.6923, 107.688, -64.1406
0.623647, -1, 28.1684, 26.5863, 14.1478, 12.6947, 107.584, -64.4021
0.631604, -1, 27.9754, 26.4875, 14.1867, 12.6972, 107.481, -64.6639
0.77313, -1, 24.594, 24.7575, 14.8686, 12.738, 105.674, -69.2442
0.77503, -1, 24.594, 24.7575, 14.8881, 12.7392, 105.623, -69.3751
0.776515, -1, 24.4978, 24.7081, 14.8881, 12.7392, 105.623, -69.3751
0.777812, -1, 24.4978, 24.7081, 14.8881, 12.7392, 105.623, -69.3751
0.780765, -1, 24.4016, 24.6586, 14.9076, 12.7403, 105.571, -69.5061
0.782002, -1, 24.4016, 24.6586, 14.9076, 12.7403, 105.571, -69.5061
0.784078, -1, 24.3054, 24.6092, 14.9271, 12.7415, 105.519, -69.6369
0.789634, -1, 24.2091, 24.5598, 14.9466, 12.7428, 105.468, -69.7677
0.791648, -1, 24.1128, 24.5104, 14.9661, 12.7439, 105.416, -69.8984
0.79294, -1, 24.1128, 24.5104, 14.9661, 12.7439, 105.416, -69.8984
0.794124, -1, 24.1128, 24.5104, 14.9661, 12.7439, 105.416, -69.8984
0.796882, -1, 24.0165, 24.461, 14.9856, 12.745, 105.364, -70.0291
0.798195, -1, 24.0165, 24.461, 14.9856, 12.745, 105.364, -70.0291
0.80048, -1, 23.9201, 24.4116, 15.0051, 12.7462, 105.313, -70.1598
0.80175, -1, 23.9201, 24.4116, 15.0051, 12.7462, 105.313, -70.1598
0.804879, -1, 23.8236, 24.3622, 15.0245, 12.7474, 105.261, -70.2906
0.806078, -1, 23.8236, 24.3622, 15.0245, 12.7474, 105.261, -70.2906
0.808102, -1, 23.7272, 24.3128, 15.044, 12.7486, 105.209, -70.4215
0.809334, -1, 23.7272, 24.3128, 15.044, 12.7486, 105.209, -70.4215
0.811183, -1, 23.7272, 24.3128, 15.044, 12.7486, 105.158, -70.5525
0.81258, -1, 23.6307, 24.2633, 15.0634, 12.7498, 105.158, -70.5525
0.813852, -1, 23.6307, 24.2633, 15.0634, 12.7498, 105.158, -70.5525
0.817606, -1, 23.5341, 24.2139, 15.0829, 12.751, 105.106, -70.6835
0.825641, -1, 23.3406, 24.115, 15.1219, 12.7534, 105.002, -70.945
0.832598, -1, 23.1467, 24.0161, 15.1607, 12.7558, 104.899, -71.2068
0.839749, -1, 22.9528, 23.9172, 15.1996, 12.7582, 104.796, -71.4686
0.848067, -1, 22.7588, 23.8184, 15.2386, 12.7607, 104.692, -71.7305
0.855823, -1, 22.565, 23.7196, 15.2776, 12.7632, 104.589, -71.9921
0.863793, -1, 22.3713, 23.621, 15.3166, 12.7657, 104.486, -72.2535
0.871967, -1, 22.1781, 23.5223, 15.3555, 12.7682, 104.382, -72.5149
0.879986, -1, 21.985, 23.4235, 15.3944, 12.7709, 104.279, -72.7765
0.887973, -1, 21.7922, 23.3248, 15.4334, 12.7735, 104.176, -73.0381
0.896425, -1, 21.5999, 23.226, 15.4724, 12.7762, 104.073, -73.2993
0.904121, -1, 21.4078, 23.1273, 15.5112, 12.7788, 103.97, -73.5607
0.912108, -1, 21.2155, 23.0286, 15.5503, 12.7815, 103.866, -73.8224
0.920235, -1, 21.0231, 22.93, 15.5892, 12.7842, 103.763, -74.084
0.928166, -1, 20.8306, 22.8314, 15.6281, 12.7868, 103.66, -74.3451
0.936115, -1, 20.7343, 22.7821, 15.6476, 12.7882, 103.557, -74.6061
0.944491, -1, 20.5416, 22.6834, 15.6865, 12.791, 103.454, -74.8675
0.951572, -1, 20.3485, 22.5848, 15.7253, 12.7937, 103.402, -74.9982
0.959627, -1, 20.1548, 22.486, 15.7643, 12.7963, 103.299, -75.2594
0.967621, -1, 19.9612, 22.3873, 15.8031, 12.7991, 103.196, -75.5205
0.975578, -1, 19.7675, 22.2886, 15.8418, 12.8018, 103.093, -75.7817
0.983582, -1, 19.5739, 22.19, 15.8807, 12.8045, 102.99, -76.0428
0.99162, -1, 19.3805, 22.0914, 15.9196, 12.8073, 102.887, -76.3041
0.999633, -1, 19.1875, 21.9927, 15.9584, 12.8101, 102.784, -76.565
1.0077, -1, 18.9946, 21.8941, 15.9974, 12.8128, 102.681, -76.8258
1.01556, -1, 18.8022, 21.7954, 16.0361, 12.8155, 102.578, -77.0868
1.02359, -1, 18.6101, 21.6967, 16.0749, 12.8182, 102.475, -77.3477
1.03162, -1, 18.4183, 21.5981, 16.1138, 12.8208, 102.372, -77.6084
1.03962, -1, 18.2264, 21.4996, 16.1527, 12.8235, 102.27, -77.8692
1.04757, -1, 18.0345, 21.4012, 16.1914, 12.8261, 102.167, -78.1299
1.05563, -1, 17.8427, 21.3028, 16.2304, 12.8285, 102.064, -78.3909
1.06358, -1, 17.6507, 21.2044, 16.2692, 12.8311, 101.961, -78.6513
1.07258, -1, 17.4583, 21.1061, 16.308, 12.8335, 101.858, -78.9117
1.07859, -1, 17.2655, 21.0078, 16.3469, 12.836, 101.755, -79.1723
1.08757, -1, 17.0724, 20.9095, 16.3856, 12.8384, 101.652, -79.433
1.09557, -1, 16.8794, 20.8113, 16.4244, 12.8408, 101.549, -79.6935
1.10365, -1, 16.6863, 20.7131, 16.4633, 12.8431, 101.446, -79.954
1.11157, -1, 16.4933, 20.6149, 16.5019, 12.8454, 101.344, -80.2143
1.11963, -1, 16.3005, 20.5166, 16.5407, 12.8477, 101.241, -80.475
1.12757, -1, 16.1082, 20.4182, 16.5794, 12.8501, 101.138, -80.7356
1.13559, -1, 15.9162, 20.3198, 16.6181, 12.8524, 101.036, -80.9958
1.14365, -1, 15.7245, 20.2213, 16.6569, 12.8547, 100.933, -81.2557
1.15157, -1, 15.5331, 20.1229, 16.6954, 12.857, 100.831, -81.5159
1.15962, -1, 15.3419, 20.0245, 16.7341, 12.8594, 100.728, -81.7762
1.16764, -1, 15.1508, 19.9263, 16.7729, 12.8617, 100.625, -82.036
1.17566, -1, 14.9597, 19.8281, 16.8116, 12.864, 100.523, -82.2957
1.18358, -1, 14.7683, 19.73, 16.8502, 12.8663, 100.42, -82.5557
1.19164, -1, 14.5769, 19.6319, 16.889, 12.8686, 100.318, -82.8156
1.19962, -1, 14.385, 19.5337, 16.9276, 12.8709, 100.215, -83.0755
1.20756, -1, 14.1928, 19.4357, 16.9663, 12.8731, 100.113, -83.3349
1.21564, -1, 14.0005, 19.3377, 17.0051, 12.8754, 100.01, -83.5945
1.22357, -1, 13.8081, 19.2399, 17.0436, 12.8777, 99.9075, -83.8542
1.23156, -1, 13.6155, 19.1421, 17.0822, 12.88, 99.8049, -84.1138
1.23984, -1, 13.4232, 19.0442, 17.1209, 12.8823, 99.7024, -84.373
1.24757, -1, 13.2313, 18.9463, 17.1594, 12.8846, 99.6003, -84.6322
1.25563, -1, 13.0397, 18.8484, 17.198, 12.887, 99.4978, -84.8917
1.26436, -1, 12.8484, 18.7503, 17.2366, 12.8893, 99.3953, -85.1511
1.27164, -1, 12.6574, 18.6524, 17.2751, 12.8917, 99.2932, -85.4101
1.27977, -1, 12.4668, 18.5546, 17.3137, 12.8942, 99.1907, -85.669
1.28888, -1, 12.2766, 18.4568, 17.3522, 12.8966, 99.0885, -85.9278
1.29567, -1, 12.0864, 18.3591, 17.3906, 12.899, 98.9866, -86.1868
1.30414, -1, 11.8961, 18.2615, 17.4293, 12.9014, 98.8844, -86.4456
1.31129, -1, 11.7055, 18.1639, 17.4679, 12.9038, 98.7825, -86.7041
1.31979, -1, 11.5147, 18.0662, 17.5063, 12.9062, 98.6808, -86.9627
1.32823, -1, 11.3237, 17.9686, 17.5449, 12.9086, 98.5787, -87.2215
1.3356, -1, 11.1325, 17.8712, 17.5834, 12.9111, 98.4769, -87.4798
1.3438, -1, 10.941, 17.7737, 17.6219, 12.9136, 98.375, -87.7381
1.35255, -1, 10.7493, 17.6763, 17.6604, 12.9161, 98.2729, -87.9963
1.35979, -1, 10.5577, 17.5787, 17.6988, 12.9186, 98.1711, -88.2547
1.36787, -1, 10.3664, 17.4812, 17.7372, 12.9212, 98.0693, -88.5129
1.37682, -1, 10.1754, 17.3837, 17.7757, 12.9237, 97.9674, -88.7708
1.38396, -1, 9.98476, 17.286, 17.8141, 12.9264, 97.8656, -89.0289
1.39203, -1, 9.79446, 17.1885, 17.8524, 12.929, 97.7636, -89.287
1.39857, -1, 9.6994, 17.1397, 17.8716, 12.9303, 97.7126, -89.4162
1.40818, -1, 9.41509, 16.9936, 17.929, 12.9344, 97.5599, -89.8029
1.41614, -1, 9.22578, 16.8962, 17.9674, 12.9371, 97.4579, -90.0606
1.4251, -1, 9.03652, 16.799, 18.0058, 12.9397, 97.356, -90.3181
1.43063, -1, 8.94183, 16.7505, 18.025, 12.9411, 97.3052, -90.4469
1.44034, -1, 8.65749, 16.6047, 18.0826, 12.945, 97.1526, -90.8332
1.44756, -1, 8.56268, 16.5561, 18.1018, 12.9463, 97.1019, -90.9617
1.45463, -1, 8.37296, 16.4591, 18.1402, 12.9491, 97.0004, -91.219
1.46461, -1, 8.08743, 16.3137, 18.1976, 12.953, 96.848, -91.6047
1.47155, -1, 7.99219, 16.2653, 18.2169, 12.9543, 96.7972, -91.7334
1.47967, -1, 7.80169, 16.1683, 18.2551, 12.957, 96.6958, -91.9903
1.4876, -1, 7.61109, 16.0714, 18.2934, 12.9596, 96.5943, -92.2469
1.49556, -1, 7.42065, 15.9745, 18.3318, 12.9622, 96.4929, -92.5037
1.50364, -1, 7.23053, 15.8775, 18.3699, 12.9647, 96.3917, -92.7606
1.51171, -1, 7.04066, 15.7805, 18.4081, 12.9673, 96.2903, -93.0173
1.51955, -1, 6.8512, 15.6836, 18.4464, 12.9699, 96.189, -93.2736
1.5276, -1, 6.66223, 15.5867, 18.4845, 12.9723, 96.0884, -93.5299
1.53555, -1, 6.47375, 15.4899, 18.5226, 12.9749, 95.9872, -93.7863
1.54357, -1, 6.28554, 15.3932, 18.5608, 12.9774, 95.8861, -94.0428
1.55162, -1, 6.09749, 15.2965, 18.5989, 12.9799, 95.7854, -94.2988
1.56132, -1, 5.81497, 15.1515, 18.6562, 12.9834, 95.6339, -94.6827
1.56755, -1, 5.72077, 15.1032, 18.6753, 12.9846, 95.5834, -94.8107
1.57656, -1, 5.53226, 15.0066, 18.7133, 12.9869, 95.4828, -95.0667
1.58356, -1, 5.34346, 14.9101, 18.7515, 12.9892, 95.3819, -95.3223
1.59256, -1, 5.15442, 14.8137, 18.7897, 12.9915, 95.2812, -95.5776
1.59961, -1, 4.96506, 14.7174, 18.8277, 12.9938, 95.1806, -95.8331
1.60755, -1, 4.77568, 14.621, 18.8658, 12.996, 95.0798, -96.0886
1.61555, -1, 4.58624, 14.5245, 18.9039, 12.9982, 94.9791, -96.3437
1.62359, -1, 4.39702, 14.4282, 18.9419, 13.0004, 94.8784, -96.5988
1.63155, -1, 4.20809, 14.3318, 18.9799, 13.0026, 94.7775, -96.8537
1.63962, -1, 4.01937, 14.2353, 19.0179, 13.0049, 94.6767, -97.1088
1.64755, -1, 3.8313, 14.1391, 19.0558, 13.0072, 94.5759, -97.3639
1.65554, -1, 3.64373, 14.043, 19.0938, 13.0094, 94.4751, -97.6185
1.66363, -1, 3.4565, 13.9468, 19.1317, 13.0117, 94.3746, -97.8733
1.67155, -1, 3.26956, 13.8508, 19.1695, 13.014, 94.2739, -98.1279
1.67964, -1, 3.08255, 13.7548, 19.2073, 13.0163, 94.1732, -98.3827
1.68762, -1, 2.89559, 13.6587, 19.2453, 13.0185, 94.0726, -98.6371
1.69555, -1, 2.70852, 13.5627, 19.2832, 13.0207, 93.9719, -98.8913
1.70356, -1, 2.5212, 13.4667, 19.3211, 13.023, 93.8715, -99.1453
1.71163, -1, 2.33382, 13.3709, 19.3589, 13.0253, 93.7712, -99.3996
1.71954, -1, 2.14601, 13.2751, 19.3967, 13.0275, 93.6708, -99.6536
1.72755, -1, 1.95795, 13.1793, 19.4346, 13.0297, 93.5706, -99.9072
1.73563, -1, 1.76986, 13.0834, 19.4723, 13.0321, 93.4708, -100.161
1.74356, -1, 1.58165, 12.9876, 19.51, 13.0342, 93.3707, -100.414
1.75155, -1, 1.39362, 12.8917, 19.5479, 13.0365, 93.2706, -100.668
1.75976, -1, 1.20576, 12.7958, 19.5856, 13.0389, 93.1707, -100.921
1.76758, -1, 1.01831, 12.7001, 19.6232, 13.0412, 93.0706, -101.174
1.77565, -1, 0.831552, 12.6045, 19.661, 13.0436, 92.9706, -101.427
1.78399, -1, 0.645208, 12.5089, 19.6986, 13.046, 92.871, -101.681
1.79113, -1, 0.459253, 12.4134, 19.7362, 13.0484, 92.7711, -101.933
1.79966, -1, 0.273528, 12.3181, 19.774, 13.0509, 92.6714, -102.186
1.80809, -1, 0.0880505, 12.2227, 19.8115, 13.0533, 92.5722, -102.439
1.81561, -1, -0.0973273, 12.1274, 19.8491, 13.0558, 92.4725, -102.691
1.82374, -1, -0.282984, 12.0321, 19.8868, 13.0582, 92.3728, -102.944
1.83228, -1, -0.468882, 11.9369, 19.9244, 13.0607, 92.2736, -103.196
1.83959, -1, -0.655056, 11.8419, 19.9619, 13.0632, 92.174, -103.448
1.84774, -1, -0.841468, 11.7469, 19.9994, 13.0656, 92.0745, -103.7
1.8565, -1, -1.02811, 11.6518, 20.0369, 13.0681, 91.9754, -103.952
1.86391, -1, -1.21494, 11.5567, 20.0743, 13.0707, 91.8759, -104.204
1.87188, -1, -1.40184, 11.4617, 20.1119, 13.0731, 91.7766, -104.455
1.88078, -1, -1.58854, 11.3665, 20.1493, 13.0757, 91.6776, -104.707
1.88794, -1, -1.77491, 11.2714, 20.1867, 13.0783, 91.5783, -104.959
1.89608, -1, -1.96102, 11.1764, 20.2242, 13.0809, 91.4791, -105.21
1.90492, -1, -2.14646, 11.0815, 20.2615, 13.0836, 91.38, -105.461
1.9122, -1, -2.33142, 10.9865, 20.2989, 13.0862, 91.2808, -105.712
1.92012, -1, -2.51606, 10.8917, 20.3363, 13.0889, 91.1817, -105.963
1.92893, -1, -2.70019, 10.797, 20.3735, 13.0916, 91.0826, -106.214
1.93613, -1, -2.79217, 10.7022, 20.4108, 13.0942, 90.9836, -106.465
1.94433, -1, -3.06815, 10.6075, 20.4483, 13.0968, 90.8847, -106.715
1.95154, -1, -3.16018, 10.5602, 20.4669, 13.0981, 90.8353, -106.84
1.95954, -1, -3.34451, 10.4656, 20.5041, 13.1007, 90.7363, -107.091
1.96759, -1, -3.52917, 10.3711, 20.5414, 13.1032, 90.6374, -107.342
1.97555, -1, -3.71391, 10.2768, 20.5787, 13.1058, 90.5388, -107.592
1.98354, -1, -3.89898, 10.1824, 20.6159, 13.1083, 90.4399, -107.842
1.99154, -1, -4.08429, 10.088, 20.6532, 13.1107, 90.3411, -108.091
1.99954, -1, -4.26982, 9.99378, 20.6903, 13.1132, 90.2427, -108.342
2.00759, -1, -4.45538, 9.89944, 20.7275, 13.1155, 90.1439, -108.591
2.01565, -1, -4.64064, 9.8051, 20.7648, 13.1178, 90.0454, -108.841
2.02359, -1, -4.82555, 9.71088, 20.8019, 13.1203, 89.947, -109.09
2.03154, -1, -5.01008, 9.61678, 20.839, 13.1226, 89.8485, -109.34
2.03955, -1, -5.19385, 9.52269, 20.8761, 13.125, 89.75, -109.589
2.0476, -1, -5.37719, 9.42863, 20.9133, 13.1274, 89.6518, -109.838
2.05554, -1, -5.56014, 9.33472, 20.9503, 13.1296, 89.5534, -110.087
2.06354, -1, -5.74278, 9.24077, 20.9874, 13.1319, 89.4551, -110.335
2.07384, -1, -5.92514, 9.14685, 21.0244, 13.1342, 89.3572, -110.584
2.07954, -1, -6.10757, 9.05299, 21.0614, 13.1364, 89.2589, -110.833
2.08855, -1, -6.29031, 8.95922, 21.0985, 13.1386, 89.1609, -111.081
2.09561, -1, -6.47321, 8.8656, 21.1355, 13.1408, 89.0632, -111.33
2.10353, -1, -6.65639, 8.77193, 21.1722, 13.143, 88.9651, -111.578
2.11156, -1, -6.83994, 8.67831, 21.2092, 13.1452, 88.8671, -111.826
2.1196, -1, -7.02376, 8.5847, 21.2462, 13.1472, 88.7693, -112.074
2.12755, -1, -7.20791, 8.49114, 21.283, 13.1494, 88.6715, -112.322
2.13556, -1, -7.39213, 8.39749, 21.32, 13.1515, 88.5736, -112.569
2.1436, -1, -7.57593, 8.30388, 21.3568, 13.1537, 88.4762, -112.817
2.15154, -1, -7.75941, 8.21044, 21.3935, 13.1558, 88.3785, -113.064
2.15954, -1, -7.94251, 8.11704, 21.4304, 13.158, 88.2812, -113.311
2.16761, -1, -8.12511, 8.02367, 21.4672, 13.1604, 88.1839, -113.558
2.17553, -1, -8.30694, 7.93041, 21.5039, 13.1625, 88.0864, -113.806
2.18363, -1, -8.4884, 7.8371, 21.5407, 13.1648, 87.989, -114.053
2.19159, -1, -8.6694, 7.7439, 21.5775, 13.1671, 87.8917, -114.299
2.19953, -1, -8.85008, 7.65073, 21.6143, 13.1693, 87.7942, -114.546
2.20755, -1, -9.03083, 7.55763, 21.651, 13.1715, 87.6967, -114.792
2.2156, -1, -9.21188, 7.46464, 21.6878, 13.1739, 87.5997, -115.039
2.22353, -1, -9.39313, 7.37186, 21.7244, 13.176, 87.5025, -115.285
2.23154, -1, -9.57476, 7.27901, 21.7611, 13.1782, 87.4054, -115.531
2.2396, -1, -9.75671, 7.18622, 21.7978, 13.1805, 87.3084, -115.777
2.24755, -1, -9.93906, 7.09349, 21.8343, 13.1827, 87.2111, -116.023
2.2557, -1, -10.1216, 7.00071, 21.8709, 13.1849, 87.1139, -116.269
2.26354, -1, -10.3043, 6.90793, 21.9075, 13.1871, 87.0167, -116.515
2.27157, -1, -10.4868, 6.81519, 21.9441, 13.1893, 86.9196, -116.76
2.28054, -1, -10.6691, 6.72247, 21.9807, 13.1917, 86.8225, -117.006
2.28769, -1, -10.8509, 6.62985, 22.0171, 13.194, 86.7257, -117.251
2.29563, -1, -11.0322, 6.53726, 22.0535, 13.1965, 86.6287, -117.496
2.30443, -1, -11.2127, 6.44478, 22.0901, 13.1988, 86.5321, -117.741
2.31164, -1, -11.3925, 6.35231, 22.1267, 13.2012, 86.4355, -117.986
2.31969, -1, -11.5722, 6.25988, 22.1631, 13.2036, 86.3387, -118.231
2.3285, -1, -11.7515, 6.16746, 22.1995, 13.2061, 86.2421, -118.476
2.33557, -1, -11.9307, 6.07519, 22.236, 13.2085, 86.1456, -118.72
2.3436, -1, -12.11, 5.98298, 22.2724, 13.211, 86.049, -118.964
2.35261, -1, -12.2895, 5.89093, 22.3089, 13.2135, 85.9526, -119.208
2.35967, -1, -12.4694, 5.7989, 22.3453, 13.216, 85.8564, -119.453
2.36804, -1, -12.6497, 5.70691, 22.3814, 13.2185, 85.76, -119.697
2.37579, -1, -12.8303, 5.61494, 22.4178, 13.221, 85.6638, -119.94
2.38385, -1, -13.0113, 5.52305, 22.4541, 13.2234, 85.568, -120.184
2.39203, -1, -13.1924, 5.43103, 22.4903, 13.2259, 85.4719, -120.428
2.40252, -1, -13.3736, 5.339, 22.5266, 13.2282, 85.3759, -120.672
2.40813, -1, -13.5545, 5.24707, 22.5628, 13.2308, 85.2804, -120.915
2.41613, -1, -13.735, 5.15519, 22.5989, 13.2333, 85.1844, -121.158
2.42484, -1, -13.9149, 5.06334, 22.635, 13.2359, 85.0887, -121.401
2.43215, -1, -14.0941, 4.97159, 22.6713, 13.2385, 84.9932, -121.644
2.44012, -1, -14.1833, 4.92575, 22.6893, 13.241, 84.8974, -121.887
2.44892, -1, -14.3616, 4.83403, 22.7253, 13.2423, 84.8497, -122.008
2.45557, -1, -14.5396, 4.74239, 22.7616, 13.2448, 84.7542, -122.25
2.46354, -1, -14.7172, 4.6508, 22.7977, 13.2474, 84.6585, -122.493
2.47152, -1, -14.8948, 4.55927, 22.8338, 13.2498, 84.5627, -122.735
2.47963, -1, -15.0725, 4.46784, 22.8699, 13.2523, 84.4672, -122.978
2.48752, -1, -15.2505, 4.37653, 22.906, 13.2547, 84.3715, -123.22
2.49552, -1, -15.4289, 4.2852, 22.942, 13.2572, 84.2758, -123.461
2.50358, -1, -15.6078, 4.19389, 22.9781, 13.2595, 84.1803, -123.703
2.51152, -1, -15.787, 4.10263, 23.0141, 13.2618, 84.0848, -123.945
2.5196, -1, -15.9662, 4.01143, 23.05, 13.264, 83.9893, -124.186
2.52754, -1, -16.1458, 3.92015, 23.0861, 13.2662, 83.8941, -124.428
2.53553, -1, -16.3256, 3.82891, 23.1221, 13.2683, 83.7985, -124.669
2.54356, -1, -16.505, 3.73769, 23.1579, 13.2705, 83.7031, -124.911
2.55152, -1, -16.684, 3.64659, 23.1937, 13.2727, 83.6077, -125.152
2.55953, -1, -16.8624, 3.55551, 23.2296, 13.275, 83.5122, -125.393
2.56995, -1, -17.1285, 3.41897, 23.2834, 13.2783, 83.3692, -125.754
2.57552, -1, -17.2168, 3.3735, 23.3013, 13.2794, 83.3216, -125.874
2.58453, -1, -17.3934, 3.28264, 23.3372, 13.2816, 83.2266, -126.115
2.59158, -1, -17.5697, 3.19176, 23.3729, 13.2837, 83.1315, -126.356
2.59952, -1, -17.7458, 3.10112, 23.4088, 13.2859, 83.0367, -126.596
2.60752, -1, -17.9218, 3.01052, 23.4447, 13.288, 82.942, -126.836
2.61558, -1, -18.098, 2.92004, 23.4805, 13.2901, 82.8471, -127.076
2.62353, -1, -18.2745, 2.82966, 23.5162, 13.2923, 82.7524, -127.317
2.63153, -1, -18.4514, 2.7392, 23.552, 13.2943, 82.6578, -127.556
2.63958, -1, -18.6289, 2.64881, 23.5877, 13.2963, 82.563, -127.796
2.64752, -1, -18.8066, 2.55849, 23.6233, 13.2984, 82.4685, -128.035
2.65552, -1, -18.9847, 2.46805, 23.6591, 13.3004, 82.3743, -128.275
2.6636, -1, -19.1629, 2.37754, 23.6947, 13.3024, 82.2797, -128.514
2.67152, -1, -19.3411, 2.28716, 23.7302, 13.3044, 82.1853, -128.753
2.67958, -1, -19.5188, 2.1968, 23.7659, 13.3065, 82.0915, -128.992
2.6876, -1, -19.6958, 2.10643, 23.8014, 13.3087, 81.9971, -129.231
2.69552, -1, -19.8723, 2.01613, 23.8368, 13.3109, 81.9029, -129.471
2.70359, -1, -20.0482, 1.92588, 23.8724, 13.313, 81.8091, -129.709
2.71152, -1, -20.2233, 1.83569, 23.9079, 13.3152, 81.7149, -129.948
2.71952, -1, -20.3982, 1.74556, 23.9433, 13.3174, 81.6208, -130.186
2.72758, -1, -20.5728, 1.65548, 23.9789, 13.3196, 81.5271, -130.424
2.73552, -1, -20.7472, 1.56554, 24.0144, 13.3217, 81.4331, -130.663
2.74353, -1, -20.9218, 1.47566, 24.0497, 13.3239, 81.3393, -130.901
2.75159, -1, -21.0969, 1.38594, 24.0852, 13.3261, 81.2457, -131.139
2.75952, -1, -21.2722, 1.29616, 24.1207, 13.3283, 81.1518, -131.376
2.76754, -1, -21.4479, 1.20648, 24.156, 13.3305, 81.058, -131.614
2.77564, -1, -21.6239, 1.11687, 24.1913, 13.3327, 80.9642, -131.852
2.78391, -1, -21.8002, 1.02721, 24.2268, 13.3348, 80.8704, -132.089
2.79168, -1, -21.9765, 0.937557, 24.2621, 13.337, 80.7766, -132.327
2.79962, -1, -22.153, 0.848017, 24.2975, 13.3392, 80.6829, -132.564
2.80799, -1, -22.3296, 0.758488, 24.3329, 13.3413, 80.5893, -132.801
2.81569, -1, -22.5056, 0.668998, 24.368, 13.3436, 80.4957, -133.038
2.82359, -1, -22.6812, 0.579501, 24.4032, 13.346, 80.4021, -133.275
2.83231, -1, -22.8562, 0.490113, 24.4386, 13.3484, 80.3085, -133.512
2.83962, -1, -23.0302, 0.400728, 24.4737, 13.3508, 80.215, -133.748
2.84755, -1, -23.2038, 0.311349, 24.5088, 13.3533, 80.1214, -133.985
2.85644, -1, -23.3772, 0.222004, 24.544, 13.3557, 80.028, -134.222
2.86377, -1, -23.5502, 0.132802, 24.5792, 13.3581, 79.9347, -134.458
2.87176, -1, -23.7235, 0.0436483, 24.6144, 13.3604, 79.8412, -134.694
2.88069, -1, -23.897, -0.0454369, 24.6496, 13.3629, 79.7483, -134.93
2.88793, -1, -24.0705, -0.134405, 24.6846, 13.3654, 79.655, -135.166
2.8959, -1, -24.2443, -0.223388, 24.7197, 13.3679, 79.562, -135.402
2.90472, -1, -24.4183, -0.31231, 24.7548, 13.3702, 79.4691, -135.637
2.91213, -1, -24.5928, -0.401213, 24.79, 13.3727, 79.3758, -135.873
2.92004, -1, -24.7676, -0.490137, 24.825, 13.3751, 79.2828, -136.109
2.92904, -1, -24.9426, -0.578981, 24.86, 13.3774, 79.19, -136.344
2.93615, -1, -25.1176, -0.667822, 24.8952, 13.3798, 79.0968, -136.579
2.94408, -1, -25.2051, -0.712219, 24.9126, 13.3822, 79.004, -136.814
2.95286, -1, -25.3796, -0.800943, 24.9476, 13.3834, 78.9577, -136.932
2.96011, -1, -25.5537, -0.889783, 24.9827, 13.3859, 78.8651, -137.167
2.96751, -1, -25.7273, -0.978515, 25.0176, 13.3884, 78.7723, -137.402
2.97551, -1, -25.9002, -1.0672, 25.0524, 13.3908, 78.6797, -137.636
2.98356, -1, -26.0727, -1.15592, 25.0875, 13.3932, 78.5875, -137.871
2.99151, -1, -26.2447, -1.24457, 25.1224, 13.3956, 78.4948, -138.105
2.99954, -1, -26.4165, -1.33309, 25.1572, 13.398, 78.4021, -138.34
3.00752, -1, -26.5883, -1.42151, 25.1921, 13.4002, 78.3099, -138.574
3.01552, -1, -26.7604, -1.50984, 25.2271, 13.4025, 78.2173, -138.808
3.02365, -1, -26.9326, -1.59804, 25.262, 13.4048, 78.1249, -139.042
3.03151, -1, -27.1051, -1.68619, 25.2968, 13.407, 78.0328, -139.276
3.03951, -1, -27.2776, -1.77441, 25.3317, 13.4092, 77.9406, -139.51
3.04756, -1, -27.4505, -1.8625, 25.3665, 13.4114, 77.8485, -139.744
3.05553, -1, -27.6237, -1.95055, 25.4012, 13.4135, 77.7566, -139.977
3.06351, -1, -27.7969, -2.03872, 25.4362, 13.4156, 77.6645, -140.211
3.07168, -1, -27.9702, -2.12675, 25.4709, 13.4176, 77.5724, -140.444
3.07952, -1, -28.1435, -2.21477, 25.5056, 13.4197, 77.4805, -140.678
3.08857, -1, -28.3166, -2.30277, 25.5405, 13.4217, 77.3885, -140.911
3.09559, -1, -28.4893, -2.39082, 25.5753, 13.4238, 77.2963, -141.143
3.10352, -1, -28.6618, -2.47878, 25.6099, 13.4259, 77.2042, -141.376
3.11151, -1, -28.8336, -2.56678, 25.6446, 13.4281, 77.1123, -141.609
3.11957, -1, -29.0045, -2.65473, 25.6793, 13.4303, 77.0204, -141.842
3.12757, -1, -29.1752, -2.74263, 25.7138, 13.4324, 76.9285, -142.075
3.13651, -1, -29.3458, -2.83047, 25.7485, 13.4344, 76.8368, -142.307
3.14351, -1, -29.5165, -2.91818, 25.7832, 13.4366, 76.7448, -142.539
3.15154, -1, -29.6873, -3.00576, 25.8177, 13.4385, 76.653, -142.772
3.15957, -1, -29.8583, -3.09328, 25.8523, 13.4406, 76.5614, -143.004
3.16751, -1, -30.0293, -3.1808, 25.8869, 13.4427, 76.4693, -143.236
3.17563, -1, -30.2003, -3.26834, 25.9214, 13.4447, 76.3777, -143.468
3.18351, -1, -30.3715, -3.35571, 25.9559, 13.4468, 76.2863, -143.7
3.19161, -1, -30.543, -3.44314, 25.9905, 13.4488, 76.1946, -143.932
3.20069, -1, -30.7148, -3.53068, 26.025, 13.4509, 76.1032, -144.164
3.20751, -1, -30.8867, -3.61802, 26.0594, 13.4529, 76.0119, -144.395
3.21557, -1, -31.0585, -3.70542, 26.094, 13.4549, 75.9205, -144.626
3.22352, -1, -31.2301, -3.7928, 26.1285, 13.457, 75.8291, -144.858
3.23152, -1, -31.4013, -3.88013, 26.1628, 13.4592, 75.7379, -145.089
3.23958, -1, -31.5722, -3.96744, 26.1973, 13.4613, 75.6466, -145.32
3.24751, -1, -31.7427, -4.05471, 26.2317, 13.4634, 75.5553, -145.551
3.25551, -1, -31.9127, -4.14199, 26.266, 13.4656, 75.4641, -145.782
3.26357, -1, -32.0824, -4.2292, 26.3004, 13.4678, 75.3732, -146.013
3.27176, -1, -32.2518, -4.31632, 26.3348, 13.47, 75.282, -146.244
3.27957, -1, -32.4212, -4.40337, 26.369, 13.4722, 75.191, -146.474
3.28766, -1, -32.5909, -4.49032, 26.4034, 13.4743, 75.1003, -146.705
3.29584, -1, -32.7606, -4.57725, 26.4378, 13.4764, 75.0093, -146.935
3.30361, -1, -32.9302, -4.66417, 26.472, 13.4786, 74.9185, -147.165
3.31169, -1, -33.0999, -4.7511, 26.5062, 13.4808, 74.8281, -147.396
3.32, -1, -33.2698, -4.83795, 26.5405, 13.483, 74.7373, -147.626
3.32751, -1, -33.4398, -4.92483, 26.5748, 13.4852, 74.6467, -147.856
3.33565, -1, -33.6101, -5.01179, 26.609, 13.4874, 74.5561, -148.086
3.34577, -1, -33.7804, -5.09859, 26.6432, 13.4897, 74.4656, -148.316
3.35164, -1, -33.9507, -5.18533, 26.6774, 13.4918, 74.3751, -148.546
3.3597, -1, -34.1209, -5.27209, 26.7115, 13.4941, 74.2846, -148.775
3.3685, -1, -34.291, -5.3588, 26.7457, 13.4964, 74.1941, -149.004
3.37579, -1, -34.4609, -5.44542, 26.78, 13.4986, 74.1034, -149.234
3.38382, -1, -34.6304, -5.53206, 26.8141, 13.501, 74.0128, -149.463
3.39261, -1, -34.7993, -5.61873, 26.8481, 13.5034, 73.9224, -149.692
3.39998, -1, -34.9679, -5.70535, 26.8823, 13.5059, 73.8318, -149.921
3.40807, -1, -35.1363, -5.79185, 26.9164, 13.5083, 73.7414, -150.15
3.4168, -1, -35.3045, -5.87831, 26.9505, 13.5107, 73.6513, -150.379
3.42405, -1, -35.473, -5.96456, 26.9846, 13.5131, 73.5608, -150.608
3.43209, -1, -35.6416, -6.05079, 27.0187, 13.5154, 73.4704, -150.837
3.44087, -1, -35.8101, -6.13702, 27.0526, 13.5177, 73.3803, -151.065
3.44811, -1, -35.8944, -6.18011, 27.0697, 13.5202, 73.2897, -151.294
3.4555, -1, -36.063, -6.26625, 27.1038, 13.5214, 73.2446, -151.408
3.46505, -1, -36.2314, -6.35237, 27.1377, 13.5238, 73.1541, -151.751
3.47156, -1, -36.4001, -6.4386, 27.1716, 13.5262, 73.0639, -151.865
3.4795, -1, -36.569, -6.52485, 27.2057, 13.5286, 72.9734, -152.093
3.48756, -1, -36.7378, -6.61102, 27.2396, 13.5309, 72.8832, -152.321
3.49551, -1, -36.9067, -6.69719, 27.2735, 13.5332, 72.7932, -152.549
3.50349, -1, -37.0758, -6.78338, 27.3074, 13.5355, 72.703, -152.778
3.51155, -1, -37.2446, -6.86949, 27.3413, 13.5377, 72.6131, -153.006
3.51949, -1, -37.413, -6.95552, 27.3751, 13.54, 72.5233, -153.233
3.52759, -1, -37.5811, -7.0416, 27.4091, 13.5423, 72.4334, -153.461
3.53555, -1, -37.7489, -7.12767, 27.4431, 13.5446, 72.3435, -153.688
3.54351, -1, -37.9165, -7.21364, 27.4769, 13.5467, 72.2537, -153.916
3.5515, -1, -38.084, -7.29953, 27.5108, 13.5489, 72.164, -154.143
3.55956, -1, -38.2514, -7.38538, 27.5447, 13.5511, 72.0742, -154.37
3.56749, -1, -38.4188, -7.47113, 27.5785, 13.5533, 71.9846, -154.598
3.5755, -1, -38.586, -7.55682, 27.6124, 13.5554, 71.8951, -154.825
3.5845, -1, -38.7533, -7.64252, 27.6463, 13.5575, 71.8054, -155.052
3.5915, -1, -38.9206, -7.72822, 27.68, 13.5595, 71.7159, -155.279
3.6005, -1, -39.0879, -7.81383, 27.7137, 13.5616, 71.6268, -155.506
3.60756, -1, -39.2555, -7.89948, 27.7476, 13.5636, 71.5373, -155.733
3.61549, -1, -39.423, -7.98516, 27.7814, 13.5655, 71.448, -155.959
3.62351, -1, -39.5906, -8.07071, 27.815, 13.5675, 71.3587, -156.186
3.63156, -1, -39.7583, -8.15626, 27.8487, 13.5695, 71.2693, -156.413
3.63949, -1, -39.9259, -8.24173, 27.8824, 13.5714, 71.18, -156.639
3.6475, -1, -40.0935, -8.32719, 27.9161, 13.5734, 71.0905, -156.865
3.65556, -1, -40.2609, -8.41257, 27.9497, 13.5753, 71.0014, -157.092
3.66352, -1, -40.4281, -8.49796, 27.9836, 13.5773, 70.912, -157.318
3.6715, -1, -40.5951, -8.58336, 28.0172, 13.5793, 70.8228, -157.544
3.67956, -1, -40.762, -8.66874, 28.0507, 13.5813, 70.7339, -157.77
3.68749, -1, -40.9286, -8.75405, 28.0845, 13.5833, 70.6446, -157.996
3.69559, -1, -41.095, -8.83935, 28.1182, 13.5853, 70.5555, -158.222
3.70357, -1, -41.2612, -8.92458, 28.1517, 13.5874, 70.4665, -158.448
3.7115, -1, -41.4274, -9.00971, 28.1853, 13.5893, 70.3772, -158.673
3.71961, -1, -41.5937, -9.09486, 28.219, 13.5913, 70.288, -158.899
3.72756, -1, -41.76, -9.17994, 28.2525, 13.5933, 70.199, -159.124
3.7355, -1, -41.9264, -9.26497, 28.2861, 13.5953, 70.1099, -159.35
3.74358, -1, -42.0928, -9.34999, 28.3198, 13.5974, 70.0209, -159.575
3.7515, -1, -42.259, -9.43507, 28.3533, 13.5994, 69.9319, -159.8
3.7595, -1, -42.4253, -9.52009, 28.3868, 13.6014, 69.8431, -160.026
3.76764, -1, -42.5917, -9.60508, 28.4203, 13.6034, 69.7541, -160.251
3.77552, -1, -42.7581, -9.69004, 28.4539, 13.6055, 69.6651, -160.476
3.78358, -1, -42.9245, -9.77503, 28.4873, 13.6075, 69.5766, -160.701
3.79165, -1, -43.0909, -9.85995, 28.5208, 13.6095, 69.4875, -160.926
3.79997, -1, -43.2571, -9.94487, 28.5543, 13.6116, 69.3989, -161.151
3.80759, -1, -43.4232, -10.0298, 28.5878, 13.6137, 69.3103, -161.375
3.81566, -1, -43.5892, -10.1147, 28.6213, 13.6158, 69.2216, -161.6
3.82402, -1, -43.7551, -10.1997, 28.6548, 13.6179, 69.1332, -161.825
3.83249, -1, -43.9209, -10.2844, 28.6882, 13.62, 69.0447, -162.05
3.83958, -1, -44.0865, -10.3692, 28.7216, 13.6222, 68.9563, -162.274
3.84835, -1, -44.2518, -10.4539, 28.7552, 13.6243, 68.8676, -162.498
3.85553, -1, -44.417, -10.5385, 28.7886, 13.6265, 68.7789, -162.723
3.86374, -1, -44.5822, -10.623, 28.8219, 13.6287, 68.6905, -162.947
3.8723, -1, -44.7474, -10.7075, 28.8554, 13.6309, 68.6017, -163.171
3.87973, -1, -44.9127, -10.7919, 28.8889, 13.6331, 68.5132, -163.395
3.88787, -1, -45.078, -10.8764, 28.9223, 13.6353, 68.425, -163.619
3.89609, -1, -45.2433, -10.961, 28.9557, 13.6375, 68.3364, -163.843
3.90391, -1, -45.4086, -11.0454, 28.9891, 13.6398, 68.2481, -164.067
3.91211, -1, -45.5738, -11.1298, 29.0223, 13.6421, 68.16, -164.291
3.92005, -1, -45.7392, -11.2143, 29.0556, 13.6443, 68.0716, -164.514
3.92855, -1, -45.9042, -11.2986, 29.089, 13.6466, 67.9832, -164.738
3.93614, -1, -46.0671, -11.3818, 29.1225, 13.6489, 67.8948, -164.961
3.94431, -1, -46.2266, -11.4629, 29.156, 13.6512, 67.8072, -165.184
3.95232, -1, -46.3806, -11.5403, 29.1897, 13.6536, 67.7205, -165.403
3.96019, -1, -46.4548, -11.5772, 29.2064, 13.6559, 67.6368, -165.614
3.96751, -1, -46.596, -11.6471, 29.2386, 13.6571, 67.5967, -165.715
3.97637, -1, -46.7256, -11.7105, 29.2822, 13.6603, 67.4873, -165.993
3.98354, -1, -46.8406, -11.7666, 29.2949, 13.6613, 67.455, -166.074
3.99148, -1, -46.9394, -11.8158, 29.3169, 13.663, 67.3993, -166.216
3.9995, -1, -47.022, -11.8588, 29.3336, 13.6643, 67.3545, -166.329
4.00753, -1, -47.0892, -11.8955, 29.3448, 13.6651, 67.3209, -166.414
4.01548, -1, -47.1416, -11.925, 29.352, 13.6655, 67.2975, -166.473
4.02349, -1, -47.1805, -11.9471, 29.3559, 13.6657, 67.2824, -166.51
4.03159, -1, -47.2081, -11.9626, 29.3577, 13.6658, 67.2737, -166.533
4.03949, -1, -47.2262, -11.9726, 29.3586, 13.6659, 67.2689, -166.545
4.04748, -1, -47.2371, -11.9784, 29.3589, 13.6659, 67.2665, -166.55
4.0555, 2, -47.2428, -11.9813, 29.3591, 13.666, 67.2654, -166.553
4.06509, 2, -47.245, -11.983, 29.3593, 13.666, 67.2647, -166.555
4.07147, 2, -47.2449, -11.9832, 29.3594, 13.6661, 67.2646, -166.555
4.07956, 2, -47.2446, -11.9834, 29.3594, 13.6661, 67.2645, -166.555
4.08931, 2, -47.2446, -11.9835, 29.3595, 13.6661, 67.2644, -166.555
4.09548, 2, -47.245, -11.9836, 29.3595, 13.6661, 67.2644, -166.555
4.10354, 2, -47.2459, -11.9839, 29.3595, 13.6661, 67.2644, -166.555
4.11148, 2, -47.2472, -11.9844, 29.3595, 13.6661, 67.2644, -166.555
4.1195, 2, -47.249, -11.9851, 29.3595, 13.6661, 67.2644, -166.555
4.12755, 2, -47.2506, -11.986, 29.3595, 13.6661, 67.2644, -166.555
4.13549, 2, -47.2519, -11.9868, 29.3595, 13.6661, 67.2644, -166.555
4.14348, 2, -47.2528, -11.9875, 29.3595, 13.6661, 67.2644, -166.555
4.15155, 2, -47.2533, -11.9879, 29.3595, 13.6661, 67.2644, -166.555
4.15949, 2, -47.2535, -11.9881, 29.3595, 13.666, 67.2644, -166.555
4.16748, 2, -47.2536, -11.9882, 29.3595, 13.666, 67.2644, -166.555
4.17554, 2, -47.2533, -11.9882, 29.3595, 13.666, 67.2644, -166.555
4.18355, 2, -47.2528, -11.9882, 29.3595, 13.666, 67.2644, -166.555
4.19151, 2, -47.2523, -11.9881, 29.3595, 13.666, 67.2644, -166.555
4.19964, 2, -47.2519, -11.9881, 29.3596, 13.6661, 67.2644, -166.555
4.20748, 2, -47.2518, -11.9881, 29.3596, 13.6661, 67.2644, -166.555
4.21548, 2, -47.2518, -11.9882, 29.3595, 13.6661, 67.2645, -166.555
4.22354, 2, -47.2519, -11.9884, 29.3595, 13.666, 67.2645, -166.555
4.23155, 2, -47.2522, -11.9887, 29.3595, 13.666, 67.2644, -166.555
4.23949, 2, -47.2528, -11.989, 29.3595, 13.6661, 67.2644, -166.555
4.24754, 2, -47.2533, -11.9893, 29.3595, 13.6661, 67.2645, -166.555
4.25548, 2, -47.2537, -11.9895, 29.3595, 13.6661, 67.2644, -166.555
4.26348, 2, -47.2538, -11.9896, 29.3595, 13.6661, 67.2644, -166.555
4.27154, 2, -47.2538, -11.9896, 29.3596, 13.666, 67.2644, -166.555
4.27952, 2, -47.2537, -11.9896, 29.3596, 13.666, 67.2644, -166.555
4.28755, 2, -47.2535, -11.9895, 29.3596, 13.666, 67.2644, -166.555
4.29563, 2, -47.2531, -11.9895, 29.3596, 13.6661, 67.2645, -166.555
4.30357, 2, -47.2528, -11.9895, 29.3596, 13.666, 67.2644, -166.555
4.31158, 2, -47.2525, -11.9894, 29.3596, 13.666, 67.2644, -166.555
4.31966, 2, -47.2523, -11.9894, 29.3596, 13.6661, 67.2644, -166.555
4.32758, 2, -47.2522, -11.9895, 29.3596, 13.6661, 67.2645, -166.555
4.33549, 2, -47.2522, -11.9895, 29.3595, 13.666, 67.2645, -166.555
4.34357, 2, -47.2521, -11.9896, 29.3595, 13.666, 67.2645, -166.555
4.35151, 2, -47.2521, -11.9897, 29.3595, 13.666, 67.2645, -166.555
4.35957, 2, -47.2521, -11.9897, 29.3595, 13.6659, 67.2645, -166.555
4.36773, 2, -47.2522, -11.9897, 29.3596, 13.6659, 67.2645, -166.555
4.37566, 2, -47.2522, -11.9897, 29.3596, 13.666, 67.2645, -166.555
4.38382, 2, -47.2521, -11.9896, 29.3596, 13.666, 67.2645, -166.555
4.39185, 2, -47.2521, -11.9896, 29.3596, 13.666, 67.2645, -166.555
4.39986, 2, -47.252, -11.9895, 29.3595, 13.666, 67.2645, -166.555
4.40797, 2, -47.2519, -11.9895, 29.3595, 13.666, 67.2645, -166.555
4.41601, 2, -47.2518, -11.9894, 29.3596, 13.666, 67.2646, -166.555
4.42403, 2, -47.2517, -11.9894, 29.3595, 13.666, 67.2645, -166.555
4.43206, 2, -47.2516, -11.9894, 29.3595, 13.666, 67.2645, -166.555
4.44008, 2, -47.2515, -11.9895, 29.3595, 13.666, 67.2645, -166.555
4.44807, 2, -47.2514, -11.9895, 29.3595, 13.666, 67.2645, -166.555
4.45617, 2, -47.2514, -11.9895, 29.3595, 13.666, 67.2645, -166.555
4.46348, 2, -47.2513, -11.9895, 29.3595, 13.666, 67.2646, -166.555
4.47146, 2, -47.2513, -11.9895, 29.3595, 13.666, 67.2646, -166.555
4.47952, 2, -47.2512, -11.9895, 29.3595, 13.6659, 67.2646, -166.555
4.48748, 2, -47.2511, -11.9895, 29.3595, 13.666, 67.2646, -166.555
4.49546, 2, -47.2511, -11.9894, 29.3595, 13.666, 67.2646, -166.555
4.50351, 2, -47.251, -11.9894, 29.3596, 13.666, 67.2646, -166.555
4.51148, 2, -47.2509, -11.9893, 29.3595, 13.666, 67.2646, -166.555
4.51948, 2, -47.2508, -11.9892, 29.3595, 13.6659, 67.2646, -166.555
4.52751, 2, -47.2508, -11.9892, 29.3595, 13.6659, 67.2646, -166.555
4.53557, 2, -47.2506, -11.9892, 29.3596, 13.6659, 67.2646, -166.555
4.54346, 2, -47.2505, -11.9892, 29.3596, 13.6659, 67.2646, -166.555
4.55151, 2, -47.2504, -11.9892, 29.3595, 13.6659, 67.2647, -166.555
4.55949, 2, -47.2503, -11.9892, 29.3595, 13.6659, 67.2646, -166.555
4.56747, 2, -47.2502, -11.9892, 29.3595, 13.666, 67.2647, -166.555
4.5755, 2, -47.2501, -11.9892, 29.3595, 13.6659, 67.2646, -166.555
4.58516, 2, -47.25, -11.9892, 29.3596, 13.6659, 67.2647, -166.555
4.59147, 2, -47.2499, -11.9892, 29.3596, 13.666, 67.2647, -166.555
4.59952, 2, -47.2498, -11.9891, 29.3595, 13.666, 67.2647, -166.555
4.60857, 2, -47.2497, -11.9891, 29.3595, 13.6659, 67.2647, -166.555
4.61546, 2, -47.2496, -11.989, 29.3595, 13.6659, 67.2647, -166.555
4.62351, 2, -47.2495, -11.9889, 29.3596, 13.6659, 67.2647, -166.555
4.63148, 2, -47.2494, -11.9889, 29.3595, 13.6659, 67.2647, -166.555
4.63947, 2, -47.2493, -11.9889, 29.3595, 13.6659, 67.2647, -166.555
4.64752, 2, -47.2492, -11.9889, 29.3595, 13.6659, 67.2647, -166.555
4.65548, 2, -47.2492, -11.9889, 29.3595, 13.6659, 67.2647, -166.555
4.66347, 2, -47.2491, -11.9889, 29.3595, 13.6659, 67.2647, -166.555
4.67151, 2, -47.2491, -11.9889, 29.3595, 13.6659, 67.2647, -166.555
4.6795, 2, -47.2491, -11.9889, 29.3595, 13.6659, 67.2647, -166.555
4.68746, 2, -47.249, -11.9889, 29.3595, 13.6659, 67.2647, -166.555
4.69551, 2, -47.249, -11.9888, 29.3595, 13.6659, 67.2647, -166.555
4.70357, 2, -47.249, -11.9888, 29.3596, 13.6659, 67.2647, -166.555
4.71146, 2, -47.2489, -11.9887, 29.3596, 13.6659, 67.2647, -166.555
4.71952, 2, -47.2488, -11.9886, 29.3595, 13.6658, 67.2647, -166.555
4.72749, 2, -47.2487, -11.9886, 29.3595, 13.6658, 67.2647, -166.555
4.73547, 2, -47.2486, -11.9886, 29.3595, 13.6658, 67.2647, -166.555
4.74357, 2, -47.2486, -11.9885, 29.3596, 13.6658, 67.2647, -166.555
4.75148, 2, -47.2485, -11.9885, 29.3596, 13.6658, 67.2647, -166.555
4.75947, 2, -47.2485, -11.9885, 29.3595, 13.6658, 67.2647, -166.555
4.76752, 2, -47.2484, -11.9885, 29.3595, 13.6658, 67.2647, -166.555
4.77549, 2, -47.2484, -11.9885, 29.3595, 13.6658, 67.2647, -166.555
4.7835, 2, -47.2484, -11.9885, 29.3595, 13.6658, 67.2647, -166.555
4.79161, 2, -47.2484, -11.9885, 29.3595, 13.6657, 67.2647, -166.555
4.79958, 2, -47.2483, -11.9885, 29.3595, 13.6657, 67.2647, -166.555
4.80756, 2, -47.2483, -11.9884, 29.3595, 13.6657, 67.2647, -166.555
4.81562, 2, -47.2482, -11.9883, 29.3595, 13.6657, 67.2648, -166.555
4.8236, 2, -47.2482, -11.9882, 29.3595, 13.6657, 67.2648, -166.555
4.83152, 2, -47.2481, -11.9882, 29.3595, 13.6657, 67.2648, -166.554
4.83967, 2, -47.248, -11.9882, 29.3595, 13.6657, 67.2647, -166.554
4.84752, 2, -47.2479, -11.9881, 29.3595, 13.6656, 67.2647, -166.554
4.8555, 2, -47.2479, -11.9881, 29.3595, 13.6656, 67.2648, -166.554
4.86384, 2, -47.2478, -11.9881, 29.3595, 13.6656, 67.2648, -166.554
4.87171, 2, -47.2478, -11.9881, 29.3595, 13.6656, 67.2648, -166.554
4.87965, 2, -47.2478, -11.9881, 29.3595, 13.6656, 67.2648, -166.554
4.88808, 2, -47.2478, -11.9881, 29.3595, 13.6656, 67.2648, -166.554
4.89579, 2, -47.2478, -11.9881, 29.3595, 13.6655, 67.2649, -166.554
4.90382, 2, -47.2478, -11.988, 29.3595, 13.6656, 67.2649, -166.554
4.91241, 2, -47.2477, -11.988, 29.3595, 13.6656, 67.2649, -166.554
4.91998, 2, -47.2476, -11.988, 29.3595, 13.6655, 67.2649, -166.554
4.92799, 2, -47.2475, -11.9879, 29.3595, 13.6655, 67.265, -166.554
4.93635, 2, -47.2475, -11.9878, 29.3595, 13.6655, 67.2649, -166.554
4.94402, 2, -47.2474, -11.9878, 29.3595, 13.6655, 67.265, -166.554
4.95202, 2, -47.2474, -11.9878, 29.3595, 13.6655, 67.265, -166.554
4.96039, 2, -47.2472, -11.9877, 29.3595, 13.6654, 67.265, -166.554
4.96747, 2, -47.2472, -11.9877, 29.3595, 13.6654, 67.265, -166.554
4.97545, 2, -47.2472, -11.9877, 29.3595, 13.6654, 67.265, -166.554
4.98436, 2, -47.2471, -11.9877, 29.3595, 13.6654, 67.265, -166.554
4.99148, 2, -47.2471, -11.9877, 29.3595, 13.6654, 67.265, -166.554
4.99946, 2, -47.2471, -11.9877, 29.3595, 13.6654, 67.265, -166.554
5.00749, 2, -47.2471, -11.9877, 29.3595, 13.6654, 67.2651, -166.554
5.01546, 2, -47.2471, -11.9877, 29.3595, 13.6654, 67.265, -166.554
5.02345, 2, -47.247, -11.9876, 29.3595, 13.6654, 67.2651, -166.554
5.03149, 2, -47.2469, -11.9875, 29.3595, 13.6654, 67.2651, -166.554
5.03957, 2, -47.2468, -11.9875, 29.3595, 13.6654, 67.265, -166.554
5.04745, 2, -47.2467, -11.9874, 29.3595, 13.6654, 67.2651, -166.554
5.05565, 2, -47.2467, -11.9874, 29.3595, 13.6653, 67.2651, -166.554
5.06506, 2, -47.2466, -11.9874, 29.3595, 13.6653, 67.2651, -166.554
5.07145, 2, -47.2466, -11.9874, 29.3595, 13.6653, 67.2651, -166.554
5.07953, 2, -47.2465, -11.9874, 29.3595, 13.6653, 67.2651, -166.554
5.08926, 2, -47.2465, -11.9873, 29.3595, 13.6653, 67.2651, -166.554
5.09545, 2, -47.2465, -11.9873, 29.3595, 13.6653, 67.2651, -166.554
5.10352, 2, -47.2465, -11.9873, 29.3595, 13.6653, 67.2652, -166.554
5.11354, 2, -47.2465, -11.9873, 29.3595, 13.6652, 67.2651, -166.554
5.11946, 2, -47.2464, -11.9872, 29.3595, 13.6652, 67.2651, -166.554
5.12752, 2, -47.2463, -11.9872, 29.3595, 13.6652, 67.2652, -166.554
5.1357, 2, -47.2463, -11.9872, 29.3595, 13.6652, 67.2651, -166.554
5.14345, 4, -47.2462, -11.9871, 29.3595, 13.6652, 67.2651, -166.554
5.15152, 4, -47.2461, -11.9871, 29.3595, 13.6652, 67.2651, -166.554
5.15946, 4, -47.2461, -11.9871, 29.3595, 13.6651, 67.2651, -166.554
5.16745, 4, -47.246, -11.987, 29.3595, 13.6651, 67.2652, -166.554
5.17552, 4, -47.246, -11.987, 29.3595, 13.6651, 67.2652, -166.554
5.18345, 4, -47.2459, -11.987, 29.3595, 13.6651, 67.2652, -166.554
5.19145, 4, -47.246, -11.987, 29.3595, 13.6651, 67.2652, -166.554
5.19952, 4, -47.2459, -11.987, 29.3595, 13.6651, 67.2652, -166.554
5.20753, 4, -47.2459, -11.987, 29.3595, 13.6651, 67.2653, -166.554
5.21545, 4, -47.2458, -11.987, 29.3595, 13.6651, 67.2653, -166.554
5.22351, 4, -47.2458, -11.9869, 29.3595, 13.6651, 67.2652, -166.554
5.23151, 4, -47.2458, -11.9869, 29.3595, 13.665, 67.2652, -166.553
5.23961, 4, -47.2457, -11.9869, 29.3595, 13.6651, 67.2652, -166.553
5.25562, 4, -47.2456, -11.9868, 29.3595, 13.665, 67.2653, -166.553
5.25743, 4, -47.2456, -11.9868, 29.3595, 13.665, 67.2653, -166.553
5.26361, 4, -47.2455, -11.9868, 29.3595, 13.665, 67.2653, -166.553
5.27261, 4, -47.2455, -11.9867, 29.3595, 13.665, 67.2653, -166.553
5.28452, 4, -47.2454, -11.9867, 29.3595, 13.665, 67.2653, -166.553
5.28771, 4, -47.2454, -11.9867, 29.3595, 13.665, 67.2653, -166.553
5.30034, 4, -47.2454, -11.9867, 29.3595, 13.665, 67.2653, -166.553
5.30528, 4, -47.2454, -11.9867, 29.3595, 13.665, 67.2653, -166.553
5.3138, 4, -47.2453, -11.9867, 29.3595, 13.665, 67.2652, -166.553
5.3198, 4, -47.2453, -11.9867, 29.3595, 13.6649, 67.2653, -166.553
5.33118, 4, -47.2453, -11.9866, 29.3595, 13.6649, 67.2653, -166.553
5.33579, 4, -47.2452, -11.9866, 29.3595, 13.6649, 67.2653, -166.553
5.34465, 4, -47.2452, -11.9866, 29.3595, 13.6649, 67.2653, -166.553
5.35264, 4, -47.2452, -11.9865, 29.3595, 13.6649, 67.2653, -166.553
5.3598, 4, -47.2451, -11.9865, 29.3595, 13.6649, 67.2653, -166.553
5.37307, 4, -47.245, -11.9865, 29.3595, 13.6649, 67.2653, -166.553
5.37609, 4, -47.245, -11.9865, 29.3595, 13.6649, 67.2653, -166.553
5.38614, 4, -47.245, -11.9865, 29.3595, 13.6649, 67.2653, -166.553
5.39222, 4, -47.2449, -11.9865, 29.3595, 13.6649, 67.2653, -166.553
5.40094, 4, -47.2449, -11.9865, 29.3595, 13.6648, 67.2653, -166.553
5.40826, 4, -47.2454, -11.9866, 29.3596, 13.6648, 67.2654, -166.553
5.41742, 4, -47.2469, -11.9876, 29.3605, 13.6654, 67.2656, -166.553
5.42429, 4, -47.25, -11.9905, 29.3639, 13.67, 67.2668, -166.552
5.43242, 4, -47.2555, -11.9971, 29.3724, 13.6865, 67.2708, -166.55
5.44026, 5, -47.2646, -12.0089, 29.3902, 13.722, 67.2804, -166.543
5.45229, 5, -47.2891, -12.0418, 29.447, 13.8379, 67.3127, -166.517
5.45807, 5, -47.3013, -12.058, 29.4769, 13.9004, 67.3305, -166.503
5.46664, 5, -47.333, -12.0997, 29.5583, 14.072, 67.3784, -166.464
5.47454, 5, -47.3763, -12.1552, 29.6727, 14.3169, 67.4458, -166.407
5.48119, 5, -47.4027, -12.1884, 29.7434, 14.4697, 67.5352, -166.332
5.48926, 5, -47.5009, -12.3108, 30.0124, 15.0546, 67.646, -166.238
5.49559, 5, -47.5398, -12.3592, 30.1214, 15.2907, 67.7093, -166.184
5.50361, 5, -47.6268, -12.4667, 30.3667, 15.8183, 67.8493, -166.064
5.51355, 5, -47.7767, -12.6523, 30.7937, 16.7214, 68.0857, -165.861
5.52178, 5, -47.8872, -12.7895, 31.1101, 17.3771, 68.2535, -165.715
5.52759, 5, -47.9447, -12.8613, 31.2753, 17.7151, 68.3392, -165.641
5.53557, 5, -48.063, -13.0097, 31.6162, 18.4023, 68.5106, -165.492
5.546, 5, -48.2442, -13.2382, 32.1419, 19.4439, 68.7645, -165.27
5.55171, 5, -48.3043, -13.3142, 32.3186, 19.7883, 68.8474, -165.197
5.55964, 5, -48.4217, -13.4633, 32.6716, 20.4658, 69.0101, -165.048
5.56767, 5, -48.5318, -13.6066, 33.0191, 21.1201, 69.1696, -164.891
5.57562, 6, -48.6302, -13.7402, 33.3548, 21.7388, 69.3283, -164.711
5.58572, 6, -48.7466, -13.9209, 33.8262, 22.5843, 69.5704, -164.372
5.59457, 7, -48.7985, -14.031, 34.1147, 23.0863, 69.738, -164.081
5.59966, 7, -48.8163, -14.0832, 34.251, 23.319, 69.8242, -163.911
5.60979, 8, -48.8381, -14.2258, 34.6294, 23.9531, 70.095, -163.305
5.61558, 8, -48.8356, -14.2683, 34.7472, 24.1467, 70.1895, -163.072
5.6236, 8, -48.8182, -14.347, 34.9736, 24.5148, 70.3849, -162.562
5.63424, 9, -48.7671, -14.4529, 35.2959, 25.0381, 70.6943, -161.713
5.64059, 10, -48.7446, -14.4859, 35.4012, 25.2095, 70.8015, -161.413
5.64784, 10, -48.6926, -14.55, 35.6117, 25.5522, 71.0217, -160.799
5.65564, 10, -48.6318, -14.6126, 35.8226, 25.8979, 71.2482, -160.171
5.66458, 11, -48.5638, -14.6746, 36.0343, 26.2486, 71.4794, -159.537
5.67158, 11, -48.4904, -14.7366, 36.247, 26.606, 71.7134, -158.901
5.67958, 12, -48.4132, -14.7992, 36.4584, 26.9707, 71.9498, -158.263
5.69236, 13, -48.2948, -14.8925, 36.7724, 27.5318, 72.3075, -157.301
5.69558, 13, -48.2551, -14.9225, 36.8764, 27.7228, 72.4278, -156.979
5.70365, 13, -48.1749, -14.9809, 37.0827, 28.1104, 72.6701, -156.332
5.71565, 14, -48.0497, -15.0689, 37.3886, 28.7045, 73.038, -155.352
5.72465, 15, -47.9617, -15.1285, 37.5918, 29.1067, 73.2857, -154.697
5.73145, 15, -47.8702, -15.1876, 37.7929, 29.5113, 73.5336, -154.044
5.73563, 15, -47.8228, -15.2168, 37.8926, 29.7139, 73.6572, -153.718
5.74364, 16, -47.7231, -15.2751, 38.0908, 30.1181, 73.9027, -153.069
5.75294, 16, -47.6164, -15.3347, 38.287, 30.5203, 74.1448, -152.424
5.7596, 17, -47.5036, -15.3962, 38.4799, 30.9188, 74.3821, -151.786
5.76777, 17, -47.3861, -15.4588, 38.6696, 31.3126, 74.613, -151.153
5.77566, 18, -47.2637, -15.5223, 38.8574, 31.7018, 74.8376, -150.528
5.79103, 19, -47.0028, -15.6548, 39.2259, 32.4689, 75.2684, -149.302
5.79301, 19, -47.0028, -15.6548, 39.2259, 32.4689, 75.2684, -149.302
5.80068, 19, -46.8645, -15.725, 39.4076, 32.8496, 75.4759, -148.699
5.81189, 20, -46.6474, -15.834, 39.6773, 33.4191, 75.7794, -147.808
5.81575, 20, -46.5727, -15.8712, 39.7659, 33.6086, 75.8788, -147.514
5.82514, 21, -46.4195, -15.9472, 39.9409, 33.9874, 76.0746, -146.93
5.83238, 21, -46.262, -16.0255, 40.114, 34.3656, 76.2664, -146.353
5.84198, 22, -46.1, -16.1057, 40.285, 34.7422, 76.4539, -145.782
5.84845, 22, -45.9334, -16.187, 40.4526, 35.1162, 76.6367, -145.217
5.85757, 23, -45.7616, -16.2694, 40.6174, 35.4866, 76.8144, -144.658
5.86556, 23, -45.5832, -16.3537, 40.7796, 35.8528, 76.9866, -144.104
5.87248, 24, -45.3974, -16.4403, 40.9384, 36.2141, 77.1533, -143.556
5.88022, 24, -45.2046, -16.5289, 41.0928, 36.5688, 77.314, -143.014
5.88798, 25, -45.005, -16.6185, 41.2433, 36.9158, 77.4688, -142.476
5.90024, 26, -44.6933, -16.7547, 41.4609, 37.4216, 77.6899, -141.677
5.90418, 26, -44.5857, -16.8007, 41.531, 37.586, 77.7608, -141.412
5.91376, 26, -44.3653, -16.8933, 41.6671, 37.909, 77.8992, -140.886
5.9203, 27, -44.1377, -16.986, 41.7975, 38.2239, 78.0327, -140.36
5.92918, 27, -43.9037, -17.078, 41.922, 38.5307, 78.1624, -139.837
5.93853, 28, -43.663, -17.1693, 42.0402, 38.8298, 78.2889, -139.314
5.94554, 28, -43.415, -17.2595, 42.1517, 39.1208, 78.4121, -138.792
5.95217, 29, -43.1602, -17.3482, 42.2564, 39.4039, 78.5331, -138.27
5.96033, 29, -42.899, -17.435, 42.354, 39.6791, 78.6508, -137.748
5.96832, 30, -42.7657, -17.4776, 42.4001, 39.9462, 78.7661, -137.226
5.97636, 30, -42.4931, -17.5612, 42.4869, 40.0767, 78.8786, -136.705
5.98546, 31, -42.0685, -17.6813, 42.6039, 40.4552, 78.9881, -136.185
5.99156, 31, -41.9232, -17.72, 42.6393, 40.5772, 79.042, -135.925
6.00135, 32, -41.4768, -17.8328, 42.7355, 40.9303, 79.1999, -135.145
6.01024, 32, -41.3247, -17.8692, 42.7641, 41.0438, 79.2511, -134.627
6.01699, 33, -40.8587, -17.9737, 42.8393, 41.3724, 79.4015, -134.11
6.02359, 33, -40.7, -18.0069, 42.8608, 41.4779, 79.4502, -133.852
6.0316, 34, -40.3779, -18.0712, 42.8982, 41.6826, 79.5457, -133.335
6.03958, 34, -40.0511, -18.133, 42.9284, 41.8793, 79.6385, -132.82
6.04769, 35, -39.7192, -18.1919, 42.9513, 42.0682, 79.7291, -132.306
6.05753, 35, -39.2099, -18.2737, 42.9725, 42.3376, 79.8602, -131.538
6.06591, 36, -38.8614, -18.324, 42.978, 42.5074, 79.9447, -131.027
6.07767, 37, -38.326, -18.3933, 42.9737, 42.7479, 80.0678, -130.263
6.08353, 37, -38.1446, -18.4147, 42.9688, 42.8243, 80.1077, -130.009
6.09039, 38, -37.7775, -18.4545, 42.9539, 42.9714, 80.1865, -129.503
6.09555, 38, -37.5921, -18.4731, 42.944, 43.0423, 80.2247, -129.25
6.10358, 38, -37.2179, -18.5078, 42.9192, 43.1784, 80.3002, -128.746
6.11407, 39, -36.648, -18.5534, 42.8693, 43.3687, 80.4087, -127.993
6.12193, 39, -36.2623, -18.5792, 42.8276, 43.4863, 80.4792, -127.495
6.12995, 40, -35.8705, -18.6012, 42.7795, 43.5968, 80.5473, -126.997
6.13557, 40, -35.6724, -18.6107, 42.7529, 43.6494, 80.5811, -126.749
6.14753, 41, -35.0693, -18.6334, 42.6635, 43.796, 80.6782, -126.007
6.15423, 41, -34.6609, -18.6442, 42.5958, 43.8851, 80.7411, -125.516
6.16216, 42, -34.2491, -18.6516, 42.5217, 43.9668, 80.8012, -125.027
6.16758, 42, -34.0421, -18.6541, 42.4823, 44.0051, 80.8306, -124.783
6.17596, 43, -33.6257, -18.6567, 42.3989, 44.076, 80.8891, -124.297
6.18787, 44, -32.9919, -18.6541, 42.2628, 44.1697, 80.9719, -123.573
6.19157, 44, -32.7778, -18.6514, 42.2146, 44.1971, 80.9993, -123.333
6.20298, 44, -32.3447, -18.6374, 42.0612, 44.2685, 81.078, -122.616
6.20764, 45, -31.9052, -18.6308, 42.0072, 44.2889, 81.1031, -122.378
6.21708, 45, -31.4613, -18.6152, 41.8945, 44.324, 81.153, -121.904
6.22498, 46, -31.0147, -18.5961, 41.7758, 44.3512, 81.201, -121.432
6.23165, 46, -30.566, -18.5734, 41.6512, 44.3706, 81.2464, -120.963
6.23956, 47, -30.114, -18.5468, 41.5209, 44.3825, 81.2914, -120.496
6.24757, 47, -29.6568, -18.5156, 41.3846, 44.3876, 81.3355, -120.031
6.25555, 48, -29.1929, -18.4801, 41.2422, 44.3853, 81.3777, -119.568
6.26462, 48, -28.7228, -18.4403, 41.0937, 44.374, 81.4194, -119.106
6.27265, 49, -28.2479, -18.3961, 40.9394, 44.3541, 81.4613, -118.647
6.28169, 50, -27.7705, -18.3475, 40.7791, 44.3249, 81.5022, -118.189
6.28979, 50, -27.2907, -18.2942, 40.6122, 44.2856, 81.5427, -117.731
6.29566, 50, -26.8068, -18.2356, 40.4388, 44.2379, 81.5844, -117.275
6.30919, 51, -26.3157, -18.1713, 40.259, 44.1805, 81.648, -116.592
6.31213, 51, -25.8167, -18.1015, 40.0725, 44.1128, 81.6693, -116.365
6.31974, 52, -25.3118, -18.0263, 39.8784, 44.0357, 81.7124, -115.911
6.32768, 52, -24.8041, -17.9458, 39.6776, 43.9477, 81.7572, -115.458
6.34022, 53, -24.0381, -17.8147, 39.3645, 43.7972, 81.8243, -114.779
6.34366, 53, -23.7807, -17.768, 39.2563, 43.742, 81.8473, -114.553
6.35262, 54, -23.2604, -17.6698, 39.0343, 43.6233, 81.8955, -114.102
6.36064, 54, -22.7314, -17.5655, 38.8059, 43.4941, 81.945, -113.65
6.36857, 55, -22.1956, -17.455, 38.5698, 43.3534, 81.9962, -113.198
6.37992, 56, -21.3859, -17.2779, 38.2028, 43.1202, 82.0784, -112.52
6.38544, 56, -21.1147, -17.216, 38.0772, 43.0367, 82.1061, -112.295
6.39367, 57, -20.5687, -17.0878, 37.8204, 42.861, 82.1636, -111.844
6.40003, 57, -20.0147, -16.9543, 37.5572, 42.6739, 82.2233, -111.393
6.40821, 57, -19.4511, -16.8145, 37.287, 42.4746, 82.2839, -110.943
6.41634, 58, -18.8804, -16.6683, 37.0099, 42.2626, 82.3476, -110.493
6.42774, 59, -18.3063, -16.5156, 36.7263, 42.0375, 82.4127, -109.818
6.43244, 59, -17.7294, -16.3575, 36.435, 41.7994, 82.4814, -109.593
6.44126, 60, -17.1464, -16.1951, 36.1371, 41.5476, 82.5526, -109.144
6.44842, 60, -16.5533, -16.0281, 35.8326, 41.2824, 82.6269, -108.694
6.46034, 61, -15.9516, -15.8556, 35.366, 40.8597, 82.7411, -108.019
6.46417, 61, -15.6489, -15.6779, 35.2076, 40.7125, 82.7802, -107.794
6.47362, 62, -14.737, -15.4964, 34.8873, 40.4095, 82.8591, -107.345
6.48023, 62, -14.4312, -15.4042, 34.7254, 40.2536, 82.9398, -106.896
6.48752, 62, -13.8138, -15.2167, 34.3985, 39.9328, 82.9806, -106.672
6.4988, 63, -13.1867, -15.0232, 34.0681, 39.5998, 83.0636, -106.223
6.5055, 63, -12.2317, -14.7223, 33.5646, 39.0761, 83.1922, -105.548
6.51389, 64, -11.5902, -14.5158, 33.2229, 38.7105, 83.2814, -105.098
6.51955, 64, -11.2675, -14.4102, 33.0499, 38.5223, 83.3276, -104.872
6.53068, 65, -10.2837, -14.0817, 32.521, 37.9346, 83.4735, -104.193
6.53556, 65, -9.95028, -13.9683, 32.3417, 37.7298, 83.525, -103.965
6.54491, 66, -8.93568, -13.6179, 31.7949, 37.0875, 83.6894, -103.279
6.55439, 67, -8.25105, -13.3748, 31.4214, 36.6355, 83.8082, -102.818
6.55981, 67, -7.90587, -13.2503, 31.2311, 36.4021, 83.8705, -102.587
6.5676, 67, -7.20788, -12.9955, 30.845, 35.9218, 84.0014, -102.122
6.57603, 68, -6.50065, -12.7328, 30.4528, 35.4236, 84.14, -101.655
6.58368, 69, -5.78619, -12.4635, 30.0564, 34.9108, 84.2856, -101.185
6.59164, 69, -5.06632, -12.1874, 29.6559, 34.3853, 84.4371, -100.713
6.60201, 70, -3.97345, -11.7584, 29.0511, 33.5764, 84.6735, -100.001
6.60761, 70, -3.60498, -11.6116, 28.8497, 33.3012, 84.7547, -99.7635
6.61854, 71, -2.48719, -11.1587, 28.2451, 32.4549, 85.0071, -99.0466
6.62362, 71, -2.1108, -11.0043, 28.0427, 32.1657, 85.0947, -98.807
6.63388, 72, -0.969285, -10.5312, 27.4316, 31.2746, 85.3708, -98.0827
6.63954, 72, -0.585152, -10.3706, 27.2265, 30.9689, 85.4676, -97.8398
6.64856, 73, 0.187194, -10.0451, 26.8147, 30.345, 85.6677, -97.3519
6.65563, 73, 0.963931, -9.71189, 26.4014, 29.7091, 85.8765, -96.8615
6.66365, 73, 1.74475, -9.37174, 25.9881, 29.0625, 86.093, -96.3702
6.67684, 74, 2.92181, -8.85076, 25.3727, 28.0779, 86.4319, -95.6303
6.68051, 75, 3.31508, -8.67482, 25.1697, 27.7465, 86.5481, -95.3834
6.69219, 75, 4.49627, -8.13835, 24.5685, 26.7456, 86.9057, -94.6416
6.69563, 75, 4.89015, -7.95733, 24.3707, 26.4117, 87.0277, -94.3943
6.71387, 76, 6.46356, -7.21985, 23.5949, 25.0757, 87.5285, -93.403
6.7159, 77, 6.85615, -7.03165, 23.405, 24.7432, 87.6572, -93.1551
6.7293, 77, 8.0349, -6.45457, 22.8433, 23.7473, 88.0548, -92.4112
6.73162, 78, 8.4282, -6.25755, 22.6582, 23.4148, 88.1919, -92.1631
6.73552, 78, 8.8215, -6.05832, 22.4743, 23.0815, 88.3317, -91.9144
6.74439, 78, 9.60865, -5.65391, 22.1099, 22.411, 88.6206, -91.4143
6.75153, 79, 10.3982, -5.24118, 21.7481, 21.7342, 88.9226, -90.9098
6.7594, 79, 11.1896, -4.82061, 21.3886, 21.0525, 89.238, -90.3993
6.76845, 80, 11.9791, -4.39024, 21.0314, 20.3663, 89.5657, -89.8821
6.77547, 80, 12.7633, -3.949, 20.6775, 19.6797, 89.9049, -89.3569
6.78341, 81, 13.5412, -3.49907, 20.3277, 18.9998, 90.254, -88.8248
6.79155, 81, 14.3131, -3.04204, 19.9841, 18.3311, 90.6117, -88.287
6.79988, 82, 15.077, -2.57759, 19.6493, 17.6763, 90.9749, -87.7462
6.8075, 82, 15.8318, -2.10543, 19.3246, 17.0386, 91.3428, -87.2028
6.81586, 83, 16.5754, -1.62574, 19.0101, 16.4202, 91.7141, -86.6581
6.82356, 83, 17.3068, -1.14039, 18.7061, 15.823, 92.089, -86.1133
6.83208, 84, 18.0249, -0.650266, 18.4117, 15.245, 92.4681, -85.57
6.8404, 84, 18.7273, -0.15672, 18.1269, 14.6879, 92.8532, -85.0284
6.84778, 85, 19.4125, 0.340782, 17.8488, 14.1504, 93.2454, -84.4883
6.85543, 85, 20.0787, 0.843221, 17.5774, 13.6328, 93.6456, -83.9507
6.8635, 85, 20.7267, 1.34992, 17.3121, 13.135, 94.0526, -83.4153
6.87159, 86, 21.3585, 1.86072, 17.0529, 12.6569, 94.4651, -82.8811
6.87953, 86, 21.9762, 2.37784, 16.8007, 12.199, 94.8835, -82.3454
6.88775, 87, 22.5814, 2.90466, 16.5537, 11.7605, 95.3083, -81.8068
6.89591, 87, 23.1758, 3.44164, 16.3109, 11.3404, 95.7399, -81.2635
6.9044, 88, 23.7607, 3.98613, 16.0717, 10.9366, 96.1786, -80.7141
6.91183, 88, 24.3352, 4.53789, 15.8353, 10.5485, 96.6237, -80.1554
6.92045, 89, 24.8991, 5.10042, 15.604, 10.1756, 97.0757, -79.5866
6.92793, 89, 25.4545, 5.67542, 15.3775, 9.81812, 97.5339, -79.0065
6.93645, 90, 26.0058, 6.26153, 15.154, 9.47621, 97.9975, -78.414
6.94427, 90, 26.5522, 6.85726, 14.9347, 9.14951, 98.467, -77.8072
6.95226, 91, 27.088, 7.4619, 14.7207, 8.83957, 98.9425, -77.1862
6.96003, 91, 27.6106, 8.07692, 14.5111, 8.54738, 99.4244, -76.5528
6.96834, 92, 28.1221, 8.70268, 14.3052, 8.27487, 99.9123, -75.907
6.97539, 92, 28.3747, 9.01944, 14.2038, 8.14659, 100.158, -75.5798
6.98429, 93, 28.8751, 9.98373, 13.9067, 7.79376, 100.902, -74.5861
6.99145, 93, 29.366, 10.309, 13.8104, 7.68748, 101.151, -74.2514
7.00026, 94, 29.8444, 10.9642, 13.6232, 7.49232, 101.65, -73.2359
7.00739, 94, 30.3081, 11.6238, 13.4436, 7.32043, 102.148, -72.8945
7.01569, 95, 30.7573, 12.2864, 13.2708, 7.17225, 102.643, -72.2084
7.02344, 95, 31.1928, 12.9511, 13.1054, 7.04771, 103.135, -71.5171
7.0316, 96, 31.6149, 13.6175, 12.9481, 6.94693, 103.623, -70.8194
7.03945, 96, 32.0225, 14.2851, 12.7977, 6.86947, 104.108, -70.1171
7.04759, 97, 32.414, 14.9534, 12.6536, 6.81662, 104.589, -69.4095
7.05544, 97, 32.7894, 15.622, 12.5163, 6.78527, 105.066, -68.6955
7.06366, 98, 33.1489, 16.2889, 12.3867, 6.77519, 105.536, -67.9776
7.07139, 98, 33.493, 16.9534, 12.2656, 6.78756, 105.999, -67.2572
7.07947, 98, 33.8229, 17.6129, 12.1534, 6.82065, 106.454, -66.5333
7.08751, 99, 34.1392, 18.2666, 12.0507, 6.87323, 106.898, -65.8101
7.09562, 100, 34.4438, 18.9129, 11.9576, 6.94563, 107.329, -65.0892
7.10346, 100, 34.7375, 19.5508, 11.8735, 7.03505, 107.747, -64.3702
7.11242, 100, 35.0196, 20.1791, 11.7985, 7.14211, 108.15, -63.6568
7.11944, 101, 35.2892, 20.7961, 11.7318, 7.26478, 108.537, -62.9512
7.12746, 101, 35.5464, 21.4018, 11.6734, 7.40179, 108.908, -62.2523
7.13541, 102, 35.7907, 21.9952, 11.6235, 7.55099, 109.261, -61.5631
7.14339, 102, 36.0217, 22.5757, 11.5817, 7.71033, 109.599, -60.8862
7.15145, 103, 36.2417, 23.1415, 11.5481, 7.87806, 109.921, -60.2205
7.1594, 103, 36.4545, 23.6919, 11.5228, 8.05323, 110.227, -59.5666
7.16745, 104, 36.6614, 24.2271, 11.5065, 8.23639, 110.516, -58.9263
7.17543, 104, 36.8617, 24.747, 11.4984, 8.428, 110.787, -58.2978
7.18339, 104, 37.0559, 25.2508, 11.497, 8.62879, 111.039, -57.68
7.19142, 104, 37.2436, 25.7392, 11.502, 8.83814, 111.271, -57.0741
7.19941, 104, 37.4221, 26.2114, 11.5124, 9.05464, 111.483, -56.4809
7.20739, 104, 37.59, 26.6673, 11.5263, 9.27671, 111.677, -55.9008
7.21544, 104, 37.7498, 27.1078, 11.543, 9.50134, 111.856, -55.3368
7.22344, 104, 37.905, 27.5331, 11.5623, 9.72556, 112.022, -54.7921
7.23139, 104, 38.0568, 27.9426, 11.5828, 9.94712, 112.178, -54.2696
7.23944, 104, 38.2041, 28.3352, 11.6035, 10.1642, 112.325, -53.7696
7.24741, 104, 38.3454, 28.7115, 11.6234, 10.3757, 112.463, -53.2934
7.25541, 104, 38.4801, 29.0704, 11.642, 10.5804, 112.594, -52.8415
7.26344, 104, 38.607, 29.4112, 11.6597, 10.7774, 112.717, -52.414
7.27161, 104, 38.7255, 29.7331, 11.6763, 10.9659, 112.833, -52.0121
7.27939, 104, 38.8356, 30.0358, 11.6915, 11.1454, 112.941, -51.6345
7.28749, 104, 38.9376, 30.3201, 11.7059, 11.3151, 113.041, -51.2822
7.29544, 104, 39.0321, 30.5849, 11.7192, 11.4748, 113.133, -50.9556
7.30347, 104, 39.1188, 30.8301, 11.7312, 11.6237, 113.219, -50.6543
7.31154, 104, 39.1976, 31.0559, 11.742, 11.7617, 113.296, -50.378
7.31951, 104, 39.2684, 31.2616, 11.752, 11.8882, 113.367, -50.1271
7.32749, 104, 39.3311, 31.4475, 11.7612, 12.0029, 113.43, -49.9014
7.33555, 104, 39.3863, 31.6143, 11.7693, 12.1059, 113.486, -49.7008
7.34351, 104, 39.4348, 31.7615, 11.7765, 12.1965, 113.535, -49.5252
7.35141, 104, 39.4773, 31.8901, 11.783, 12.275, 113.577, -49.3742
7.35947, 104, 39.5141, 32.0013, 11.7889, 12.3415, 113.612, -49.2469
7.36747, 104, 39.5447, 32.0957, 11.7941, 12.3967, 113.641, -49.1428
7.3755, 104, 39.5697, 32.1744, 11.7988, 12.4398, 113.664, -49.0593
7.38358, 104, 39.5899, 32.2392, 11.803, 12.4733, 113.681, -48.9956
7.39201, 104, 39.6057, 32.2916, 11.8068, 12.4985, 113.693, -48.9487
7.39967, 104, 39.6178, 32.3331, 11.8103, 12.5165, 113.702, -48.9158
7.40778, 104, 39.6271, 32.3645, 11.8134, 12.5289, 113.707, -48.894
7.41626, 104, 39.634, 32.388, 11.8162, 12.537, 113.711, -48.8804
7.42384, 104, 39.6385, 32.4055, 11.8186, 12.5417, 113.712, -48.8728
7.43195, 104, 39.6412, 32.4177, 11.8204, 12.5443, 113.713, -48.8691
7.44053, 104, 39.6426, 32.4254, 11.8218, 12.5456, 113.714, -48.8675
7.44796, 105, 39.643, 32.4303, 11.8229, 12.5462, 113.714, -48.8668
7.4565, 105, 39.6423, 32.4335, 11.8239, 12.5464, 113.714, -48.8666
7.46428, 105, 39.6414, 32.4358, 11.8247, 12.5466, 113.714, -48.8667
7.47196, 105, 39.641, 32.4368, 11.825, 12.5466, 113.714, -48.8669
7.47942, 105, 39.6399, 32.4383, 11.8257, 12.5467, 113.714, -48.867
7.48846, 105, 39.6382, 32.4403, 11.8265, 12.5468, 113.714, -48.8674
7.49538, 105, 39.6377, 32.4409, 11.8268, 12.5467, 113.714, -48.8675
7.50341, 105, 39.637, 32.4421, 11.8274, 12.5467, 113.714, -48.8678
7.51141, 105, 39.6366, 32.4432, 11.828, 12.5468, 113.714, -48.8681
7.51938, 105, 39.6364, 32.4443, 11.8285, 12.5468, 113.714, -48.8684
7.52741, 105, 39.6362, 32.4452, 11.829, 12.5468, 113.714, -48.8686
7.5354, 105, 39.6359, 32.446, 11.8294, 12.5468, 113.714, -48.8689
7.54377, 105, 39.6357, 32.4465, 11.8297, 12.5468, 113.714, -48.8691
7.55143, 105, 39.6354, 32.4469, 11.83, 12.5468, 113.714, -48.8694
7.56101, 105, 39.6349, 32.4471, 11.8304, 12.5467, 113.714, -48.8697
7.56738, 105, 39.6348, 32.4471, 11.8305, 12.5467, 113.714, -48.8698
