hehonglu123/Motion-Primitive-Planning/ILC/recorded_data/realrobot/from_NX/iteration_20/run_2.csv
timestamp, cmd_num, J1, J2, J3, J4, J5, J6
0.000386, -1, 39.63, 32.447, 11.8319, 12.5453, 113.713, -48.8723
0.003059, -1, 39.63, 32.447, 11.8319, 12.5453, 113.713, -48.8723
0.007865, -1, 39.63, 32.447, 11.8319, 12.5453, 113.713, -48.8723
0.028193, -1, 39.63, 32.447, 11.8319, 12.5453, 113.713, -48.8724
0.030958, -1, 39.63, 32.447, 11.8319, 12.5453, 113.713, -48.8723
0.032307, -1, 39.63, 32.447, 11.8319, 12.5453, 113.713, -48.8723
0.039721, -1, 39.63, 32.447, 11.8319, 12.5453, 113.713, -48.8723
0.047666, -1, 39.63, 32.447, 11.8319, 12.5454, 113.713, -48.8723
0.055725, -1, 39.6295, 32.4469, 11.8319, 12.5453, 113.713, -48.8723
0.063666, -1, 39.6271, 32.4465, 11.8319, 12.5453, 113.713, -48.8723
0.07166, -1, 39.6218, 32.4452, 11.8318, 12.5453, 113.713, -48.8726
0.079811, -1, 39.613, 32.4422, 11.8318, 12.5453, 113.712, -48.8739
0.087658, -1, 39.5998, 32.437, 11.8317, 12.5453, 113.711, -48.8785
0.095654, -1, 39.58, 32.4284, 11.8318, 12.5453, 113.707, -48.8896
0.103739, -1, 39.5515, 32.4158, 11.8322, 12.5453, 113.7, -48.9102
0.111652, -1, 39.5131, 32.3982, 11.8343, 12.5453, 113.688, -48.9437
0.119659, -1, 39.4638, 32.3745, 11.8391, 12.5453, 113.669, -48.9941
0.127722, -1, 39.4018, 32.344, 11.8475, 12.5454, 113.641, -49.0658
0.135655, -1, 39.3264, 32.3063, 11.8602, 12.5454, 113.604, -49.1602
0.143691, -1, 39.2373, 32.2607, 11.878, 12.5457, 113.558, -49.2802
0.151807, -1, 39.1343, 32.2071, 11.9005, 12.5462, 113.501, -49.4256
0.159803, -1, 39.0172, 32.1458, 11.9272, 12.5472, 113.433, -49.5956
0.167761, -1, 38.8867, 32.077, 11.9579, 12.5488, 113.357, -49.7878
0.175821, -1, 38.7439, 32.0017, 11.9919, 12.5506, 113.274, -49.9996
0.183757, -1, 38.5894, 31.9205, 12.0281, 12.5527, 113.184, -50.2273
0.191725, -1, 38.4251, 31.8343, 12.0659, 12.5551, 113.089, -50.4671
0.199893, -1, 38.2529, 31.7441, 12.1047, 12.5574, 112.991, -50.7152
0.207695, -1, 38.0744, 31.6509, 12.1438, 12.5599, 112.891, -50.9684
0.215696, -1, 37.8909, 31.5555, 12.1827, 12.5623, 112.789, -51.2251
0.223769, -1, 37.7033, 31.4585, 12.2215, 12.5647, 112.687, -51.4835
0.231766, -1, 37.5131, 31.3608, 12.2602, 12.5672, 112.585, -51.743
0.240268, -1, 37.3215, 31.2629, 12.299, 12.5696, 112.482, -52.0025
0.248044, -1, 37.1294, 31.165, 12.3379, 12.572, 112.379, -52.2621
0.255943, -1, 36.9371, 31.0672, 12.3766, 12.5747, 112.276, -52.5222
0.264164, -1, 36.7451, 30.9695, 12.4154, 12.5772, 112.173, -52.7826
0.272129, -1, 36.5534, 30.8718, 12.4543, 12.5798, 112.07, -53.043
0.280157, -1, 36.3618, 30.7741, 12.4932, 12.5824, 111.967, -53.3033
0.28849, -1, 36.1701, 30.6763, 12.532, 12.585, 111.865, -53.5636
0.296236, -1, 35.9786, 30.5784, 12.5708, 12.5875, 111.762, -53.8241
0.304245, -1, 35.7871, 30.4804, 12.6098, 12.5902, 111.659, -54.0849
0.312339, -1, 35.5953, 30.3823, 12.6487, 12.5927, 111.556, -54.345
0.320212, -1, 35.4992, 30.3332, 12.6681, 12.594, 111.504, -54.4753
0.327647, -1, 35.3071, 30.2349, 12.7069, 12.5966, 111.401, -54.7357
0.33571, -1, 35.1146, 30.1366, 12.7458, 12.5992, 111.298, -54.9964
0.343675, -1, 34.9222, 30.0382, 12.7847, 12.6018, 111.195, -55.2572
0.35165, -1, 34.73, 29.9397, 12.8235, 12.6044, 111.092, -55.5178
0.495868, -1, 31.2587, 28.1659, 13.524, 12.6522, 109.237, -60.2172
0.4977, -1, 31.2587, 28.1659, 13.524, 12.6522, 109.237, -60.3479
0.499246, -1, 31.1623, 28.1167, 13.5435, 12.6536, 109.185, -60.3479
0.500703, -1, 31.1623, 28.1167, 13.5435, 12.6536, 109.185, -60.3479
0.502783, -1, 31.0661, 28.0674, 13.5631, 12.6551, 109.134, -60.4787
0.503976, -1, 31.0661, 28.0674, 13.5631, 12.6551, 109.134, -60.4787
0.505862, -1, 30.9699, 28.0182, 13.5826, 12.6565, 109.082, -60.6095
0.511042, -1, 30.8738, 27.9689, 13.6021, 12.6579, 109.03, -60.7402
0.512286, -1, 30.8738, 27.9689, 13.6021, 12.6579, 109.03, -60.7402
0.51415, -1, 30.7777, 27.9196, 13.6216, 12.6593, 108.979, -60.8708
0.515521, -1, 30.7777, 27.9196, 13.6216, 12.6593, 108.979, -60.8708
0.516776, -1, 30.7777, 27.9196, 13.6216, 12.6593, 108.979, -60.8708
0.519501, -1, 30.6817, 27.8703, 13.6411, 12.6607, 108.927, -61.0014
0.520898, -1, 30.6817, 27.8703, 13.6411, 12.6607, 108.927, -61.0014
0.523011, -1, 30.5858, 27.821, 13.6606, 12.6621, 108.876, -61.1319
0.527071, -1, 30.4898, 27.7717, 13.6801, 12.6635, 108.824, -61.2626
0.528267, -1, 30.4898, 27.7717, 13.6801, 12.6635, 108.824, -61.2626
0.530288, -1, 30.3938, 27.7224, 13.6996, 12.6649, 108.772, -61.3934
0.531736, -1, 30.3938, 27.7224, 13.6996, 12.6649, 108.772, -61.3934
0.532946, -1, 30.3938, 27.7224, 13.6996, 12.6649, 108.772, -61.3934
0.535832, -1, 30.2978, 27.673, 13.7191, 12.6663, 108.721, -61.5241
0.537059, -1, 30.2978, 27.673, 13.7191, 12.6663, 108.721, -61.5241
0.540702, -1, 30.2017, 27.6236, 13.7385, 12.6677, 108.669, -61.655
0.543627, -1, 30.1056, 27.5742, 13.758, 12.669, 108.618, -61.7859
0.551638, -1, 29.9131, 27.4755, 13.7971, 12.6718, 108.514, -62.0474
0.55965, -1, 29.7201, 27.3768, 13.8359, 12.6745, 108.411, -62.309
0.567716, -1, 29.5265, 27.278, 13.8748, 12.6771, 108.308, -62.5707
0.575651, -1, 29.3325, 27.1792, 13.9138, 12.6797, 108.205, -62.8325
0.584078, -1, 29.1383, 27.0803, 13.9528, 12.6822, 108.101, -63.0941
0.591646, -1, 28.9439, 26.9814, 13.9918, 12.6847, 107.998, -63.3555
0.599637, -1, 28.7497, 26.8825, 14.0307, 12.6873, 107.894, -63.617
0.609048, -1, 28.5556, 26.7836, 14.0696, 12.6897, 107.791, -63.8788
0.615648, -1, 28.3617, 26.6849, 14.1087, 12.6923, 107.688, -64.1406
0.62371, -1, 28.1682, 26.5861, 14.1477, 12.6947, 107.585, -64.4022
0.631643, -1, 27.9752, 26.4873, 14.1867, 12.6972, 107.481, -64.6639
0.639714, -1, 27.7825, 26.3885, 14.2257, 12.6996, 107.378, -64.9258
0.64768, -1, 27.5899, 26.2896, 14.2646, 12.7021, 107.275, -65.1876
0.655721, -1, 27.3976, 26.1906, 14.3036, 12.7045, 107.171, -65.4491
0.663792, -1, 27.2055, 26.0917, 14.3427, 12.7068, 107.068, -65.7107
0.805299, -1, 23.8236, 24.3621, 15.0245, 12.7474, 105.261, -70.2905
0.806592, -1, 23.8236, 24.3621, 15.0245, 12.7474, 105.261, -70.2905
0.808529, -1, 23.7272, 24.3126, 15.044, 12.7487, 105.209, -70.4213
0.809863, -1, 23.7272, 24.3126, 15.044, 12.7487, 105.209, -70.4213
0.811054, -1, 23.7272, 24.3126, 15.044, 12.7487, 105.209, -70.4213
0.813078, -1, 23.6307, 24.2632, 15.0634, 12.7498, 105.158, -70.5523
0.814282, -1, 23.6307, 24.2632, 15.0634, 12.7498, 105.158, -70.5523
0.817792, -1, 23.5341, 24.2138, 15.0829, 12.751, 105.106, -70.6832
0.819044, -1, 23.5341, 24.2138, 15.0829, 12.751, 105.106, -70.6832
0.821929, -1, 23.4373, 24.1643, 15.1024, 12.7522, 105.054, -70.814
0.823144, -1, 23.4373, 24.1643, 15.1024, 12.7522, 105.054, -70.814
0.825959, -1, 23.3405, 24.1149, 15.1219, 12.7534, 105.002, -70.9448
0.827239, -1, 23.3405, 24.1149, 15.1219, 12.7534, 105.002, -70.9448
0.829232, -1, 23.2437, 24.0654, 15.1413, 12.7546, 104.951, -71.0757
0.830538, -1, 23.2437, 24.0654, 15.1413, 12.7546, 104.951, -71.0757
0.83318, -1, 23.1468, 24.016, 15.1607, 12.7559, 104.899, -71.2066
0.834401, -1, 23.1468, 24.016, 15.1607, 12.7559, 104.899, -71.2066
0.836331, -1, 23.1468, 24.016, 15.1607, 12.7559, 104.899, -71.3375
0.83773, -1, 23.0498, 23.9665, 15.1802, 12.7571, 104.848, -71.3375
0.839091, -1, 23.0498, 23.9665, 15.1802, 12.7571, 104.848, -71.3375
0.841112, -1, 22.9528, 23.917, 15.1996, 12.7583, 104.796, -71.4685
0.842431, -1, 22.9528, 23.917, 15.1996, 12.7583, 104.796, -71.4685
0.849634, -1, 22.7588, 23.8182, 15.2386, 12.7608, 104.692, -71.7304
0.855625, -1, 22.6619, 23.7688, 15.2581, 12.762, 104.641, -71.8613
0.863617, -1, 22.4681, 23.6702, 15.297, 12.7645, 104.537, -72.1227
0.871624, -1, 22.2747, 23.5715, 15.336, 12.767, 104.434, -72.3841
0.878626, -1, 22.0814, 23.4728, 15.3749, 12.7696, 104.33, -72.6456
0.887635, -1, 21.8884, 23.3741, 15.4139, 12.7722, 104.227, -72.9072
0.895632, -1, 21.6959, 23.2754, 15.4529, 12.7748, 104.124, -73.1686
0.903685, -1, 21.5038, 23.1766, 15.4918, 12.7775, 104.021, -73.43
0.911624, -1, 21.3115, 23.0778, 15.5308, 12.7802, 103.918, -73.6914
0.91976, -1, 21.1191, 22.9792, 15.5697, 12.7828, 103.815, -73.9531
0.927626, -1, 20.9268, 22.8806, 15.6086, 12.7856, 103.712, -74.2143
0.935622, -1, 20.7342, 22.782, 15.6476, 12.7882, 103.608, -74.4754
0.945231, -1, 20.5415, 22.6834, 15.6865, 12.791, 103.505, -74.8673
0.951623, -1, 20.3484, 22.5847, 15.7253, 12.7936, 103.402, -74.9981
0.960679, -1, 20.1548, 22.486, 15.7642, 12.7963, 103.299, -75.2593
0.96769, -1, 19.9611, 22.3872, 15.8031, 12.7991, 103.196, -75.5203
0.975624, -1, 19.7674, 22.2886, 15.8418, 12.8018, 103.094, -75.7815
0.983631, -1, 19.5738, 22.1899, 15.8807, 12.8046, 102.99, -76.0428
0.991687, -1, 19.3804, 22.0913, 15.9196, 12.8073, 102.887, -76.304
0.99963, -1, 19.1874, 21.9927, 15.9584, 12.8101, 102.784, -76.5649
1.00762, -1, 18.9946, 21.8941, 15.9973, 12.8129, 102.681, -76.8256
1.01569, -1, 18.8021, 21.7954, 16.0361, 12.8155, 102.578, -77.0866
1.02364, -1, 18.61, 21.6966, 16.0749, 12.8182, 102.475, -77.3476
1.03162, -1, 18.4182, 21.5981, 16.1138, 12.8208, 102.372, -77.6084
1.03969, -1, 18.2263, 21.4996, 16.1527, 12.8235, 102.27, -77.8692
1.04763, -1, 18.0344, 21.4011, 16.1914, 12.8261, 102.167, -78.13
1.05562, -1, 17.8426, 21.3027, 16.2304, 12.8286, 102.064, -78.3908
1.0637, -1, 17.6506, 21.2044, 16.2692, 12.8312, 101.961, -78.6513
1.07162, -1, 17.4583, 21.1061, 16.308, 12.8336, 101.858, -78.9117
1.07963, -1, 17.2654, 21.0077, 16.3468, 12.8361, 101.755, -79.1723
1.08777, -1, 17.0723, 20.9094, 16.3856, 12.8385, 101.652, -79.433
1.09562, -1, 16.8793, 20.8112, 16.4244, 12.8408, 101.549, -79.6935
1.10363, -1, 16.6862, 20.713, 16.4632, 12.8432, 101.446, -79.9538
1.1117, -1, 16.4932, 20.6148, 16.5018, 12.8455, 101.344, -80.2143
1.11963, -1, 16.3004, 20.5164, 16.5406, 12.8478, 101.241, -80.4751
1.12769, -1, 16.108, 20.4181, 16.5793, 12.8502, 101.138, -80.7356
1.13562, -1, 15.9161, 20.3197, 16.618, 12.8525, 101.036, -80.9956
1.14367, -1, 15.7244, 20.2212, 16.6567, 12.8547, 100.933, -81.2556
1.15174, -1, 15.533, 20.1228, 16.6953, 12.8571, 100.83, -81.5158
1.15971, -1, 15.3418, 20.0245, 16.7339, 12.8594, 100.728, -81.776
1.16772, -1, 15.1507, 19.9262, 16.7728, 12.8617, 100.625, -82.0358
1.17579, -1, 14.9595, 19.828, 16.8114, 12.8639, 100.523, -82.2957
1.18373, -1, 14.7682, 19.7299, 16.8501, 12.8662, 100.42, -82.5555
1.19173, -1, 14.5767, 19.6318, 16.8888, 12.8685, 100.318, -82.8156
1.19981, -1, 14.3849, 19.5336, 16.9275, 12.8708, 100.215, -83.0754
1.2077, -1, 14.1927, 19.4356, 16.9661, 12.8731, 100.113, -83.3348
1.21565, -1, 14.0004, 19.3376, 17.0049, 12.8753, 100.01, -83.5945
1.22375, -1, 13.8079, 19.2397, 17.0434, 12.8777, 99.9074, -83.8542
1.23172, -1, 13.6154, 19.1419, 17.0821, 12.88, 99.8049, -84.1137
1.23982, -1, 13.4231, 19.0441, 17.1208, 12.8823, 99.7024, -84.3729
1.24801, -1, 13.2311, 18.9462, 17.1593, 12.8846, 99.6003, -84.6322
1.25463, -1, 13.1352, 18.8972, 17.1785, 12.8858, 99.5491, -84.7619
1.26406, -1, 12.8482, 18.7503, 17.2366, 12.8893, 99.3953, -85.151
1.27062, -1, 12.7527, 18.7013, 17.2558, 12.8905, 99.3442, -85.2805
1.2801, -1, 12.4667, 18.5546, 17.3136, 12.8942, 99.1908, -85.6689
1.28817, -1, 12.2764, 18.4568, 17.3522, 12.8966, 99.0885, -85.9278
1.29621, -1, 12.0863, 18.3591, 17.3906, 12.899, 98.9866, -86.1868
1.30513, -1, 11.896, 18.2614, 17.4293, 12.9014, 98.8844, -86.4455
1.31222, -1, 11.8008, 18.1637, 17.4679, 12.9038, 98.7824, -86.704
1.32026, -1, 11.6101, 18.1149, 17.5063, 12.9063, 98.6807, -86.9627
1.32761, -1, 11.4192, 18.0173, 17.5256, 12.9075, 98.6297, -87.0921
1.33563, -1, 11.228, 17.9197, 17.5642, 12.9099, 98.5277, -87.3508
1.34374, -1, 11.0366, 17.8222, 17.6027, 12.9123, 98.4259, -87.6091
1.35161, -1, 10.8451, 17.7248, 17.6412, 12.9149, 98.3239, -87.8673
1.35969, -1, 10.6533, 17.6273, 17.6796, 12.9174, 98.2219, -88.1255
1.36761, -1, 10.4619, 17.5298, 17.718, 12.92, 98.1202, -88.3838
1.37562, -1, 10.2708, 17.4323, 17.7565, 12.9224, 98.0183, -88.6419
1.3837, -1, 10.0799, 17.3347, 17.7949, 12.925, 97.9164, -88.9
1.39161, -1, 9.88951, 17.2371, 17.8332, 12.9277, 97.8147, -89.1581
1.39961, -1, 9.69938, 17.1396, 17.8716, 12.9302, 97.7127, -89.4163
1.40769, -1, 9.50969, 17.0422, 17.91, 12.933, 97.6107, -89.6743
1.4156, -1, 9.32034, 16.9449, 17.9483, 12.9358, 97.5089, -89.9319
1.4237, -1, 9.13104, 16.8475, 17.9867, 12.9384, 97.407, -90.1894
1.43141, -1, 8.94168, 16.7503, 18.025, 12.941, 97.3051, -90.447
1.43961, -1, 8.75218, 16.6531, 18.0633, 12.9437, 97.2036, -90.7046
1.44761, -1, 8.56257, 16.5559, 18.1018, 12.9463, 97.1018, -90.9617
1.45661, -1, 8.37284, 16.4589, 18.1401, 12.9491, 97.0004, -91.2189
1.46362, -1, 8.18255, 16.3619, 18.1784, 12.9516, 96.8988, -91.4761
1.47261, -1, 7.99201, 16.265, 18.2168, 12.9543, 96.7972, -91.7334
1.47972, -1, 7.80152, 16.1681, 18.2551, 12.957, 96.6958, -91.9903
1.48761, -1, 7.61092, 16.0712, 18.2933, 12.9595, 96.5943, -92.247
1.49561, -1, 7.42055, 15.9742, 18.3317, 12.9621, 96.4929, -92.5036
1.50363, -1, 7.23045, 15.8773, 18.3698, 12.9647, 96.3917, -92.7605
1.51161, -1, 7.04057, 15.7803, 18.408, 12.9673, 96.2903, -93.0171
1.51968, -1, 6.8511, 15.6833, 18.4463, 12.9698, 96.189, -93.2736
1.52762, -1, 6.66215, 15.5864, 18.4844, 12.9723, 96.0884, -93.53
1.53561, -1, 6.47372, 15.4897, 18.5225, 12.9749, 95.9872, -93.7864
1.54368, -1, 6.28552, 15.3929, 18.5607, 12.9774, 95.8861, -94.0428
1.55162, -1, 6.0974, 15.2962, 18.5988, 12.9799, 95.7855, -94.2986
1.55961, -1, 5.90908, 15.1995, 18.637, 12.9823, 95.6844, -94.5546
1.56767, -1, 5.7207, 15.1028, 18.6752, 12.9846, 95.5834, -94.8106
1.57562, -1, 5.53224, 15.0062, 18.7132, 12.9869, 95.4828, -95.0666
1.58361, -1, 5.34345, 14.9097, 18.7514, 12.9893, 95.3819, -95.3221
1.59176, -1, 5.15428, 14.8132, 18.7896, 12.9915, 95.2812, -95.5775
1.59961, -1, 4.96491, 14.717, 18.8276, 12.9938, 95.1807, -95.8331
1.60761, -1, 4.77557, 14.6206, 18.8657, 12.996, 95.0798, -96.0887
1.61567, -1, 4.58608, 14.5243, 18.9038, 12.9981, 94.979, -96.3439
1.62417, -1, 4.39688, 14.428, 18.9418, 13.0004, 94.8784, -96.5987
1.63161, -1, 4.20796, 14.3316, 18.9798, 13.0025, 94.7775, -96.8536
1.63967, -1, 4.01929, 14.2352, 19.0178, 13.0048, 94.6766, -97.1088
1.64838, -1, 3.83127, 14.139, 19.0557, 13.0071, 94.5758, -97.3638
1.65575, -1, 3.64373, 14.0428, 19.0937, 13.0093, 94.4751, -97.6185
1.66399, -1, 3.45655, 13.9467, 19.1316, 13.0117, 94.3745, -97.8733
1.67242, -1, 3.26958, 13.8506, 19.1694, 13.014, 94.2739, -98.128
1.67977, -1, 3.08254, 13.7546, 19.2073, 13.0162, 94.1731, -98.3828
1.68811, -1, 2.89558, 13.6585, 19.2453, 13.0185, 94.0726, -98.6371
1.69652, -1, 2.70852, 13.5625, 19.2832, 13.0207, 93.9719, -98.8912
1.70385, -1, 2.52121, 13.4666, 19.3211, 13.023, 93.8715, -99.1454
1.71239, -1, 2.33376, 13.3707, 19.3588, 13.0253, 93.7711, -99.3996
1.72045, -1, 2.14589, 13.2749, 19.3967, 13.0276, 93.6708, -99.6536
1.72771, -1, 1.95782, 13.1791, 19.4346, 13.0297, 93.5707, -99.9071
1.73659, -1, 1.76972, 13.0832, 19.4723, 13.0321, 93.4708, -100.161
1.74465, -1, 1.58148, 12.9874, 19.51, 13.0343, 93.3706, -100.414
1.75189, -1, 1.39343, 12.8916, 19.5479, 13.0366, 93.2705, -100.668
1.76087, -1, 1.20562, 12.7957, 19.5856, 13.0389, 93.1707, -100.921
1.76796, -1, 1.01818, 12.7, 19.6233, 13.0413, 93.0705, -101.174
1.77615, -1, 0.83139, 12.6044, 19.6611, 13.0437, 92.9706, -101.427
1.78502, -1, 0.645065, 12.5088, 19.6986, 13.046, 92.871, -101.68
1.79213, -1, 0.459107, 12.4133, 19.7362, 13.0485, 92.7712, -101.933
1.80019, -1, 0.273439, 12.318, 19.7739, 13.0509, 92.6715, -102.186
1.80902, -1, 0.0880437, 12.2226, 19.8115, 13.0534, 92.5722, -102.439
1.8162, -1, -0.00461614, 12.1749, 19.849, 13.0558, 92.4724, -102.691
1.82259, -1, -0.190176, 12.0796, 19.8679, 13.057, 92.4226, -102.818
1.8316, -1, -0.375923, 11.9844, 19.9055, 13.0595, 92.3232, -103.07
1.8396, -1, -0.561991, 11.8893, 19.9431, 13.062, 92.2237, -103.322
1.84667, -1, -0.748326, 11.7943, 19.9806, 13.0644, 92.1242, -103.574
1.85758, -1, -1.02823, 11.6517, 20.0368, 13.0682, 91.9753, -103.952
1.8636, -1, -1.12162, 11.6042, 20.0555, 13.0694, 91.9255, -104.078
1.87165, -1, -1.30861, 11.5091, 20.0931, 13.0719, 91.8262, -104.329
1.8796, -1, -1.49542, 11.414, 20.1306, 13.0745, 91.7271, -104.581
1.88765, -1, -1.682, 11.3189, 20.168, 13.0771, 91.6279, -104.833
1.8956, -1, -1.86824, 11.2238, 20.2054, 13.0797, 91.5286, -105.084
1.90359, -1, -2.05402, 11.1289, 20.2429, 13.0823, 91.4296, -105.335
1.9106, -1, -2.23913, 11.034, 20.2802, 13.085, 91.3303, -105.586
1.91961, -1, -2.42392, 10.9391, 20.3176, 13.0876, 91.2311, -105.837
1.9276, -1, -2.60837, 10.8443, 20.355, 13.0903, 91.1322, -106.088
1.93459, -1, -2.7923, 10.7495, 20.3922, 13.0929, 91.0331, -106.339
1.94359, -1, -2.97622, 10.6548, 20.4296, 13.0955, 90.934, -106.59
1.95159, -1, -3.16024, 10.5601, 20.467, 13.0981, 90.8353, -106.84
1.96061, -1, -3.34451, 10.4655, 20.5042, 13.1007, 90.7363, -107.091
1.9666, -1, -3.52918, 10.371, 20.5415, 13.1032, 90.6373, -107.341
1.97561, -1, -3.71395, 10.2767, 20.5787, 13.1057, 90.5387, -107.592
1.98367, -1, -3.89901, 10.1823, 20.616, 13.1082, 90.4398, -107.842
1.99168, -1, -4.08432, 10.088, 20.6533, 13.1106, 90.3411, -108.091
1.99959, -1, -4.26989, 9.99368, 20.6904, 13.1131, 90.2427, -108.342
2.0076, -1, -4.45547, 9.89934, 20.7276, 13.1155, 90.1439, -108.591
2.0156, -1, -4.64074, 9.80501, 20.7649, 13.1178, 90.0454, -108.841
2.02366, -1, -4.82565, 9.71081, 20.802, 13.1202, 89.9471, -109.09
2.03161, -1, -5.01014, 9.6167, 20.8391, 13.1226, 89.8485, -109.34
2.03959, -1, -5.19396, 9.52263, 20.8763, 13.1249, 89.75, -109.589
2.04766, -1, -5.37735, 9.42858, 20.9134, 13.1273, 89.6518, -109.838
2.05559, -1, -5.56027, 9.33468, 20.9504, 13.1296, 89.5534, -110.087
2.06359, -1, -5.74284, 9.2407, 20.9876, 13.1319, 89.4551, -110.335
2.07167, -1, -5.92521, 9.14677, 21.0246, 13.1342, 89.3572, -110.584
2.07959, -1, -6.10757, 9.05293, 21.0616, 13.1364, 89.2589, -110.833
2.08759, -1, -6.29027, 8.95912, 21.0987, 13.1387, 89.1609, -111.081
2.09566, -1, -6.4732, 8.86549, 21.1356, 13.1408, 89.0631, -111.33
2.10359, -1, -6.65636, 8.77184, 21.1724, 13.143, 88.965, -111.578
2.11167, -1, -6.83988, 8.67825, 21.2094, 13.1452, 88.8671, -111.826
2.11966, -1, -7.02374, 8.58466, 21.2463, 13.1472, 88.7694, -112.074
2.12759, -1, -7.20794, 8.49111, 21.2831, 13.1494, 88.6715, -112.322
2.13567, -1, -7.3921, 8.3975, 21.3201, 13.1515, 88.5736, -112.569
2.14359, -1, -7.57594, 8.30385, 21.3569, 13.1537, 88.4762, -112.817
2.15168, -1, -7.75946, 8.21043, 21.3937, 13.1559, 88.3784, -113.064
2.15983, -1, -7.94258, 8.11705, 21.4305, 13.1581, 88.2811, -113.311
2.16774, -1, -8.12522, 8.02365, 21.4673, 13.1604, 88.1838, -113.559
2.17569, -1, -8.30708, 7.93037, 21.5041, 13.1626, 88.0863, -113.806
2.18376, -1, -8.48842, 7.83711, 21.541, 13.1648, 87.9889, -114.053
2.1917, -1, -8.66939, 7.74394, 21.5778, 13.1671, 87.8917, -114.299
2.19965, -1, -8.85009, 7.65074, 21.6145, 13.1694, 87.7942, -114.545
2.20783, -1, -9.03089, 7.55765, 21.6512, 13.1716, 87.6967, -114.792
2.21562, -1, -9.21192, 7.46463, 21.6879, 13.1739, 87.5996, -115.039
2.22376, -1, -9.3932, 7.37183, 21.7246, 13.1761, 87.5025, -115.285
2.23176, -1, -9.57487, 7.27901, 21.7613, 13.1782, 87.4054, -115.531
2.23969, -1, -9.75686, 7.18617, 21.7979, 13.1805, 87.3083, -115.777
2.24795, -1, -9.93922, 7.09347, 21.8344, 13.1827, 87.211, -116.023
2.25585, -1, -10.1218, 7.00077, 21.871, 13.1849, 87.1138, -116.269
2.26388, -1, -10.3045, 6.90798, 21.9076, 13.1872, 87.0167, -116.515
2.27232, -1, -10.4869, 6.81522, 21.9442, 13.1894, 86.9196, -116.76
2.28007, -1, -10.6692, 6.72252, 21.9807, 13.1916, 86.8225, -117.006
2.28809, -1, -10.851, 6.62989, 22.0172, 13.194, 86.7256, -117.251
2.2962, -1, -11.0323, 6.53727, 22.0536, 13.1964, 86.6287, -117.496
2.30418, -1, -11.2128, 6.44477, 22.0901, 13.1988, 86.5321, -117.741
2.31214, -1, -11.3927, 6.35227, 22.1267, 13.2012, 86.4356, -117.986
2.3204, -1, -11.5723, 6.25983, 22.163, 13.2036, 86.3387, -118.231
2.32821, -1, -11.662, 6.21363, 22.1812, 13.2048, 86.2421, -118.476
2.33558, -1, -11.8412, 6.12124, 22.2178, 13.2074, 86.1939, -118.598
2.34364, -1, -12.0204, 6.02897, 22.2542, 13.2098, 86.0972, -118.842
2.35158, -1, -12.1997, 5.9368, 22.2906, 13.2123, 86.0007, -119.086
2.35958, -1, -12.3794, 5.8448, 22.3271, 13.2148, 85.9045, -119.331
2.36765, -1, -12.5595, 5.75277, 22.3633, 13.2172, 85.8081, -119.575
2.37558, -1, -12.7399, 5.66076, 22.3995, 13.2197, 85.7117, -119.819
2.38359, -1, -12.9208, 5.56883, 22.4359, 13.2221, 85.6159, -120.062
2.39164, -1, -13.1019, 5.47689, 22.4722, 13.2246, 85.5199, -120.306
2.3996, -1, -13.2832, 5.38485, 22.5084, 13.227, 85.4239, -120.55
2.40763, -1, -13.4642, 5.29293, 22.5447, 13.2295, 85.3282, -120.793
2.41558, -1, -13.6448, 5.201, 22.5809, 13.232, 85.2323, -121.036
2.42359, -1, -13.8251, 5.10914, 22.6169, 13.2346, 85.1365, -121.279
2.43164, -1, -14.0047, 5.01731, 22.6531, 13.2372, 85.0409, -121.522
2.43959, -1, -14.1833, 4.92561, 22.6893, 13.2398, 84.9453, -121.765
2.44759, -1, -14.3616, 4.83386, 22.7253, 13.2423, 84.8496, -122.008
2.45709, -1, -14.5396, 4.74219, 22.7615, 13.2448, 84.7542, -122.25
2.46358, -1, -14.7172, 4.65058, 22.7977, 13.2474, 84.6585, -122.493
2.47258, -1, -14.8949, 4.55909, 22.8337, 13.2499, 84.5627, -122.736
2.47858, -1, -15.0726, 4.46762, 22.8698, 13.2524, 84.4672, -122.978
2.48758, -1, -15.2506, 4.37635, 22.906, 13.2547, 84.3715, -123.22
2.49562, -1, -15.429, 4.28503, 22.9419, 13.2572, 84.2758, -123.461
2.50365, -1, -15.6079, 4.19375, 22.978, 13.2595, 84.1803, -123.703
2.51157, -1, -15.7871, 4.10249, 23.014, 13.2617, 84.0847, -123.945
2.5196, -1, -15.9663, 4.01129, 23.0499, 13.264, 83.9893, -124.186
2.52758, -1, -16.1459, 3.92, 23.0859, 13.2661, 83.8939, -124.428
2.53558, -1, -16.3258, 3.82874, 23.122, 13.2683, 83.7984, -124.669
2.54366, -1, -16.5052, 3.73755, 23.1578, 13.2705, 83.703, -124.911
2.55159, -1, -16.6842, 3.64643, 23.1936, 13.2727, 83.6076, -125.152
2.55965, -1, -16.8625, 3.55537, 23.2295, 13.275, 83.5123, -125.393
2.56809, -1, -17.0401, 3.46435, 23.2653, 13.2772, 83.417, -125.634
2.57557, -1, -17.2169, 3.3734, 23.3012, 13.2794, 83.3216, -125.874
2.58357, -1, -17.3935, 3.28256, 23.337, 13.2816, 83.2267, -126.115
2.59237, -1, -17.5698, 3.19171, 23.3728, 13.2837, 83.1315, -126.356
2.59959, -1, -17.7459, 3.10107, 23.4087, 13.2859, 83.0367, -126.596
2.60757, -1, -17.9219, 3.0105, 23.4446, 13.2879, 82.942, -126.836
2.61637, -1, -18.0981, 2.92002, 23.4804, 13.2901, 82.8471, -127.076
2.62357, -1, -18.2746, 2.82966, 23.5161, 13.2922, 82.7523, -127.317
2.63158, -1, -18.4515, 2.73924, 23.552, 13.2943, 82.6578, -127.556
2.64038, -1, -18.629, 2.64885, 23.5876, 13.2963, 82.563, -127.796
2.64758, -1, -18.8067, 2.55852, 23.6233, 13.2984, 82.4684, -128.035
2.65568, -1, -18.9848, 2.46808, 23.659, 13.3004, 82.3742, -128.275
2.66466, -1, -19.163, 2.37758, 23.6946, 13.3024, 82.2797, -128.514
2.67167, -1, -19.3412, 2.28722, 23.7302, 13.3044, 82.1853, -128.753
2.67975, -1, -19.5189, 2.19684, 23.7659, 13.3065, 82.0915, -128.992
2.68848, -1, -19.6959, 2.10648, 23.8014, 13.3087, 81.9972, -129.231
2.69568, -1, -19.8724, 2.01622, 23.8368, 13.3108, 81.9029, -129.471
2.70393, -1, -20.0482, 1.92596, 23.8724, 13.313, 81.8091, -129.709
2.71248, -1, -20.2234, 1.83575, 23.9079, 13.3152, 81.7149, -129.948
2.71966, -1, -20.3983, 1.74563, 23.9434, 13.3174, 81.6208, -130.186
2.72782, -1, -20.5729, 1.65555, 23.979, 13.3196, 81.527, -130.424
2.73652, -1, -20.7473, 1.56559, 24.0145, 13.3217, 81.433, -130.663
2.74377, -1, -20.922, 1.47569, 24.0499, 13.324, 81.3393, -130.901
2.75185, -1, -21.097, 1.38596, 24.0854, 13.3262, 81.2457, -131.139
2.75985, -1, -21.2723, 1.29622, 24.1209, 13.3283, 81.1518, -131.377
2.76798, -1, -21.448, 1.20649, 24.1563, 13.3305, 81.0579, -131.614
2.77458, -1, -21.536, 1.16167, 24.1739, 13.3316, 81.0109, -131.733
2.78661, -1, -21.8002, 1.02724, 24.2272, 13.3348, 80.8703, -132.09
2.79215, -1, -21.9766, 0.937623, 24.2625, 13.337, 80.7765, -132.327
2.80019, -1, -22.1532, 0.84806, 24.2979, 13.3392, 80.6829, -132.564
2.80891, -1, -22.3297, 0.75852, 24.3333, 13.3413, 80.5893, -132.801
2.81617, -1, -22.5057, 0.669023, 24.3685, 13.3436, 80.4957, -133.038
2.82419, -1, -22.5936, 0.624256, 24.386, 13.346, 80.402, -133.275
2.83305, -1, -22.769, 0.534801, 24.4213, 13.3484, 80.3084, -133.512
2.83959, -1, -22.9434, 0.445398, 24.4566, 13.3495, 80.2616, -133.63
2.84756, -1, -23.1171, 0.355962, 24.4917, 13.352, 80.1681, -133.867
2.8556, -1, -23.2907, 0.266594, 24.5268, 13.3545, 80.0747, -134.104
2.86362, -1, -23.4638, 0.177309, 24.562, 13.3569, 79.9811, -134.34
2.87156, -1, -23.6369, 0.0881559, 24.5972, 13.3593, 79.8879, -134.576
2.87961, -1, -23.8103, -0.000967674, 24.6324, 13.3617, 79.7948, -134.812
2.88758, -1, -23.9837, -0.0899495, 24.6675, 13.3642, 79.7015, -135.048
2.89562, -1, -24.1573, -0.178921, 24.7026, 13.3667, 79.6085, -135.284
2.9036, -1, -24.3313, -0.267881, 24.7377, 13.3691, 79.5155, -135.52
2.91158, -1, -24.5056, -0.356791, 24.7728, 13.3715, 79.4225, -135.755
2.91957, -1, -24.6802, -0.445658, 24.8079, 13.3739, 79.3294, -135.991
2.9276, -1, -24.8551, -0.534569, 24.8428, 13.3763, 79.2364, -136.227
2.93557, -1, -25.0302, -0.623413, 24.878, 13.3787, 79.1434, -136.462
2.94356, -1, -25.2051, -0.712201, 24.913, 13.3811, 79.0504, -136.697
2.95387, -1, -25.3797, -0.800978, 24.948, 13.3834, 78.9577, -137.049
2.95962, -1, -25.5538, -0.889813, 24.983, 13.3859, 78.8651, -137.167
2.96756, -1, -25.7274, -0.978547, 25.0178, 13.3884, 78.7723, -137.402
2.97564, -1, -25.9003, -1.06725, 25.0527, 13.3907, 78.6797, -137.636
2.98461, -1, -26.0728, -1.15598, 25.0877, 13.3932, 78.5874, -137.871
2.99156, -1, -26.2449, -1.24461, 25.1226, 13.3957, 78.4946, -138.106
2.99967, -1, -26.4167, -1.33311, 25.1574, 13.398, 78.402, -138.34
3.00756, -1, -26.5884, -1.42154, 25.1923, 13.4002, 78.3098, -138.574
3.01557, -1, -26.7604, -1.50987, 25.2273, 13.4025, 78.2173, -138.808
3.02363, -1, -26.9327, -1.59806, 25.2621, 13.4048, 78.1249, -139.042
3.03157, -1, -27.1052, -1.68623, 25.2969, 13.407, 78.0328, -139.276
3.03956, -1, -27.2777, -1.77444, 25.3319, 13.4091, 77.9405, -139.51
3.04763, -1, -27.4506, -1.86252, 25.3666, 13.4113, 77.8485, -139.744
3.05556, -1, -27.6237, -1.95062, 25.4013, 13.4134, 77.7565, -139.977
3.06368, -1, -27.797, -2.03881, 25.4363, 13.4156, 77.6645, -140.211
3.07157, -1, -27.9703, -2.12683, 25.471, 13.4176, 77.5724, -140.444
3.07956, -1, -28.1436, -2.21485, 25.5057, 13.4197, 77.4805, -140.678
3.08762, -1, -28.3167, -2.30288, 25.5405, 13.4217, 77.3884, -140.911
3.09555, -1, -28.4895, -2.39092, 25.5753, 13.4237, 77.2963, -141.144
3.10356, -1, -28.6619, -2.47886, 25.6099, 13.4259, 77.2042, -141.377
3.11164, -1, -28.8337, -2.56687, 25.6446, 13.428, 77.1123, -141.609
3.11956, -1, -29.0047, -2.65484, 25.6792, 13.4302, 77.0203, -141.842
3.12756, -1, -29.1753, -2.74272, 25.7137, 13.4323, 76.9284, -142.075
3.13563, -1, -29.3459, -2.83054, 25.7484, 13.4345, 76.8368, -142.307
3.14356, -1, -29.5166, -2.91824, 25.7831, 13.4366, 76.7448, -142.54
3.1516, -1, -29.6874, -3.00583, 25.8176, 13.4385, 76.6529, -142.772
3.15966, -1, -29.8584, -3.09335, 25.8521, 13.4406, 76.5613, -143.005
3.16768, -1, -30.0294, -3.1808, 25.8867, 13.4427, 76.4693, -143.236
3.17591, -1, -30.2003, -3.26832, 25.9212, 13.4447, 76.3776, -143.468
3.18371, -1, -30.3715, -3.35574, 25.9557, 13.4468, 76.2862, -143.7
3.19167, -1, -30.543, -3.44318, 25.9903, 13.4488, 76.1945, -143.932
3.20012, -1, -30.7148, -3.53071, 26.0247, 13.4509, 76.1031, -144.164
3.20711, -1, -30.8008, -3.57441, 26.0419, 13.4519, 76.0574, -144.28
3.21556, -1, -31.0585, -3.70544, 26.0938, 13.4549, 75.9205, -144.626
3.22435, -1, -31.2301, -3.79278, 26.1282, 13.457, 75.8291, -144.858
3.23166, -1, -31.4015, -3.8801, 26.1625, 13.4591, 75.7378, -145.089
3.23976, -1, -31.5724, -3.96738, 26.197, 13.4612, 75.6466, -145.32
3.24859, -1, -31.7428, -4.05462, 26.2314, 13.4635, 75.5553, -145.551
3.25585, -1, -31.9128, -4.14193, 26.2658, 13.4656, 75.4641, -145.782
3.26388, -1, -32.0825, -4.22913, 26.3002, 13.4678, 75.3731, -146.013
3.27277, -1, -32.2518, -4.31624, 26.3346, 13.47, 75.2819, -146.244
3.27994, -1, -32.4213, -4.4033, 26.3688, 13.4721, 75.1909, -146.475
3.28835, -1, -32.591, -4.49028, 26.4031, 13.4743, 75.1004, -146.705
3.29691, -1, -32.7607, -4.57721, 26.4376, 13.4764, 75.0092, -146.935
3.30409, -1, -32.9304, -4.66416, 26.4718, 13.4785, 74.9185, -147.166
3.31228, -1, -33.1, -4.75108, 26.506, 13.4807, 74.828, -147.396
3.32097, -1, -33.2698, -4.83793, 26.5403, 13.483, 74.7372, -147.626
3.32816, -1, -33.3548, -4.88135, 26.5575, 13.4852, 74.6466, -147.856
3.33644, -1, -33.525, -4.96831, 26.6087, 13.4874, 74.5561, -148.086
3.34355, -1, -33.6953, -5.05519, 26.6259, 13.4885, 74.511, -148.201
3.35155, -1, -33.8656, -5.14196, 26.6601, 13.4907, 74.4202, -148.431
3.3596, -1, -34.0358, -5.22868, 26.6942, 13.4929, 74.3298, -148.66
3.36756, -1, -34.206, -5.31545, 26.7283, 13.4952, 74.2394, -148.889
3.37556, -1, -34.3761, -5.40212, 26.7627, 13.4975, 74.1487, -149.119
3.3836, -1, -34.5459, -5.48878, 26.7968, 13.4999, 74.0581, -149.348
3.39155, -1, -34.7151, -5.57549, 26.8308, 13.5022, 73.9677, -149.578
3.39966, -1, -34.8838, -5.66213, 26.865, 13.5047, 73.877, -149.807
3.40754, -1, -35.0523, -5.74867, 26.8991, 13.5071, 73.7866, -150.036
3.41555, -1, -35.2205, -5.83516, 26.9331, 13.5095, 73.6963, -150.265
3.4237, -1, -35.3889, -5.92151, 26.9672, 13.5119, 73.6059, -150.494
3.43155, -1, -35.5575, -6.00772, 27.0013, 13.5143, 73.5156, -150.723
3.43955, -1, -35.7259, -6.09397, 27.0352, 13.5166, 73.4252, -150.951
3.44761, -1, -35.8945, -6.18012, 27.0692, 13.519, 73.3351, -151.18
3.45555, -1, -36.063, -6.26625, 27.1033, 13.5215, 73.2445, -151.408
3.46602, -1, -36.2314, -6.35234, 27.1373, 13.5239, 73.1541, -151.751
3.47161, -1, -36.4001, -6.43856, 27.1711, 13.5263, 73.0639, -151.865
3.47954, -1, -36.569, -6.52478, 27.2052, 13.5287, 72.9734, -152.093
3.48756, -1, -36.7378, -6.61097, 27.2391, 13.5309, 72.8832, -152.321
3.49561, -1, -36.9068, -6.69714, 27.2729, 13.5332, 72.7931, -152.549
3.5036, -1, -37.0758, -6.78333, 27.3069, 13.5354, 72.703, -152.778
3.51437, -1, -37.2446, -6.86947, 27.3408, 13.5377, 72.6131, -153.119
3.51956, -1, -37.4132, -6.95551, 27.3746, 13.54, 72.5233, -153.233
3.52761, -1, -37.5813, -7.04157, 27.4086, 13.5423, 72.4334, -153.461
3.53555, -1, -37.749, -7.12762, 27.4426, 13.5445, 72.3435, -153.688
3.54355, -1, -37.9166, -7.2136, 27.4764, 13.5467, 72.2536, -153.916
3.55162, -1, -38.0841, -7.29952, 27.5103, 13.549, 72.164, -154.143
3.55955, -1, -38.2515, -7.38541, 27.5442, 13.5511, 72.0742, -154.371
3.5676, -1, -38.4188, -7.47112, 27.5781, 13.5533, 71.9845, -154.598
3.57562, -1, -38.586, -7.55682, 27.6119, 13.5554, 71.8951, -154.825
3.58355, -1, -38.7533, -7.64257, 27.6458, 13.5575, 71.8053, -155.052
3.59154, -1, -38.9206, -7.72827, 27.6796, 13.5595, 71.7158, -155.279
3.59964, -1, -39.088, -7.81385, 27.7133, 13.5616, 71.6268, -155.506
3.60754, -1, -39.2555, -7.89952, 27.7472, 13.5636, 71.5372, -155.733
3.61555, -1, -39.4231, -7.98522, 27.781, 13.5656, 71.4479, -155.959
3.62362, -1, -39.5907, -8.07077, 27.8146, 13.5675, 71.3586, -156.186
3.63155, -1, -39.7584, -8.15631, 27.8483, 13.5695, 71.2693, -156.413
3.63956, -1, -39.926, -8.24179, 27.8821, 13.5715, 71.1799, -156.639
3.64773, -1, -40.0935, -8.32722, 27.9158, 13.5734, 71.0905, -156.865
3.65557, -1, -40.261, -8.41261, 27.9494, 13.5754, 71.0015, -157.092
3.6636, -1, -40.4282, -8.498, 27.9833, 13.5773, 70.9119, -157.318
3.67203, -1, -40.5952, -8.58338, 28.0169, 13.5793, 70.8228, -157.544
3.67918, -1, -40.7621, -8.66878, 28.0505, 13.5813, 70.7338, -157.77
3.68764, -1, -40.9286, -8.75411, 28.0842, 13.5833, 70.6446, -157.996
3.69608, -1, -41.095, -8.83942, 28.1179, 13.5854, 70.5554, -158.222
3.70365, -1, -41.2613, -8.92463, 28.1515, 13.5874, 70.4664, -158.448
3.7117, -1, -41.4275, -9.00972, 28.1851, 13.5894, 70.3771, -158.673
3.72032, -1, -41.5937, -9.09487, 28.2188, 13.5913, 70.2879, -158.899
3.72758, -1, -41.7601, -9.17997, 28.2524, 13.5933, 70.1989, -159.124
3.73564, -1, -41.9265, -9.26499, 28.286, 13.5953, 70.1098, -159.35
3.74463, -1, -42.0929, -9.35002, 28.3197, 13.5974, 70.0208, -159.575
3.75174, -1, -42.2591, -9.43515, 28.3533, 13.5994, 69.9318, -159.801
3.75985, -1, -42.4254, -9.52018, 28.3868, 13.6014, 69.8431, -160.026
3.76873, -1, -42.5917, -9.60516, 28.4203, 13.6034, 69.754, -160.251
3.77588, -1, -42.7582, -9.69013, 28.4539, 13.6054, 69.6651, -160.476
3.784, -1, -42.9247, -9.77512, 28.4873, 13.6075, 69.5766, -160.701
3.79054, -1, -43.0079, -9.81759, 28.504, 13.6085, 69.532, -160.814
3.80083, -1, -43.2572, -9.94496, 28.5543, 13.6116, 69.3989, -161.151
3.80812, -1, -43.4234, -10.0299, 28.5878, 13.6137, 69.3103, -161.375
3.81615, -1, -43.5893, -10.1148, 28.6212, 13.6157, 69.2217, -161.6
3.82486, -1, -43.6722, -10.1997, 28.6548, 13.6179, 69.1332, -161.825
3.83226, -1, -43.921, -10.2845, 28.6881, 13.6201, 69.0447, -162.05
3.84014, -1, -44.0038, -10.3269, 28.7048, 13.6211, 69.0006, -162.162
3.84753, -1, -44.1693, -10.4117, 28.7382, 13.6233, 68.9118, -162.386
3.85559, -1, -44.3345, -10.4963, 28.7718, 13.6255, 68.8232, -162.61
3.86354, -1, -44.4996, -10.5809, 28.8051, 13.6277, 68.7347, -162.835
3.87159, -1, -44.6648, -10.6654, 28.8384, 13.6298, 68.6461, -163.059
3.87958, -1, -44.8301, -10.7499, 28.8719, 13.632, 68.5575, -163.283
3.88754, -1, -44.9955, -10.8344, 28.9053, 13.6342, 68.4691, -163.507
3.89555, -1, -45.1609, -10.9189, 28.9387, 13.6364, 68.3807, -163.731
3.90364, -1, -45.3261, -11.0034, 28.9721, 13.6386, 68.2923, -163.955
3.91158, -1, -45.4914, -11.0879, 29.0054, 13.6409, 68.2039, -164.179
3.91953, -1, -45.6567, -11.1723, 29.0386, 13.6432, 68.1159, -164.403
3.92759, -1, -45.8219, -11.2568, 29.0719, 13.6455, 68.0272, -164.626
3.93564, -1, -45.9861, -11.3407, 29.1053, 13.6478, 67.9389, -164.85
3.94354, -1, -46.1475, -11.423, 29.1387, 13.65, 67.8509, -165.073
3.95165, -1, -46.3045, -11.5024, 29.1723, 13.6524, 67.7634, -165.294
3.95953, -1, -46.4548, -11.5774, 29.2057, 13.6548, 67.6782, -165.51
3.96753, -1, -46.596, -11.6473, 29.238, 13.6571, 67.5967, -165.716
3.97562, -1, -46.7256, -11.7106, 29.2678, 13.6593, 67.5221, -165.905
3.98353, -1, -46.8406, -11.7667, 29.2942, 13.6613, 67.4551, -166.074
3.99159, -1, -46.9395, -11.8159, 29.3163, 13.663, 67.3993, -166.216
3.9996, -1, -47.022, -11.8589, 29.3329, 13.6643, 67.3545, -166.329
4.00757, -1, -47.0892, -11.8957, 29.3441, 13.6651, 67.3208, -166.414
4.01555, -1, -47.1417, -11.9251, 29.3513, 13.6655, 67.2975, -166.473
4.0236, -1, -47.1806, -11.9472, 29.3553, 13.6657, 67.2825, -166.51
4.03159, -1, -47.2081, -11.9627, 29.3571, 13.6658, 67.2737, -166.533
4.03953, -1, -47.2263, -11.9727, 29.3579, 13.6658, 67.2689, -166.545
4.04761, -1, -47.2371, -11.9786, 29.3583, 13.666, 67.2665, -166.55
4.05554, 2, -47.2427, -11.9815, 29.3585, 13.666, 67.2654, -166.553
4.06354, 2, -47.2448, -11.9828, 29.3587, 13.666, 67.2648, -166.554
4.07177, 2, -47.2449, -11.9833, 29.3588, 13.6661, 67.2646, -166.555
4.07951, 2, -47.2447, -11.9834, 29.3589, 13.666, 67.2645, -166.555
4.08753, 2, -47.2447, -11.9835, 29.3589, 13.6661, 67.2644, -166.555
4.09561, 2, -47.245, -11.9836, 29.359, 13.6661, 67.2644, -166.555
4.10352, 2, -47.2459, -11.9839, 29.359, 13.6661, 67.2644, -166.555
4.11159, 2, -47.2472, -11.9844, 29.359, 13.6661, 67.2644, -166.555
4.1196, 2, -47.249, -11.9852, 29.359, 13.6661, 67.2644, -166.555
4.12754, 2, -47.2506, -11.9861, 29.359, 13.6661, 67.2644, -166.555
4.13555, 2, -47.252, -11.9869, 29.359, 13.6661, 67.2644, -166.555
4.14359, 2, -47.2529, -11.9876, 29.359, 13.6661, 67.2644, -166.555
4.15158, 2, -47.2533, -11.988, 29.359, 13.6661, 67.2644, -166.555
4.15956, 2, -47.2535, -11.9882, 29.359, 13.6661, 67.2644, -166.555
4.16766, 2, -47.2536, -11.9883, 29.359, 13.6661, 67.2644, -166.555
4.17566, 2, -47.2533, -11.9883, 29.3591, 13.6661, 67.2645, -166.555
4.18363, 2, -47.2528, -11.9883, 29.3591, 13.6661, 67.2645, -166.555
4.19183, 2, -47.2523, -11.9882, 29.3591, 13.666, 67.2645, -166.555
4.1997, 2, -47.252, -11.9882, 29.3591, 13.666, 67.2645, -166.555
4.20763, 2, -47.2518, -11.9882, 29.3591, 13.6661, 67.2645, -166.555
4.21572, 2, -47.2518, -11.9883, 29.3591, 13.666, 67.2644, -166.555
4.22354, 2, -47.2519, -11.9885, 29.3591, 13.666, 67.2644, -166.555
4.23162, 2, -47.2521, -11.9888, 29.3591, 13.6661, 67.2645, -166.555
4.23974, 2, -47.2528, -11.9891, 29.3591, 13.6661, 67.2644, -166.555
4.24761, 2, -47.2533, -11.9894, 29.3591, 13.6661, 67.2644, -166.555
4.25595, 2, -47.2536, -11.9897, 29.3591, 13.666, 67.2644, -166.555
4.26389, 2, -47.2537, -11.9897, 29.3591, 13.666, 67.2644, -166.555
4.27185, 2, -47.2538, -11.9898, 29.3591, 13.6661, 67.2644, -166.555
4.27985, 2, -47.2537, -11.9897, 29.3591, 13.666, 67.2645, -166.555
4.28806, 2, -47.2535, -11.9897, 29.3591, 13.666, 67.2645, -166.555
4.29603, 2, -47.253, -11.9896, 29.3591, 13.6661, 67.2644, -166.555
4.30418, 2, -47.2527, -11.9896, 29.3591, 13.666, 67.2645, -166.555
4.31224, 2, -47.2524, -11.9896, 29.3591, 13.666, 67.2645, -166.555
4.3201, 2, -47.2523, -11.9896, 29.3591, 13.666, 67.2645, -166.555
4.32809, 2, -47.2522, -11.9896, 29.3591, 13.6661, 67.2645, -166.555
4.33626, 2, -47.2521, -11.9897, 29.3591, 13.6661, 67.2645, -166.555
4.34406, 2, -47.2521, -11.9897, 29.3591, 13.6661, 67.2645, -166.555
4.35157, 2, -47.2521, -11.9898, 29.3591, 13.666, 67.2645, -166.555
4.35957, 2, -47.2521, -11.9898, 29.3591, 13.666, 67.2645, -166.555
4.36752, 2, -47.2521, -11.9898, 29.3591, 13.6661, 67.2645, -166.555
4.37554, 2, -47.2521, -11.9898, 29.3591, 13.666, 67.2645, -166.555
4.38359, 2, -47.2521, -11.9898, 29.3591, 13.666, 67.2645, -166.555
4.39157, 2, -47.2521, -11.9897, 29.3591, 13.666, 67.2645, -166.555
4.39952, 2, -47.252, -11.9897, 29.3591, 13.666, 67.2645, -166.555
4.40763, 2, -47.2519, -11.9896, 29.3591, 13.666, 67.2645, -166.555
4.41553, 2, -47.2518, -11.9896, 29.3591, 13.666, 67.2645, -166.555
4.42351, 2, -47.2517, -11.9896, 29.3591, 13.666, 67.2645, -166.555
4.43163, 2, -47.2516, -11.9895, 29.3591, 13.666, 67.2645, -166.555
4.43951, 2, -47.2515, -11.9896, 29.3591, 13.666, 67.2645, -166.555
4.44752, 2, -47.2514, -11.9896, 29.3591, 13.666, 67.2645, -166.555
4.45558, 2, -47.2514, -11.9896, 29.3591, 13.666, 67.2645, -166.555
4.46352, 2, -47.2513, -11.9896, 29.3591, 13.666, 67.2645, -166.555
4.47251, 2, -47.2512, -11.9896, 29.3591, 13.666, 67.2646, -166.555
4.47958, 2, -47.2512, -11.9896, 29.3591, 13.666, 67.2645, -166.555
4.48856, 2, -47.2511, -11.9896, 29.3591, 13.666, 67.2646, -166.555
4.49553, 2, -47.251, -11.9895, 29.3591, 13.666, 67.2645, -166.555
4.50359, 2, -47.251, -11.9895, 29.3591, 13.666, 67.2646, -166.555
4.51161, 2, -47.2509, -11.9894, 29.3591, 13.6659, 67.2645, -166.555
4.51951, 2, -47.2508, -11.9893, 29.3591, 13.666, 67.2646, -166.555
4.52759, 2, -47.2507, -11.9893, 29.3591, 13.666, 67.2646, -166.555
4.53553, 2, -47.2506, -11.9893, 29.3591, 13.666, 67.2646, -166.555
4.54351, 2, -47.2506, -11.9893, 29.3591, 13.6659, 67.2646, -166.555
4.55164, 2, -47.2505, -11.9893, 29.3591, 13.666, 67.2646, -166.555
4.55951, 2, -47.2504, -11.9893, 29.3591, 13.6659, 67.2646, -166.555
4.56752, 2, -47.2503, -11.9893, 29.3591, 13.666, 67.2646, -166.555
4.57565, 2, -47.2502, -11.9893, 29.3591, 13.666, 67.2647, -166.555
4.58351, 2, -47.2501, -11.9893, 29.3591, 13.666, 67.2647, -166.555
4.59157, 2, -47.25, -11.9893, 29.3591, 13.666, 67.2647, -166.555
4.59958, 2, -47.2498, -11.9892, 29.3591, 13.6659, 67.2646, -166.555
4.60751, 2, -47.2497, -11.9891, 29.3591, 13.6659, 67.2646, -166.555
4.61553, 2, -47.2496, -11.9891, 29.3591, 13.6659, 67.2647, -166.555
4.62358, 2, -47.2495, -11.989, 29.3591, 13.6659, 67.2647, -166.555
4.63158, 2, -47.2494, -11.989, 29.3591, 13.6659, 67.2647, -166.555
4.63952, 2, -47.2493, -11.989, 29.3591, 13.6659, 67.2647, -166.555
4.64759, 2, -47.2492, -11.989, 29.3591, 13.6659, 67.2647, -166.555
4.65553, 2, -47.2491, -11.989, 29.3591, 13.6659, 67.2646, -166.555
4.66355, 2, -47.249, -11.989, 29.3591, 13.6659, 67.2647, -166.555
4.67173, 2, -47.2489, -11.989, 29.3591, 13.6658, 67.2647, -166.555
4.67963, 2, -47.2489, -11.9889, 29.3591, 13.6659, 67.2647, -166.555
4.68761, 2, -47.2488, -11.9889, 29.3591, 13.6659, 67.2647, -166.555
4.6957, 2, -47.2488, -11.9889, 29.3591, 13.6659, 67.2647, -166.555
4.70362, 2, -47.2487, -11.9889, 29.3591, 13.6659, 67.2647, -166.555
4.71168, 2, -47.2487, -11.9888, 29.3591, 13.6658, 67.2648, -166.555
4.71964, 2, -47.2486, -11.9887, 29.3591, 13.6658, 67.2647, -166.555
4.72754, 2, -47.2485, -11.9887, 29.3591, 13.6658, 67.2647, -166.555
4.73556, 2, -47.2484, -11.9886, 29.3591, 13.6659, 67.2647, -166.555
4.74372, 2, -47.2484, -11.9886, 29.3591, 13.6658, 67.2647, -166.555
4.75178, 2, -47.2484, -11.9886, 29.3591, 13.6658, 67.2647, -166.555
4.75975, 2, -47.2483, -11.9886, 29.3591, 13.6658, 67.2648, -166.554
4.76815, 2, -47.2483, -11.9886, 29.3591, 13.6658, 67.2648, -166.555
4.77583, 2, -47.2483, -11.9886, 29.3591, 13.6657, 67.2647, -166.554
4.78389, 2, -47.2483, -11.9886, 29.3591, 13.6657, 67.2647, -166.554
4.79239, 2, -47.2482, -11.9886, 29.3591, 13.6657, 67.2647, -166.554
4.80002, 2, -47.2482, -11.9885, 29.3591, 13.6657, 67.2647, -166.554
4.80804, 2, -47.2482, -11.9885, 29.3591, 13.6657, 67.2647, -166.554
4.81649, 2, -47.2482, -11.9884, 29.3591, 13.6657, 67.2648, -166.554
4.8241, 2, -47.2481, -11.9883, 29.3591, 13.6657, 67.2648, -166.554
4.83216, 2, -47.248, -11.9883, 29.3591, 13.6657, 67.2648, -166.554
4.84037, 2, -47.2479, -11.9882, 29.3591, 13.6657, 67.2648, -166.554
4.84754, 2, -47.2479, -11.9882, 29.3591, 13.6657, 67.2648, -166.554
4.85552, 2, -47.2478, -11.9882, 29.3591, 13.6657, 67.2648, -166.554
4.86439, 2, -47.2478, -11.9882, 29.3591, 13.6656, 67.2648, -166.554
4.87156, 2, -47.2478, -11.9882, 29.3591, 13.6656, 67.2648, -166.554
4.87955, 2, -47.2477, -11.9882, 29.3591, 13.6656, 67.2649, -166.554
4.88756, 2, -47.2477, -11.9881, 29.3591, 13.6656, 67.2649, -166.554
4.89552, 2, -47.2477, -11.9881, 29.3591, 13.6656, 67.2649, -166.554
4.9035, 2, -47.2477, -11.9881, 29.3591, 13.6656, 67.265, -166.554
4.91167, 2, -47.2477, -11.9881, 29.3591, 13.6656, 67.2649, -166.554
4.9195, 2, -47.2476, -11.988, 29.3591, 13.6655, 67.265, -166.554
4.9275, 2, -47.2475, -11.988, 29.3591, 13.6656, 67.265, -166.554
4.93557, 2, -47.2474, -11.9879, 29.3591, 13.6655, 67.2649, -166.554
4.9435, 2, -47.2473, -11.9879, 29.3591, 13.6655, 67.265, -166.554
4.95156, 2, -47.2473, -11.9878, 29.3591, 13.6655, 67.265, -166.554
4.95957, 2, -47.2472, -11.9878, 29.3591, 13.6655, 67.265, -166.554
4.9675, 2, -47.2472, -11.9878, 29.3591, 13.6655, 67.265, -166.554
4.9765, 2, -47.2471, -11.9878, 29.3591, 13.6655, 67.265, -166.554
4.98357, 2, -47.2471, -11.9878, 29.3591, 13.6655, 67.265, -166.554
4.99155, 2, -47.2471, -11.9878, 29.3591, 13.6655, 67.265, -166.554
4.9995, 2, -47.2471, -11.9878, 29.3591, 13.6654, 67.2651, -166.554
5.00757, 2, -47.2471, -11.9877, 29.3591, 13.6654, 67.2651, -166.554
5.01555, 2, -47.247, -11.9877, 29.3591, 13.6654, 67.2651, -166.554
5.0235, 2, -47.247, -11.9876, 29.3591, 13.6654, 67.2651, -166.554
5.03162, 2, -47.2469, -11.9876, 29.3591, 13.6654, 67.2651, -166.554
5.0395, 2, -47.2468, -11.9875, 29.3591, 13.6654, 67.2651, -166.554
5.0475, 2, -47.2468, -11.9875, 29.3591, 13.6653, 67.2651, -166.554
5.05685, 2, -47.2467, -11.9875, 29.3591, 13.6653, 67.2651, -166.554
5.0635, 2, -47.2466, -11.9875, 29.3591, 13.6653, 67.2651, -166.554
5.07163, 2, -47.2466, -11.9874, 29.3591, 13.6653, 67.2651, -166.554
5.07955, 2, -47.2466, -11.9874, 29.3591, 13.6653, 67.2651, -166.554
5.0875, 2, -47.2466, -11.9874, 29.3591, 13.6653, 67.2651, -166.554
5.09558, 2, -47.2465, -11.9874, 29.3591, 13.6653, 67.2651, -166.554
5.1035, 2, -47.2465, -11.9874, 29.3591, 13.6652, 67.2651, -166.554
5.11157, 2, -47.2465, -11.9874, 29.3591, 13.6652, 67.2651, -166.554
5.11956, 4, -47.2465, -11.9873, 29.3591, 13.6652, 67.2651, -166.554
5.1275, 4, -47.2464, -11.9873, 29.3591, 13.6652, 67.2651, -166.554
5.13552, 4, -47.2464, -11.9872, 29.3591, 13.6652, 67.2651, -166.554
5.14357, 4, -47.2463, -11.9872, 29.3591, 13.6652, 67.2652, -166.554
5.15156, 4, -47.2462, -11.9872, 29.3591, 13.6652, 67.2651, -166.554
5.1595, 4, -47.2461, -11.9871, 29.3591, 13.6652, 67.2652, -166.554
5.1676, 4, -47.2461, -11.9871, 29.3591, 13.6652, 67.2652, -166.554
5.1756, 4, -47.246, -11.9871, 29.3591, 13.6652, 67.2652, -166.554
5.18362, 4, -47.246, -11.9871, 29.3591, 13.6651, 67.2653, -166.554
5.1917, 4, -47.246, -11.9871, 29.3591, 13.6651, 67.2653, -166.554
5.1996, 4, -47.2459, -11.9871, 29.3591, 13.6651, 67.2653, -166.554
5.20759, 4, -47.2459, -11.987, 29.3591, 13.6651, 67.2653, -166.554
5.21588, 4, -47.2459, -11.987, 29.3591, 13.6651, 67.2653, -166.554
5.23049, 4, -47.2458, -11.987, 29.3591, 13.6651, 67.2653, -166.554
5.23325, 4, -47.2458, -11.9869, 29.3591, 13.665, 67.2653, -166.554
5.24614, 4, -47.2457, -11.9869, 29.3591, 13.6651, 67.2653, -166.554
5.24889, 4, -47.2457, -11.9868, 29.3591, 13.6651, 67.2653, -166.554
5.25599, 4, -47.2457, -11.9868, 29.3591, 13.665, 67.2653, -166.554
5.26402, 4, -47.2456, -11.9868, 29.3591, 13.665, 67.2653, -166.553
5.2723, 4, -47.2455, -11.9868, 29.3591, 13.665, 67.2652, -166.553
5.28041, 4, -47.2454, -11.9868, 29.3591, 13.665, 67.2653, -166.553
5.28815, 4, -47.2454, -11.9867, 29.3591, 13.665, 67.2653, -166.553
5.29628, 4, -47.2454, -11.9867, 29.3591, 13.665, 67.2654, -166.553
5.30472, 4, -47.2454, -11.9867, 29.3591, 13.665, 67.2654, -166.553
5.31277, 4, -47.2454, -11.9867, 29.3591, 13.665, 67.2654, -166.553
5.32418, 4, -47.2453, -11.9867, 29.3591, 13.6649, 67.2653, -166.553
5.32837, 4, -47.2453, -11.9866, 29.3591, 13.6649, 67.2654, -166.553
5.33631, 4, -47.2453, -11.9866, 29.3591, 13.665, 67.2653, -166.553
5.34435, 4, -47.2453, -11.9866, 29.3591, 13.665, 67.2653, -166.553
5.35706, 4, -47.2452, -11.9865, 29.3591, 13.6649, 67.2653, -166.553
5.36032, 4, -47.2452, -11.9865, 29.3591, 13.6649, 67.2653, -166.553
5.3708, 4, -47.2451, -11.9865, 29.3591, 13.6649, 67.2654, -166.553
5.37566, 4, -47.2451, -11.9865, 29.3591, 13.6649, 67.2653, -166.553
5.3855, 4, -47.2452, -11.9866, 29.3591, 13.6649, 67.2653, -166.553
5.3937, 4, -47.2461, -11.9871, 29.3595, 13.665, 67.2655, -166.553
5.39964, 4, -47.247, -11.9877, 29.3602, 13.6654, 67.2656, -166.553
5.41756, 4, -47.2557, -11.9972, 29.3798, 13.7014, 67.2747, -166.548
5.41946, 4, -47.2597, -12.0023, 29.3798, 13.7014, 67.2747, -166.548
5.42361, 4, -47.2648, -12.009, 29.3903, 13.722, 67.2804, -166.543
5.4329, 4, -47.2793, -12.0284, 29.4232, 13.8379, 67.3128, -166.518
5.43962, 5, -47.3014, -12.0581, 29.4772, 13.9003, 67.3305, -166.503
5.4477, 5, -47.3332, -12.0997, 29.5588, 14.0719, 67.3784, -166.464
5.45572, 5, -47.3764, -12.1552, 29.6734, 14.3168, 67.4459, -166.407
5.46366, 5, -47.4324, -12.2253, 29.8243, 14.6435, 67.5353, -166.333
5.47399, 5, -47.5399, -12.3591, 30.1229, 15.2907, 67.7094, -166.184
5.48199, 5, -47.5819, -12.4111, 30.2415, 15.5458, 67.8494, -166.064
5.49058, 5, -47.7244, -12.5874, 30.6464, 16.4079, 68.0043, -165.931
5.49564, 5, -47.7767, -12.6522, 30.7961, 16.7213, 68.0858, -165.861
5.50433, 5, -47.8871, -12.7894, 31.1126, 17.377, 68.2536, -165.715
5.5117, 5, -48.0033, -12.9347, 31.4471, 18.0572, 68.425, -165.567
5.51974, 5, -48.1232, -13.0853, 31.7928, 18.7493, 68.596, -165.418
5.53022, 5, -48.3044, -13.314, 32.3218, 19.7883, 68.8474, -165.197
5.53567, 5, -48.3637, -13.3891, 32.4985, 20.1291, 68.9293, -165.123
5.54836, 5, -48.532, -13.6064, 33.0224, 21.1199, 69.1697, -164.891
5.55174, 6, -48.5829, -13.6746, 33.1921, 21.4345, 69.249, -164.804
5.5646, 6, -48.7129, -13.8628, 33.6776, 22.3143, 69.4887, -164.497
5.56765, 7, -48.7468, -13.9207, 33.8297, 22.5842, 69.5704, -164.372
5.57804, 7, -48.7988, -14.0308, 34.1183, 23.3189, 69.8242, -163.911
5.58369, 7, -48.829, -14.133, 34.3856, 23.5404, 69.9123, -163.725
5.59262, 8, -48.8383, -14.2256, 34.633, 23.9531, 70.095, -163.305
5.60371, 8, -48.829, -14.3467, 34.9772, 24.5147, 70.3849, -162.562
5.60761, 9, -48.8042, -14.3834, 35.0863, 24.6917, 70.486, -162.289
5.61702, 9, -48.7671, -14.4527, 35.2996, 25.0381, 70.6943, -161.713
5.6237, 10, -48.7199, -14.518, 35.5101, 25.3806, 70.9108, -161.109
5.63263, 10, -48.6633, -14.5812, 35.7207, 25.7245, 71.1343, -160.486
5.63962, 11, -48.5986, -14.6435, 35.9318, 26.0724, 71.3634, -159.854
5.65175, 11, -48.4905, -14.7364, 36.2505, 26.6059, 71.7134, -158.901
5.65665, 12, -48.4523, -14.7676, 36.3565, 26.7873, 71.8314, -158.582
5.66468, 12, -48.3741, -14.8305, 36.567, 27.1557, 72.0686, -157.944
5.6757, 13, -48.2552, -14.9223, 36.8801, 27.7228, 72.4278, -156.979
5.6807, 13, -48.2153, -14.9517, 36.9835, 27.9156, 72.5486, -156.656
5.68964, 14, -48.134, -15.0099, 37.1887, 28.3069, 72.7921, -156.006
5.6959, 14, -48.0498, -15.0687, 37.3923, 28.7045, 73.0379, -155.352
5.70411, 15, -47.9617, -15.1284, 37.5954, 29.1067, 73.2857, -154.697
5.71184, 15, -47.8703, -15.1875, 37.7963, 29.5112, 73.5335, -154.044
5.72098, 16, -47.774, -15.2458, 37.9952, 29.9162, 73.7802, -153.393
5.73269, 16, -47.6165, -15.3346, 38.2904, 30.5203, 74.1447, -152.424
5.73647, 17, -47.5607, -15.3651, 38.3873, 30.7201, 74.2641, -152.104
5.74383, 17, -47.4455, -15.4273, 38.5785, 31.1164, 74.4984, -151.468
5.75205, 18, -47.3256, -15.4904, 38.7673, 31.5077, 74.7261, -150.839
5.76189, 18, -47.2006, -15.5545, 38.9539, 31.8947, 74.9475, -150.218
5.76815, 18, -47.0703, -15.6205, 39.1378, 32.2781, 75.1627, -149.606
5.77692, 19, -46.9344, -15.6895, 39.3199, 32.6596, 75.3727, -149
5.78424, 19, -46.7935, -15.7608, 39.5011, 33.0396, 75.578, -148.4
5.79302, 20, -46.6475, -15.8339, 39.6804, 33.4191, 75.7794, -147.808
5.80031, 20, -46.4966, -15.9089, 39.8567, 33.7981, 75.9771, -147.222
5.80878, 21, -46.3412, -15.986, 40.0306, 34.1765, 76.171, -146.641
5.82041, 22, -46.0999, -16.1057, 40.2878, 34.7422, 76.4539, -145.782
5.82429, 22, -46.0173, -16.1462, 40.372, 34.9295, 76.5459, -145.499
5.83361, 23, -45.8483, -16.228, 40.538, 35.3019, 76.7263, -144.937
5.84258, 23, -45.6733, -16.3113, 40.7015, 35.6702, 76.9011, -144.381
5.84961, 24, -45.4912, -16.3967, 40.8621, 36.0341, 77.0707, -143.83
5.85725, 24, -45.3975, -16.4844, 41.0186, 36.3923, 77.2343, -143.285
5.86486, 25, -45.1057, -16.5736, 41.171, 36.7432, 77.3922, -142.745
5.87161, 25, -45.005, -16.6185, 41.2456, 36.9157, 77.4688, -142.476
5.88262, 26, -44.6932, -16.7547, 41.4631, 37.4215, 77.6899, -141.677
5.8926, 26, -44.4764, -16.847, 41.6019, 37.7485, 77.8306, -140.886
5.89712, 27, -44.2523, -16.9397, 41.7351, 38.0675, 77.9666, -140.623
5.90642, 27, -44.0216, -17.0321, 41.8625, 38.3782, 78.0981, -140.099
5.91669, 28, -43.9038, -17.078, 41.924, 38.6812, 78.2262, -139.314
5.92352, 28, -43.5399, -17.2145, 42.0986, 38.9762, 78.3508, -139.052
5.92764, 29, -43.4149, -17.2595, 42.1535, 39.1207, 78.4122, -138.792
5.93798, 29, -43.0303, -17.3918, 42.3078, 39.5425, 78.5925, -138.009
5.94372, 30, -42.8989, -17.435, 42.3556, 39.6791, 78.6509, -137.748
5.95403, 30, -42.4932, -17.5611, 42.4885, 40.0766, 78.8228, -136.965
5.96301, 31, -42.3537, -17.6019, 42.5293, 40.3311, 78.9337, -136.445
5.96762, 31, -42.0688, -17.6813, 42.6054, 40.4552, 78.9882, -136.185
5.97741, 32, -41.7763, -17.7581, 42.6745, 40.8148, 79.1481, -135.405
5.98855, 32, -41.3249, -17.8691, 42.7655, 41.0438, 79.2511, -134.886
5.99562, 33, -41.0159, -17.9396, 42.8173, 41.2649, 79.3519, -134.368
6.00209, 33, -40.8589, -17.9736, 42.8406, 41.3724, 79.4501, -133.852
6.00948, 34, -40.5398, -18.0392, 42.8817, 41.5812, 79.4982, -133.335
6.01562, 34, -40.2153, -18.1023, 42.9155, 41.782, 79.5923, -133.078
6.02613, 35, -39.7194, -18.1917, 42.9525, 42.0682, 79.7291, -132.306
6.03503, 35, -39.3816, -18.2471, 42.9684, 42.2497, 79.8168, -131.794
6.04223, 36, -39.0369, -18.2991, 42.9772, 42.4234, 79.9028, -131.282
6.05652, 37, -38.5062, -18.3709, 42.9779, 42.6696, 80.0275, -130.517
6.05916, 37, -38.3262, -18.3932, 42.9748, 42.7479, 80.0678, -130.263
6.06368, 37, -38.1448, -18.4145, 42.9699, 42.8243, 80.1077, -130.009
6.07267, 38, -37.7776, -18.4544, 42.955, 42.9714, 80.1865, -129.503
6.07967, 38, -37.4058, -18.4907, 42.9335, 43.1113, 80.2626, -128.998
6.08768, 39, -37.0294, -18.5237, 42.9053, 43.2436, 80.337, -128.495
6.09731, 39, -36.6484, -18.5533, 42.8703, 43.3687, 80.4087, -127.994
6.10461, 40, -36.2626, -18.579, 42.8286, 43.4864, 80.4791, -127.495
6.11165, 40, -35.8708, -18.6011, 42.7804, 43.5969, 80.5473, -126.997
6.12373, 41, -35.2719, -18.6266, 42.6958, 43.7491, 80.6464, -126.254
6.12881, 41, -35.0694, -18.6333, 42.6644, 43.7959, 80.6781, -126.007
6.13642, 42, -34.6609, -18.644, 42.5967, 43.8851, 80.7411, -125.516
6.14469, 42, -34.2492, -18.6514, 42.5225, 43.9667, 80.8012, -125.027
6.15169, 43, -33.8344, -18.6556, 42.4422, 44.0416, 80.8601, -124.54
6.16068, 43, -33.416, -18.6566, 42.3558, 44.1088, 80.9172, -124.055
6.16947, 44, -32.9923, -18.6539, 42.2636, 44.1697, 80.972, -123.573
6.17584, 44, -32.5624, -18.6475, 42.1657, 44.2226, 81.0262, -123.093
6.18538, 45, -32.1258, -18.6373, 42.0619, 44.2685, 81.078, -122.616
6.19282, 45, -31.6838, -18.6233, 41.9523, 44.3075, 81.1281, -122.141
6.20352, 46, -31.2382, -18.606, 41.8366, 44.3513, 81.201, -121.432
6.20772, 46, -30.7908, -18.5852, 41.7149, 44.3619, 81.2239, -121.197
6.21692, 47, -30.3408, -18.5606, 41.5875, 44.3775, 81.2689, -120.729
6.22429, 47, -29.8865, -18.5317, 41.4541, 44.3858, 81.3137, -120.263
6.23175, 48, -29.4259, -18.4983, 41.3148, 44.3875, 81.3567, -119.799
6.24339, 48, -28.9587, -18.4607, 41.0943, 44.3739, 81.4194, -119.106
6.24784, 49, -28.4859, -18.4187, 41.0179, 44.3651, 81.4404, -118.876
6.2566, 49, -28.0096, -18.3723, 40.8607, 44.3408, 81.4819, -118.418
6.26462, 50, -27.5311, -18.3215, 40.6972, 44.3064, 81.5224, -117.96
6.27459, 50, -27.0497, -18.2656, 40.5271, 44.2628, 81.5633, -117.503
6.28002, 51, -26.5625, -18.2041, 40.3504, 44.2106, 81.6057, -117.047
6.28911, 51, -26.0675, -18.1371, 40.1673, 44.1478, 81.648, -116.592
6.29628, 52, -25.5652, -18.0645, 39.977, 44.0758, 81.6906, -116.138
6.30498, 52, -25.0584, -17.9867, 39.7793, 43.993, 81.7347, -115.685
6.31483, 53, -24.5495, -17.9035, 39.5756, 43.9, 81.7795, -115.232
6.321, 53, -24.038, -17.8147, 39.3652, 43.7972, 81.8243, -114.779
6.32867, 54, -23.5214, -17.7197, 39.1468, 43.684, 81.8711, -114.328
6.33724, 54, -22.9971, -17.6184, 38.9217, 43.5601, 81.9201, -113.876
6.34591, 55, -22.4643, -17.511, 38.6895, 43.4252, 81.9702, -113.424
6.3531, 55, -22.1958, -17.3974, 38.4495, 43.2786, 82.0232, -112.972
6.36212, 56, -21.3859, -17.2778, 38.2033, 43.1202, 82.0784, -112.52
6.36902, 56, -21.1148, -17.2159, 38.0777, 43.0367, 82.1061, -112.07
6.37772, 57, -20.293, -17.0217, 37.69, 42.7689, 82.1934, -111.619
6.38366, 57, -20.0147, -16.9541, 37.5576, 42.6738, 82.2232, -111.393
6.39172, 58, -19.4511, -16.8145, 37.2875, 42.4746, 82.2839, -110.943
6.39973, 58, -18.8805, -16.6682, 37.0104, 42.2625, 82.3475, -110.493
6.40959, 59, -18.0187, -16.437, 36.5821, 41.9201, 82.4465, -109.818
6.41561, 59, -17.73, -16.3574, 36.4355, 41.7993, 82.4813, -109.593
6.42545, 60, -17.1471, -16.1951, 36.1377, 41.5475, 82.5893, -108.919
6.43167, 60, -16.5539, -16.0282, 35.833, 41.2824, 82.6269, -108.694
6.44241, 61, -15.6488, -15.7674, 35.3663, 40.8597, 82.7411, -108.019
6.44972, 61, -15.3453, -15.678, 35.0483, 40.5625, 82.8194, -107.57
6.45607, 62, -14.7369, -15.4966, 34.8877, 40.4096, 82.8591, -107.346
6.46367, 62, -14.1237, -15.3113, 34.5627, 40.0947, 82.9399, -106.896
6.47311, 63, -13.5014, -15.1209, 34.2343, 39.7679, 83.0218, -106.223
6.47961, 63, -12.8699, -14.9242, 33.9018, 39.4285, 83.1058, -105.998
6.48758, 64, -12.2319, -14.7224, 33.5652, 39.0761, 83.1921, -105.548
6.49968, 64, -11.2675, -14.4103, 33.0502, 38.5224, 83.3276, -104.872
6.50363, 65, -10.9424, -14.3028, 32.8757, 38.3304, 83.3749, -104.646
6.51557, 65, -10.2838, -14.0818, 32.5214, 37.9345, 83.4736, -103.965
6.5206, 66, -9.6144, -13.8535, 32.1616, 37.5202, 83.5779, -103.736
6.53092, 66, -8.59441, -13.4975, 31.6097, 36.8639, 83.748, -103.049
6.53562, 67, -8.25136, -13.3749, 31.4217, 36.6355, 83.8083, -102.818
6.54359, 67, -7.55871, -13.1241, 31.0393, 36.1643, 83.9348, -102.355
6.55263, 68, -6.85572, -12.8652, 30.6498, 35.6747, 84.0698, -101.889
6.56173, 68, -6.14446, -12.599, 30.2555, 35.169, 84.2119, -101.42
6.56767, 69, -5.42709, -12.3267, 29.8569, 34.6496, 84.3608, -100.949
6.57646, 69, -4.7041, -12.0463, 29.4549, 34.1181, 84.5147, -100.476
6.58467, 70, -3.97377, -11.7585, 29.0516, 33.5764, 84.6735, -100.002
6.59562, 70, -2.86237, -11.3119, 28.4472, 32.7403, 84.9215, -99.2859
6.59959, 71, -2.48775, -11.159, 28.2455, 32.4548, 85.0071, -99.0466
6.60861, 71, -1.73268, -10.8484, 27.84, 31.8727, 85.1843, -98.5664
6.61973, 72, -0.585573, -10.3708, 27.2268, 30.9688, 85.4675, -97.8398
6.62459, 72, -0.200075, -10.2088, 27.0212, 30.6586, 85.5665, -97.5963
6.63283, 73, 0.574612, -9.87965, 26.6083, 30.0284, 85.7712, -97.1068
6.6406, 73, 1.35345, -9.54283, 26.195, 29.3869, 85.9837, -96.6161
6.64827, 74, 2.13609, -9.19939, 25.7825, 28.7361, 86.2042, -96.1239
6.66148, 74, 3.31465, -8.67491, 25.17, 27.7465, 86.5481, -95.3834
6.66439, 75, 3.70807, -8.49751, 24.9685, 27.4137, 86.6659, -95.1362
6.67167, 75, 4.49589, -8.13849, 24.5688, 26.7456, 86.9057, -94.6416
6.6797, 76, 5.28377, -7.77507, 24.1746, 26.0776, 87.151, -94.1468
6.68961, 76, 6.07052, -7.40638, 23.7865, 25.4093, 87.4013, -93.6509
6.7038, 77, 7.64199, -6.64906, 23.0295, 24.0793, 87.92, -92.6593
6.70552, 77, 7.64199, -6.64906, 23.0295, 24.0793, 87.92, -92.6593
6.71994, 78, 9.21523, -5.85725, 22.2919, 22.7468, 88.4746, -91.6649
6.72467, 78, 9.60908, -5.65397, 22.11, 22.4109, 88.6207, -91.4145
6.72777, 79, 10.0036, -5.44849, 21.9288, 22.0733, 88.7701, -91.1629
6.73554, 79, 10.7946, -5.03206, 21.5684, 21.3938, 89.0787, -90.6554
6.74457, 80, 11.5854, -4.60667, 21.2097, 20.7101, 89.4004, -90.1416
6.7515, 80, 12.3727, -4.17091, 20.8542, 20.0224, 89.7339, -89.6205
6.7607, 81, 13.1536, -3.72492, 20.502, 19.3386, 90.0784, -89.0916
6.76766, 81, 13.9288, -3.2713, 20.1553, 18.6638, 90.432, -88.5566
6.77608, 82, 14.6967, -2.81091, 19.8156, 18.0019, 90.7927, -88.017
6.78452, 82, 15.4562, -2.34237, 19.486, 17.3551, 91.1584, -87.4748
6.79183, 82, 16.2056, -1.86634, 19.1661, 16.7268, 91.528, -86.9306
6.79996, 83, 16.9432, -1.38376, 18.857, 16.119, 91.9011, -86.3857
6.80861, 83, 17.6683, -0.895733, 18.5577, 15.5314, 92.2779, -85.8413
6.81609, 84, 18.3789, -0.403735, 18.2683, 14.9638, 92.6599, -85.2991
6.82411, 84, 19.073, 0.0915168, 17.9871, 14.4166, 93.0483, -84.7581
6.83277, 85, 19.7484, 0.591528, 17.7124, 13.8892, 93.4446, -84.2193
6.8401, 85, 20.4052, 1.09625, 17.4442, 13.3813, 93.8484, -83.6827
6.84878, 86, 20.7268, 1.34998, 17.3123, 13.135, 94.0526, -83.4154
6.85615, 86, 21.3583, 1.8607, 17.0531, 12.6569, 94.6736, -82.6135
6.86349, 86, 21.976, 2.37795, 16.8009, 12.199, 94.8836, -82.3455
6.87144, 87, 22.5814, 2.90482, 16.5537, 11.7605, 95.3082, -81.8069
6.87944, 87, 23.1758, 3.44167, 16.3109, 11.3404, 95.7399, -81.2636
6.88751, 88, 23.7606, 3.9861, 16.0717, 10.9367, 96.1786, -80.7142
6.89544, 88, 24.3352, 4.53786, 15.8353, 10.5485, 96.6237, -80.1555
6.90349, 89, 24.8991, 5.10041, 15.604, 10.1756, 97.0758, -79.5866
6.91144, 89, 25.4544, 5.67538, 15.3775, 9.81818, 97.5339, -79.0066
6.91947, 90, 26.0054, 6.26132, 15.1541, 9.4762, 97.9975, -78.4139
6.92968, 90, 26.8213, 7.15824, 14.8271, 8.99232, 98.7039, -77.4984
6.93546, 91, 27.0877, 7.46179, 14.7207, 8.83955, 98.9425, -77.1861
6.94344, 91, 27.6102, 8.07675, 14.5111, 8.54733, 99.4244, -76.5529
6.95145, 92, 28.1217, 8.70252, 14.3052, 8.27478, 99.9124, -75.9069
6.95947, 92, 28.6253, 9.33847, 14.1036, 8.02352, 100.405, -75.2505
6.96741, 93, 29.1214, 9.98335, 13.9067, 7.79374, 100.902, -74.5861
6.97548, 93, 29.6062, 10.6356, 13.7158, 7.58701, 101.401, -73.9148
6.98507, 94, 30.0775, 11.2933, 13.5325, 7.40337, 101.899, -73.2361
6.99144, 94, 30.534, 11.9547, 13.3565, 7.24327, 102.396, -72.5519
6.99952, 95, 30.9765, 12.6185, 13.1872, 7.10685, 102.889, -71.8636
7.00848, 95, 31.4054, 13.284, 13.0258, 6.99439, 103.379, -71.1689
7.01544, 96, 31.8206, 13.9511, 12.8722, 6.90503, 103.866, -70.4687
7.02348, 96, 32.2205, 14.619, 12.7249, 6.84015, 104.349, -69.7641
7.03144, 97, 32.6037, 15.2877, 12.5841, 6.79829, 104.828, -69.0532
7.03945, 97, 32.9711, 15.9556, 12.4505, 6.77756, 105.302, -68.3366
7.04744, 98, 33.3228, 16.6215, 12.3251, 6.77866, 105.769, -67.6179
7.05543, 98, 33.6598, 17.2836, 12.2084, 6.80179, 106.228, -66.8955
7.06353, 99, 33.9827, 17.9402, 12.1008, 6.84431, 106.677, -66.1712
7.07144, 99, 34.293, 18.5905, 12.003, 6.90725, 107.115, -65.4495
7.07946, 100, 34.5922, 19.2326, 11.9145, 6.98804, 107.54, -64.7295
7.0875, 100, 34.8801, 19.8658, 11.835, 7.08651, 107.951, -64.0127
7.0955, 101, 35.1559, 20.4885, 11.7642, 7.20155, 108.345, -63.3032
7.10344, 101, 35.4193, 21.1001, 11.7016, 7.33163, 108.724, -62.6008
7.11176, 102, 35.6703, 21.6999, 11.6476, 7.475, 109.087, -61.9063
7.11944, 102, 35.9079, 22.2869, 11.6017, 7.62953, 109.432, -61.2232
7.12744, 102, 36.1328, 22.8604, 11.564, 7.79323, 109.762, -60.5519
7.1355, 103, 36.3489, 23.4187, 11.5345, 7.96472, 110.076, -59.8919
7.14344, 103, 36.5588, 23.9614, 11.5138, 8.14383, 110.374, -59.2447
7.15144, 104, 36.7624, 24.4891, 11.5018, 8.33106, 110.654, -58.6107
7.15981, 104, 36.9595, 25.0012, 11.4971, 8.52717, 110.916, -57.9875
7.16744, 104, 37.1507, 25.4971, 11.4989, 8.73241, 111.157, -57.3756
7.17555, 104, 37.3342, 25.9774, 11.5068, 8.94551, 111.379, -56.7759
7.18352, 104, 37.5073, 26.4414, 11.5191, 9.16516, 111.582, -56.189
7.19153, 104, 37.6706, 26.8893, 11.5343, 9.38891, 111.768, -55.6165
7.1998, 104, 37.8278, 27.3223, 11.5524, 9.61367, 111.941, -55.0618
7.20754, 104, 37.9813, 27.7395, 11.5724, 9.83685, 112.101, -54.528
7.21578, 104, 38.131, 28.1407, 11.5931, 10.0563, 112.252, -54.0168
7.22361, 104, 38.2754, 28.5249, 11.6135, 10.2708, 112.395, -53.5285
7.23144, 104, 38.4135, 28.8927, 11.6327, 10.4789, 112.53, -53.0644
7.23947, 104, 38.5445, 29.2423, 11.6508, 10.68, 112.657, -52.6245
7.24753, 104, 38.6672, 29.5738, 11.668, 10.8727, 112.776, -52.2099
7.25566, 104, 38.7815, 29.8859, 11.6838, 11.0569, 112.888, -51.8201
7.26364, 104, 38.8875, 30.1794, 11.6986, 11.2315, 112.991, -51.4552
7.2718, 104, 38.9858, 30.4542, 11.7125, 11.3963, 113.088, -51.1158
7.27974, 104, 39.0765, 30.7091, 11.7251, 11.5506, 113.177, -50.8019
7.28777, 104, 39.1593, 30.9447, 11.7365, 11.6941, 113.258, -50.5129
7.29588, 104, 39.2341, 31.1606, 11.7468, 11.8264, 113.332, -50.2494
7.30431, 104, 39.3008, 31.3563, 11.7565, 11.9471, 113.399, -50.011
7.31194, 104, 39.3597, 31.5327, 11.7651, 12.0559, 113.459, -49.798
7.32054, 104, 39.4115, 31.6897, 11.7727, 12.1526, 113.512, -49.6099
7.32845, 104, 39.4568, 31.8275, 11.7795, 12.2373, 113.557, -49.4466
7.33618, 104, 39.4965, 31.9473, 11.7858, 12.3095, 113.595, -49.3077
7.34407, 104, 39.5302, 32.0501, 11.7914, 12.3706, 113.627, -49.1921
7.35259, 104, 39.5579, 32.1365, 11.7963, 12.4196, 113.653, -49.0986
7.35944, 104, 39.5698, 32.1741, 11.7986, 12.4398, 113.664, -49.0594
7.36748, 104, 39.59, 32.2389, 11.8028, 12.4733, 113.681, -48.9956
7.37544, 104, 39.6057, 32.2913, 11.8066, 12.4985, 113.693, -48.9487
7.38343, 104, 39.6178, 32.3328, 11.8101, 12.5166, 113.702, -48.9159
7.39148, 104, 39.6272, 32.3643, 11.8132, 12.529, 113.707, -48.8939
7.39943, 104, 39.6341, 32.3878, 11.816, 12.537, 113.711, -48.8803
7.40743, 104, 39.6386, 32.4053, 11.8184, 12.5417, 113.712, -48.8727
7.41549, 104, 39.6412, 32.4175, 11.8203, 12.5443, 113.713, -48.8691
7.42343, 104, 39.6426, 32.4253, 11.8217, 12.5455, 113.714, -48.8674
7.43142, 105, 39.643, 32.4302, 11.8228, 12.5462, 113.714, -48.8667
7.43948, 105, 39.6423, 32.4335, 11.8238, 12.5464, 113.714, -48.8666
7.44742, 105, 39.6414, 32.4358, 11.8246, 12.5466, 113.714, -48.8666
7.45544, 105, 39.6405, 32.4375, 11.8252, 12.5467, 113.714, -48.8668
7.46349, 105, 39.6394, 32.439, 11.8259, 12.5467, 113.714, -48.8671
7.47319, 105, 39.6377, 32.4409, 11.8267, 12.5468, 113.714, -48.8675
7.47943, 105, 39.6373, 32.4415, 11.827, 12.5468, 113.714, -48.8676
7.48926, 105, 39.6366, 32.4432, 11.8279, 12.5468, 113.714, -48.868
7.49552, 105, 39.6365, 32.4437, 11.8282, 12.5468, 113.714, -48.8682
7.50442, 105, 39.6363, 32.4447, 11.8287, 12.5468, 113.714, -48.8685
7.51149, 105, 39.6361, 32.4456, 11.8292, 12.5468, 113.714, -48.8688
7.51942, 105, 39.6358, 32.4463, 11.8295, 12.5467, 113.714, -48.869
7.52742, 105, 39.6355, 32.4467, 11.8298, 12.5468, 113.714, -48.8692
7.5355, 105, 39.6352, 32.447, 11.8301, 12.5468, 113.714, -48.8694
7.54352, 105, 39.635, 32.4471, 11.8303, 12.5467, 113.714, -48.8697
