hehonglu123/Motion-Primitive-Planning/ILC/recorded_data/realrobot/from_NX/iteration_20/run_0.csv
timestamp, cmd_num, J1, J2, J3, J4, J5, J6
0.000372, -1, 39.6297, 32.4456, 11.832, 12.5456, 113.713, -48.8722
0.003067, -1, 39.6297, 32.4456, 11.832, 12.5456, 113.713, -48.8723
0.007994, -1, 39.6297, 32.4456, 11.832, 12.5455, 113.713, -48.8722
0.028458, -1, 39.6297, 32.4456, 11.832, 12.5455, 113.713, -48.8722
0.03115, -1, 39.6297, 32.4456, 11.832, 12.5455, 113.713, -48.8721
0.032408, -1, 39.6297, 32.4456, 11.832, 12.5455, 113.713, -48.8721
0.039867, -1, 39.6297, 32.4456, 11.832, 12.5455, 113.713, -48.8722
0.047864, -1, 39.6297, 32.4456, 11.832, 12.5455, 113.713, -48.8722
0.055876, -1, 39.6292, 32.4455, 11.832, 12.5455, 113.713, -48.8722
0.063815, -1, 39.627, 32.4452, 11.832, 12.5456, 113.713, -48.8722
0.071805, -1, 39.6218, 32.4439, 11.8319, 12.5455, 113.713, -48.8724
0.079873, -1, 39.6131, 32.4411, 11.8317, 12.5455, 113.712, -48.8734
0.087813, -1, 39.6, 32.4359, 11.8315, 12.5455, 113.711, -48.8774
0.095805, -1, 39.5804, 32.4274, 11.8314, 12.5455, 113.708, -48.8885
0.103886, -1, 39.5519, 32.4149, 11.8318, 12.5455, 113.701, -48.9088
0.111858, -1, 39.5135, 32.3974, 11.8335, 12.5455, 113.689, -48.9421
0.119808, -1, 39.4642, 32.3737, 11.8379, 12.5455, 113.67, -48.9923
0.127892, -1, 39.4023, 32.3433, 11.846, 12.5456, 113.642, -49.0637
0.135805, -1, 39.3269, 32.3055, 11.8584, 12.5458, 113.605, -49.1578
0.143841, -1, 39.2379, 32.2599, 11.8758, 12.5463, 113.559, -49.2776
0.151936, -1, 39.1349, 32.2063, 11.898, 12.5471, 113.502, -49.4231
0.159954, -1, 39.0179, 32.1448, 11.9245, 12.5485, 113.434, -49.5931
0.167982, -1, 38.8873, 32.0758, 11.955, 12.5503, 113.359, -49.7857
0.175982, -1, 38.7446, 32.0004, 11.9887, 12.5523, 113.275, -49.9977
0.183912, -1, 38.5902, 31.919, 12.0247, 12.5545, 113.184, -50.2255
0.191912, -1, 38.4259, 31.8326, 12.0624, 12.5568, 113.089, -50.4655
0.200046, -1, 38.2536, 31.7423, 12.1011, 12.5592, 112.991, -50.7139
0.207838, -1, 38.0751, 31.6489, 12.1401, 12.5617, 112.891, -50.9673
0.21584, -1, 37.8916, 31.5534, 12.1789, 12.5641, 112.79, -51.2241
0.222813, -1, 37.7982, 31.5051, 12.1982, 12.5653, 112.739, -51.3532
0.231918, -1, 37.5137, 31.3586, 12.2563, 12.569, 112.585, -51.7423
0.240157, -1, 37.3221, 31.2607, 12.2951, 12.5714, 112.482, -52.0018
0.246812, -1, 37.2261, 31.2116, 12.3145, 12.5726, 112.431, -52.1317
0.256098, -1, 36.9377, 31.0649, 12.3727, 12.5764, 112.277, -52.5217
0.2628, -1, 36.8417, 31.016, 12.392, 12.5777, 112.225, -52.6519
0.272272, -1, 36.554, 30.8693, 12.4503, 12.5815, 112.071, -53.0425
0.280279, -1, 36.3624, 30.7715, 12.4892, 12.584, 111.968, -53.3029
0.288454, -1, 36.1709, 30.6736, 12.528, 12.5865, 111.865, -53.5633
0.296418, -1, 35.9794, 30.5756, 12.5669, 12.589, 111.762, -53.824
0.304404, -1, 35.7879, 30.4776, 12.606, 12.5916, 111.659, -54.0846
0.312486, -1, 35.596, 30.3795, 12.6449, 12.594, 111.556, -54.3449
0.32044, -1, 35.4999, 30.3304, 12.6643, 12.5953, 111.453, -54.6052
0.327806, -1, 35.3078, 30.2321, 12.7032, 12.5979, 111.401, -54.7355
0.336589, -1, 35.1154, 30.1338, 12.7421, 12.6016, 111.247, -55.1267
0.343803, -1, 34.923, 30.0354, 12.7811, 12.6029, 111.195, -55.2571
0.3518, -1, 34.7307, 29.9369, 12.82, 12.6055, 111.092, -55.5176
0.359845, -1, 34.5384, 29.8384, 12.8589, 12.608, 110.989, -55.7785
0.367812, -1, 34.3462, 29.74, 12.898, 12.6105, 110.886, -56.0395
0.375809, -1, 34.1542, 29.6416, 12.9369, 12.613, 110.783, -56.3005
0.383846, -1, 33.9622, 29.5434, 12.9759, 12.6156, 110.68, -56.5611
0.391795, -1, 33.7705, 29.4451, 13.015, 12.6183, 110.577, -56.8218
0.39986, -1, 33.5786, 29.3467, 13.0538, 12.6209, 110.473, -57.0829
0.407846, -1, 33.3864, 29.2483, 13.0929, 12.6235, 110.371, -57.3441
0.415812, -1, 33.1939, 29.1497, 13.1319, 12.626, 110.267, -57.6049
0.423857, -1, 33.0011, 29.0511, 13.1708, 12.6286, 110.164, -57.866
0.431859, -1, 32.8081, 28.9525, 13.2098, 12.6313, 110.061, -58.1271
0.439795, -1, 32.6148, 28.8539, 13.2488, 12.6339, 109.958, -58.3885
0.447808, -1, 32.4212, 28.7552, 13.2877, 12.6365, 109.855, -58.6497
0.45679, -1, 32.2273, 28.6565, 13.3267, 12.6392, 109.752, -58.9106
0.463797, -1, 32.0332, 28.5578, 13.3657, 12.6419, 109.649, -59.1717
0.471846, -1, 31.8393, 28.459, 13.4046, 12.6446, 109.546, -59.4331
0.479824, -1, 31.6456, 28.3603, 13.4437, 12.6473, 109.443, -59.6945
0.616598, -1, 28.3616, 26.6825, 14.1072, 12.6926, 107.688, -64.1406
0.61787, -1, 28.3616, 26.6825, 14.1072, 12.6926, 107.688, -64.1406
0.61988, -1, 28.2649, 26.6332, 14.1267, 12.6938, 107.636, -64.2713
0.621324, -1, 28.2649, 26.6332, 14.1267, 12.6938, 107.636, -64.2713
0.623149, -1, 28.1682, 26.5838, 14.1462, 12.695, 107.584, -64.4021
0.624592, -1, 28.1682, 26.5838, 14.1462, 12.695, 107.584, -64.4021
0.625776, -1, 28.1682, 26.5838, 14.1462, 12.695, 107.584, -64.4021
0.629932, -1, 28.0717, 26.5344, 14.1657, 12.6962, 107.533, -64.533
0.632019, -1, 27.9752, 26.485, 14.1852, 12.6975, 107.481, -64.6639
0.634118, -1, 27.9752, 26.485, 14.1852, 12.6975, 107.481, -64.6639
0.636133, -1, 27.8788, 26.4356, 14.2048, 12.6987, 107.43, -64.7948
0.637417, -1, 27.8788, 26.4356, 14.2048, 12.6987, 107.43, -64.7948
0.639556, -1, 27.7825, 26.3862, 14.2243, 12.6999, 107.378, -64.9258
0.640865, -1, 27.7825, 26.3862, 14.2243, 12.6999, 107.378, -64.9258
0.642084, -1, 27.7825, 26.3862, 14.2243, 12.6999, 107.378, -64.9258
0.645636, -1, 27.6862, 26.3367, 14.2438, 12.7011, 107.326, -65.0568
0.647623, -1, 27.59, 26.2873, 14.2632, 12.7022, 107.275, -65.1876
0.648932, -1, 27.59, 26.2873, 14.2632, 12.7022, 107.275, -65.1876
0.650131, -1, 27.59, 26.2873, 14.2632, 12.7022, 107.275, -65.1876
0.652941, -1, 27.4938, 26.2378, 14.2827, 12.7035, 107.223, -65.3184
0.654149, -1, 27.4938, 26.2378, 14.2827, 12.7035, 107.223, -65.3184
0.656312, -1, 27.3978, 26.1883, 14.3022, 12.7047, 107.171, -65.4492
0.664783, -1, 27.2057, 26.0894, 14.3413, 12.7069, 107.068, -65.7108
0.67197, -1, 27.0131, 25.9905, 14.3802, 12.7093, 106.964, -65.9725
0.679892, -1, 26.8205, 25.8917, 14.4192, 12.7116, 106.861, -66.2344
0.687976, -1, 26.6275, 25.7929, 14.4583, 12.7139, 106.758, -66.496
0.695787, -1, 26.4339, 25.6941, 14.4971, 12.7161, 106.655, -66.7577
0.703808, -1, 26.24, 25.5953, 14.5361, 12.7184, 106.552, -67.0195
0.711886, -1, 26.0459, 25.4964, 14.5752, 12.7206, 106.448, -67.2814
0.719824, -1, 25.8516, 25.3975, 14.6141, 12.7229, 106.345, -67.5432
0.727903, -1, 25.6574, 25.2987, 14.6532, 12.7252, 106.242, -67.8047
0.736216, -1, 25.4633, 25.2, 14.6922, 12.7274, 106.139, -68.0663
0.742781, -1, 25.3664, 25.1507, 14.7117, 12.7286, 106.087, -68.1973
0.752219, -1, 25.0761, 25.0026, 14.7702, 12.7321, 105.932, -68.59
0.758802, -1, 24.9795, 24.9531, 14.7898, 12.7332, 105.881, -68.7207
0.76817, -1, 24.69, 24.805, 14.8482, 12.7368, 105.726, -69.1133
0.906582, -1, 21.4073, 23.1256, 15.5107, 12.7789, 103.97, -73.5608
0.907788, -1, 21.4073, 23.1256, 15.5107, 12.7789, 103.97, -73.5608
0.909842, -1, 21.3112, 23.0763, 15.5302, 12.7802, 103.918, -73.6915
0.911051, -1, 21.3112, 23.0763, 15.5302, 12.7802, 103.918, -73.6915
0.912241, -1, 21.3112, 23.0763, 15.5302, 12.7802, 103.918, -73.6915
0.914283, -1, 21.215, 23.027, 15.5497, 12.7815, 103.866, -73.8223
0.915572, -1, 21.215, 23.027, 15.5497, 12.7815, 103.866, -73.8223
0.919827, -1, 21.1188, 22.9777, 15.5692, 12.7829, 103.815, -73.9532
0.923163, -1, 21.0226, 22.9284, 15.5887, 12.7843, 103.763, -74.0839
0.925229, -1, 21.0226, 22.9284, 15.5887, 12.7843, 103.712, -74.2144
0.92668, -1, 20.9264, 22.8791, 15.6081, 12.7856, 103.712, -74.2144
0.927885, -1, 20.9264, 22.8791, 15.6081, 12.7856, 103.712, -74.2144
0.930084, -1, 20.8302, 22.8297, 15.6276, 12.7869, 103.66, -74.3449
0.9313, -1, 20.8302, 22.8297, 15.6276, 12.7869, 103.66, -74.3449
0.932577, -1, 20.8302, 22.8297, 15.6276, 12.7869, 103.66, -74.3449
0.935593, -1, 20.734, 22.7805, 15.6471, 12.7883, 103.608, -74.4754
0.937372, -1, 20.6377, 22.7312, 15.6666, 12.7897, 103.557, -74.606
0.938833, -1, 20.6377, 22.7312, 15.6666, 12.7897, 103.557, -74.606
0.940023, -1, 20.6377, 22.7312, 15.6666, 12.7897, 103.557, -74.606
0.942811, -1, 20.5413, 22.6819, 15.686, 12.7911, 103.505, -74.7367
0.944105, -1, 20.5413, 22.6819, 15.686, 12.7911, 103.505, -74.7367
0.946183, -1, 20.4448, 22.6326, 15.7054, 12.7924, 103.454, -74.8673
0.955848, -1, 20.2514, 22.5339, 15.7443, 12.7951, 103.351, -75.1289
0.960806, -1, 20.1545, 22.4845, 15.7639, 12.7964, 103.299, -75.2594
0.967835, -1, 19.9608, 22.3858, 15.8027, 12.7992, 103.196, -75.5204
0.976824, -1, 19.7671, 22.2871, 15.8414, 12.8019, 103.093, -75.7816
0.982841, -1, 19.5735, 22.1885, 15.8804, 12.8047, 102.99, -76.0428
0.991841, -1, 19.3801, 22.0899, 15.9193, 12.8075, 102.887, -76.3041
0.999775, -1, 19.1871, 21.9912, 15.9581, 12.8102, 102.784, -76.5649
1.00788, -1, 18.9943, 21.8926, 15.9971, 12.813, 102.681, -76.8258
1.01584, -1, 18.8018, 21.7939, 16.0359, 12.8157, 102.578, -77.0867
1.02378, -1, 18.6097, 21.6952, 16.0746, 12.8184, 102.475, -77.3478
1.03178, -1, 18.4179, 21.5967, 16.1136, 12.8211, 102.372, -77.6084
1.03984, -1, 18.2261, 21.4981, 16.1525, 12.8237, 102.269, -77.8692
1.04777, -1, 18.0341, 21.3997, 16.1913, 12.8262, 102.167, -78.13
1.05577, -1, 17.8423, 21.3014, 16.2302, 12.8287, 102.064, -78.3908
1.06385, -1, 17.6503, 21.2031, 16.2691, 12.8313, 101.961, -78.6514
1.07177, -1, 17.4579, 21.1048, 16.3079, 12.8338, 101.858, -78.9117
1.07977, -1, 17.265, 21.0064, 16.3468, 12.8361, 101.755, -79.1722
1.08784, -1, 17.072, 20.9082, 16.3856, 12.8386, 101.652, -79.4329
1.09577, -1, 16.8789, 20.8099, 16.4244, 12.8409, 101.549, -79.6935
1.10379, -1, 16.6858, 20.7117, 16.4632, 12.8432, 101.446, -79.9539
1.11184, -1, 16.4928, 20.6135, 16.5019, 12.8456, 101.344, -80.2143
1.11978, -1, 16.3, 20.5152, 16.5406, 12.8479, 101.241, -80.475
1.1278, -1, 16.1077, 20.4168, 16.5794, 12.8502, 101.138, -80.7356
1.13582, -1, 15.9157, 20.3184, 16.6181, 12.8526, 101.036, -80.9956
1.14378, -1, 15.724, 20.2199, 16.6569, 12.8548, 100.933, -81.2557
1.15187, -1, 15.5327, 20.1215, 16.6955, 12.8572, 100.83, -81.5158
1.15986, -1, 15.3415, 20.0232, 16.7341, 12.8595, 100.728, -81.776
1.16787, -1, 15.1503, 19.9249, 16.773, 12.8618, 100.625, -82.0358
1.17602, -1, 14.9592, 19.8267, 16.8117, 12.8641, 100.523, -82.2956
1.18396, -1, 14.7679, 19.7286, 16.8504, 12.8664, 100.42, -82.5555
1.19188, -1, 14.5764, 19.6304, 16.8891, 12.8686, 100.317, -82.8157
1.19995, -1, 14.3845, 19.5323, 16.9277, 12.871, 100.215, -83.0754
1.20778, -1, 14.1923, 19.4343, 16.9665, 12.8733, 100.112, -83.3349
1.21581, -1, 13.9998, 19.3363, 17.0052, 12.8755, 100.01, -83.5946
1.22389, -1, 13.8075, 19.2385, 17.0438, 12.8778, 99.9074, -83.8542
1.23186, -1, 13.6149, 19.1407, 17.0825, 12.8801, 99.8049, -84.1138
1.23996, -1, 13.4226, 19.0427, 17.1212, 12.8824, 99.7023, -84.373
1.24677, -1, 13.3266, 18.9938, 17.1405, 12.8836, 99.6512, -84.5026
1.25602, -1, 13.039, 18.847, 17.1983, 12.8872, 99.4977, -84.8917
1.26277, -1, 12.9433, 18.798, 17.2177, 12.8883, 99.4464, -85.0214
1.2722, -1, 12.6568, 18.651, 17.2755, 12.8919, 99.2931, -85.4102
1.2802, -1, 12.4661, 18.5532, 17.3141, 12.8943, 99.1907, -85.6691
1.28834, -1, 12.276, 18.4555, 17.3526, 12.8967, 99.0884, -85.9278
1.29634, -1, 12.0858, 18.3578, 17.3911, 12.8991, 98.9865, -86.187
1.30517, -1, 11.8954, 18.2601, 17.4297, 12.9015, 98.8843, -86.4457
1.31117, -1, 11.8002, 18.2113, 17.449, 12.9028, 98.8333, -86.575
1.32041, -1, 11.6096, 18.0649, 17.5068, 12.9064, 98.6807, -86.9629
1.32936, -1, 11.4187, 18.016, 17.5261, 12.9088, 98.5786, -87.2216
1.3358, -1, 11.2276, 17.9185, 17.5647, 12.91, 98.5276, -87.3509
1.34448, -1, 11.0361, 17.821, 17.6032, 12.9125, 98.4258, -87.7383
1.35176, -1, 10.8446, 17.7236, 17.6416, 12.915, 98.3238, -87.8674
1.35957, -1, 10.6528, 17.6261, 17.6801, 12.9174, 98.2217, -88.1255
1.36782, -1, 10.4614, 17.5286, 17.7184, 12.92, 98.1201, -88.3839
1.37576, -1, 10.2703, 17.4311, 17.7569, 12.9225, 98.0182, -88.642
1.38357, -1, 10.0794, 17.3335, 17.7953, 12.9251, 97.9163, -88.9
1.39077, -1, 9.88901, 17.2359, 17.8336, 12.9278, 97.8146, -89.1581
1.39976, -1, 9.69886, 17.1384, 17.872, 12.9304, 97.7125, -89.4163
1.40779, -1, 9.50921, 17.041, 17.9103, 12.9332, 97.6105, -89.6743
1.41576, -1, 9.31993, 16.9437, 17.9486, 12.9359, 97.5088, -89.932
1.42376, -1, 9.13065, 16.8463, 17.987, 12.9386, 97.4068, -90.1895
1.43156, -1, 8.94131, 16.7492, 18.0253, 12.9412, 97.305, -90.447
1.43976, -1, 8.75178, 16.652, 18.0636, 12.9438, 97.2034, -90.7047
1.44776, -1, 8.56215, 16.5548, 18.1021, 12.9464, 97.1017, -90.9619
1.45556, -1, 8.3724, 16.4578, 18.1404, 12.9492, 97.0003, -91.2191
1.46377, -1, 8.1821, 16.3608, 18.1787, 12.9518, 96.8988, -91.4763
1.47276, -1, 7.99161, 16.2639, 18.2171, 12.9544, 96.7971, -91.7336
1.47957, -1, 7.80112, 16.167, 18.2553, 12.9572, 96.6957, -91.9904
1.48777, -1, 7.61054, 16.0701, 18.2935, 12.9597, 96.5942, -92.2472
1.49575, -1, 7.42012, 15.9732, 18.3319, 12.9623, 96.4928, -92.5038
1.5038, -1, 7.22996, 15.8762, 18.37, 12.9649, 96.3916, -92.7608
1.51186, -1, 7.04012, 15.7792, 18.4082, 12.9675, 96.2902, -93.0174
1.5198, -1, 6.85074, 15.6823, 18.4465, 12.97, 96.1889, -93.2738
1.52777, -1, 6.66177, 15.5854, 18.4845, 12.9725, 96.0883, -93.5301
1.53577, -1, 6.47327, 15.4886, 18.5226, 12.9751, 95.9871, -93.7866
1.54384, -1, 6.28505, 15.3919, 18.5608, 12.9775, 95.886, -94.0431
1.55177, -1, 6.09695, 15.2952, 18.5989, 12.98, 95.7853, -94.299
1.55976, -1, 5.90864, 15.1986, 18.637, 12.9824, 95.6842, -94.5548
1.56783, -1, 5.72027, 15.1019, 18.6753, 12.9847, 95.5832, -94.8107
1.57576, -1, 5.53171, 15.0053, 18.7133, 12.987, 95.4827, -95.0668
1.58377, -1, 5.34295, 14.9088, 18.7514, 12.9893, 95.3817, -95.3223
1.59182, -1, 5.15383, 14.8124, 18.7896, 12.9915, 95.281, -95.5778
1.5998, -1, 4.96449, 14.7161, 18.8276, 12.9938, 95.1805, -95.8333
1.60776, -1, 4.77507, 14.6197, 18.8656, 12.9961, 95.0797, -96.0888
1.61582, -1, 4.58557, 14.5233, 18.9037, 12.9982, 94.9789, -96.344
1.62425, -1, 4.39645, 14.427, 18.9418, 13.0004, 94.8783, -96.599
1.63111, -1, 4.2075, 14.3307, 18.9798, 13.0026, 94.7774, -96.8539
1.63907, -1, 4.0188, 14.2342, 19.0178, 13.0049, 94.6765, -97.1091
1.64724, -1, 3.83077, 14.138, 19.0557, 13.0072, 94.5757, -97.364
1.65535, -1, 3.64326, 14.0419, 19.0937, 13.0093, 94.4749, -97.6187
1.66418, -1, 3.45608, 13.9457, 19.1316, 13.0117, 94.3744, -97.8734
1.67138, -1, 3.26911, 13.8497, 19.1694, 13.014, 94.2737, -98.1282
1.67932, -1, 3.08208, 13.7537, 19.2073, 13.0163, 94.1729, -98.3829
1.68817, -1, 2.89511, 13.6576, 19.2453, 13.0185, 94.0724, -98.6373
1.69538, -1, 2.70809, 13.5616, 19.2832, 13.0208, 93.9718, -98.8914
1.70362, -1, 2.61446, 13.5136, 19.3021, 13.0219, 93.9215, -99.0185
1.71241, -1, 2.33332, 13.3697, 19.3589, 13.0253, 93.771, -99.3997
1.72062, -1, 2.14551, 13.274, 19.3967, 13.0276, 93.6707, -99.6537
1.72789, -1, 1.95739, 13.1782, 19.4346, 13.0297, 93.5705, -99.9073
1.7367, -1, 1.76921, 13.0823, 19.4724, 13.0321, 93.4706, -100.161
1.74479, -1, 1.58097, 12.9865, 19.5101, 13.0343, 93.3705, -100.415
1.75214, -1, 1.39288, 12.8906, 19.548, 13.0365, 93.2704, -100.668
1.75876, -1, 1.29894, 12.8427, 19.5669, 13.0377, 93.2205, -100.795
1.76809, -1, 1.01763, 12.699, 19.6234, 13.0413, 93.0704, -101.174
1.77622, -1, 0.830998, 12.6035, 19.6612, 13.0436, 92.9705, -101.427
1.78275, -1, 0.737803, 12.5557, 19.68, 13.0448, 92.9206, -101.554
1.7923, -1, 0.458701, 12.4124, 19.7364, 13.0484, 92.771, -101.933
1.80049, -1, 0.273036, 12.317, 19.7741, 13.0509, 92.6712, -102.186
1.80914, -1, 0.0876272, 12.2216, 19.8117, 13.0534, 92.572, -102.439
1.81483, -1, -0.00505115, 12.174, 19.8304, 13.0546, 92.5221, -102.565
1.82435, -1, -0.19064, 12.0311, 19.8869, 13.0583, 92.3727, -102.944
1.83175, -1, -0.376385, 11.9834, 19.9057, 13.0595, 92.3231, -103.07
1.83881, -1, -0.562404, 11.8883, 19.9432, 13.062, 92.2236, -103.322
1.84887, -1, -0.841983, 11.7458, 19.9996, 13.0657, 92.0744, -103.7
1.85575, -1, -0.935315, 11.6983, 20.0183, 13.0669, 92.0248, -103.826
1.86281, -1, -1.12197, 11.6032, 20.0557, 13.0695, 91.9254, -104.078
1.8718, -1, -1.309, 11.5081, 20.0933, 13.072, 91.8261, -104.33
1.87975, -1, -1.49584, 11.413, 20.1308, 13.0745, 91.727, -104.581
1.88675, -1, -1.68245, 11.3179, 20.1681, 13.0771, 91.6278, -104.833
1.89575, -1, -1.86871, 11.2228, 20.2056, 13.0796, 91.5285, -105.085
1.90374, -1, -2.0545, 11.1278, 20.243, 13.0824, 91.4295, -105.336
1.91084, -1, -2.23961, 11.0329, 20.2803, 13.085, 91.3302, -105.586
1.91976, -1, -2.42438, 10.9381, 20.3177, 13.0876, 91.231, -105.837
1.92775, -1, -2.60888, 10.8433, 20.3551, 13.0903, 91.1321, -106.089
1.93474, -1, -2.7928, 10.7485, 20.3923, 13.093, 91.0329, -106.339
1.94374, -1, -2.97668, 10.6538, 20.4297, 13.0956, 90.9339, -106.59
1.95174, -1, -3.16067, 10.5591, 20.467, 13.0982, 90.8352, -106.841
1.95874, -1, -3.34499, 10.4645, 20.5042, 13.1008, 90.7361, -107.091
1.96775, -1, -3.52961, 10.3701, 20.5415, 13.1033, 90.6373, -107.342
1.97674, -1, -3.71442, 10.2757, 20.5787, 13.1058, 90.5386, -107.592
1.98274, -1, -3.89955, 10.1813, 20.616, 13.1083, 90.4397, -107.842
1.99176, -1, -4.08484, 10.087, 20.6532, 13.1107, 90.341, -108.092
1.99975, -1, -4.2704, 9.99271, 20.6904, 13.1132, 90.2425, -108.342
2.00776, -1, -4.45601, 9.89836, 20.7275, 13.1155, 90.1437, -108.592
2.01585, -1, -4.64132, 9.80402, 20.7648, 13.1179, 90.0452, -108.841
2.02381, -1, -4.82622, 9.70983, 20.802, 13.1203, 89.9469, -109.091
2.03175, -1, -5.01072, 9.61578, 20.839, 13.1227, 89.8483, -109.34
2.03974, -1, -5.19453, 9.52173, 20.8762, 13.125, 89.7499, -109.589
2.04783, -1, -5.37792, 9.42769, 20.9133, 13.1273, 89.6516, -109.838
2.05574, -1, -5.56088, 9.33377, 20.9504, 13.1296, 89.5531, -110.087
2.06374, -1, -5.74339, 9.23984, 20.9875, 13.1319, 89.4549, -110.336
2.07181, -1, -5.92571, 9.14594, 21.0245, 13.1343, 89.357, -110.585
2.07978, -1, -6.10805, 9.05206, 21.0615, 13.1365, 89.2587, -110.833
2.08774, -1, -6.29076, 8.95827, 21.0986, 13.1387, 89.1607, -111.082
2.09581, -1, -6.47369, 8.86465, 21.1355, 13.1409, 89.063, -111.33
2.10374, -1, -6.6569, 8.77098, 21.1723, 13.143, 88.9649, -111.578
2.11175, -1, -6.84044, 8.67735, 21.2093, 13.1452, 88.8669, -111.827
2.11981, -1, -7.02432, 8.58374, 21.2462, 13.1473, 88.7692, -112.074
2.12775, -1, -7.20844, 8.49018, 21.2831, 13.1495, 88.6712, -112.322
2.13582, -1, -7.39266, 8.39654, 21.32, 13.1515, 88.5734, -112.57
2.1438, -1, -7.57653, 8.30288, 21.3568, 13.1537, 88.4759, -112.817
2.15177, -1, -7.76007, 8.20945, 21.3936, 13.1559, 88.3782, -113.065
2.15987, -1, -7.94316, 8.11606, 21.4305, 13.1581, 88.2809, -113.312
2.16789, -1, -8.12575, 8.02271, 21.4673, 13.1604, 88.1837, -113.559
2.17583, -1, -8.30759, 7.92944, 21.504, 13.1626, 88.0862, -113.806
2.184, -1, -8.48893, 7.83619, 21.5408, 13.1648, 87.9888, -114.053
2.19185, -1, -8.66992, 7.74301, 21.5776, 13.1671, 87.8915, -114.3
2.19985, -1, -8.85065, 7.64984, 21.6144, 13.1694, 87.794, -114.546
2.20799, -1, -9.03135, 7.55676, 21.6511, 13.1716, 87.6966, -114.792
2.21575, -1, -9.21239, 7.46374, 21.6878, 13.1738, 87.5995, -115.039
2.22377, -1, -9.39366, 7.37093, 21.7244, 13.1761, 87.5023, -115.285
2.23189, -1, -9.57535, 7.27808, 21.7611, 13.1783, 87.4052, -115.531
2.23986, -1, -9.7573, 7.18527, 21.7978, 13.1805, 87.3081, -115.777
2.24802, -1, -9.93964, 7.09256, 21.8343, 13.1827, 87.2109, -116.024
2.25474, -1, -10.0309, 7.04619, 21.8525, 13.1838, 87.1622, -116.147
2.264, -1, -10.3049, 6.90704, 21.9074, 13.1871, 87.0166, -116.515
2.27074, -1, -10.3962, 6.86065, 21.9257, 13.1882, 86.9679, -116.638
2.28019, -1, -10.6697, 6.72159, 21.9806, 13.1916, 86.8224, -117.006
2.28821, -1, -10.8514, 6.62899, 22.017, 13.1941, 86.7255, -117.252
2.29636, -1, -11.0327, 6.53641, 22.0534, 13.1965, 86.6286, -117.497
2.30434, -1, -11.2132, 6.44389, 22.09, 13.1989, 86.532, -117.742
2.31231, -1, -11.3931, 6.35143, 22.1265, 13.2013, 86.4355, -117.986
2.32045, -1, -11.5727, 6.25897, 22.1629, 13.2036, 86.3386, -118.231
2.32837, -1, -11.6624, 6.21276, 22.1811, 13.2049, 86.242, -118.476
2.33573, -1, -11.8417, 6.1204, 22.2177, 13.2074, 86.1938, -118.598
2.34379, -1, -12.0209, 6.02813, 22.2541, 13.2098, 86.0971, -118.843
2.35182, -1, -12.2002, 5.936, 22.2905, 13.2123, 86.0006, -119.087
2.35973, -1, -12.3799, 5.84397, 22.327, 13.2148, 85.9044, -119.331
2.36779, -1, -12.56, 5.75192, 22.3632, 13.2173, 85.808, -119.575
2.37573, -1, -12.7403, 5.65992, 22.3995, 13.2197, 85.7116, -119.819
2.38374, -1, -12.9212, 5.568, 22.436, 13.2222, 85.6158, -120.063
2.39174, -1, -13.1024, 5.47606, 22.4722, 13.2247, 85.5197, -120.306
2.39975, -1, -13.2836, 5.38404, 22.5084, 13.2271, 85.4237, -120.55
2.40673, -1, -13.4647, 5.29209, 22.5448, 13.2295, 85.328, -120.794
2.41573, -1, -13.6453, 5.20019, 22.581, 13.2321, 85.2322, -121.037
2.42374, -1, -13.8256, 5.10834, 22.6171, 13.2347, 85.1364, -121.28
2.43073, -1, -14.0052, 5.0165, 22.6533, 13.2373, 85.0408, -121.523
2.43975, -1, -14.1838, 4.92483, 22.6894, 13.2398, 84.9452, -121.766
2.44775, -1, -14.362, 4.83313, 22.7255, 13.2424, 84.8495, -122.008
2.45742, -1, -14.5401, 4.69565, 22.7799, 13.2462, 84.7063, -122.372
2.46373, -1, -14.7177, 4.64988, 22.798, 13.2475, 84.6583, -122.493
2.47274, -1, -14.8954, 4.55838, 22.834, 13.2499, 84.5626, -122.736
2.47873, -1, -15.0731, 4.46694, 22.8702, 13.2524, 84.4669, -122.978
2.48773, -1, -15.2511, 4.37565, 22.9064, 13.2548, 84.3713, -123.22
2.49574, -1, -15.4295, 4.28432, 22.9424, 13.2572, 84.2756, -123.462
2.50376, -1, -15.6084, 4.19305, 22.9784, 13.2596, 84.1801, -123.703
2.51173, -1, -15.7876, 4.10178, 23.0145, 13.2618, 84.0846, -123.945
2.51988, -1, -15.9668, 4.01055, 23.0504, 13.2641, 83.9892, -124.187
2.52773, -1, -16.1464, 3.91929, 23.0864, 13.2662, 83.8938, -124.428
2.53573, -1, -16.3262, 3.82805, 23.1224, 13.2683, 83.7983, -124.67
2.54381, -1, -16.5056, 3.73686, 23.1582, 13.2705, 83.7029, -124.911
2.55172, -1, -16.6846, 3.64576, 23.194, 13.2728, 83.6075, -125.152
2.55974, -1, -16.863, 3.5547, 23.2299, 13.2751, 83.5121, -125.393
2.56824, -1, -17.0406, 3.4637, 23.2658, 13.2773, 83.4167, -125.634
2.57485, -1, -17.2175, 3.37274, 23.3016, 13.2795, 83.3214, -125.875
2.58372, -1, -17.394, 3.2819, 23.3375, 13.2817, 83.2265, -126.116
2.59252, -1, -17.5703, 3.19107, 23.3732, 13.2838, 83.1313, -126.356
2.59974, -1, -17.7464, 3.1004, 23.4091, 13.286, 83.0364, -126.596
2.60773, -1, -17.9224, 3.0098, 23.445, 13.288, 82.9418, -126.837
2.61652, -1, -18.0986, 2.91936, 23.4807, 13.2901, 82.8468, -127.077
2.62373, -1, -18.2751, 2.82899, 23.5164, 13.2923, 82.7522, -127.317
2.63173, -1, -18.4521, 2.73858, 23.5522, 13.2943, 82.6576, -127.557
2.64061, -1, -18.6295, 2.6482, 23.5878, 13.2964, 82.5628, -127.796
2.64773, -1, -18.8071, 2.55788, 23.6235, 13.2985, 82.4683, -128.036
2.65584, -1, -18.9852, 2.46745, 23.6593, 13.3004, 82.374, -128.275
2.66464, -1, -19.1635, 2.37697, 23.6949, 13.3024, 82.2795, -128.515
2.67182, -1, -19.3417, 2.28661, 23.7304, 13.3044, 82.1851, -128.754
2.67989, -1, -19.5194, 2.19623, 23.7661, 13.3065, 82.0913, -128.993
2.68872, -1, -19.6964, 2.10591, 23.8015, 13.3087, 81.997, -129.232
2.69583, -1, -19.8729, 2.01566, 23.8369, 13.3109, 81.9027, -129.471
2.7039, -1, -20.0487, 1.92539, 23.8726, 13.313, 81.8088, -129.71
2.71264, -1, -20.2239, 1.83518, 23.9081, 13.3152, 81.7147, -129.948
2.7199, -1, -20.3988, 1.74508, 23.9435, 13.3174, 81.6206, -130.186
2.72782, -1, -20.5734, 1.65501, 23.9791, 13.3197, 81.5268, -130.425
2.73664, -1, -20.7478, 1.56502, 24.0146, 13.3218, 81.4328, -130.663
2.74389, -1, -20.9225, 1.47515, 24.0499, 13.324, 81.3391, -130.901
2.75194, -1, -21.0975, 1.38543, 24.0855, 13.3262, 81.2455, -131.139
2.75997, -1, -21.2728, 1.29567, 24.121, 13.3284, 81.1516, -131.377
2.76672, -1, -21.3606, 1.25079, 24.1386, 13.3295, 81.1047, -131.496
2.77607, -1, -21.6246, 1.11632, 24.1916, 13.3328, 80.964, -131.852
2.78277, -1, -21.7127, 1.07151, 24.2094, 13.3338, 80.9171, -131.971
2.79228, -1, -21.9771, 0.93704, 24.2624, 13.337, 80.7763, -132.327
2.80024, -1, -22.1538, 0.847468, 24.2978, 13.3392, 80.6827, -132.564
2.80901, -1, -22.3303, 0.757937, 24.3332, 13.3413, 80.5891, -132.802
2.81651, -1, -22.5063, 0.668477, 24.3683, 13.3436, 80.4954, -133.039
2.82431, -1, -22.5942, 0.623714, 24.4035, 13.346, 80.4019, -133.275
2.83308, -1, -22.7695, 0.534262, 24.4212, 13.3472, 80.3082, -133.512
2.84027, -1, -22.944, 0.444832, 24.4564, 13.3496, 80.2614, -133.63
2.84773, -1, -23.1177, 0.355441, 24.4915, 13.3521, 80.1679, -133.867
2.85583, -1, -23.2911, 0.266118, 24.5267, 13.3545, 80.0746, -134.104
2.86374, -1, -23.4642, 0.176801, 24.5619, 13.3569, 79.9809, -134.34
2.87171, -1, -23.6374, 0.0876261, 24.597, 13.3593, 79.8877, -134.576
2.87975, -1, -23.8107, -0.00147654, 24.6322, 13.3617, 79.7946, -134.813
2.88774, -1, -23.9841, -0.0904561, 24.6673, 13.3641, 79.7013, -135.049
2.89571, -1, -24.1578, -0.179448, 24.7023, 13.3666, 79.6083, -135.285
2.90373, -1, -24.3318, -0.26845, 24.7374, 13.3691, 79.5153, -135.52
2.91174, -1, -24.5061, -0.357358, 24.7725, 13.3715, 79.4222, -135.756
2.91972, -1, -24.6807, -0.446245, 24.8075, 13.3739, 79.3291, -135.991
2.92775, -1, -24.8557, -0.53513, 24.8425, 13.3763, 79.2361, -136.227
2.93572, -1, -25.0308, -0.624013, 24.8776, 13.3787, 79.1432, -136.462
2.94377, -1, -25.2056, -0.712794, 24.9126, 13.3811, 79.0502, -136.697
2.95178, -1, -25.3802, -0.801515, 24.9475, 13.3835, 78.9574, -136.932
2.95971, -1, -25.5543, -0.890318, 24.9826, 13.386, 78.8649, -137.167
2.96771, -1, -25.7279, -0.979034, 25.0174, 13.3884, 78.772, -137.402
2.97579, -1, -25.9008, -1.0677, 25.0522, 13.3908, 78.6794, -137.637
2.98479, -1, -26.0732, -1.15643, 25.0872, 13.3932, 78.5872, -137.871
2.99171, -1, -26.2453, -1.24508, 25.1221, 13.3957, 78.4945, -138.106
2.99978, -1, -26.4171, -1.33358, 25.1569, 13.398, 78.4019, -138.34
3.00772, -1, -26.5889, -1.42197, 25.1918, 13.4002, 78.3097, -138.575
3.01572, -1, -26.7609, -1.5103, 25.2268, 13.4025, 78.217, -138.809
3.02386, -1, -26.9332, -1.59847, 25.2616, 13.4048, 78.1246, -139.043
3.03172, -1, -27.1056, -1.68663, 25.2964, 13.407, 78.0325, -139.277
3.03971, -1, -27.2782, -1.77489, 25.3313, 13.4092, 77.9403, -139.511
3.04778, -1, -27.4511, -1.86297, 25.3661, 13.4114, 77.8483, -139.745
3.05572, -1, -27.6243, -1.95109, 25.4008, 13.4134, 77.7563, -139.978
3.06378, -1, -27.7976, -2.03929, 25.4358, 13.4156, 77.6643, -140.211
3.07173, -1, -27.9709, -2.12729, 25.4706, 13.4176, 77.5723, -140.445
3.07971, -1, -28.1442, -2.21532, 25.5053, 13.4197, 77.4802, -140.678
3.08778, -1, -28.3173, -2.30335, 25.5401, 13.4217, 77.3882, -140.911
3.09571, -1, -28.4901, -2.39143, 25.5749, 13.4238, 77.2961, -141.144
3.10371, -1, -28.6624, -2.47937, 25.6095, 13.426, 77.204, -141.377
3.11184, -1, -28.8341, -2.56736, 25.6443, 13.4281, 77.1122, -141.61
3.11971, -1, -29.0052, -2.65536, 25.679, 13.4303, 77.0202, -141.843
3.12771, -1, -29.1758, -2.74326, 25.7135, 13.4325, 76.9282, -142.075
3.13577, -1, -29.3463, -2.83108, 25.7482, 13.4345, 76.8365, -142.308
3.14371, -1, -29.517, -2.9188, 25.783, 13.4366, 76.7445, -142.54
3.15172, -1, -29.6879, -3.0064, 25.8175, 13.4386, 76.6527, -142.773
3.15981, -1, -29.8589, -3.0939, 25.8521, 13.4406, 76.5611, -143.005
3.1678, -1, -30.0299, -3.18135, 25.8867, 13.4428, 76.4691, -143.237
3.17615, -1, -30.2009, -3.26888, 25.9213, 13.4448, 76.3775, -143.469
3.18326, -1, -30.3721, -3.35629, 25.9558, 13.4469, 76.286, -143.701
3.1919, -1, -30.5436, -3.44371, 25.9904, 13.4489, 76.1944, -143.933
3.20032, -1, -30.7154, -3.53123, 26.0249, 13.4509, 76.103, -144.164
3.20777, -1, -30.8872, -3.61859, 26.0593, 13.453, 76.0117, -144.396
3.21571, -1, -31.059, -3.70598, 26.0939, 13.4549, 75.9202, -144.627
3.22453, -1, -31.2307, -3.7933, 26.1284, 13.457, 75.8289, -144.858
3.23175, -1, -31.402, -3.88064, 26.1627, 13.4591, 75.7375, -145.09
3.23977, -1, -31.5729, -3.96793, 26.1972, 13.4613, 75.6463, -145.321
3.24876, -1, -31.7433, -4.05514, 26.2316, 13.4634, 75.555, -145.552
3.2559, -1, -31.9133, -4.14241, 26.266, 13.4656, 75.4638, -145.783
3.26401, -1, -32.083, -4.22961, 26.3004, 13.4678, 75.3729, -146.014
3.27077, -1, -32.1677, -4.27315, 26.3176, 13.4689, 75.3273, -146.129
3.27875, -1, -32.3371, -4.36025, 26.3519, 13.4711, 75.2362, -146.36
3.28823, -1, -32.5915, -4.49071, 26.4033, 13.4744, 75.1002, -146.705
3.29719, -1, -32.7612, -4.57761, 26.4378, 13.4765, 75.009, -146.936
3.30278, -1, -32.8461, -4.62106, 26.4549, 13.4776, 74.9637, -147.051
3.31229, -1, -33.1006, -4.75147, 26.5062, 13.4808, 74.8278, -147.397
3.32114, -1, -33.2704, -4.83831, 26.5405, 13.483, 74.737, -147.627
3.32677, -1, -33.3554, -4.88172, 26.5577, 13.4841, 74.6917, -147.742
3.33631, -1, -33.5255, -4.96869, 26.5919, 13.4875, 74.5559, -148.086
3.3437, -1, -33.6959, -5.05558, 26.626, 13.4886, 74.5107, -148.201
3.35082, -1, -33.8662, -5.14233, 26.6603, 13.4908, 74.42, -148.431
3.36075, -1, -34.1215, -5.27245, 26.7114, 13.4942, 74.2843, -148.775
3.36772, -1, -34.2065, -5.31581, 26.7285, 13.4953, 74.2392, -148.89
3.37477, -1, -34.3766, -5.40246, 26.7628, 13.4975, 74.1484, -149.119
3.38375, -1, -34.5464, -5.48911, 26.797, 13.4999, 74.0579, -149.349
3.3917, -1, -34.7157, -5.5758, 26.831, 13.5022, 73.9674, -149.578
3.39872, -1, -34.8844, -5.66242, 26.8652, 13.5047, 73.8768, -149.807
3.4077, -1, -35.0528, -5.749, 26.8993, 13.5072, 73.7863, -150.036
3.4157, -1, -35.221, -5.83549, 26.9334, 13.5095, 73.696, -150.265
3.42281, -1, -35.3893, -5.92185, 26.9675, 13.512, 73.6056, -150.494
3.4317, -1, -35.5579, -6.00804, 27.0016, 13.5143, 73.5153, -150.723
3.43971, -1, -35.7264, -6.09431, 27.0356, 13.5166, 73.425, -150.952
3.4467, -1, -35.895, -6.18049, 27.0696, 13.5191, 73.3348, -151.18
3.4557, -1, -36.0634, -6.26664, 27.1037, 13.5215, 73.2443, -151.409
3.46372, -1, -36.232, -6.35276, 27.1377, 13.5239, 73.1539, -151.637
3.47076, -1, -36.4007, -6.43895, 27.1716, 13.5262, 73.0637, -151.866
3.4797, -1, -36.5696, -6.52517, 27.2056, 13.5286, 72.9732, -152.094
3.48772, -1, -36.7384, -6.61134, 27.2396, 13.5309, 72.8829, -152.322
3.49576, -1, -36.9073, -6.69749, 27.2734, 13.5332, 72.793, -152.55
3.50371, -1, -37.0763, -6.78362, 27.3074, 13.5355, 72.7028, -152.778
3.51457, -1, -37.245, -6.86972, 27.3413, 13.5377, 72.5678, -153.12
3.51971, -1, -37.4136, -6.95574, 27.3751, 13.54, 72.523, -153.234
3.52785, -1, -37.5817, -7.04183, 27.4091, 13.5422, 72.4331, -153.461
3.53569, -1, -37.7495, -7.12786, 27.4431, 13.5445, 72.3432, -153.689
3.5437, -1, -37.9171, -7.2138, 27.4768, 13.5468, 72.2534, -153.916
3.55176, -1, -38.0846, -7.29972, 27.5107, 13.5489, 72.1638, -154.144
3.55971, -1, -38.2521, -7.3856, 27.5447, 13.5512, 72.0739, -154.371
3.56771, -1, -38.4193, -7.47133, 27.5784, 13.5532, 71.9843, -154.598
3.57577, -1, -38.5865, -7.55701, 27.6122, 13.5553, 71.8949, -154.826
3.58369, -1, -38.7539, -7.64276, 27.6461, 13.5575, 71.8051, -155.053
3.59169, -1, -38.9212, -7.72846, 27.6799, 13.5595, 71.7156, -155.28
3.59979, -1, -39.0886, -7.81405, 27.7135, 13.5616, 71.6266, -155.507
3.60769, -1, -39.256, -7.89969, 27.7474, 13.5637, 71.537, -155.733
3.6157, -1, -39.4235, -7.98537, 27.7812, 13.5656, 71.4477, -155.96
3.62377, -1, -39.5911, -8.07092, 27.8148, 13.5676, 71.3584, -156.187
3.6317, -1, -39.7588, -8.15643, 27.8484, 13.5695, 71.2691, -156.413
3.63971, -1, -39.9264, -8.2419, 27.8822, 13.5715, 71.1797, -156.64
3.64783, -1, -40.094, -8.32735, 27.9159, 13.5734, 71.0902, -156.866
3.65572, -1, -40.2615, -8.41271, 27.9495, 13.5754, 71.0011, -157.092
3.66372, -1, -40.4287, -8.49806, 27.9833, 13.5773, 70.9116, -157.319
3.67211, -1, -40.5957, -8.58343, 28.0169, 13.5793, 70.8225, -157.545
3.6798, -1, -40.7626, -8.66883, 28.0504, 13.5813, 70.7336, -157.77
3.68779, -1, -40.9292, -8.75418, 28.0841, 13.5833, 70.6443, -157.996
3.6963, -1, -41.0955, -8.8395, 28.1178, 13.5854, 70.5552, -158.222
3.7038, -1, -41.2618, -8.92476, 28.1513, 13.5874, 70.4662, -158.448
3.71187, -1, -41.428, -9.00991, 28.1849, 13.5894, 70.3769, -158.674
3.72042, -1, -41.5943, -9.09507, 28.2186, 13.5914, 70.2877, -158.899
3.72773, -1, -41.7605, -9.18017, 28.2521, 13.5934, 70.1987, -159.125
3.73581, -1, -41.9269, -9.2652, 28.2857, 13.5954, 70.1096, -159.35
3.74476, -1, -42.0933, -9.35021, 28.3194, 13.5975, 70.0206, -159.576
3.75194, -1, -42.2596, -9.43529, 28.3529, 13.5994, 69.9316, -159.801
3.75995, -1, -42.4259, -9.52029, 28.3864, 13.6015, 69.8429, -160.026
3.76877, -1, -42.5923, -9.6053, 28.4199, 13.6034, 69.7537, -160.251
3.776, -1, -42.7587, -9.69027, 28.4535, 13.6055, 69.6648, -160.477
3.78428, -1, -42.9251, -9.77522, 28.4869, 13.6075, 69.5763, -160.702
3.79219, -1, -43.0915, -9.86013, 28.5204, 13.6096, 69.4873, -160.927
3.80104, -1, -43.2577, -9.94508, 28.5539, 13.6116, 69.3986, -161.152
3.8067, -1, -43.3408, -9.98755, 28.5707, 13.6127, 69.3543, -161.264
3.81624, -1, -43.5898, -10.1149, 28.6209, 13.6158, 69.2214, -161.601
3.82501, -1, -43.7557, -10.1999, 28.6544, 13.6179, 69.1329, -161.826
3.8307, -1, -43.8386, -10.2423, 28.6711, 13.619, 69.0886, -161.938
3.8402, -1, -44.0043, -10.3271, 28.7045, 13.6211, 69.0003, -162.162
3.84768, -1, -44.1698, -10.4118, 28.738, 13.6233, 68.9116, -162.387
3.85575, -1, -44.335, -10.4965, 28.7716, 13.6254, 68.823, -162.611
3.86378, -1, -44.5001, -10.581, 28.8049, 13.6277, 68.7344, -162.835
3.87174, -1, -44.6653, -10.6656, 28.8382, 13.6298, 68.6457, -163.06
3.87973, -1, -44.8306, -10.7501, 28.8718, 13.632, 68.5572, -163.284
3.8877, -1, -44.9959, -10.8345, 28.9052, 13.6342, 68.4688, -163.507
3.8957, -1, -45.1613, -10.9191, 28.9386, 13.6364, 68.3805, -163.732
3.90373, -1, -45.3266, -11.0036, 28.972, 13.6386, 68.292, -163.956
3.91173, -1, -45.4918, -11.0881, 29.0054, 13.6409, 68.2036, -164.18
3.91968, -1, -45.6571, -11.1725, 29.0386, 13.6432, 68.1156, -164.403
3.92783, -1, -45.8223, -11.257, 29.072, 13.6454, 68.027, -164.627
3.9357, -1, -45.9866, -11.341, 29.1055, 13.6477, 67.9387, -164.851
3.94368, -1, -46.148, -11.4233, 29.1389, 13.6501, 67.8507, -165.074
3.95179, -1, -46.305, -11.5027, 29.1725, 13.6524, 67.7632, -165.295
3.95968, -1, -46.4553, -11.5778, 29.206, 13.6548, 67.678, -165.51
3.96769, -1, -46.5965, -11.6476, 29.2383, 13.6571, 67.5965, -165.716
3.97769, -1, -46.7855, -11.7399, 29.2818, 13.6603, 67.4871, -165.993
3.98368, -1, -46.841, -11.7671, 29.2946, 13.6614, 67.4548, -166.074
3.99173, -1, -46.9397, -11.8162, 29.3167, 13.663, 67.3991, -166.217
3.99975, -1, -47.0223, -11.8592, 29.3333, 13.6643, 67.3543, -166.33
4.00769, -1, -47.0894, -11.8959, 29.3445, 13.6651, 67.3207, -166.414
4.0157, -1, -47.1418, -11.9253, 29.3517, 13.6655, 67.2974, -166.473
4.02376, -1, -47.1807, -11.9474, 29.3556, 13.6657, 67.2824, -166.51
4.03174, -1, -47.2083, -11.9628, 29.3574, 13.6658, 67.2736, -166.533
4.03968, -1, -47.2264, -11.9728, 29.3583, 13.6659, 67.2689, -166.545
4.04777, -1, -47.2372, -11.9787, 29.3587, 13.666, 67.2666, -166.55
4.0557, 2, -47.2429, -11.9816, 29.3589, 13.666, 67.2655, -166.553
4.06368, 2, -47.2449, -11.9829, 29.359, 13.666, 67.265, -166.554
4.07181, 2, -47.245, -11.9834, 29.3591, 13.6661, 67.2647, -166.555
4.07968, 2, -47.2447, -11.9835, 29.3592, 13.6661, 67.2645, -166.555
4.08768, 2, -47.2447, -11.9836, 29.3592, 13.6661, 67.2645, -166.555
4.09584, 2, -47.2451, -11.9837, 29.3593, 13.6661, 67.2644, -166.555
4.10368, 2, -47.246, -11.984, 29.3593, 13.6661, 67.2644, -166.555
4.11173, 2, -47.2473, -11.9845, 29.3593, 13.6661, 67.2644, -166.555
4.11975, 2, -47.2491, -11.9852, 29.3593, 13.6661, 67.2644, -166.556
4.12777, 2, -47.2507, -11.9861, 29.3593, 13.6661, 67.2644, -166.555
4.13569, 2, -47.2522, -11.9869, 29.3593, 13.6661, 67.2645, -166.555
4.14375, 2, -47.253, -11.9876, 29.3593, 13.6661, 67.2645, -166.555
4.15174, 2, -47.2535, -11.988, 29.3593, 13.6661, 67.2645, -166.555
4.15969, 2, -47.2536, -11.9882, 29.3593, 13.6661, 67.2645, -166.555
4.1678, 2, -47.2537, -11.9882, 29.3593, 13.6661, 67.2645, -166.555
4.17578, 2, -47.2535, -11.9882, 29.3593, 13.6661, 67.2645, -166.555
4.18377, 2, -47.2529, -11.9882, 29.3593, 13.6661, 67.2645, -166.555
4.19197, 2, -47.2524, -11.9882, 29.3593, 13.6661, 67.2644, -166.555
4.19978, 2, -47.2521, -11.9881, 29.3593, 13.6661, 67.2645, -166.555
4.20779, 2, -47.2519, -11.9882, 29.3593, 13.6661, 67.2645, -166.555
4.21597, 2, -47.2519, -11.9882, 29.3593, 13.6661, 67.2645, -166.555
4.22369, 2, -47.2521, -11.9884, 29.3593, 13.6661, 67.2645, -166.555
4.23176, 2, -47.2523, -11.9887, 29.3594, 13.6661, 67.2645, -166.555
4.23983, 2, -47.2529, -11.9891, 29.3593, 13.6661, 67.2645, -166.555
4.24774, 2, -47.2535, -11.9894, 29.3593, 13.666, 67.2645, -166.555
4.25596, 2, -47.2538, -11.9895, 29.3594, 13.6661, 67.2645, -166.555
4.26269, 2, -47.2539, -11.9896, 29.3594, 13.6661, 67.2645, -166.555
4.27201, 2, -47.254, -11.9896, 29.3594, 13.6661, 67.2645, -166.555
4.27873, 2, -47.2539, -11.9896, 29.3594, 13.6661, 67.2645, -166.555
4.28824, 2, -47.2537, -11.9895, 29.3594, 13.666, 67.2645, -166.555
4.29616, 2, -47.2532, -11.9895, 29.3594, 13.666, 67.2645, -166.555
4.30418, 2, -47.2528, -11.9895, 29.3594, 13.6661, 67.2645, -166.555
4.31243, 2, -47.2526, -11.9894, 29.3594, 13.6661, 67.2645, -166.555
4.32024, 2, -47.2524, -11.9894, 29.3594, 13.6661, 67.2645, -166.555
4.32825, 2, -47.2523, -11.9895, 29.3594, 13.6661, 67.2646, -166.555
4.33644, 2, -47.2523, -11.9895, 29.3594, 13.666, 67.2646, -166.555
4.34367, 2, -47.2522, -11.9896, 29.3594, 13.666, 67.2646, -166.555
4.35173, 2, -47.2522, -11.9896, 29.3594, 13.666, 67.2646, -166.555
4.35972, 2, -47.2521, -11.9897, 29.3594, 13.666, 67.2646, -166.555
4.36768, 2, -47.2522, -11.9897, 29.3594, 13.666, 67.2646, -166.555
4.37569, 2, -47.2522, -11.9897, 29.3594, 13.666, 67.2646, -166.555
4.38373, 2, -47.2523, -11.9897, 29.3594, 13.666, 67.2646, -166.555
4.39172, 2, -47.2522, -11.9896, 29.3594, 13.666, 67.2646, -166.555
4.39966, 2, -47.2521, -11.9895, 29.3594, 13.666, 67.2646, -166.555
4.40772, 2, -47.252, -11.9895, 29.3594, 13.666, 67.2646, -166.555
4.41577, 2, -47.2519, -11.9894, 29.3594, 13.666, 67.2645, -166.555
4.42367, 2, -47.2518, -11.9894, 29.3594, 13.666, 67.2645, -166.555
4.43188, 2, -47.2517, -11.9894, 29.3594, 13.666, 67.2646, -166.555
4.43967, 2, -47.2516, -11.9894, 29.3593, 13.666, 67.2645, -166.555
4.44768, 2, -47.2515, -11.9895, 29.3594, 13.666, 67.2646, -166.555
4.45468, 2, -47.2514, -11.9895, 29.3594, 13.666, 67.2646, -166.555
4.46366, 2, -47.2514, -11.9895, 29.3593, 13.666, 67.2646, -166.555
4.47267, 2, -47.2513, -11.9895, 29.3594, 13.666, 67.2646, -166.555
4.47974, 2, -47.2513, -11.9895, 29.3594, 13.666, 67.2645, -166.555
4.48872, 2, -47.2513, -11.9894, 29.3594, 13.666, 67.2645, -166.555
4.49568, 2, -47.2512, -11.9894, 29.3594, 13.666, 67.2646, -166.555
4.50374, 2, -47.2511, -11.9893, 29.3594, 13.666, 67.2646, -166.555
4.51172, 2, -47.2511, -11.9892, 29.3594, 13.666, 67.2646, -166.555
4.51966, 2, -47.2509, -11.9892, 29.3594, 13.6659, 67.2646, -166.555
4.52774, 2, -47.2508, -11.9892, 29.3594, 13.666, 67.2646, -166.555
4.53568, 2, -47.2508, -11.9892, 29.3594, 13.666, 67.2646, -166.555
4.54366, 2, -47.2506, -11.9892, 29.3594, 13.666, 67.2647, -166.555
4.5518, 2, -47.2505, -11.9892, 29.3594, 13.666, 67.2647, -166.555
4.55973, 2, -47.2504, -11.9892, 29.3594, 13.6659, 67.2647, -166.555
4.56767, 2, -47.2503, -11.9892, 29.3594, 13.6659, 67.2647, -166.555
4.57575, 2, -47.2502, -11.9892, 29.3594, 13.6659, 67.2647, -166.555
4.58366, 2, -47.2501, -11.9892, 29.3594, 13.6659, 67.2647, -166.555
4.59171, 2, -47.25, -11.9892, 29.3593, 13.6659, 67.2646, -166.555
4.59982, 2, -47.2499, -11.9891, 29.3594, 13.6659, 67.2647, -166.555
4.60767, 2, -47.2498, -11.989, 29.3594, 13.6659, 67.2647, -166.555
4.61568, 2, -47.2497, -11.9889, 29.3594, 13.6659, 67.2647, -166.555
4.62373, 2, -47.2495, -11.9889, 29.3594, 13.6659, 67.2647, -166.555
4.63172, 2, -47.2495, -11.9888, 29.3594, 13.6659, 67.2646, -166.555
4.63966, 2, -47.2494, -11.9888, 29.3594, 13.6659, 67.2646, -166.555
4.64774, 2, -47.2493, -11.9888, 29.3594, 13.6659, 67.2646, -166.555
4.65574, 2, -47.2492, -11.9888, 29.3594, 13.6659, 67.2646, -166.555
4.66368, 2, -47.2491, -11.9888, 29.3593, 13.6658, 67.2647, -166.555
4.67193, 2, -47.2491, -11.9888, 29.3594, 13.6658, 67.2646, -166.555
4.67975, 2, -47.249, -11.9888, 29.3593, 13.6659, 67.2647, -166.555
4.68777, 2, -47.249, -11.9888, 29.3594, 13.6659, 67.2647, -166.555
4.69602, 2, -47.249, -11.9888, 29.3594, 13.6659, 67.2647, -166.555
4.70377, 2, -47.249, -11.9887, 29.3594, 13.6658, 67.2647, -166.555
4.71185, 2, -47.2489, -11.9886, 29.3594, 13.6658, 67.2647, -166.555
4.71983, 2, -47.2487, -11.9886, 29.3594, 13.6658, 67.2647, -166.555
4.72767, 2, -47.2487, -11.9885, 29.3594, 13.6658, 67.2647, -166.555
4.7357, 2, -47.2486, -11.9885, 29.3594, 13.6658, 67.2647, -166.555
4.74378, 2, -47.2485, -11.9885, 29.3593, 13.6658, 67.2647, -166.555
4.752, 2, -47.2485, -11.9884, 29.3593, 13.6658, 67.2647, -166.555
4.75871, 2, -47.2484, -11.9885, 29.3593, 13.6658, 67.2647, -166.555
4.76849, 2, -47.2484, -11.9884, 29.3593, 13.6657, 67.2648, -166.555
4.77594, 2, -47.2484, -11.9884, 29.3593, 13.6657, 67.2648, -166.555
4.78271, 2, -47.2483, -11.9884, 29.3593, 13.6657, 67.2648, -166.555
4.79252, 2, -47.2483, -11.9884, 29.3593, 13.6657, 67.2648, -166.554
4.80027, 2, -47.2483, -11.9884, 29.3593, 13.6657, 67.2648, -166.554
4.80816, 2, -47.2482, -11.9883, 29.3593, 13.6657, 67.2648, -166.554
4.81661, 2, -47.2482, -11.9883, 29.3594, 13.6657, 67.2648, -166.554
4.82421, 2, -47.2481, -11.9882, 29.3594, 13.6657, 67.2647, -166.554
4.83231, 2, -47.248, -11.9881, 29.3593, 13.6656, 67.2648, -166.554
4.84052, 2, -47.2479, -11.9881, 29.3593, 13.6656, 67.2648, -166.554
4.84766, 2, -47.2479, -11.9881, 29.3593, 13.6656, 67.2648, -166.554
4.85566, 2, -47.2479, -11.9881, 29.3593, 13.6656, 67.2648, -166.554
4.86453, 2, -47.2478, -11.9881, 29.3594, 13.6656, 67.2648, -166.554
4.87172, 2, -47.2478, -11.9881, 29.3593, 13.6656, 67.2648, -166.554
4.87965, 2, -47.2478, -11.9881, 29.3593, 13.6656, 67.2649, -166.554
4.8877, 2, -47.2478, -11.9881, 29.3593, 13.6656, 67.2648, -166.554
4.89566, 2, -47.2477, -11.988, 29.3593, 13.6656, 67.2648, -166.554
4.90365, 2, -47.2477, -11.988, 29.3593, 13.6656, 67.2649, -166.554
4.91177, 2, -47.2476, -11.988, 29.3593, 13.6656, 67.2649, -166.554
4.91965, 2, -47.2476, -11.9879, 29.3594, 13.6656, 67.265, -166.554
4.92766, 2, -47.2475, -11.9879, 29.3593, 13.6655, 67.265, -166.554
4.9358, 2, -47.2474, -11.9878, 29.3594, 13.6655, 67.265, -166.554
4.94365, 2, -47.2473, -11.9877, 29.3593, 13.6655, 67.265, -166.554
4.95172, 2, -47.2473, -11.9877, 29.3593, 13.6655, 67.265, -166.554
4.95972, 2, -47.2472, -11.9877, 29.3593, 13.6655, 67.2649, -166.554
4.96765, 2, -47.2472, -11.9877, 29.3593, 13.6655, 67.265, -166.554
4.97666, 2, -47.2471, -11.9877, 29.3593, 13.6655, 67.265, -166.554
4.98372, 2, -47.2471, -11.9877, 29.3593, 13.6655, 67.265, -166.554
4.99171, 2, -47.2471, -11.9877, 29.3593, 13.6654, 67.265, -166.554
5.00066, 2, -47.2471, -11.9877, 29.3593, 13.6654, 67.265, -166.554
5.00772, 2, -47.2471, -11.9876, 29.3593, 13.6654, 67.265, -166.554
5.01566, 2, -47.247, -11.9876, 29.3593, 13.6654, 67.265, -166.554
5.02365, 2, -47.247, -11.9875, 29.3593, 13.6654, 67.265, -166.554
5.03188, 2, -47.2469, -11.9875, 29.3593, 13.6654, 67.265, -166.554
5.03965, 2, -47.2468, -11.9874, 29.3593, 13.6654, 67.2651, -166.554
5.04765, 2, -47.2467, -11.9874, 29.3593, 13.6654, 67.265, -166.554
5.05693, 2, -47.2466, -11.9874, 29.3593, 13.6653, 67.2651, -166.554
5.06365, 2, -47.2466, -11.9874, 29.3593, 13.6653, 67.265, -166.554
5.07178, 2, -47.2465, -11.9873, 29.3594, 13.6653, 67.2651, -166.554
5.07965, 2, -47.2465, -11.9873, 29.3593, 13.6653, 67.2651, -166.554
5.08766, 2, -47.2465, -11.9873, 29.3594, 13.6653, 67.2651, -166.554
5.09565, 2, -47.2464, -11.9873, 29.3593, 13.6653, 67.2651, -166.554
5.10374, 2, -47.2464, -11.9873, 29.3593, 13.6652, 67.2651, -166.554
5.11201, 2, -47.2464, -11.9873, 29.3593, 13.6652, 67.2651, -166.554
5.11964, 4, -47.2464, -11.9872, 29.3593, 13.6653, 67.2651, -166.554
5.12765, 4, -47.2463, -11.9872, 29.3593, 13.6652, 67.2651, -166.554
5.13573, 4, -47.2463, -11.9872, 29.3593, 13.6652, 67.2651, -166.554
5.14365, 4, -47.2462, -11.9871, 29.3593, 13.6652, 67.2651, -166.554
5.15173, 4, -47.2461, -11.9871, 29.3593, 13.6652, 67.2651, -166.554
5.15973, 4, -47.2461, -11.9871, 29.3593, 13.6652, 67.2652, -166.554
5.16769, 4, -47.246, -11.987, 29.3593, 13.6651, 67.2651, -166.554
5.17571, 4, -47.2459, -11.987, 29.3593, 13.6651, 67.2651, -166.554
5.18381, 4, -47.2459, -11.987, 29.3593, 13.6651, 67.2651, -166.554
5.1918, 4, -47.2459, -11.987, 29.3593, 13.6651, 67.2651, -166.554
5.19975, 4, -47.2458, -11.987, 29.3593, 13.6651, 67.2651, -166.554
5.20782, 4, -47.2458, -11.987, 29.3593, 13.6651, 67.2652, -166.554
5.21589, 4, -47.2458, -11.987, 29.3593, 13.6651, 67.2651, -166.554
5.23356, 4, -47.2458, -11.9869, 29.3593, 13.6651, 67.2652, -166.553
5.23627, 4, -47.2457, -11.9869, 29.3593, 13.6651, 67.2652, -166.553
5.23996, 4, -47.2457, -11.9868, 29.3593, 13.665, 67.2652, -166.553
5.25085, 4, -47.2456, -11.9868, 29.3593, 13.665, 67.2652, -166.553
5.2576, 4, -47.2456, -11.9868, 29.3593, 13.6651, 67.2652, -166.553
5.26545, 4, -47.2456, -11.9867, 29.3593, 13.6651, 67.2653, -166.553
5.27239, 4, -47.2455, -11.9867, 29.3593, 13.6651, 67.2653, -166.553
5.28154, 4, -47.2455, -11.9867, 29.3593, 13.665, 67.2653, -166.553
5.28841, 4, -47.2454, -11.9867, 29.3593, 13.665, 67.2653, -166.553
5.29876, 4, -47.2454, -11.9867, 29.3593, 13.665, 67.2652, -166.553
5.30509, 4, -47.2454, -11.9867, 29.3593, 13.665, 67.2652, -166.553
5.31321, 4, -47.2454, -11.9867, 29.3593, 13.665, 67.2652, -166.553
5.32037, 4, -47.2453, -11.9867, 29.3593, 13.665, 67.2652, -166.553
5.32868, 4, -47.2453, -11.9866, 29.3593, 13.665, 67.2652, -166.553
5.3378, 4, -47.2453, -11.9866, 29.3593, 13.665, 67.2653, -166.553
5.34444, 4, -47.2452, -11.9866, 29.3593, 13.6649, 67.2653, -166.553
5.35474, 4, -47.2451, -11.9865, 29.3593, 13.6649, 67.2653, -166.553
5.36178, 4, -47.2451, -11.9865, 29.3593, 13.6649, 67.2653, -166.553
5.36917, 4, -47.245, -11.9865, 29.3593, 13.6649, 67.2653, -166.553
5.3758, 4, -47.245, -11.9865, 29.3593, 13.6649, 67.2653, -166.553
5.3838, 4, -47.245, -11.9865, 29.3593, 13.6649, 67.2653, -166.553
5.39561, 4, -47.246, -11.987, 29.3597, 13.665, 67.2654, -166.553
5.40181, 4, -47.2483, -11.9888, 29.3616, 13.6667, 67.266, -166.553
5.41144, 4, -47.2525, -11.9933, 29.3672, 13.6764, 67.2683, -166.552
5.41585, 4, -47.2556, -11.9972, 29.3724, 13.6865, 67.2708, -166.55
5.42594, 4, -47.2713, -12.0175, 29.4045, 13.7502, 67.2882, -166.537
5.43183, 5, -47.2794, -12.0284, 29.4232, 13.7884, 67.2988, -166.528
5.43988, 5, -47.3015, -12.0581, 29.4772, 13.9003, 67.3304, -166.503
5.44778, 5, -47.3333, -12.0998, 29.5587, 14.0719, 67.3783, -166.464
5.45946, 5, -47.403, -12.1884, 29.744, 14.4697, 67.488, -166.372
5.46376, 5, -47.4325, -12.2254, 29.8241, 14.6435, 67.5352, -166.332
5.4723, 5, -47.5011, -12.3107, 30.0132, 15.0545, 67.646, -166.238
5.4798, 5, -47.582, -12.4112, 30.2408, 15.5458, 67.7773, -166.126
5.4907, 5, -47.7245, -12.5875, 30.6454, 16.4078, 68.0043, -165.931
5.4948, 5, -47.7768, -12.6524, 30.7951, 16.7214, 68.0857, -165.86
5.50429, 5, -47.8871, -12.7896, 31.1115, 17.377, 68.2535, -165.715
5.51188, 5, -48.0033, -12.935, 31.4459, 18.0573, 68.425, -165.567
5.52286, 5, -48.1836, -13.162, 31.967, 19.097, 68.6807, -165.344
5.52854, 5, -48.2441, -13.2384, 32.1435, 19.4439, 68.7646, -165.27
5.53578, 5, -48.3636, -13.3895, 32.4971, 20.1292, 68.9292, -165.123
5.54647, 5, -48.5319, -13.6069, 33.021, 21.12, 69.1696, -164.89
5.5555, 6, -48.6303, -13.7404, 33.3567, 21.7388, 69.3283, -164.711
5.56235, 6, -48.7127, -13.8632, 33.6758, 22.3144, 69.4887, -164.497
5.57189, 7, -48.7754, -13.9771, 33.9749, 22.8417, 69.6534, -164.234
5.57686, 7, -48.7986, -14.0312, 34.1165, 23.0863, 69.738, -164.081
5.58732, 8, -48.8359, -14.1809, 34.5097, 23.7515, 70.0026, -163.523
5.59186, 8, -48.8381, -14.2259, 34.6312, 23.9531, 70.095, -163.305
5.60096, 8, -48.8289, -14.3087, 34.8638, 24.3335, 70.2861, -162.823
5.6097, 9, -48.8041, -14.3837, 35.0846, 24.6918, 70.486, -162.288
5.61645, 9, -48.7671, -14.453, 35.2978, 25.0382, 70.6943, -161.712
5.62863, 10, -48.6927, -14.5501, 35.6136, 25.5522, 71.0218, -160.799
5.63773, 10, -48.6318, -14.6127, 35.8244, 25.8978, 71.2483, -160.171
5.64052, 11, -48.5986, -14.6438, 35.9301, 26.0725, 71.3635, -159.854
5.64781, 11, -48.5278, -14.7057, 36.1426, 26.4264, 71.5961, -159.219
5.65593, 11, -48.4523, -14.7679, 36.3549, 26.7874, 71.8314, -158.582
5.66378, 12, -48.3741, -14.8307, 36.5653, 27.1557, 72.0686, -157.943
5.67188, 13, -48.2949, -14.8925, 36.7743, 27.5317, 72.3076, -157.301
5.68017, 13, -48.2154, -14.9519, 36.9819, 27.9156, 72.5486, -156.656
5.68791, 14, -48.1341, -15.01, 37.187, 28.3069, 72.7922, -156.006
5.69735, 14, -48.0498, -15.0689, 37.3908, 28.7045, 73.0379, -155.352
5.70576, 15, -47.9617, -15.1285, 37.5938, 29.1066, 73.2857, -154.697
5.71287, 15, -47.8703, -15.1876, 37.7948, 29.5112, 73.5336, -154.044
5.72198, 16, -47.774, -15.2459, 37.9937, 29.9161, 73.7802, -153.393
5.72888, 16, -47.6708, -15.3047, 38.1911, 30.3195, 74.0243, -152.745
5.73947, 17, -47.5608, -15.3652, 38.3857, 30.72, 74.2641, -151.786
5.74405, 17, -47.4456, -15.4274, 38.5769, 31.1163, 74.4984, -151.468
5.75273, 18, -47.3257, -15.4904, 38.7657, 31.5077, 74.7261, -150.839
5.76074, 18, -47.2008, -15.5546, 38.9524, 31.8947, 74.9475, -150.218
5.76674, 18, -47.1362, -15.5873, 39.0448, 32.0867, 75.0559, -149.911
5.77701, 19, -46.9346, -15.6896, 39.3186, 32.6595, 75.3727, -149
5.78447, 19, -46.7937, -15.7609, 39.4998, 33.0397, 75.578, -148.4
5.79306, 20, -46.6476, -15.834, 39.679, 33.4191, 75.7794, -147.808
5.80044, 20, -46.4968, -15.9089, 39.8554, 33.7981, 75.9771, -147.222
5.81009, 21, -46.3413, -15.9861, 40.0294, 34.1766, 76.1711, -146.641
5.81673, 21, -46.1815, -16.0654, 40.2015, 34.5542, 76.3609, -146.066
5.82483, 22, -46.0174, -16.1462, 40.3708, 34.9296, 76.5459, -145.499
5.83086, 22, -45.9336, -16.187, 40.4542, 35.1162, 76.6367, -145.217
5.8416, 23, -45.6735, -16.3112, 40.7003, 35.6703, 76.901, -144.381
5.84852, 23, -45.5834, -16.3967, 40.8609, 36.0341, 77.0706, -143.83
5.85742, 24, -45.3022, -16.4844, 41.0175, 36.3922, 77.2343, -143.285
5.86471, 24, -45.2049, -16.5288, 41.0942, 36.5687, 77.3922, -142.745
5.87323, 25, -45.0053, -16.6185, 41.2446, 36.9158, 77.4688, -142.476
5.87985, 26, -44.7992, -16.709, 41.3908, 37.2549, 77.6176, -141.942
5.88775, 26, -44.586, -16.8007, 41.5322, 37.586, 77.7608, -141.412
5.90172, 27, -44.1381, -16.9859, 41.7986, 38.2239, 78.0328, -140.36
5.90385, 27, -44.1381, -16.9859, 41.7986, 38.2239, 78.0328, -140.36
5.91184, 28, -43.9042, -17.078, 41.9231, 38.5308, 78.1626, -139.836
5.91976, 28, -43.6634, -17.1692, 42.0412, 38.8298, 78.289, -139.313
5.93073, 29, -43.2887, -17.304, 42.2059, 39.2634, 78.4729, -138.531
5.93777, 29, -43.1606, -17.3481, 42.2573, 39.4039, 78.533, -138.27
5.94581, 30, -42.766, -17.4776, 42.401, 39.8137, 78.7087, -137.487
5.95176, 30, -42.6308, -17.5196, 42.4453, 39.9462, 78.7661, -137.226
5.95983, 31, -42.3539, -17.6018, 42.5286, 40.205, 78.8787, -136.705
5.97552, 31, -41.7767, -17.7581, 42.6739, 40.697, 79.0954, -135.665
5.97809, 32, -41.6279, -17.7957, 42.7059, 40.8147, 79.148, -135.405
5.98377, 32, -41.4774, -17.8328, 42.7363, 40.9303, 79.1998, -135.145
5.99179, 33, -41.1716, -17.9048, 42.7917, 41.1553, 79.3017, -134.627
6.00316, 33, -40.7006, -18.0068, 42.8615, 41.4779, 79.4502, -133.852
6.0079, 34, -40.5402, -18.0393, 42.8812, 41.5813, 79.4981, -133.593
6.0158, 34, -40.2156, -18.1024, 42.9149, 41.782, 79.5924, -133.078
6.02387, 35, -39.8863, -18.1628, 42.9414, 41.9746, 79.6842, -132.563
6.03185, 35, -39.5516, -18.2199, 42.9608, 42.1599, 79.7732, -132.05
6.04211, 36, -39.0373, -18.2992, 42.9767, 42.4234, 79.9028, -131.282
6.05151, 36, -38.6852, -18.3479, 42.9788, 42.5895, 79.9864, -130.772
6.05577, 37, -38.5066, -18.371, 42.9774, 42.6696, 80.0275, -130.517
6.0672, 37, -37.9624, -18.435, 42.9628, 42.8987, 80.1474, -129.756
6.07178, 38, -37.7782, -18.4544, 42.9545, 42.9714, 80.1865, -129.503
6.07979, 38, -37.4064, -18.4908, 42.933, 43.1113, 80.2626, -128.998
6.08694, 39, -37.03, -18.5238, 42.9048, 43.2437, 80.337, -128.495
6.09578, 39, -36.6491, -18.5533, 42.8699, 43.3687, 80.4087, -127.994
6.10557, 40, -36.2633, -18.5791, 42.8282, 43.4864, 80.4792, -127.495
6.11185, 40, -35.8714, -18.6012, 42.78, 43.5969, 80.5473, -126.997
6.1235, 41, -35.4736, -18.6192, 42.7253, 43.7002, 80.6142, -126.254
6.12779, 41, -35.07, -18.6334, 42.6641, 43.796, 80.6782, -126.007
6.13781, 42, -34.6615, -18.6441, 42.5963, 43.8851, 80.7411, -125.516
6.14413, 42, -34.2498, -18.6515, 42.5222, 43.9668, 80.8012, -125.027
6.1531, 43, -33.835, -18.6557, 42.4418, 44.0416, 80.86, -124.54
6.15981, 43, -33.4166, -18.6567, 42.3555, 44.1088, 80.9172, -124.055
6.16802, 44, -32.9928, -18.6541, 42.2633, 44.1697, 80.972, -123.573
6.17597, 44, -32.5629, -18.6475, 42.1654, 44.2226, 81.0262, -123.093
6.18794, 45, -31.906, -18.6308, 42.0075, 44.2889, 81.1031, -122.378
6.19185, 45, -31.6844, -18.6233, 41.952, 44.3074, 81.1281, -122.141
6.20118, 46, -31.2387, -18.606, 41.8363, 44.3386, 81.1774, -121.668
6.20879, 46, -30.7912, -18.5852, 41.7146, 44.3619, 81.2239, -121.197
6.21582, 47, -30.3412, -18.5606, 41.5872, 44.3774, 81.2689, -120.729
6.22772, 47, -29.6576, -18.5156, 41.3849, 44.3876, 81.3355, -120.031
6.23189, 48, -29.4265, -18.4983, 41.3145, 44.3876, 81.3567, -119.799
6.24207, 48, -28.9593, -18.4607, 41.169, 44.3806, 81.3985, -119.336
6.24806, 49, -28.4865, -18.4187, 41.0176, 44.365, 81.4404, -118.876
6.25717, 49, -28.0103, -18.3723, 40.8604, 44.3407, 81.4819, -118.418
6.2641, 50, -27.5318, -18.3215, 40.6969, 44.3064, 81.5224, -117.96
6.27577, 50, -27.0503, -18.2656, 40.5267, 44.2627, 81.5844, -117.275
6.28019, 51, -26.563, -18.2041, 40.3501, 44.2106, 81.6057, -117.047
6.28947, 51, -26.0681, -18.1371, 40.167, 44.1478, 81.6481, -116.592
6.29639, 52, -25.5657, -18.0645, 39.9768, 44.0757, 81.6906, -116.138
6.30507, 52, -25.059, -17.9866, 39.779, 43.993, 81.7347, -115.685
6.31418, 53, -24.5501, -17.9034, 39.5753, 43.9, 81.7796, -115.232
6.32123, 53, -24.0386, -17.8145, 39.3649, 43.7972, 81.8244, -114.779
6.32939, 54, -23.5219, -17.7195, 39.1465, 43.684, 81.8711, -114.328
6.33719, 54, -22.9976, -17.6183, 38.9213, 43.5601, 81.9201, -113.876
6.34621, 55, -22.4651, -17.5109, 38.6893, 43.4252, 81.9701, -113.424
6.35323, 55, -21.9272, -17.3972, 38.4494, 43.2786, 82.0231, -112.972
6.36163, 56, -21.3868, -17.2777, 38.2032, 43.1201, 82.0783, -112.52
6.36914, 56, -21.1156, -17.2157, 38.0776, 43.0367, 82.1061, -112.07
6.37634, 57, -20.5696, -17.0876, 37.8207, 42.861, 82.1636, -111.844
6.38382, 57, -20.0154, -16.954, 37.5574, 42.6739, 82.2233, -111.393
6.39172, 58, -19.4516, -16.8143, 37.2873, 42.4746, 82.2839, -110.943
6.39989, 58, -18.8809, -16.668, 37.0102, 42.2626, 82.3476, -110.493
6.40956, 59, -18.0191, -16.4369, 36.5819, 41.9201, 82.4464, -109.818
6.41576, 59, -17.7304, -16.3572, 36.4354, 41.7994, 82.4813, -109.594
6.42559, 60, -17.1476, -16.1949, 36.1375, 41.4166, 82.5893, -108.919
6.4338, 60, -16.5544, -16.0279, 35.8329, 41.2823, 82.6646, -108.469
6.43978, 61, -15.9524, -15.8553, 35.5231, 41.0039, 82.7026, -108.244
6.44779, 61, -15.346, -15.6776, 35.2077, 40.7125, 82.7801, -107.794
6.45611, 62, -14.7374, -15.4961, 34.8875, 40.4096, 82.859, -107.345
6.46375, 62, -14.1241, -15.3108, 34.5625, 40.0946, 82.9398, -106.896
6.47253, 63, -13.5018, -15.1205, 34.234, 39.768, 83.0218, -106.447
6.47973, 63, -12.8704, -14.9239, 33.9016, 39.4285, 83.1057, -105.998
6.48792, 64, -12.2327, -14.7222, 33.5651, 39.0761, 83.1921, -105.548
6.49576, 64, -11.5911, -14.5159, 33.2232, 38.7105, 83.2814, -105.098
6.50473, 65, -10.9433, -14.3029, 32.8756, 38.3304, 83.3749, -104.646
6.51192, 65, -10.2844, -14.0819, 32.5213, 37.9345, 83.4735, -104.192
6.52431, 66, -9.27646, -13.737, 31.9791, 37.3061, 83.6328, -103.508
6.53142, 66, -8.5947, -13.4979, 31.6096, 36.8639, 83.7479, -103.049
6.53575, 67, -8.25164, -13.3754, 31.4217, 36.6354, 83.8082, -102.818
6.54635, 67, -7.20877, -12.9961, 30.8454, 35.9218, 84.0014, -102.122
6.55183, 68, -6.85603, -12.8656, 30.6498, 35.6747, 84.0698, -101.889
6.56066, 68, -6.14448, -12.5994, 30.2553, 35.1689, 84.2119, -101.42
6.57277, 69, -5.06625, -12.188, 29.656, 34.3853, 84.4371, -100.713
6.57672, 69, -4.70406, -12.0468, 29.4547, 34.1181, 84.5146, -100.476
6.58533, 70, -3.97376, -11.759, 29.0515, 33.5764, 84.6733, -100.002
6.59252, 70, -3.235, -11.4634, 28.6487, 33.0224, 84.8373, -99.5249
6.60235, 71, -2.48791, -11.1594, 28.0431, 32.1656, 85.0946, -98.807
6.60912, 71, -1.73282, -10.8488, 27.84, 31.8726, 85.1843, -98.5665
6.61575, 72, -0.969545, -10.5317, 27.4318, 31.2746, 85.3708, -98.0829
6.62533, 72, -0.199859, -10.2091, 27.021, 30.6587, 85.5665, -97.5964
6.63173, 73, 0.574725, -9.87993, 26.6084, 30.0286, 85.7712, -97.1069
6.63974, 73, 1.35346, -9.54308, 26.1952, 29.3869, 85.9838, -96.616
6.64883, 74, 2.13606, -9.19954, 25.7826, 28.7361, 86.2043, -96.1239
6.65579, 74, 2.92115, -8.85098, 25.3731, 28.0781, 86.4318, -95.6305
6.66708, 75, 4.10146, -8.31872, 24.7682, 27.0799, 86.7852, -94.8889
6.67605, 75, 4.8897, -7.95757, 24.371, 26.4115, 87.0277, -94.3943
6.67978, 76, 5.28355, -7.77522, 24.1747, 26.0777, 87.151, -94.1468
6.68784, 76, 6.07035, -7.40653, 23.7866, 25.4094, 87.4013, -93.651
6.6959, 77, 6.856, -7.03192, 23.4054, 24.743, 87.6572, -93.1551
6.70539, 77, 7.64164, -6.6493, 23.0296, 24.0793, 87.92, -92.6593
6.71189, 78, 8.42803, -6.25789, 22.6585, 23.4149, 88.1919, -92.1632
6.72637, 78, 9.60863, -5.65408, 22.1101, 22.4108, 88.6206, -91.4145
6.74041, 79, 10.0032, -5.44857, 21.9289, 22.0733, 88.7701, -90.3994
6.7417, 79, 11.1898, -4.82064, 21.3888, 21.0526, 89.238, -90.3994
6.74563, 80, 11.5851, -4.60663, 21.2097, 20.71, 89.4004, -90.1417
6.7517, 80, 12.3724, -4.17089, 20.8542, 20.0225, 89.7338, -89.6206
6.76068, 81, 13.153, -3.72498, 20.5022, 19.339, 90.0783, -89.0916
6.76781, 81, 13.9279, -3.27138, 20.1555, 18.6639, 90.432, -88.5566
6.77616, 82, 14.6958, -2.81094, 19.8158, 18.0018, 90.7927, -88.0168
6.78406, 82, 15.4553, -2.34243, 19.4861, 17.3552, 91.1583, -87.4749
6.79194, 82, 16.2047, -1.86653, 19.1662, 16.7268, 91.528, -86.9306
6.80008, 83, 16.9425, -1.38397, 18.857, 16.119, 91.901, -86.3857
6.80807, 83, 17.6678, -0.895946, 18.5577, 15.5315, 92.2779, -85.8414
6.8162, 84, 18.3785, -0.403964, 18.2684, 14.9638, 92.6599, -85.2991
6.82414, 84, 19.0725, 0.091332, 17.9872, 14.4166, 93.0483, -84.7582
6.833, 85, 19.7479, 0.591402, 17.7124, 13.8892, 93.4445, -84.2194
6.8386, 85, 20.0785, 0.843169, 17.5776, 13.6328, 93.6456, -83.9507
6.84907, 86, 20.7264, 1.34999, 17.3124, 13.135, 94.0525, -83.1482
6.85559, 86, 21.3582, 1.86084, 17.0532, 12.657, 94.4651, -82.881
6.86364, 86, 21.976, 2.37808, 16.8009, 12.199, 94.8836, -82.3455
6.87159, 87, 22.5816, 2.90503, 16.5537, 11.7605, 95.3083, -81.8069
6.87959, 87, 23.1763, 3.44188, 16.3109, 11.3405, 95.7398, -81.2637
6.8866, 88, 23.7612, 3.98629, 16.0718, 10.9366, 96.1786, -80.7142
6.89559, 88, 24.3357, 4.53814, 15.8354, 10.5485, 96.6237, -80.1554
6.9036, 89, 24.8994, 5.10059, 15.6043, 10.1756, 97.0756, -79.5866
6.9117, 89, 25.4546, 5.67554, 15.3777, 9.81814, 97.5339, -79.0065
6.91959, 90, 26.0057, 6.2615, 15.1542, 9.47623, 97.9975, -78.4141
6.92769, 90, 26.5521, 6.85718, 14.9347, 9.14947, 98.467, -77.8072
6.93561, 91, 27.0883, 7.46194, 14.7206, 8.83954, 98.9426, -77.1863
6.94359, 91, 27.611, 8.07688, 14.5111, 8.54731, 99.4244, -76.5529
6.95163, 92, 28.1225, 8.70262, 14.3053, 8.27478, 99.9123, -75.9071
6.9596, 92, 28.626, 9.33851, 14.1036, 8.0235, 100.405, -75.2505
6.96757, 93, 29.1222, 9.98361, 13.9067, 7.79377, 100.902, -74.5861
6.97565, 93, 29.6071, 10.636, 13.7158, 7.58698, 101.401, -73.9149
6.98529, 94, 30.0784, 11.2937, 13.5326, 7.40339, 102.148, -72.8945
6.99158, 94, 30.5348, 11.9548, 13.3565, 7.24328, 102.395, -72.5519
6.99966, 95, 30.9774, 12.6186, 13.1872, 7.10692, 102.889, -71.8637
7.00761, 95, 31.4063, 13.2842, 13.0259, 6.99433, 103.379, -71.169
7.01559, 96, 31.8214, 13.9514, 12.8722, 6.90505, 103.866, -70.4688
7.02364, 96, 32.2211, 14.6193, 12.7249, 6.84016, 104.349, -69.7641
7.03158, 97, 32.6044, 15.2879, 12.5841, 6.79833, 104.828, -69.0533
7.03959, 97, 32.9717, 15.9557, 12.4505, 6.77752, 105.302, -68.3368
7.04759, 98, 33.3234, 16.6214, 12.3251, 6.77862, 105.769, -67.6179
7.05559, 98, 33.6604, 17.2837, 12.2084, 6.80173, 106.228, -66.8954
7.06365, 99, 33.9833, 17.9406, 12.1009, 6.84433, 106.677, -66.1712
7.07159, 99, 34.2937, 18.591, 12.003, 6.90721, 107.115, -65.4494
7.0797, 100, 34.5929, 19.233, 11.9144, 6.98801, 107.54, -64.7294
7.08766, 100, 34.8808, 19.8662, 11.835, 7.08652, 107.951, -64.0126
7.09556, 101, 35.1566, 20.4888, 11.7642, 7.20154, 108.345, -63.3032
7.10358, 101, 35.4199, 21.1005, 11.7016, 7.33167, 108.724, -62.6006
7.11187, 102, 35.6709, 21.7005, 11.6475, 7.47502, 109.087, -61.9063
7.1196, 102, 35.9083, 22.2874, 11.6016, 7.62952, 109.432, -61.2232
7.12759, 102, 36.1333, 22.8607, 11.5639, 7.79325, 109.762, -60.5518
7.13565, 103, 36.3495, 23.4188, 11.5344, 7.96467, 110.076, -59.8918
7.14359, 103, 36.5593, 23.9615, 11.5137, 8.1438, 110.374, -59.2446
7.15159, 104, 36.763, 24.4891, 11.5016, 8.33108, 110.654, -58.6108
7.15972, 104, 36.9601, 25.0012, 11.497, 8.52718, 110.916, -57.9875
7.1676, 104, 37.1512, 25.4969, 11.4988, 8.73244, 111.157, -57.3756
7.17566, 104, 37.3347, 25.9774, 11.5067, 8.94554, 111.379, -56.7758
7.18367, 104, 37.5079, 26.4414, 11.519, 9.16515, 111.582, -56.1891
7.19167, 104, 37.6711, 26.8893, 11.5342, 9.38883, 111.768, -55.6166
7.19992, 104, 37.8282, 27.3223, 11.5524, 9.61359, 111.94, -55.0617
7.20771, 104, 37.9818, 27.7396, 11.5725, 9.83686, 112.101, -54.5281
7.21594, 104, 38.1315, 28.1408, 11.5931, 10.0563, 112.252, -54.0168
7.22375, 104, 38.2758, 28.5251, 11.6135, 10.2708, 112.395, -53.5283
7.23167, 104, 38.414, 28.893, 11.6327, 10.4789, 112.53, -53.0644
7.23961, 104, 38.5449, 29.2427, 11.6509, 10.68, 112.657, -52.6243
7.24786, 104, 38.6677, 29.5744, 11.668, 10.8727, 112.776, -52.2098
7.25568, 104, 38.7819, 29.8864, 11.6839, 11.0569, 112.888, -51.82
7.26379, 104, 38.8879, 30.18, 11.6988, 11.2315, 112.991, -51.4549
7.27182, 104, 38.9861, 30.4548, 11.7127, 11.3963, 113.088, -51.1156
7.27991, 104, 39.0768, 30.7097, 11.7252, 11.5506, 113.177, -50.8016
7.28796, 104, 39.1596, 30.9452, 11.7366, 11.6941, 113.258, -50.5127
7.29599, 104, 39.2343, 31.1611, 11.7469, 11.8263, 113.332, -50.2491
7.30408, 104, 39.3011, 31.3567, 11.7566, 11.947, 113.399, -50.0107
7.31211, 104, 39.3599, 31.5331, 11.7653, 12.0559, 113.459, -49.7976
7.32018, 104, 39.4116, 31.69, 11.7729, 12.1526, 113.512, -49.6097
7.32856, 104, 39.457, 31.8278, 11.7797, 12.2374, 113.557, -49.4464
7.33618, 104, 39.4967, 31.9475, 11.786, 12.3096, 113.595, -49.3075
7.3442, 104, 39.5304, 32.0503, 11.7915, 12.3706, 113.627, -49.192
7.35272, 104, 39.5581, 32.1367, 11.7965, 12.4196, 113.653, -49.0985
7.36018, 104, 39.57, 32.1742, 11.7987, 12.4399, 113.664, -49.0592
7.36765, 104, 39.5901, 32.2389, 11.8029, 12.4733, 113.681, -48.9954
7.37655, 104, 39.6058, 32.3134, 11.8086, 12.5083, 113.698, -48.9305
7.38358, 104, 39.618, 32.3328, 11.8103, 12.5165, 113.702, -48.9156
7.39161, 104, 39.6273, 32.3643, 11.8134, 12.529, 113.707, -48.8938
7.39961, 104, 39.6342, 32.3878, 11.8162, 12.5371, 113.711, -48.8802
7.40758, 104, 39.6387, 32.4053, 11.8186, 12.5418, 113.712, -48.8726
7.41579, 104, 39.6413, 32.4175, 11.8204, 12.5443, 113.713, -48.8689
7.42359, 104, 39.6428, 32.4253, 11.8218, 12.5455, 113.714, -48.8672
7.43157, 105, 39.6431, 32.4303, 11.8229, 12.5461, 113.714, -48.8665
7.43962, 105, 39.6424, 32.4335, 11.8239, 12.5464, 113.714, -48.8663
7.4476, 105, 39.6415, 32.4358, 11.8246, 12.5466, 113.714, -48.8665
7.45557, 105, 39.6406, 32.4375, 11.8253, 12.5467, 113.714, -48.8667
7.46361, 105, 39.6395, 32.439, 11.8259, 12.5467, 113.714, -48.8669
7.47159, 105, 39.6382, 32.4403, 11.8265, 12.5467, 113.714, -48.8673
7.47959, 105, 39.6373, 32.4415, 11.8271, 12.5467, 113.714, -48.8676
7.48913, 105, 39.6368, 32.4426, 11.8276, 12.5467, 113.714, -48.8679
7.49559, 105, 39.6365, 32.4437, 11.8282, 12.5467, 113.714, -48.8682
7.50357, 105, 39.6363, 32.4447, 11.8288, 12.5467, 113.714, -48.8684
7.51161, 105, 39.6361, 32.4455, 11.8292, 12.5467, 113.714, -48.8687
7.52071, 105, 39.6358, 32.4462, 11.8296, 12.5467, 113.714, -48.8689
7.52757, 105, 39.6355, 32.4467, 11.8299, 12.5467, 113.714, -48.8692
7.53563, 105, 39.6353, 32.4469, 11.8301, 12.5467, 113.714, -48.8694
7.54359, 105, 39.635, 32.447, 11.8304, 12.5467, 113.714, -48.8696
