hehonglu123/Motion-Primitive-Planning/ILC/recorded_data/curve1_250/realrobot/250_iteration2.csv
timestamp, cmd_num, J1, J2, J3, J4, J5, J6
0.00038, -1, 11.378, 13.6135, 17.3385, -145.519, -97.9235, 142.516
0.004474, -1, 11.378, 13.6135, 17.3385, -145.519, -97.9235, 142.516
0.007954, -1, 11.378, 13.6135, 17.3385, -145.519, -97.9235, 142.516
0.028543, -1, 11.378, 13.6135, 17.3385, -145.519, -97.9235, 142.516
0.031306, -1, 11.378, 13.6135, 17.3385, -145.519, -97.9235, 142.516
0.034513, -1, 11.378, 13.6135, 17.3385, -145.519, -97.9235, 142.516
0.039721, -1, 11.378, 13.6135, 17.3385, -145.519, -97.9235, 142.516
0.047668, -1, 11.3779, 13.6135, 17.3385, -145.519, -97.9235, 142.516
0.055716, -1, 11.3774, 13.6134, 17.3385, -145.519, -97.9235, 142.516
0.063661, -1, 11.3748, 13.6132, 17.3385, -145.519, -97.9235, 142.516
0.071656, -1, 11.3682, 13.6125, 17.3383, -145.519, -97.9235, 142.516
0.079724, -1, 11.357, 13.6106, 17.3379, -145.52, -97.9234, 142.512
0.087661, -1, 11.3395, 13.607, 17.3372, -145.521, -97.9233, 142.502
0.095661, -1, 11.3126, 13.601, 17.3364, -145.525, -97.9227, 142.479
0.103905, -1, 11.2742, 13.5917, 17.3358, -145.532, -97.9211, 142.438
0.111673, -1, 11.224, 13.5793, 17.3359, -145.543, -97.9177, 142.372
0.119704, -1, 11.1624, 13.5638, 17.3376, -145.561, -97.9122, 142.276
0.128048, -1, 11.0892, 13.5447, 17.3416, -145.584, -97.9044, 142.145
0.135234, -1, 11.004, 13.5216, 17.348, -145.613, -97.8943, 141.98
0.14383, -1, 10.9072, 13.4953, 17.3566, -145.647, -97.8821, 141.782
0.152133, -1, 10.7997, 13.4655, 17.367, -145.686, -97.8684, 141.556
0.159344, -1, 10.6812, 13.4327, 17.3782, -145.728, -97.8537, 141.31
0.167839, -1, 10.5522, 13.397, 17.3894, -145.772, -97.8383, 141.049
0.176675, -1, 10.4142, 13.3591, 17.4001, -145.818, -97.8225, 140.781
0.18369, -1, 10.2694, 13.3195, 17.4103, -145.866, -97.8063, 140.506
0.191814, -1, 10.1201, 13.2791, 17.4204, -145.913, -97.7898, 140.23
0.200581, -1, 9.9677, 13.2381, 17.4304, -145.96, -97.7728, 139.952
0.207824, -1, 9.8131, 13.1967, 17.4405, -146.009, -97.7556, 139.673
0.215915, -1, 9.65762, 13.1554, 17.4506, -146.057, -97.7384, 139.394
0.224916, -1, 9.5025, 13.1142, 17.4605, -146.104, -97.7215, 139.115
0.231999, -1, 9.34785, 13.0731, 17.4704, -146.153, -97.7047, 138.836
0.240132, -1, 9.19361, 13.032, 17.4804, -146.201, -97.6879, 138.556
0.246654, -1, 9.11667, 13.0115, 17.4854, -146.224, -97.6795, 138.417
0.254702, -1, 8.96298, 12.9705, 17.4955, -146.273, -97.6629, 138.137
0.264232, -1, 8.73266, 12.9091, 17.5106, -146.344, -97.6372, 137.718
0.273154, -1, 8.57975, 12.868, 17.5206, -146.392, -97.6198, 137.438
0.278708, -1, 8.5034, 12.8474, 17.5257, -146.416, -97.611, 137.298
0.288262, -1, 8.35059, 12.8061, 17.536, -146.488, -97.585, 136.879
0.296757, -1, 8.19743, 12.7648, 17.5461, -146.512, -97.5764, 136.739
0.303697, -1, 8.04377, 12.7232, 17.5563, -146.56, -97.5595, 136.459
0.311638, -1, 7.88947, 12.6817, 17.5664, -146.608, -97.5428, 136.179
0.319653, -1, 7.73471, 12.6401, 17.5764, -146.656, -97.5262, 135.899
0.327701, -1, 7.57975, 12.5985, 17.5866, -146.704, -97.5095, 135.619
0.335648, -1, 7.42467, 12.557, 17.5968, -146.752, -97.4925, 135.339
0.344809, -1, 7.19197, 12.4949, 17.612, -146.824, -97.4664, 134.918
0.351681, -1, 7.11441, 12.4742, 17.6172, -146.848, -97.4577, 134.778
0.359659, -1, 6.95923, 12.4329, 17.6274, -146.896, -97.4405, 134.499
0.369139, -1, 6.72672, 12.3711, 17.6429, -146.968, -97.4151, 134.078
0.375641, -1, 6.64941, 12.3505, 17.6481, -146.993, -97.4067, 133.938
0.383642, -1, 6.49494, 12.3093, 17.6584, -147.041, -97.39, 133.658
0.392995, -1, 6.3406, 12.2681, 17.6688, -147.089, -97.3732, 133.378
0.398699, -1, 6.18641, 12.2267, 17.679, -147.137, -97.3562, 133.097
0.407647, -1, 6.03211, 12.1853, 17.6892, -147.185, -97.3389, 132.817
0.417933, -1, 5.80025, 12.1231, 17.7046, -147.257, -97.3125, 132.396
0.423709, -1, 5.72288, 12.1022, 17.7097, -147.281, -97.3038, 132.255
0.432693, -1, 5.56792, 12.0605, 17.7199, -147.329, -97.2865, 131.975
0.439649, -1, 5.41276, 12.0189, 17.7301, -147.377, -97.2696, 131.694
0.447711, -1, 5.25735, 11.9773, 17.7403, -147.425, -97.2527, 131.413
0.456691, -1, 5.1016, 11.9357, 17.7507, -147.474, -97.236, 131.132
0.463639, -1, 4.94572, 11.8941, 17.7611, -147.521, -97.2192, 130.851
0.47164, -1, 4.78996, 11.8526, 17.7715, -147.57, -97.2021, 130.57
0.479655, -1, 4.63419, 11.8112, 17.7819, -147.618, -97.1847, 130.29
0.48771, -1, 4.47843, 11.7698, 17.7922, -147.666, -97.1672, 130.009
0.625063, -1, 1.83499, 11.0626, 17.968, -148.487, -96.8766, 125.225
0.626238, -1, 1.83499, 11.0626, 17.968, -148.487, -96.8766, 125.225
0.628265, -1, 1.75679, 11.0418, 17.9732, -148.511, -96.8678, 125.084
0.629596, -1, 1.75679, 11.0418, 17.9732, -148.511, -96.8678, 125.084
0.631607, -1, 1.6786, 11.021, 17.9784, -148.535, -96.8592, 124.943
0.632899, -1, 1.6786, 11.021, 17.9784, -148.535, -96.8592, 124.943
0.634074, -1, 1.6786, 11.021, 17.9784, -148.535, -96.8592, 124.943
0.639827, -1, 1.5224, 10.9792, 17.9889, -148.584, -96.8422, 124.661
0.801788, -1, -1.60043, 10.1438, 18.1964, -149.554, -96.5006, 119.007
0.802987, -1, -1.60043, 10.1438, 18.1964, -149.554, -96.5006, 119.007
0.805931, -1, -1.67855, 10.1229, 18.2017, -149.579, -96.492, 118.866
0.808645, -1, -1.75652, 10.102, 18.2069, -149.603, -96.4834, 118.724
0.810085, -1, -1.75652, 10.102, 18.2069, -149.603, -96.4834, 118.724
0.811354, -1, -1.75652, 10.102, 18.2069, -149.603, -96.4834, 118.724
0.813362, -1, -1.83438, 10.0812, 18.212, -149.627, -96.4748, 118.583
0.816357, -1, -1.83438, 10.0812, 18.212, -149.627, -96.4748, 118.583
0.817755, -1, -1.91213, 10.0602, 18.2172, -149.652, -96.4661, 118.441
0.819114, -1, -1.91213, 10.0602, 18.2172, -149.652, -96.4661, 118.441
0.821078, -1, -1.98981, 10.0393, 18.2225, -149.676, -96.4573, 118.299
0.822384, -1, -1.98981, 10.0393, 18.2225, -149.676, -96.4573, 118.299
0.823728, -1, -1.98981, 10.0393, 18.2225, -149.676, -96.4573, 118.299
0.825792, -1, -2.06743, 10.0184, 18.2277, -149.7, -96.4484, 118.157
0.827093, -1, -2.06743, 10.0184, 18.2277, -149.7, -96.4484, 118.157
0.831157, -1, -2.14499, 9.99749, 18.2329, -149.725, -96.4396, 118.015
0.833175, -1, -2.22256, 9.9766, 18.238, -149.749, -96.4309, 117.874
0.83449, -1, -2.22256, 9.9766, 18.238, -149.749, -96.4309, 117.874
0.835662, -1, -2.22256, 9.9766, 18.238, -149.749, -96.4309, 117.874
0.837696, -1, -2.3002, 9.95571, 18.2432, -149.773, -96.4222, 117.732
0.838973, -1, -2.3002, 9.95571, 18.2432, -149.773, -96.4222, 117.732
0.840831, -1, -2.37791, 9.93477, 18.2484, -149.798, -96.4136, 117.59
0.843564, -1, -2.37791, 9.93477, 18.2484, -149.798, -96.4136, 117.59
0.845612, -1, -2.45571, 9.91379, 18.2536, -149.822, -96.4051, 117.449
0.846813, -1, -2.45571, 9.91379, 18.2536, -149.822, -96.4051, 117.449
0.848805, -1, -2.45571, 9.91379, 18.2536, -149.846, -96.3966, 117.307
0.850187, -1, -2.53355, 9.89281, 18.2589, -149.846, -96.3966, 117.307
0.851456, -1, -2.53355, 9.89281, 18.2589, -149.846, -96.3966, 117.307
0.854196, -1, -2.61145, 9.87185, 18.2641, -149.87, -96.3881, 117.165
0.856913, -1, -2.68946, 9.85088, 18.2692, -149.895, -96.3798, 117.023
0.86581, -1, -2.84564, 9.80895, 18.2795, -149.943, -96.363, 116.739
0.867114, -1, -2.84564, 9.80895, 18.2795, -149.943, -96.363, 116.739
0.868973, -1, -2.84564, 9.78799, 18.2847, -149.967, -96.3545, 116.598
0.870439, -1, -2.92388, 9.78799, 18.2847, -149.967, -96.3545, 116.598
0.871622, -1, -2.92388, 9.78799, 18.2847, -149.967, -96.3545, 116.598
0.873669, -1, -3.00228, 9.76703, 18.2899, -149.992, -96.3461, 116.456
0.874879, -1, -3.00228, 9.76703, 18.2899, -149.992, -96.3461, 116.456
0.881085, -1, -3.08078, 9.74609, 18.3003, -150.041, -96.3289, 116.172
0.882587, -1, -3.15935, 9.72515, 18.3003, -150.041, -96.3289, 116.172
0.883762, -1, -3.15935, 9.72515, 18.3003, -150.041, -96.3289, 116.172
0.885782, -1, -3.23804, 9.70418, 18.3055, -150.065, -96.3202, 116.03
0.887634, -1, -3.23804, 9.70418, 18.3055, -150.065, -96.3202, 116.03
0.895618, -1, -3.39579, 9.66223, 18.3159, -150.113, -96.3026, 115.746
0.903631, -1, -3.55368, 9.62023, 18.3264, -150.162, -96.285, 115.462
0.91174, -1, -3.71146, 9.57839, 18.3368, -150.211, -96.2677, 115.178
0.919618, -1, -3.86939, 9.53647, 18.3471, -150.259, -96.2507, 114.894
0.927643, -1, -4.02738, 9.49449, 18.3575, -150.308, -96.2337, 114.61
0.935699, -1, -4.18522, 9.45262, 18.3678, -150.357, -96.2168, 114.326
0.944673, -1, -4.34286, 9.41069, 18.3781, -150.406, -96.1996, 114.041
0.95163, -1, -4.50012, 9.36873, 18.3885, -150.455, -96.1823, 113.757
0.959718, -1, -4.65713, 9.32677, 18.3988, -150.504, -96.1646, 113.472
0.967619, -1, -4.81364, 9.28477, 18.4092, -150.552, -96.1469, 113.187
0.975635, -1, -4.96984, 9.24273, 18.4197, -150.602, -96.1294, 112.903
0.983683, -1, -5.12583, 9.20072, 18.4302, -150.65, -96.1122, 112.618
0.991622, -1, -5.28178, 9.15866, 18.4408, -150.698, -96.0952, 112.333
0.999628, -1, -5.4379, 9.1165, 18.4513, -150.748, -96.0783, 112.049
1.00769, -1, -5.5941, 9.07442, 18.4616, -150.796, -96.0614, 111.764
1.01573, -1, -5.75061, 9.03236, 18.472, -150.845, -96.0443, 111.479
1.02392, -1, -5.90751, 8.9902, 18.4824, -150.894, -96.0269, 111.194
1.03162, -1, -6.06484, 8.94809, 18.4927, -150.943, -96.0093, 110.909
1.03962, -1, -6.22285, 8.90599, 18.5031, -150.991, -95.9918, 110.624
1.04846, -1, -6.3812, 8.86388, 18.5134, -151.041, -95.9746, 110.339
1.05563, -1, -6.53964, 8.82186, 18.5237, -151.09, -95.9576, 110.054
1.06363, -1, -6.69819, 8.77975, 18.5342, -151.139, -95.9405, 109.769
1.07241, -1, -6.85692, 8.73766, 18.5448, -151.188, -95.9236, 109.483
1.07962, -1, -7.0155, 8.69559, 18.5552, -151.237, -95.9064, 109.197
1.08763, -1, -7.17397, 8.65351, 18.5657, -151.286, -95.8891, 108.912
1.09652, -1, -7.3322, 8.61139, 18.576, -151.335, -95.8714, 108.627
1.10362, -1, -7.49002, 8.56916, 18.5864, -151.384, -95.8537, 108.341
1.1119, -1, -7.64773, 8.52691, 18.5969, -151.433, -95.8363, 108.055
1.12055, -1, -7.80502, 8.4847, 18.6073, -151.482, -95.819, 107.77
1.12769, -1, -7.9619, 8.44245, 18.6177, -151.531, -95.802, 107.484
1.13594, -1, -8.11856, 8.40011, 18.628, -151.58, -95.785, 107.198
1.14507, -1, -8.27517, 8.35782, 18.6385, -151.629, -95.7681, 106.912
1.15173, -1, -8.43187, 8.31551, 18.649, -151.678, -95.7509, 106.626
1.16016, -1, -8.58882, 8.27318, 18.6595, -151.727, -95.7333, 106.34
1.1672, -1, -8.66743, 8.25206, 18.6647, -151.776, -95.7156, 106.054
1.17562, -1, -8.90387, 8.1887, 18.6803, -151.825, -95.698, 105.767
1.18448, -1, -9.06204, 8.1464, 18.6907, -151.874, -95.6807, 105.481
1.19176, -1, -9.22062, 8.10423, 18.7011, -151.924, -95.6635, 105.195
1.19968, -1, -9.3795, 8.06199, 18.7115, -151.973, -95.6464, 104.908
1.20857, -1, -9.53862, 8.0197, 18.7219, -152.022, -95.6293, 104.621
1.21579, -1, -9.69781, 7.9775, 18.7323, -152.072, -95.612, 104.335
1.22384, -1, -9.8571, 7.93534, 18.7428, -152.12, -95.5944, 104.048
1.23273, -1, -10.0165, 7.89304, 18.7534, -152.17, -95.5765, 103.761
1.24013, -1, -10.1757, 7.8507, 18.764, -152.219, -95.5587, 103.474
1.24811, -1, -10.3348, 7.80829, 18.7745, -152.268, -95.5412, 103.187
1.25461, -1, -10.4141, 7.78706, 18.7798, -152.293, -95.5325, 103.044
1.26414, -1, -10.6519, 7.72335, 18.7954, -152.367, -95.5069, 102.613
1.27061, -1, -10.7311, 7.70216, 18.8006, -152.392, -95.4984, 102.47
1.28103, -1, -10.9678, 7.63838, 18.8164, -152.465, -95.4728, 102.04
1.28938, -1, -11.0466, 7.59591, 18.8267, -152.515, -95.4555, 101.752
1.29623, -1, -11.204, 7.57469, 18.832, -152.564, -95.4377, 101.465
1.30361, -1, -11.3614, 7.53229, 18.8424, -152.589, -95.4289, 101.321
1.3116, -1, -11.519, 7.48983, 18.8529, -152.638, -95.4111, 101.034
1.31867, -1, -11.6768, 7.44742, 18.8634, -152.687, -95.3937, 100.746
1.32961, -1, -11.9142, 7.3839, 18.8793, -152.761, -95.3678, 100.314
1.33562, -1, -11.9935, 7.36273, 18.8846, -152.786, -95.3592, 100.171
1.34364, -1, -12.1525, 7.32039, 18.8951, -152.835, -95.342, 99.8832
1.35169, -1, -12.3119, 7.27799, 18.9056, -152.885, -95.3248, 99.5953
1.35868, -1, -12.4715, 7.23555, 18.9161, -152.934, -95.3072, 99.3072
1.3676, -1, -12.6315, 7.19319, 18.9266, -152.984, -95.2893, 99.0193
1.37561, -1, -12.7915, 7.15078, 18.9371, -153.033, -95.2714, 98.7315
1.38367, -1, -12.9517, 7.10831, 18.9476, -153.083, -95.2537, 98.4433
1.39061, -1, -13.1117, 7.06578, 18.9581, -153.132, -95.2363, 98.1552
1.39961, -1, -13.2715, 7.02321, 18.9686, -153.182, -95.219, 97.8672
1.40661, -1, -13.4308, 6.98061, 18.9792, -153.231, -95.202, 97.5791
1.41561, -1, -13.5902, 6.93788, 18.9898, -153.28, -95.1849, 97.2905
1.42366, -1, -13.7494, 6.89516, 19.0003, -153.33, -95.1676, 97.0017
1.43261, -1, -13.9082, 6.85251, 19.0107, -153.379, -95.1499, 96.7134
1.4396, -1, -14.0665, 6.80982, 19.0212, -153.428, -95.1321, 96.4248
1.44761, -1, -14.2246, 6.76726, 19.0317, -153.478, -95.1144, 96.1361
1.45567, -1, -14.3828, 6.72466, 19.0422, -153.528, -95.0971, 95.8471
1.46362, -1, -14.5411, 6.68202, 19.0526, -153.577, -95.0799, 95.5584
1.4716, -1, -14.6998, 6.63947, 19.0632, -153.627, -95.0627, 95.2693
1.47967, -1, -14.8589, 6.59699, 19.0737, -153.676, -95.0456, 94.9801
1.48761, -1, -15.0182, 6.55438, 19.0843, -153.725, -95.0282, 94.691
1.4956, -1, -15.178, 6.51177, 19.095, -153.776, -95.0105, 94.4019
1.50368, -1, -15.3382, 6.46925, 19.1056, -153.825, -94.9926, 94.1129
1.5116, -1, -15.4987, 6.42663, 19.1163, -153.874, -94.9746, 93.8235
1.5197, -1, -15.6595, 6.38398, 19.1268, -153.925, -94.9569, 93.5343
1.52767, -1, -15.8203, 6.3413, 19.1374, -153.974, -94.9396, 93.2451
1.5356, -1, -15.9809, 6.29852, 19.148, -154.024, -94.9224, 92.9557
1.54368, -1, -16.1416, 6.25569, 19.1585, -154.074, -94.9053, 92.6659
1.55161, -1, -16.3024, 6.21286, 19.169, -154.123, -94.8881, 92.3763
1.5596, -1, -16.4629, 6.16991, 19.1795, -154.172, -94.8706, 92.0868
1.56766, -1, -16.623, 6.12697, 19.19, -154.222, -94.8528, 91.7968
1.5756, -1, -16.7829, 6.08411, 19.2006, -154.272, -94.8348, 91.5068
1.58361, -1, -16.9422, 6.04118, 19.2112, -154.322, -94.8171, 91.2169
1.59167, -1, -17.1014, 5.99828, 19.2218, -154.372, -94.7996, 90.9268
1.59968, -1, -17.2605, 5.95543, 19.2324, -154.421, -94.7822, 90.6367
1.60761, -1, -17.4197, 5.91269, 19.2429, -154.471, -94.7649, 90.3463
1.61568, -1, -17.579, 5.86996, 19.2535, -154.521, -94.7476, 90.0562
1.62364, -1, -17.7385, 5.82722, 19.2642, -154.57, -94.7299, 89.7658
1.63177, -1, -17.8981, 5.78447, 19.2748, -154.621, -94.712, 89.4754
1.63975, -1, -18.0581, 5.74174, 19.2854, -154.671, -94.6938, 89.185
1.6477, -1, -18.2187, 5.69903, 19.2959, -154.72, -94.6759, 88.8946
1.65577, -1, -18.3797, 5.6563, 19.3065, -154.77, -94.6583, 88.604
1.6637, -1, -18.5411, 5.61343, 19.3173, -154.82, -94.6409, 88.3131
1.67167, -1, -18.7027, 5.57046, 19.3279, -154.87, -94.6236, 88.0223
1.67985, -1, -18.8643, 5.52751, 19.3385, -154.92, -94.6063, 87.7315
1.68772, -1, -19.0259, 5.4845, 19.349, -154.97, -94.5888, 87.4404
1.69563, -1, -19.1875, 5.44137, 19.3595, -155.02, -94.571, 87.1489
1.70379, -1, -19.3489, 5.39827, 19.3701, -155.07, -94.553, 86.8577
1.71173, -1, -19.51, 5.35516, 19.3807, -155.12, -94.5349, 86.5663
1.71993, -1, -19.6707, 5.31195, 19.3912, -155.169, -94.5172, 86.2748
1.72788, -1, -19.8314, 5.26889, 19.4018, -155.22, -94.4997, 85.9829
1.73591, -1, -19.9917, 5.22579, 19.4123, -155.269, -94.4823, 85.6913
1.74409, -1, -20.1517, 5.1827, 19.4231, -155.319, -94.4649, 85.3999
1.75288, -1, -20.3115, 5.13977, 19.4339, -155.37, -94.4474, 85.1081
1.76016, -1, -20.4715, 5.09685, 19.4447, -155.42, -94.4297, 84.8163
1.76818, -1, -20.6315, 5.05385, 19.4554, -155.47, -94.4116, 84.5247
1.77699, -1, -20.7919, 5.01096, 19.4661, -155.52, -94.3935, 84.233
1.7842, -1, -20.9527, 4.9681, 19.4767, -155.57, -94.3758, 83.9408
1.79226, -1, -21.1138, 4.92505, 19.4874, -155.62, -94.3584, 83.6487
1.80119, -1, -21.1946, 4.90356, 19.498, -155.671, -94.3411, 83.3568
1.8076, -1, -21.3563, 4.86052, 19.5033, -155.696, -94.3325, 83.2108
1.81564, -1, -21.5185, 4.81732, 19.5139, -155.746, -94.3153, 82.9184
1.8236, -1, -21.6806, 4.77411, 19.5245, -155.797, -94.2979, 82.6259
1.83159, -1, -21.8429, 4.7309, 19.5353, -155.846, -94.2802, 82.3335
1.83971, -1, -22.0054, 4.68748, 19.546, -155.896, -94.2622, 82.0411
1.8476, -1, -22.1678, 4.64409, 19.5568, -155.947, -94.2443, 81.7484
1.85573, -1, -22.3303, 4.60073, 19.5674, -155.997, -94.2266, 81.4555
1.8637, -1, -22.4923, 4.55733, 19.578, -156.047, -94.2091, 81.1629
1.8716, -1, -22.654, 4.51395, 19.5887, -156.098, -94.1916, 80.8702
1.87971, -1, -22.8156, 4.47057, 19.5992, -156.147, -94.1742, 80.5773
1.88759, -1, -22.9767, 4.42726, 19.6099, -156.198, -94.1565, 80.2843
1.89559, -1, -23.1377, 4.38405, 19.6206, -156.248, -94.1386, 79.9914
1.90259, -1, -23.2987, 4.34078, 19.6313, -156.298, -94.1203, 79.6984
1.91159, -1, -23.4595, 4.29759, 19.6421, -156.349, -94.1021, 79.405
1.91967, -1, -23.6205, 4.25436, 19.6529, -156.4, -94.0842, 79.1117
1.92669, -1, -23.7816, 4.21117, 19.6636, -156.45, -94.0666, 78.8184
1.93559, -1, -23.943, 4.16801, 19.6744, -156.5, -94.0491, 78.5249
1.9446, -1, -24.1048, 4.12465, 19.685, -156.551, -94.0318, 78.231
1.95165, -1, -24.2671, 4.08127, 19.6957, -156.601, -94.0142, 77.9373
1.95966, -1, -24.4298, 4.03787, 19.7064, -156.652, -93.9964, 77.6434
1.96864, -1, -24.5927, 3.99438, 19.7169, -156.702, -93.9783, 77.3493
1.97559, -1, -24.7559, 3.95079, 19.7276, -156.752, -93.9602, 77.055
1.98359, -1, -24.9192, 3.90725, 19.7382, -156.803, -93.9423, 76.7609
1.99167, -1, -25.0826, 3.8637, 19.749, -156.853, -93.9246, 76.4669
1.9997, -1, -25.2459, 3.82012, 19.7599, -156.903, -93.9071, 76.1726
2.00759, -1, -25.4087, 3.77656, 19.7707, -156.954, -93.8896, 75.8783
2.01588, -1, -25.5715, 3.73295, 19.7815, -157.004, -93.872, 75.5842
2.02368, -1, -25.734, 3.68936, 19.7922, -157.054, -93.854, 75.2897
2.03158, -1, -25.8963, 3.64598, 19.8029, -157.105, -93.8357, 74.995
2.04045, -1, -26.0585, 3.60252, 19.8137, -157.155, -93.8173, 74.7003
2.04865, -1, -26.2202, 3.55903, 19.8244, -157.206, -93.7992, 74.4058
2.05558, -1, -26.3818, 3.51572, 19.8351, -157.257, -93.7813, 74.1111
2.06442, -1, -26.5436, 3.47233, 19.8458, -157.307, -93.7636, 73.8159
2.07159, -1, -26.7055, 3.42891, 19.8565, -157.358, -93.746, 73.521
2.07966, -1, -26.8678, 3.38543, 19.8674, -157.409, -93.7285, 73.2259
2.09189, -1, -27.1119, 3.32009, 19.8836, -157.485, -93.7014, 72.7829
2.09558, -1, -27.1934, 3.2983, 19.8891, -157.51, -93.6923, 72.6352
2.10365, -1, -27.3567, 3.25472, 19.8998, -157.561, -93.674, 72.34
2.11159, -1, -27.5204, 3.21097, 19.9104, -157.611, -93.656, 72.0448
2.11965, -1, -27.6843, 3.16725, 19.9212, -157.662, -93.6381, 71.7492
2.1277, -1, -27.8484, 3.1236, 19.9319, -157.712, -93.6203, 71.4536
2.13568, -1, -28.0126, 3.07989, 19.9427, -157.763, -93.6027, 71.1581
2.14369, -1, -28.1766, 3.03623, 19.9535, -157.814, -93.5849, 70.8625
2.15175, -1, -28.3407, 2.99255, 19.9642, -157.864, -93.5669, 70.5667
2.15974, -1, -28.5045, 2.94884, 19.9751, -157.915, -93.5486, 70.2707
2.16769, -1, -28.6682, 2.90522, 19.986, -157.966, -93.5302, 69.9749
2.17577, -1, -28.8316, 2.86155, 19.9968, -158.017, -93.512, 69.6788
2.18359, -1, -28.9946, 2.81791, 20.0076, -158.068, -93.4941, 69.3824
2.19171, -1, -29.1573, 2.77427, 20.0183, -158.119, -93.4763, 69.0861
2.19974, -1, -29.32, 2.73066, 20.0291, -158.169, -93.4587, 68.7896
2.20783, -1, -29.4828, 2.68707, 20.0399, -158.221, -93.4411, 68.4929
2.21578, -1, -29.6457, 2.64339, 20.0506, -158.272, -93.4232, 68.1959
2.22383, -1, -29.8087, 2.59965, 20.0614, -158.322, -93.4049, 67.8993
2.23184, -1, -29.9719, 2.5559, 20.0722, -158.374, -93.3866, 67.6027
2.24006, -1, -30.1353, 2.5121, 20.0831, -158.424, -93.3683, 67.3057
2.24659, -1, -30.2172, 2.49013, 20.0886, -158.45, -93.3594, 67.1571
2.2562, -1, -30.4636, 2.42425, 20.105, -158.526, -93.3327, 66.7118
2.2642, -1, -30.6284, 2.38029, 20.1158, -158.577, -93.315, 66.4148
2.27211, -1, -30.7933, 2.33633, 20.1266, -158.628, -93.2973, 66.1174
2.28012, -1, -30.9583, 2.29245, 20.1374, -158.679, -93.2793, 65.8201
2.28824, -1, -31.1231, 2.24844, 20.1483, -158.73, -93.2609, 65.5229
2.29609, -1, -31.2056, 2.22644, 20.1537, -158.755, -93.2425, 65.2255
2.30357, -1, -31.3705, 2.18259, 20.1645, -158.807, -93.2332, 65.0767
2.3122, -1, -31.5352, 2.13877, 20.1753, -158.858, -93.2151, 64.7791
2.31958, -1, -31.6997, 2.09477, 20.186, -158.909, -93.1972, 64.4815
2.32758, -1, -31.8639, 2.05091, 20.197, -158.96, -93.1795, 64.1837
2.33563, -1, -32.028, 2.00706, 20.208, -159.011, -93.1619, 63.8856
2.34358, -1, -32.1917, 1.96311, 20.219, -159.062, -93.1442, 63.5877
2.35159, -1, -32.3554, 1.91925, 20.2299, -159.114, -93.1261, 63.29
2.35967, -1, -32.519, 1.87526, 20.2407, -159.165, -93.1079, 62.9919
2.36758, -1, -32.6828, 1.8312, 20.2516, -159.216, -93.0895, 62.6935
2.37558, -1, -32.8467, 1.78723, 20.2625, -159.268, -93.0713, 62.3953
2.38359, -1, -33.0109, 1.74307, 20.2734, -159.318, -93.0533, 62.097
2.39163, -1, -33.1755, 1.69888, 20.2843, -159.37, -93.0355, 61.7986
2.39957, -1, -33.3405, 1.65473, 20.2951, -159.421, -93.0177, 61.4998
2.40757, -1, -33.5058, 1.61058, 20.306, -159.472, -92.9998, 61.2013
2.41457, -1, -33.6715, 1.56641, 20.317, -159.524, -92.9816, 60.9025
2.42358, -1, -33.8372, 1.52225, 20.3279, -159.575, -92.963, 60.6037
2.43158, -1, -34.0029, 1.47812, 20.3388, -159.626, -92.9443, 60.3047
2.43968, -1, -34.1687, 1.43401, 20.3496, -159.677, -92.926, 60.0058
2.44864, -1, -34.3347, 1.38992, 20.3605, -159.729, -92.9079, 59.7063
2.45557, -1, -34.5005, 1.34576, 20.3715, -159.78, -92.8899, 59.4067
2.46365, -1, -34.6662, 1.30159, 20.3824, -159.832, -92.8722, 59.1073
2.47158, -1, -34.8314, 1.25744, 20.3932, -159.883, -92.8543, 58.808
2.47959, -1, -34.9963, 1.2133, 20.4041, -159.934, -92.8362, 58.5085
2.48763, -1, -35.161, 1.16911, 20.4151, -159.986, -92.8177, 58.2086
2.49556, -1, -35.3256, 1.12487, 20.4262, -160.037, -92.7991, 57.9091
2.50356, -1, -35.4898, 1.08072, 20.4373, -160.089, -92.7808, 57.6095
2.51165, -1, -35.6524, 1.03693, 20.4485, -160.14, -92.7628, 57.3098
2.51958, -1, -35.8123, 0.993631, 20.4599, -160.191, -92.7448, 57.011
2.52772, -1, -35.9684, 0.951412, 20.4717, -160.242, -92.7272, 56.7153
2.53563, -1, -36.1194, 0.910775, 20.4836, -160.291, -92.7097, 56.4253
2.54357, -1, -36.2632, 0.872301, 20.4955, -160.339, -92.6926, 56.1449
2.55157, -1, -36.3975, 0.836661, 20.5071, -160.384, -92.676, 55.8802
2.55965, -1, -36.5206, 0.804119, 20.5178, -160.425, -92.6607, 55.6379
2.56757, -1, -36.631, 0.774873, 20.5271, -160.461, -92.6472, 55.4232
2.57557, -1, -36.7272, 0.749473, 20.5346, -160.492, -92.6359, 55.241
2.58364, -1, -36.8086, 0.727766, 20.54, -160.517, -92.627, 55.094
2.59158, -1, -36.8762, 0.709803, 20.5431, -160.536, -92.6202, 54.9818
2.59958, -1, -36.9308, 0.695417, 20.5444, -160.55, -92.6156, 54.9017
2.60764, -1, -36.9727, 0.684386, 20.5449, -160.56, -92.6125, 54.8472
2.61566, -1, -37.0035, 0.676264, 20.5446, -160.566, -92.6107, 54.8139
2.62359, -1, -37.0248, 0.670633, 20.544, -160.569, -92.6098, 54.7948
2.6317, -1, -37.0382, 0.667264, 20.5436, -160.571, -92.6093, 54.7849
2.63963, 2, -37.0457, 0.665472, 20.5434, -160.572, -92.609, 54.7803
2.64767, 2, -37.0486, 0.664641, 20.5433, -160.572, -92.6089, 54.7781
2.65573, 2, -37.0487, 0.664293, 20.5433, -160.573, -92.6088, 54.7771
2.66367, 2, -37.0482, 0.66418, 20.5432, -160.573, -92.6088, 54.7768
2.67168, 2, -37.048, 0.664124, 20.5432, -160.573, -92.6088, 54.7766
2.67975, 2, -37.0484, 0.664073, 20.5432, -160.573, -92.6089, 54.7767
2.68758, 2, -37.0493, 0.664042, 20.5431, -160.573, -92.6089, 54.7768
2.69569, 2, -37.0504, 0.663963, 20.543, -160.573, -92.609, 54.777
2.70369, 2, -37.0517, 0.663828, 20.5429, -160.573, -92.609, 54.7772
2.7117, 2, -37.053, 0.663614, 20.5427, -160.573, -92.609, 54.7775
2.71972, 2, -37.0542, 0.663397, 20.5425, -160.573, -92.6091, 54.7777
2.72817, 2, -37.0552, 0.663201, 20.5424, -160.573, -92.6091, 54.778
2.73585, 2, -37.0556, 0.663098, 20.5422, -160.573, -92.6091, 54.7783
2.7439, 2, -37.0555, 0.663051, 20.542, -160.573, -92.6092, 54.7786
2.75237, 2, -37.055, 0.663049, 20.5419, -160.573, -92.6092, 54.7789
2.76018, 2, -37.0541, 0.66309, 20.5418, -160.573, -92.6092, 54.7792
2.76806, 2, -37.0531, 0.663144, 20.5417, -160.573, -92.6093, 54.7794
2.77651, 2, -37.0515, 0.663214, 20.5417, -160.573, -92.6093, 54.7797
2.78415, 2, -37.05, 0.66333, 20.5416, -160.573, -92.6093, 54.7799
2.79215, 2, -37.0494, 0.663402, 20.5416, -160.573, -92.6093, 54.78
2.80068, 2, -37.0482, 0.663436, 20.5415, -160.573, -92.6094, 54.7801
2.80756, 2, -37.048, 0.663434, 20.5415, -160.573, -92.6094, 54.7802
2.81556, 2, -37.0479, 0.663424, 20.5415, -160.573, -92.6094, 54.7802
2.82446, 2, -37.0481, 0.663332, 20.5415, -160.573, -92.6094, 54.7803
2.83156, 2, -37.0482, 0.663316, 20.5415, -160.573, -92.6094, 54.7803
2.83957, 2, -37.0485, 0.663291, 20.5415, -160.573, -92.6094, 54.7804
2.84761, 2, -37.0491, 0.663251, 20.5415, -160.573, -92.6094, 54.7804
2.85556, 2, -37.0499, 0.663236, 20.5414, -160.573, -92.6095, 54.7805
2.86365, 2, -37.0507, 0.663249, 20.5414, -160.573, -92.6094, 54.7805
2.87161, 2, -37.0513, 0.66325, 20.5414, -160.573, -92.6095, 54.7805
2.87957, 2, -37.0517, 0.663268, 20.5414, -160.573, -92.6095, 54.7805
2.88762, 2, -37.0518, 0.663294, 20.5414, -160.573, -92.6095, 54.7805
2.8956, 2, -37.0518, 0.663299, 20.5414, -160.573, -92.6095, 54.7806
2.90356, 2, -37.0517, 0.663327, 20.5414, -160.573, -92.6095, 54.7806
2.91156, 2, -37.0512, 0.663311, 20.5414, -160.573, -92.6095, 54.7806
2.91856, 2, -37.0509, 0.663296, 20.5414, -160.573, -92.6095, 54.7807
2.92756, 2, -37.0507, 0.663289, 20.5414, -160.573, -92.6095, 54.7807
2.93655, 2, -37.0505, 0.663286, 20.5414, -160.573, -92.6095, 54.7807
2.94362, 2, -37.0504, 0.663272, 20.5414, -160.573, -92.6095, 54.7808
2.95156, 2, -37.0504, 0.663278, 20.5414, -160.573, -92.6095, 54.7808
2.95957, 2, -37.0503, 0.663268, 20.5414, -160.573, -92.6095, 54.7809
2.96762, 2, -37.0504, 0.663257, 20.5414, -160.573, -92.6095, 54.781
2.97556, 2, -37.0504, 0.663266, 20.5414, -160.573, -92.6096, 54.781
2.98356, 2, -37.0504, 0.663275, 20.5413, -160.573, -92.6096, 54.781
2.99163, 2, -37.0507, 0.663279, 20.5413, -160.573, -92.6096, 54.7811
2.99957, 2, -37.0509, 0.663281, 20.5413, -160.573, -92.6096, 54.7811
3.00756, 2, -37.0509, 0.663301, 20.5413, -160.573, -92.6096, 54.7812
3.01562, 2, -37.0509, 0.663302, 20.5413, -160.573, -92.6096, 54.7812
3.02355, 2, -37.0509, 0.663328, 20.5413, -160.573, -92.6096, 54.7813
3.03165, 2, -37.0509, 0.663322, 20.5413, -160.573, -92.6096, 54.7812
3.03963, 2, -37.0509, 0.663308, 20.5413, -160.573, -92.6096, 54.7813
3.04755, 2, -37.0509, 0.663295, 20.5413, -160.573, -92.6096, 54.7813
3.05555, 2, -37.0508, 0.663281, 20.5413, -160.573, -92.6096, 54.7813
3.06362, 2, -37.0508, 0.663277, 20.5413, -160.573, -92.6096, 54.7813
3.07156, 2, -37.0508, 0.66328, 20.5413, -160.573, -92.6097, 54.7814
3.07957, 2, -37.0508, 0.663274, 20.5413, -160.572, -92.6096, 54.7815
3.08762, 2, -37.0508, 0.663274, 20.5413, -160.572, -92.6096, 54.7816
3.09555, 2, -37.0508, 0.663279, 20.5412, -160.572, -92.6097, 54.7816
3.10355, 2, -37.0508, 0.663281, 20.5412, -160.572, -92.6097, 54.7816
3.11163, 2, -37.0508, 0.6633, 20.5412, -160.572, -92.6097, 54.7817
3.11957, 2, -37.0507, 0.66332, 20.5412, -160.572, -92.6097, 54.7817
3.12759, 2, -37.0507, 0.663318, 20.5412, -160.572, -92.6098, 54.7816
3.13567, 2, -37.0508, 0.663318, 20.5412, -160.572, -92.6098, 54.7817
3.14364, 2, -37.0507, 0.663317, 20.5412, -160.572, -92.6098, 54.7817
3.15165, 2, -37.0507, 0.663317, 20.5412, -160.572, -92.6098, 54.7817
3.15972, 2, -37.0507, 0.663306, 20.5412, -160.572, -92.6098, 54.7818
3.16766, 2, -37.0507, 0.663293, 20.5412, -160.572, -92.6098, 54.7818
3.17565, 2, -37.0506, 0.663288, 20.5412, -160.572, -92.6098, 54.7819
3.18373, 2, -37.0507, 0.663285, 20.5412, -160.572, -92.6098, 54.7819
3.19157, 2, -37.0506, 0.663284, 20.5412, -160.572, -92.6098, 54.782
3.19977, 2, -37.0506, 0.663283, 20.5411, -160.572, -92.6098, 54.7819
3.20768, 2, -37.0506, 0.663294, 20.5411, -160.572, -92.6098, 54.782
3.21571, 2, -37.0506, 0.663314, 20.5412, -160.572, -92.6098, 54.782
3.22382, 2, -37.0506, 0.663326, 20.5412, -160.572, -92.6098, 54.7821
3.23183, 2, -37.0506, 0.66334, 20.5412, -160.572, -92.6099, 54.7821
3.23991, 2, -37.0506, 0.663316, 20.5411, -160.572, -92.6098, 54.7821
3.24788, 2, -37.0506, 0.663298, 20.5411, -160.572, -92.6098, 54.7821
3.25602, 2, -37.0506, 0.663308, 20.5411, -160.572, -92.6099, 54.7821
3.26264, 2, -37.0506, 0.663311, 20.5411, -160.572, -92.6099, 54.7821
3.27219, 2, -37.0505, 0.663297, 20.5411, -160.572, -92.6098, 54.7822
3.2801, 2, -37.0505, 0.663289, 20.5411, -160.572, -92.6098, 54.7822
3.28817, 2, -37.0505, 0.663304, 20.5411, -160.572, -92.6099, 54.7822
3.29613, 2, -37.0505, 0.663293, 20.5411, -160.572, -92.6099, 54.7822
3.30416, 2, -37.0504, 0.6633, 20.541, -160.572, -92.6098, 54.7822
3.31155, 2, -37.0504, 0.663317, 20.541, -160.572, -92.6099, 54.7822
3.31956, 2, -37.0504, 0.663298, 20.541, -160.572, -92.6099, 54.7822
3.32762, 2, -37.0504, 0.663319, 20.541, -160.572, -92.6099, 54.7823
3.3356, 2, -37.0504, 0.663318, 20.5411, -160.572, -92.6099, 54.7823
3.34354, 2, -37.0504, 0.663336, 20.541, -160.572, -92.6099, 54.7824
3.35159, 2, -37.0504, 0.663326, 20.541, -160.572, -92.6099, 54.7824
3.35956, 2, -37.0504, 0.663321, 20.541, -160.572, -92.6099, 54.7824
3.36763, 2, -37.0504, 0.663308, 20.541, -160.572, -92.6099, 54.7824
3.37559, 2, -37.0503, 0.663294, 20.541, -160.572, -92.6099, 54.7824
3.38355, 2, -37.0503, 0.663306, 20.541, -160.572, -92.6099, 54.7824
3.39155, 2, -37.0504, 0.663312, 20.541, -160.572, -92.6099, 54.7825
3.3996, 2, -37.0503, 0.663326, 20.541, -160.572, -92.6099, 54.7825
3.40754, 2, -37.0503, 0.663321, 20.541, -160.572, -92.6099, 54.7825
3.41554, 2, -37.0503, 0.663319, 20.541, -160.572, -92.6099, 54.7825
3.4236, 2, -37.0503, 0.663336, 20.541, -160.572, -92.6099, 54.7825
3.43155, 2, -37.0503, 0.663351, 20.5409, -160.572, -92.61, 54.7825
3.44111, 2, -37.0503, 0.663345, 20.5409, -160.572, -92.6099, 54.7825
3.44761, 2, -37.0502, 0.663341, 20.5409, -160.572, -92.61, 54.7825
3.45554, 2, -37.0502, 0.663335, 20.5409, -160.572, -92.6099, 54.7825
3.46354, 2, -37.0502, 0.663318, 20.5409, -160.572, -92.61, 54.7825
3.47161, 2, -37.0502, 0.663317, 20.5409, -160.572, -92.6099, 54.7825
3.47955, 2, -37.0502, 0.663336, 20.5409, -160.572, -92.61, 54.7826
3.48754, 2, -37.0502, 0.663344, 20.5409, -160.572, -92.61, 54.7826
3.4956, 2, -37.0502, 0.663348, 20.5409, -160.572, -92.61, 54.7826
3.50355, 2, -37.0501, 0.663349, 20.5409, -160.572, -92.61, 54.7826
3.51155, 2, -37.0501, 0.66335, 20.5409, -160.572, -92.6099, 54.7826
3.51962, 2, -37.0501, 0.663351, 20.5409, -160.572, -92.61, 54.7826
3.52754, 2, -37.0501, 0.663351, 20.5408, -160.572, -92.61, 54.7825
3.53563, 2, -37.05, 0.663351, 20.5408, -160.572, -92.61, 54.7825
3.5436, 2, -37.05, 0.663358, 20.5408, -160.572, -92.61, 54.7826
3.55154, 2, -37.05, 0.663348, 20.5408, -160.572, -92.61, 54.7826
3.55955, 2, -37.05, 0.663354, 20.5408, -160.572, -92.6101, 54.7826
3.5676, 2, -37.05, 0.663352, 20.5408, -160.572, -92.61, 54.7826
3.57554, 2, -37.05, 0.663359, 20.5408, -160.572, -92.61, 54.7826
3.58354, 2, -37.05, 0.663359, 20.5408, -160.572, -92.61, 54.7826
3.59161, 2, -37.0499, 0.663344, 20.5408, -160.572, -92.61, 54.7826
3.59956, 2, -37.0499, 0.66334, 20.5408, -160.572, -92.6101, 54.7827
3.60754, 2, -37.0499, 0.663347, 20.5408, -160.572, -92.6101, 54.7826
3.61561, 2, -37.0499, 0.663342, 20.5408, -160.572, -92.61, 54.7826
3.62354, 2, -37.0498, 0.663366, 20.5408, -160.572, -92.61, 54.7826
3.6316, 2, -37.0498, 0.663363, 20.5408, -160.572, -92.61, 54.7827
3.63989, 2, -37.0498, 0.663356, 20.5408, -160.572, -92.61, 54.7827
3.64806, 2, -37.0498, 0.663353, 20.5408, -160.572, -92.61, 54.7828
3.65564, 2, -37.0497, 0.663359, 20.5408, -160.572, -92.61, 54.7828
3.66364, 2, -37.0497, 0.663379, 20.5408, -160.572, -92.61, 54.7828
3.67172, 2, -37.0497, 0.663381, 20.5408, -160.572, -92.6101, 54.7828
3.67982, 2, -37.0497, 0.663372, 20.5407, -160.572, -92.61, 54.7828
3.68754, 2, -37.0497, 0.663373, 20.5407, -160.572, -92.61, 54.7828
3.69563, 2, -37.0497, 0.663366, 20.5407, -160.572, -92.61, 54.7828
3.70393, 4, -37.0496, 0.66337, 20.5407, -160.572, -92.6101, 54.7828
3.71159, 4, -37.0496, 0.663372, 20.5407, -160.572, -92.6101, 54.7828
3.71978, 4, -37.0496, 0.66338, 20.5407, -160.572, -92.6101, 54.7828
3.72781, 4, -37.0496, 0.663376, 20.5407, -160.572, -92.6101, 54.7828
3.73575, 4, -37.0496, 0.663387, 20.5407, -160.572, -92.6101, 54.7828
3.7439, 4, -37.0495, 0.663385, 20.5407, -160.572, -92.61, 54.7828
3.75197, 4, -37.0495, 0.663386, 20.5407, -160.572, -92.6101, 54.7828
3.75997, 4, -37.0495, 0.663391, 20.5407, -160.572, -92.6101, 54.7828
3.76808, 4, -37.0494, 0.663374, 20.5406, -160.572, -92.6101, 54.7829
3.77615, 4, -37.0494, 0.663374, 20.5406, -160.572, -92.6101, 54.7829
3.7841, 4, -37.0494, 0.663369, 20.5406, -160.572, -92.6101, 54.7829
3.79214, 4, -37.0494, 0.663364, 20.5406, -160.572, -92.6101, 54.7829
3.80037, 4, -37.0494, 0.663364, 20.5406, -160.572, -92.6102, 54.7829
3.80835, 4, -37.0494, 0.663374, 20.5406, -160.572, -92.6101, 54.7829
3.83094, 4, -37.0493, 0.663371, 20.5406, -160.572, -92.6101, 54.7829
3.83358, 4, -37.0493, 0.663372, 20.5406, -160.572, -92.61, 54.7829
3.83537, 4, -37.0493, 0.663372, 20.5406, -160.572, -92.61, 54.7829
3.8406, 4, -37.0493, 0.663379, 20.5406, -160.572, -92.61, 54.7829
3.84979, 4, -37.0492, 0.663363, 20.5406, -160.572, -92.6101, 54.7829
3.85588, 4, -37.049, 0.663341, 20.5406, -160.572, -92.6101, 54.7829
3.86351, 4, -37.0476, 0.662945, 20.5406, -160.572, -92.6101, 54.7829
3.87162, 4, -37.0434, 0.661192, 20.541, -160.572, -92.6102, 54.7829
3.88101, 4, -37.0355, 0.656946, 20.544, -160.571, -92.6102, 54.7828
3.88752, 4, -37.0236, 0.649561, 20.5463, -160.571, -92.6102, 54.7828
3.89555, 4, -37.0076, 0.638361, 20.5537, -160.57, -92.6102, 54.7828
3.90368, 5, -36.9863, 0.622574, 20.5662, -160.567, -92.6102, 54.7828
3.91377, 5, -36.9439, 0.590354, 20.5967, -160.562, -92.6102, 54.7826
3.9196, 5, -36.9274, 0.57747, 20.6102, -160.559, -92.6101, 54.7826
3.92768, 5, -36.8909, 0.548288, 20.6422, -160.552, -92.6098, 54.7825
3.93573, 5, -36.8495, 0.514572, 20.6806, -160.544, -92.6093, 54.7823
3.94359, 5, -36.8027, 0.476017, 20.7244, -160.534, -92.6086, 54.7821
3.95337, 5, -36.7509, 0.433273, 20.7726, -160.518, -92.607, 54.7816
3.9595, 5, -36.6944, 0.386854, 20.8238, -160.512, -92.6064, 54.7815
3.9676, 5, -36.6339, 0.337596, 20.8771, -160.5, -92.6052, 54.7812
3.97587, 5, -36.5696, 0.286331, 20.9316, -160.488, -92.6039, 54.7809
3.98431, 5, -36.5027, 0.233666, 20.9866, -160.476, -92.6026, 54.7808
3.99153, 5, -36.4347, 0.180437, 21.0416, -160.464, -92.6012, 54.7807
4.00038, 5, -36.3661, 0.126972, 21.0968, -160.452, -92.5998, 54.7805
4.00858, 5, -36.2971, 0.0734116, 21.1519, -160.44, -92.5984, 54.7803
4.01553, 5, -36.2281, 0.0199686, 21.207, -160.429, -92.5969, 54.7801
4.02622, 5, -36.1248, -0.0597758, 21.2896, -160.411, -92.5947, 54.7797
4.03167, 5, -36.0904, -0.0862696, 21.3171, -160.405, -92.5939, 54.7795
4.0406, 5, -36.0216, -0.13909, 21.372, -160.393, -92.5923, 54.7792
4.04752, 5, -35.9529, -0.191705, 21.4269, -160.38, -92.5907, 54.7789
4.05553, 5, -35.8841, -0.244153, 21.4816, -160.367, -92.5891, 54.7785
4.06359, 5, -35.8152, -0.296445, 21.5363, -160.355, -92.5875, 54.7782
4.07152, 5, -35.746, -0.348784, 21.5909, -160.342, -92.586, 54.778
4.07968, 5, -35.6767, -0.401155, 21.6453, -160.33, -92.5844, 54.7777
4.08852, 5, -35.607, -0.453495, 21.6994, -160.317, -92.5827, 54.7775
4.09559, 5, -35.5371, -0.506004, 21.7535, -160.305, -92.5812, 54.7774
4.10374, 5, -35.467, -0.558503, 21.8073, -160.293, -92.5796, 54.7772
4.11176, 5, -35.3966, -0.610981, 21.861, -160.281, -92.578, 54.7772
4.11957, 5, -35.3261, -0.663391, 21.9146, -160.268, -92.5764, 54.7771
4.12764, 5, -35.2554, -0.715737, 21.9682, -160.255, -92.5749, 54.7771
4.13556, 5, -35.1847, -0.767877, 22.0215, -160.243, -92.5733, 54.7771
4.14373, 5, -35.1139, -0.819735, 22.0749, -160.229, -92.5716, 54.7771
4.15184, 5, -35.0432, -0.871571, 22.1281, -160.216, -92.57, 54.7771
4.16048, 5, -34.9725, -0.923073, 22.1811, -160.203, -92.5683, 54.7772
4.16769, 5, -34.9019, -0.974343, 22.234, -160.19, -92.5667, 54.7772
4.17563, 5, -34.8313, -1.02544, 22.2869, -160.178, -92.565, 54.7773
4.18358, 5, -34.7606, -1.07646, 22.3396, -160.165, -92.5633, 54.7773
4.19179, 5, -34.6897, -1.12753, 22.392, -160.152, -92.5617, 54.7775
4.2015, 5, -34.6187, -1.17846, 22.4443, -160.14, -92.56, 54.7776
4.20793, 5, -34.5475, -1.2295, 22.4964, -160.127, -92.5583, 54.7777
4.21565, 5, -34.4761, -1.28059, 22.5483, -160.114, -92.5566, 54.778
4.22659, 5, -34.4046, -1.33158, 22.6002, -160.101, -92.5549, 54.7783
4.23211, 5, -34.3329, -1.38259, 22.6519, -160.088, -92.5532, 54.7789
4.24078, 5, -34.261, -1.43355, 22.7034, -160.074, -92.5514, 54.7797
4.24782, 5, -34.189, -1.4843, 22.7548, -160.06, -92.5497, 54.7808
4.25598, 5, -34.1168, -1.53484, 22.8061, -160.047, -92.5479, 54.7822
4.26252, 5, -34.0807, -1.56003, 22.8317, -160.04, -92.5471, 54.7831
4.27203, 5, -33.9722, -1.63532, 22.9084, -160.021, -92.5443, 54.7863
4.28115, 5, -33.8999, -1.68521, 22.9594, -160.007, -92.5425, 54.7888
4.28822, 5, -33.8277, -1.73489, 23.0102, -159.994, -92.5407, 54.7914
4.29612, 5, -33.7554, -1.7845, 23.0608, -159.981, -92.5388, 54.7944
4.30495, 5, -33.7192, -1.80932, 23.0861, -159.967, -92.537, 54.7975
4.31207, 5, -33.6468, -1.85905, 23.1365, -159.96, -92.5361, 54.8006
4.32105, 5, -33.5745, -1.90905, 23.1868, -159.946, -92.533, 54.8038
4.32831, 5, -33.5023, -1.95956, 23.2372, -159.932, -92.5319, 54.8053
4.33548, 5, -33.4302, -2.0106, 23.2877, -159.917, -92.5293, 54.808
4.34356, 6, -33.3583, -2.0622, 23.3386, -159.902, -92.5262, 54.8103
4.35169, 6, -33.2866, -2.11456, 23.3899, -159.887, -92.5222, 54.8116
4.36177, 6, -33.2152, -2.1946, 23.4683, -159.863, -92.5142, 54.8124
4.36751, 6, -33.1441, -2.22176, 23.4948, -159.855, -92.5109, 54.8124
4.37561, 6, -33.0733, -2.27671, 23.5486, -159.837, -92.5036, 54.8117
4.38357, 7, -33.003, -2.33279, 23.6034, -159.818, -92.4949, 54.8103
4.39051, 7, -32.9332, -2.39, 23.6592, -159.797, -92.4851, 54.8079
4.40141, 7, -32.8297, -2.47803, 23.7446, -159.765, -92.468, 54.7996
4.40764, 7, -32.7954, -2.50802, 23.7736, -159.754, -92.4616, 54.7956
4.4155, 7, -32.7274, -2.56905, 23.8323, -159.731, -92.448, 54.7863
4.42427, 8, -32.66, -2.63151, 23.892, -159.708, -92.4331, 54.7749
4.43153, 8, -32.5932, -2.69541, 23.9527, -159.683, -92.4166, 54.7617
4.43951, 8, -32.5269, -2.76085, 24.0143, -159.657, -92.3983, 54.7465
4.45088, 8, -32.4286, -2.86173, 24.1088, -159.616, -92.3679, 54.7201
4.45565, 8, -32.3961, -2.89608, 24.1408, -159.602, -92.3571, 54.7103
4.46347, 9, -32.3314, -2.96583, 24.2054, -159.573, -92.3349, 54.6893
4.4716, 9, -32.2674, -3.03687, 24.2711, -159.544, -92.3114, 54.6665
4.47965, 9, -32.2039, -3.1093, 24.3377, -159.513, -92.2868, 54.6417
4.48848, 9, -32.141, -3.18297, 24.4053, -159.481, -92.2605, 54.6157
4.4955, 9, -32.0786, -3.25793, 24.474, -159.448, -92.2323, 54.5885
4.50348, 10, -32.0166, -3.3342, 24.5436, -159.415, -92.2028, 54.5596
4.5116, 10, -31.9552, -3.41179, 24.6143, -159.38, -92.1724, 54.5289
4.51951, 10, -31.8944, -3.49085, 24.686, -159.344, -92.1406, 54.4962
4.52772, 10, -31.834, -3.57131, 24.7588, -159.308, -92.1071, 54.4616
4.53547, 10, -31.7743, -3.65322, 24.8327, -159.271, -92.0717, 54.4259
4.54357, 11, -31.7151, -3.7366, 24.9074, -159.232, -92.0355, 54.3889
4.5516, 11, -31.6564, -3.82149, 24.9832, -159.193, -91.9984, 54.3503
4.5595, 11, -31.5983, -3.90787, 25.0598, -159.153, -91.9594, 54.3096
4.56754, 11, -31.5408, -3.99562, 25.1374, -159.112, -91.9186, 54.2674
4.57594, 11, -31.484, -4.08486, 25.216, -159.07, -91.8771, 54.2241
4.58365, 12, -31.4277, -4.17563, 25.2958, -159.027, -91.8343, 54.1795
4.59251, 12, -31.3718, -4.26779, 25.3766, -158.983, -91.7893, 54.1329
4.6017, 12, -31.3165, -4.36132, 25.4584, -158.938, -91.7434, 54.0843
4.60764, 12, -31.2617, -4.45622, 25.5413, -158.892, -91.6967, 54.0347
4.61884, 12, -31.1804, -4.60115, 25.6676, -158.822, -91.6229, 53.9576
4.6235, 12, -31.1536, -4.65016, 25.7101, -158.797, -91.598, 53.9308
4.63156, 13, -31.1003, -4.74922, 25.7959, -158.749, -91.5471, 53.8764
4.63962, 13, -31.0474, -4.84972, 25.8827, -158.7, -91.4938, 53.821
4.64759, 13, -30.9951, -4.95182, 25.9706, -158.649, -91.44, 53.7638
4.65577, 13, -30.9433, -5.05538, 26.0596, -158.597, -91.3848, 53.7047
4.66453, 13, -30.8919, -5.1603, 26.1496, -158.546, -91.3277, 53.6451
4.67163, 14, -30.8412, -5.26668, 26.2407, -158.492, -91.2704, 53.5835
4.67965, 14, -30.791, -5.37457, 26.3328, -158.438, -91.2104, 53.5202
4.68765, 14, -30.7414, -5.48388, 26.4257, -158.383, -91.15, 53.4565
4.69551, 14, -30.6922, -5.59475, 26.5195, -158.327, -91.088, 53.3905
4.70389, 14, -30.6436, -5.70716, 26.6145, -158.271, -91.0241, 53.3228
4.71164, 15, -30.5955, -5.82096, 26.7106, -158.213, -90.9596, 53.2546
4.71966, 15, -30.548, -5.93597, 26.8079, -158.155, -90.8928, 53.1841
4.728, 15, -30.5011, -6.05232, 26.9063, -158.095, -90.826, 53.1128
4.73664, 15, -30.4545, -6.17019, 27.0056, -158.034, -90.7568, 53.04
4.74386, 15, -30.4084, -6.28945, 27.1057, -157.974, -90.6869, 52.9647
4.75186, 16, -30.3629, -6.41027, 27.2067, -157.911, -90.615, 52.8892
4.76001, 16, -30.3178, -6.53262, 27.309, -157.848, -90.5425, 52.811
4.768, 16, -30.2732, -6.65628, 27.4124, -157.783, -90.4682, 52.732
4.77698, 16, -30.2291, -6.78144, 27.5169, -157.719, -90.3928, 52.6516
4.78493, 16, -30.1855, -6.90811, 27.6225, -157.653, -90.3157, 52.5694
4.79211, 17, -30.1423, -7.0364, 27.7289, -157.586, -90.2377, 52.4864
4.8001, 17, -30.0997, -7.16627, 27.836, -157.519, -90.1581, 52.4014
4.80835, 17, -30.0576, -7.29764, 27.9443, -157.45, -90.0771, 52.316
4.81732, 17, -30.0159, -7.43027, 28.0536, -157.381, -89.9951, 52.2281
4.82408, 17, -29.9952, -7.49701, 28.1088, -157.345, -89.9537, 52.1841
4.83146, 18, -29.9543, -7.63167, 28.2201, -157.275, -89.8694, 52.0951
4.83949, 18, -29.914, -7.76784, 28.3323, -157.203, -89.784, 52.0044
4.84755, 18, -29.8742, -7.90543, 28.4452, -157.13, -89.6975, 51.9126
4.85564, 18, -29.8348, -8.04432, 28.5589, -157.056, -89.6097, 51.8193
4.86348, 18, -29.7959, -8.18445, 28.6739, -156.982, -89.5207, 51.7249
4.87173, 19, -29.7575, -8.3259, 28.7901, -156.907, -89.4301, 51.6289
4.87958, 19, -29.7196, -8.46881, 28.9075, -156.831, -89.3386, 51.532
4.88758, 19, -29.6821, -8.61349, 29.0258, -156.753, -89.2456, 51.4337
4.89549, 19, -29.6449, -8.75954, 29.1449, -156.676, -89.1514, 51.3345
4.90365, 19, -29.6085, -8.90671, 29.2648, -156.597, -89.0564, 51.2344
4.91149, 19, -29.5725, -9.05525, 29.3856, -156.517, -88.96, 51.1326
4.91956, 20, -29.5369, -9.20536, 29.5078, -156.436, -88.8624, 51.0299
4.92773, 20, -29.5017, -9.35702, 29.631, -156.355, -88.7643, 50.9257
4.93629, 20, -29.4668, -9.51001, 29.7551, -156.273, -88.6647, 50.8207
4.9435, 20, -29.4327, -9.66404, 29.88, -156.189, -88.564, 50.7141
4.95342, 21, -29.3989, -9.89743, 30.0692, -156.063, -88.411, 50.5522
4.95953, 21, -29.3655, -9.97599, 30.1328, -156.02, -88.3594, 50.4979
4.9675, 21, -29.3324, -10.1343, 30.2608, -155.934, -88.2554, 50.3881
4.97663, 21, -29.2999, -10.2938, 30.3898, -155.848, -88.1507, 50.2776
4.98361, 21, -29.2679, -10.4541, 30.5196, -155.76, -88.0446, 50.1662
4.99148, 21, -29.2363, -10.6157, 30.6503, -155.672, -87.9376, 50.0539
5.00025, 22, -29.205, -10.7787, 30.7819, -155.582, -87.8297, 49.9408
5.00753, 22, -29.1741, -10.9431, 30.9145, -155.492, -87.7206, 49.8266
5.01549, 22, -29.1436, -11.1083, 31.0481, -155.401, -87.6108, 49.7115
5.02694, 22, -29.0987, -11.3583, 31.25, -155.262, -87.4438, 49.5378
5.03163, 22, -29.0839, -11.4423, 31.3178, -155.216, -87.3878, 49.4792
5.03949, 23, -29.0546, -11.6118, 31.454, -155.122, -87.2751, 49.3618
5.04767, 23, -29.0255, -11.7825, 31.591, -155.027, -87.1612, 49.2434
5.05564, 23, -28.9969, -11.9539, 31.7287, -154.932, -87.0467, 49.1246
5.06355, 23, -28.9687, -12.1263, 31.8674, -154.836, -86.9312, 49.0054
5.07148, 23, -28.9409, -12.3004, 32.007, -154.739, -86.8145, 48.8852
5.07948, 24, -28.9135, -12.4757, 32.1475, -154.641, -86.6971, 48.7648
5.08758, 24, -28.8863, -12.6515, 32.2887, -154.542, -86.5786, 48.6439
5.09549, 24, -28.8594, -12.8279, 32.4305, -154.442, -86.4597, 48.522
5.10373, 24, -28.833, -13.0057, 32.5732, -154.341, -86.3396, 48.3998
5.11257, 24, -28.8068, -13.1853, 32.717, -154.24, -86.2188, 48.2771
5.11949, 25, -28.7811, -13.3653, 32.8616, -154.138, -86.0975, 48.1539
5.12768, 25, -28.7556, -13.5458, 33.0067, -154.035, -85.9751, 48.0304
5.1355, 25, -28.7302, -13.7276, 33.1523, -153.931, -85.8525, 47.9069
5.14405, 25, -28.7051, -13.911, 33.2987, -153.827, -85.7286, 47.783
5.15203, 25, -28.6803, -14.0951, 33.446, -153.722, -85.6043, 47.6589
5.16045, 26, -28.6557, -14.2796, 33.5941, -153.615, -85.4796, 47.535
5.16786, 26, -28.6315, -14.465, 33.7426, -153.509, -85.3539, 47.4106
5.1777, 26, -28.6077, -14.6521, 33.8915, -153.401, -85.2281, 47.2863
5.18433, 26, -28.584, -14.8398, 34.0416, -153.293, -85.1012, 47.1621
5.1935, 26, -28.5603, -15.0276, 34.1923, -153.184, -84.974, 47.0378
5.1998, 27, -28.5369, -15.216, 34.3433, -153.074, -84.8462, 46.9139
5.20843, 27, -28.5139, -15.4055, 34.4947, -152.963, -84.718, 46.7906
5.21564, 27, -28.491, -15.5956, 34.6469, -152.852, -84.5893, 46.6671
5.22777, 27, -28.4569, -15.8812, 34.8767, -152.684, -84.3952, 46.4824
5.23198, 27, -28.4457, -15.977, 34.9534, -152.627, -84.3304, 46.421
5.23972, 27, -28.4234, -16.1698, 35.1069, -152.514, -84.2004, 46.2984
5.2486, 28, -28.401, -16.3633, 35.2609, -152.4, -84.07, 46.1763
5.25637, 28, -28.3787, -16.557, 35.4158, -152.286, -83.9391, 46.0547
5.26404, 28, -28.3567, -16.7516, 35.5712, -152.17, -83.8083, 45.9336
5.27205, 28, -28.3346, -16.9474, 35.7266, -152.054, -83.6769, 45.8134
5.28001, 28, -28.3125, -17.1432, 35.8823, -151.938, -83.5453, 45.694
5.288, 29, -28.2906, -17.339, 36.0387, -151.82, -83.4134, 45.5755
5.29611, 29, -28.2689, -17.5355, 36.1957, -151.702, -83.281, 45.4581
5.30461, 29, -28.247, -17.7329, 36.3528, -151.584, -83.1484, 45.3416
5.31228, 29, -28.2252, -17.9301, 36.5097, -151.465, -83.0155, 45.2258
5.32004, 29, -28.2144, -18.0287, 36.5884, -151.405, -82.9491, 45.1685
5.32748, 30, -28.1929, -18.2263, 36.7464, -151.285, -82.8159, 45.0549
5.33549, 30, -28.1714, -18.4248, 36.9047, -151.165, -82.683, 44.9424
5.34359, 30, -28.1498, -18.6234, 37.0628, -151.044, -82.5497, 44.8309
5.353, 30, -28.1174, -18.9215, 37.3001, -150.861, -82.3495, 44.667
5.36097, 30, -28.1065, -19.1215, 37.459, -150.739, -82.2156, 44.5598
5.36745, 31, -28.0846, -19.2216, 37.5386, -150.677, -82.1487, 44.5066
5.37828, 31, -28.0517, -19.5213, 37.7766, -150.493, -81.9481, 44.3498
5.38387, 31, -28.0408, -19.6211, 37.8558, -150.431, -81.8812, 44.2983
5.39149, 31, -28.0189, -19.8212, 38.0149, -150.307, -81.7477, 44.1972
5.39949, 31, -27.9968, -20.0213, 38.1745, -150.182, -81.6138, 44.0973
5.40901, 32, -27.9634, -20.3204, 38.413, -149.995, -81.4133, 43.9517
5.41548, 32, -27.9521, -20.4203, 38.4924, -149.932, -81.3464, 43.9038
5.42354, 32, -27.9294, -20.6206, 38.6513, -149.806, -81.213, 43.8106
5.43519, 32, -27.8948, -20.9208, 38.8902, -149.617, -81.0128, 43.674
5.43951, 32, -27.8833, -21.0206, 38.9697, -149.553, -80.9462, 43.63
5.4485, 33, -27.86, -21.2207, 39.1281, -149.427, -80.8131, 43.5433
5.45549, 33, -27.8365, -21.4211, 39.2865, -149.299, -80.6801, 43.4598
5.4645, 33, -27.8127, -21.621, 39.4454, -149.172, -80.5473, 43.3786
5.47147, 33, -27.7886, -21.8201, 39.6041, -149.044, -80.4147, 43.3004
5.4797, 33, -27.7642, -22.0197, 39.762, -148.916, -80.2825, 43.225
5.48766, 34, -27.7396, -22.2194, 39.9196, -148.788, -80.1503, 43.152
5.49648, 34, -27.7146, -22.4183, 40.0773, -148.659, -80.0186, 43.083
5.50465, 34, -27.6893, -22.6165, 40.2349, -148.531, -79.8869, 43.0161
5.51229, 34, -27.6637, -22.8151, 40.3917, -148.401, -79.7554, 42.9524
5.51948, 34, -27.6377, -23.0132, 40.548, -148.272, -79.624, 42.8928
5.52748, 34, -27.611, -23.2103, 40.7044, -148.143, -79.4929, 42.8359
5.53553, 35, -27.5842, -23.4071, 40.8606, -148.013, -79.3619, 42.7823
5.54354, 35, -27.557, -23.6043, 41.016, -147.884, -79.2312, 42.7331
5.55281, 35, -27.5293, -23.8007, 41.1705, -147.754, -79.1009, 42.6874
5.55963, 35, -27.5012, -23.9959, 41.325, -147.624, -78.9705, 42.6452
5.56754, 35, -27.4725, -24.1908, 41.4792, -147.494, -78.8407, 42.6066
5.57547, 36, -27.4432, -24.3853, 41.6328, -147.364, -78.7108, 42.5725
5.58353, 36, -27.4136, -24.5786, 41.7852, -147.234, -78.5817, 42.5428
5.59153, 36, -27.3834, -24.7709, 41.9373, -147.104, -78.4528, 42.5176
5.59948, 36, -27.3527, -24.9631, 42.0891, -146.974, -78.3243, 42.4967
5.6076, 36, -27.3212, -25.1553, 42.2401, -146.844, -78.1963, 42.4799
5.61554, 37, -27.2889, -25.3465, 42.39, -146.714, -78.0685, 42.4677
5.62353, 37, -27.2561, -25.5367, 42.5393, -146.584, -77.9414, 42.46
5.63173, 37, -27.2228, -25.7268, 42.688, -146.454, -77.8144, 42.4564
5.64056, 37, -27.1887, -25.9161, 42.8362, -146.325, -77.6881, 42.4561
5.6476, 37, -27.1538, -26.104, 42.9832, -146.196, -77.562, 42.461
5.65558, 38, -27.1183, -26.2907, 43.1291, -146.067, -77.4364, 42.4718
5.66361, 38, -27.0821, -26.477, 43.2744, -145.938, -77.3112, 42.4876
5.67164, 38, -27.0451, -26.6624, 43.419, -145.809, -77.1863, 42.5089
5.68012, 38, -27.0072, -26.8463, 43.5626, -145.681, -77.0618, 42.5356
5.68773, 38, -26.9685, -27.0289, 43.705, -145.553, -76.9378, 42.5681
5.69566, 39, -26.929, -27.2112, 43.8464, -145.426, -76.8145, 42.6069
5.70441, 39, -26.8887, -27.3925, 43.9867, -145.299, -76.6912, 42.6519
5.7115, 39, -26.8473, -27.5721, 44.1261, -145.173, -76.5685, 42.7022
5.72042, 39, -26.8049, -27.7504, 44.2644, -145.047, -76.4462, 42.7584
5.72887, 39, -26.7618, -27.9284, 44.4012, -144.921, -76.324, 42.8216
5.73599, 40, -26.7176, -28.1054, 44.5368, -144.797, -76.2021, 42.8905
5.74461, 40, -26.6723, -28.2805, 44.6715, -144.673, -76.0806, 42.9659
5.75176, 40, -26.626, -28.4539, 44.8048, -144.549, -75.9597, 43.0481
5.76092, 40, -26.5787, -28.6264, 44.9368, -144.427, -75.8389, 43.1358
5.76798, 40, -26.5303, -28.7976, 45.0674, -144.305, -75.7188, 43.231
5.77605, 40, -26.4807, -28.9667, 45.1965, -144.184, -75.599, 43.3323
5.78492, 41, -26.4299, -29.1338, 45.3242, -144.064, -75.4792, 43.4408
5.79199, 41, -26.378, -29.2998, 45.4505, -143.945, -75.3603, 43.5556
5.80087, 41, -26.3246, -29.4647, 45.5753, -143.827, -75.2416, 43.6772
5.80834, 41, -26.27, -29.6278, 45.6984, -143.711, -75.1235, 43.806
5.816, 41, -26.2422, -29.7085, 45.7593, -143.653, -75.0648, 43.873
5.82346, 42, -26.1855, -29.8688, 45.8798, -143.538, -74.9471, 44.0126
5.83277, 42, -26.0981, -30.1065, 46.0575, -143.368, -74.7717, 44.2358
5.84227, 42, -26.038, -30.2628, 46.1738, -143.256, -74.6551, 44.3937
5.84746, 42, -26.0075, -30.34, 46.2313, -143.201, -74.5969, 44.4755
5.85548, 42, -25.9454, -30.4928, 46.345, -143.092, -74.4811, 44.6444
5.86351, 43, -25.8816, -30.6436, 46.4565, -142.984, -74.3655, 44.821
5.87146, 43, -25.8162, -30.7925, 46.566, -142.879, -74.2505, 45.0057
5.87962, 43, -25.7491, -30.9393, 46.6734, -142.775, -74.1359, 45.1979
5.88896, 43, -25.6804, -31.0836, 46.8308, -142.622, -73.9647, 45.5006
5.89693, 43, -25.5742, -31.2958, 46.9332, -142.523, -73.8514, 45.7121
5.90503, 44, -25.5012, -31.4344, 47.0333, -142.427, -73.7382, 45.9313
5.91147, 44, -25.4639, -31.5028, 47.0824, -142.379, -73.6819, 46.044
5.91946, 44, -25.3879, -31.638, 47.1786, -142.286, -73.5696, 46.2754
5.93, 44, -25.2705, -31.8356, 47.3184, -142.15, -73.402, 46.6374
5.93569, 44, -25.2304, -31.9, 47.3638, -142.106, -73.3466, 46.7619
5.94511, 45, -25.1488, -32.027, 47.4528, -141.979, -73.1809, 47.1487
5.95146, 45, -25.0653, -32.1511, 47.5392, -141.938, -73.126, 47.2818
5.95962, 45, -24.9796, -32.2723, 47.623, -141.858, -73.0168, 47.5542
5.96751, 45, -24.892, -32.3906, 47.7037, -141.781, -72.908, 47.8349
5.97553, 45, -24.802, -32.5057, 47.7813, -141.707, -72.8002, 48.1237
5.98343, 46, -24.7097, -32.6175, 47.8559, -141.636, -72.6931, 48.4214
5.99153, 46, -24.6151, -32.726, 47.9277, -141.569, -72.5865, 48.7274
5.99946, 46, -24.5179, -32.8311, 47.9963, -141.505, -72.4811, 49.0416
6.0076, 46, -24.4185, -32.9328, 48.0619, -141.446, -72.3763, 49.3647
6.01645, 46, -24.3168, -33.0307, 48.1241, -141.389, -72.2722, 49.6964
6.02449, 47, -24.2128, -33.1251, 48.1828, -141.337, -72.1695, 50.036
6.03149, 47, -24.1065, -33.2154, 48.238, -141.289, -72.0676, 50.3838
6.03957, 47, -23.9976, -33.3017, 48.2896, -141.244, -71.9667, 50.7402
6.04746, 47, -23.8861, -33.3839, 48.3376, -141.205, -71.8674, 51.1048
6.0557, 47, -23.7719, -33.4618, 48.3818, -141.17, -71.7689, 51.4781
6.06444, 48, -23.6549, -33.5355, 48.4221, -141.14, -71.6718, 51.8601
6.07148, 48, -23.5352, -33.6046, 48.4584, -141.114, -71.5766, 52.25
6.08073, 48, -23.4128, -33.6692, 48.4904, -141.092, -71.4826, 52.6481
6.08952, 48, -23.288, -33.729, 48.5185, -141.076, -71.3902, 53.0549
6.09552, 48, -23.1606, -33.784, 48.5424, -141.065, -71.2999, 53.4697
6.10429, 48, -23.0303, -33.8338, 48.5618, -141.059, -71.2113, 53.893
6.11147, 49, -22.8972, -33.8786, 48.5769, -141.056, -71.1244, 54.324
6.11951, 49, -22.7611, -33.9179, 48.5874, -141.059, -71.0399, 54.7625
6.12959, 49, -22.6221, -33.9518, 48.5932, -141.069, -70.9573, 55.2092
6.13561, 49, -22.4804, -33.9801, 48.5944, -141.084, -70.8774, 55.6634
6.14356, 49, -22.336, -34.0026, 48.5909, -141.106, -70.7998, 56.1262
6.15154, 50, -22.189, -34.0192, 48.5824, -141.134, -70.7256, 56.5962
6.15955, 50, -22.0394, -34.0297, 48.5689, -141.168, -70.6537, 57.0737
6.16762, 50, -21.8871, -34.034, 48.5502, -141.207, -70.5855, 57.5594
6.17556, 50, -21.7317, -34.0323, 48.5262, -141.253, -70.5198, 58.0522
6.18378, 50, -21.5732, -34.024, 48.4967, -141.306, -70.4585, 58.5526
6.19251, 51, -21.4117, -34.0088, 48.4618, -141.364, -70.3996, 59.0589
6.19946, 51, -21.2474, -33.9868, 48.4216, -141.429, -70.3447, 59.5722
6.20782, 51, -21.0804, -33.9576, 48.3755, -141.5, -70.2935, 60.092
6.21652, 51, -20.9109, -33.9212, 48.3239, -141.578, -70.2453, 60.6187
6.22393, 51, -20.7387, -33.8775, 48.2664, -141.661, -70.2015, 61.151
6.23191, 52, -20.5638, -33.826, 48.203, -141.752, -70.1626, 61.6895
6.24059, 52, -20.3863, -33.7666, 48.1337, -141.848, -70.1278, 62.2346
6.24774, 52, -20.2059, -33.6992, 48.0584, -141.951, -70.0975, 62.7858
6.25743, 52, -20.0228, -33.6237, 47.9769, -142.06, -70.0725, 63.3422
6.26566, 52, -19.8373, -33.5399, 47.8892, -142.175, -70.0529, 63.9042
6.27221, 53, -19.6497, -33.4475, 47.7954, -142.297, -70.0388, 64.4716
6.28, 53, -19.4603, -33.3467, 47.6954, -142.424, -70.0301, 65.0444
6.28874, 53, -19.2686, -33.2376, 47.5893, -142.558, -70.0267, 65.6213
6.29599, 53, -19.075, -33.12, 47.4771, -142.697, -70.0283, 66.2028
6.30403, 53, -18.8794, -32.9935, 47.3586, -142.842, -70.0361, 66.7888
6.31203, 54, -18.7808, -32.8581, 47.2334, -142.993, -70.0506, 67.3793
6.32023, 54, -18.582, -32.787, 47.1683, -143.07, -70.0604, 67.9726
6.32746, 54, -18.3809, -32.638, 47.0334, -143.229, -70.0855, 68.2709
6.33697, 54, -18.1777, -32.4804, 46.8923, -143.393, -70.1185, 68.8703
6.34342, 54, -17.9726, -32.3139, 46.7449, -143.562, -70.1582, 69.4736
6.35152, 55, -17.7664, -32.1381, 46.5911, -143.737, -70.205, 70.0794
6.35945, 55, -17.5593, -31.9532, 46.4311, -143.916, -70.2607, 70.6887
6.36748, 55, -17.3511, -31.7595, 46.2652, -144.1, -70.3232, 71.3011
6.37547, 55, -17.1413, -31.5568, 46.0931, -144.288, -70.394, 71.9153
6.38357, 55, -16.9302, -31.344, 45.9141, -144.48, -70.4724, 72.5308
6.39174, 56, -16.718, -31.1212, 45.7288, -144.676, -70.5591, 73.148
6.39949, 56, -16.5048, -30.8894, 45.5381, -144.875, -70.6539, 73.7668
6.40772, 56, -16.2907, -30.6482, 45.341, -145.078, -70.7567, 74.386
6.41877, 56, -15.9694, -30.2682, 45.0328, -145.387, -70.9274, 75.316
6.42347, 56, -15.8626, -30.1372, 44.9275, -145.492, -70.9884, 75.6264
6.43343, 57, -15.542, -29.7297, 44.603, -145.808, -71.1849, 76.557
6.43944, 57, -15.4348, -29.5892, 44.4914, -145.915, -71.2547, 76.8667
6.44894, 57, -15.2196, -29.3011, 44.2644, -146.13, -71.4011, 77.4865
6.45549, 57, -15.0037, -29.0027, 44.0319, -146.346, -71.5566, 78.1061
6.46447, 57, -14.788, -28.6955, 43.793, -146.564, -71.7212, 78.7244
6.47148, 57, -14.5725, -28.3789, 43.5494, -146.783, -71.895, 79.3416
6.48058, 58, -14.3573, -28.0535, 43.3006, -147.002, -72.0778, 79.9581
6.48759, 58, -14.1427, -27.719, 43.0463, -147.222, -72.2694, 80.5729
6.49547, 58, -13.9291, -27.3757, 42.7876, -147.442, -72.4702, 81.1847
6.50424, 58, -13.7165, -27.0246, 42.5236, -147.662, -72.6799, 81.7941
6.51145, 58, -13.5046, -26.6657, 42.2552, -147.882, -72.8984, 82.4011
6.5195, 59, -13.2935, -26.299, 41.9825, -148.1, -73.1255, 83.0046
6.5301, 59, -12.9799, -25.7341, 41.5651, -148.425, -73.4821, 83.9023
6.53559, 59, -12.8763, -25.5421, 41.4243, -148.532, -73.6051, 84.1997
6.54351, 59, -12.6699, -25.1529, 41.1396, -148.746, -73.8576, 84.7914
6.55144, 59, -12.4646, -24.7563, 40.8522, -148.958, -74.118, 85.3781
6.55953, 60, -12.2605, -24.3528, 40.5611, -149.167, -74.3864, 85.9596
6.56753, 60, -12.0581, -23.9423, 40.2669, -149.373, -74.6625, 86.536
6.57544, 60, -11.8574, -23.5259, 39.9701, -149.577, -74.946, 87.1073
6.58359, 60, -11.6582, -23.1029, 39.6707, -149.777, -75.2369, 87.6724
6.59143, 60, -11.4611, -22.6745, 39.3697, -149.974, -75.5348, 88.2314
6.5995, 61, -11.2663, -22.2414, 39.0663, -150.167, -75.8395, 88.7846
6.60753, 61, -11.0736, -21.8035, 38.7614, -150.357, -76.1508, 89.3314
6.61544, 61, -10.883, -21.3614, 38.454, -150.542, -76.4686, 89.8712
6.62361, 61, -10.6945, -20.9152, 38.1458, -150.723, -76.7929, 90.4032
6.63169, 61, -10.5081, -20.4654, 37.8361, -150.9, -77.1231, 90.9283
6.64048, 62, -10.3241, -20.0114, 37.5262, -151.073, -77.4587, 91.4455
6.64775, 62, -10.1431, -19.554, 37.2157, -151.24, -77.7993, 91.9547
6.65573, 62, -9.96497, -19.0936, 36.9058, -151.403, -78.1444, 92.4546
6.6649, 62, -9.78941, -18.63, 36.5959, -151.56, -78.4937, 92.9465
6.67156, 62, -9.61646, -18.1639, 36.2864, -151.713, -78.847, 93.429
6.67976, 63, -9.44582, -17.6963, 35.9779, -151.86, -79.2036, 93.9025
6.68804, 63, -9.27753, -17.2276, 35.6705, -152.002, -79.5639, 94.3657
6.69649, 63, -9.1115, -16.7585, 35.3646, -152.138, -79.9275, 94.8187
6.70556, 63, -8.94802, -16.2889, 35.0591, -152.269, -80.2942, 95.262
6.71437, 63, -8.78718, -15.8186, 34.7551, -152.395, -80.6634, 95.6944
6.71953, 63, -8.62901, -15.3487, 34.4525, -152.514, -81.0347, 96.1165
6.7304, 64, -8.47366, -14.8793, 34.153, -152.628, -81.4077, 96.5267
6.73565, 64, -8.32103, -14.41, 33.8551, -152.736, -81.7822, 96.9254
6.74365, 64, -8.17121, -13.9414, 33.5598, -152.839, -82.1579, 97.313
6.7518, 64, -8.02403, -13.4736, 33.2672, -152.936, -82.5346, 97.6881
6.75996, 64, -7.87954, -13.0077, 32.9771, -153.027, -82.9121, 98.051
6.76955, 65, -7.73766, -12.5436, 32.6901, -153.112, -83.29, 98.4018
6.776, 65, -7.59854, -12.0817, 32.4061, -153.192, -83.6681, 98.7389
6.78644, 65, -7.46228, -11.6229, 32.1262, -153.266, -84.0459, 99.0625
6.79221, 65, -7.3286, -11.1664, 31.8492, -153.334, -84.4232, 99.3723
6.80002, 65, -7.19759, -10.7127, 31.5762, -153.396, -84.8, 99.6683
6.80841, 66, -7.06914, -10.2621, 31.307, -153.453, -85.1755, 99.9498
6.81605, 66, -7.00579, -10.0378, 31.1736, -153.505, -85.55, 100.216
6.82401, 66, -6.8807, -9.59135, 30.9104, -153.528, -85.7368, 100.344
6.83281, 66, -6.6977, -8.9287, 30.5235, -153.59, -86.2948, 100.704
6.84092, 66, -6.63785, -8.49177, 30.2706, -153.625, -86.665, 100.925
6.84743, 67, -6.52007, -8.27464, 30.146, -153.641, -86.8493, 101.029
6.85814, 67, -6.34803, -7.63001, 29.7775, -153.679, -87.4001, 101.317
6.86349, 67, -6.29192, -7.41762, 29.657, -153.689, -87.5827, 101.404
6.87149, 67, -6.1812, -6.99589, 29.4196, -153.705, -87.9466, 101.567
6.87943, 67, -6.07265, -6.57882, 29.1861, -153.717, -88.3081, 101.712
6.88919, 68, -5.91389, -5.96228, 28.8448, -153.725, -88.8463, 101.897
6.89548, 68, -5.86196, -5.75921, 28.7335, -153.726, -89.0244, 101.95
6.90344, 68, -5.7597, -5.35583, 28.5135, -153.724, -89.3785, 102.042
6.91538, 68, -5.61002, -4.75937, 28.1923, -153.712, -89.9058, 102.144
6.92104, 68, -5.51264, -4.36793, 27.9838, -153.698, -90.2544, 102.189
6.92747, 69, -5.46468, -4.17411, 27.8809, -153.689, -90.4278, 102.204
6.93717, 69, -5.32346, -3.59967, 27.5798, -153.657, -90.9448, 102.223
6.94343, 69, -5.27725, -3.41096, 27.4821, -153.643, -91.1158, 102.219
6.95243, 69, -5.18599, -3.03747, 27.2894, -153.613, -91.4561, 102.196
6.95962, 69, -5.09636, -2.66993, 27.1003, -153.578, -91.7937, 102.153
6.96739, 70, -5.00822, -2.30689, 26.916, -153.541, -92.1288, 102.089
6.97548, 70, -4.92149, -1.94967, 26.7362, -153.499, -92.4612, 102.003
6.98357, 70, -4.83621, -1.59777, 26.5601, -153.453, -92.7913, 101.897
6.99143, 70, -4.75217, -1.2518, 26.3886, -153.405, -93.1191, 101.77
6.99944, 70, -4.66944, -0.910262, 26.2223, -153.353, -93.4446, 101.621
7.0085, 71, -4.58799, -0.574458, 26.06, -153.297, -93.7676, 101.45
7.01556, 71, -4.50757, -0.24427, 25.9013, -153.24, -94.0883, 101.258
7.02342, 71, -4.42802, 0.0799981, 25.7468, -153.179, -94.4066, 101.044
7.0346, 71, -4.30993, 0.555534, 25.5233, -153.083, -94.879, 100.682
7.03943, 71, -4.2709, 0.711325, 25.4508, -153.05, -95.0351, 100.55
7.04748, 71, -4.19339, 1.01789, 25.3084, -152.983, -95.3453, 100.27
7.05542, 72, -4.11637, 1.31872, 25.1699, -152.914, -95.6528, 99.969
7.06362, 72, -4.03967, 1.61298, 25.0353, -152.843, -95.9575, 99.6462
7.07243, 72, -3.96326, 1.90091, 24.9046, -152.771, -96.2596, 99.3022
7.08382, 72, -3.849, 2.32146, 24.7155, -152.662, -96.7073, 98.7472
7.08756, 72, -3.81097, 2.458, 24.6544, -152.625, -96.855, 98.5518
7.09619, 73, -3.73505, 2.72622, 24.535, -152.551, -97.1478, 98.1458
7.10342, 73, -3.65901, 2.98751, 24.4194, -152.477, -97.437, 97.7204
7.11149, 73, -3.58273, 3.2411, 24.3077, -152.404, -97.7223, 97.2757
7.11943, 73, -3.50618, 3.48792, 24.2, -152.331, -98.0034, 96.8124
7.12749, 73, -3.42929, 3.72787, 24.0961, -152.259, -98.2801, 96.3312
7.13563, 74, -3.35182, 3.95938, 23.9962, -152.188, -98.5521, 95.8319
7.14393, 74, -3.27368, 4.18267, 23.8998, -152.118, -98.8189, 95.3161
7.15153, 74, -3.19489, 4.39779, 23.807, -152.05, -99.0806, 94.7839
7.15982, 74, -3.11527, 4.60336, 23.718, -151.984, -99.3366, 94.2373
7.16853, 74, -3.03492, 4.79953, 23.6331, -151.92, -99.5865, 93.6757
7.17553, 75, -2.9537, 4.987, 23.5522, -151.858, -99.8293, 93.1009
7.18542, 75, -2.87153, 5.16518, 23.4755, -151.801, -100.065, 92.5137
7.19243, 75, -2.78833, 5.3328, 23.4028, -151.745, -100.293, 91.9161
7.20003, 75, -2.70419, 5.49008, 23.3342, -151.692, -100.512, 91.3077
7.20949, 75, -2.61913, 5.63696, 23.2699, -151.644, -100.722, 90.6908
7.21571, 76, -2.53319, 5.77258, 23.21, -151.597, -100.923, 90.0665
7.22429, 76, -2.44622, 5.89653, 23.1548, -151.556, -101.114, 89.4354
7.23163, 76, -2.35827, 6.00852, 23.1042, -151.518, -101.295, 88.7977
7.24053, 76, -2.26964, 6.10815, 23.0582, -151.484, -101.466, 88.1553
7.24761, 76, -2.1801, 6.19508, 23.0169, -151.454, -101.625, 87.5092
7.25606, 77, -2.08966, 6.26881, 22.9806, -151.427, -101.772, 86.8597
7.26481, 77, -1.99843, 6.32904, 22.9495, -151.405, -101.907, 86.209
7.27181, 77, -1.90626, 6.37558, 22.9237, -151.387, -102.028, 85.5588
7.28067, 77, -1.81332, 6.40763, 22.9035, -151.373, -102.136, 84.9098
7.28851, 77, -1.71976, 6.42529, 22.8891, -151.363, -102.229, 84.2627
7.296, 77, -1.62545, 6.42851, 22.8804, -151.357, -102.308, 83.6191
7.30471, 78, -1.53048, 6.41672, 22.8773, -151.353, -102.372, 82.9802
7.312, 78, -1.43482, 6.38996, 22.8799, -151.352, -102.42, 82.3454
7.32092, 78, -1.33872, 6.34766, 22.8888, -151.354, -102.452, 81.7167
7.3274, 78, -1.29049, 6.32051, 22.8955, -151.357, -102.462, 81.4049
7.33636, 78, -1.19374, 6.25412, 22.9137, -151.37, -102.469, 80.4792
7.34499, 79, -1.09674, 6.17141, 22.9388, -151.382, -102.451, 79.8702
7.35141, 79, -0.999464, 6.07241, 22.9711, -151.389, -102.436, 79.5682
7.35944, 79, -0.902138, 5.95712, 23.0107, -151.407, -102.391, 78.9703
7.36744, 79, -0.804994, 5.8255, 23.0578, -151.427, -102.33, 78.3799
7.37542, 79, -0.707818, 5.67724, 23.1127, -151.45, -102.249, 77.7972
7.38359, 80, -0.6107, 5.5126, 23.1751, -151.475, -102.151, 77.224
7.39282, 80, -0.513642, 5.3316, 23.2832, -151.517, -101.968, 76.3845
7.39946, 80, -0.416569, 5.13427, 23.3233, -151.531, -101.897, 76.1098
7.40992, 80, -0.271149, 4.80612, 23.4557, -151.577, -101.659, 75.3023
7.41562, 80, -0.222715, 4.68755, 23.504, -151.593, -101.57, 75.0385
7.42575, 81, -0.0775074, 4.30611, 23.6622, -151.644, -101.275, 74.2638
7.43142, 81, -0.029226, 4.17078, 23.7192, -151.661, -101.168, 74.0105
7.44246, 81, 0.115203, 3.73926, 23.9042, -151.713, -100.816, 73.2651
7.4474, 81, 0.163224, 3.58737, 23.9705, -151.731, -100.689, 73.0214
7.45548, 81, 0.259142, 3.27061, 24.1104, -151.768, -100.422, 72.5415
7.46524, 82, 0.35483, 2.9366, 24.2601, -151.824, -99.9855, 71.8398
7.47141, 82, 0.450376, 2.58606, 24.4189, -151.842, -99.8305, 71.6106
7.47947, 82, 0.54566, 2.21909, 24.5868, -151.88, -99.5064, 71.1596
7.48761, 82, 0.640847, 1.83587, 24.7642, -151.917, -99.1643, 70.7182
7.49624, 82, 0.735817, 1.43535, 24.9514, -151.953, -98.8043, 70.2862
7.50337, 83, 0.830751, 1.01789, 25.1479, -151.989, -98.4268, 69.8641
7.51451, 83, 0.972966, 0.36323, 25.4623, -152.042, -97.8277, 69.2472
7.51962, 83, 1.02031, 0.137511, 25.5726, -152.059, -97.6194, 69.0463
7.52741, 83, 1.11511, -0.325542, 25.8003, -152.093, -97.1897, 68.6504
7.53547, 83, 1.20992, -0.803424, 26.0378, -152.125, -96.7435, 68.2629
7.54361, 84, 1.30499, -1.29613, 26.2863, -152.156, -96.281, 67.8846
7.55149, 84, 1.40026, -1.80267, 26.5446, -152.186, -95.8024, 67.5148
7.55941, 84, 1.49567, -2.32208, 26.8134, -152.215, -95.3089, 67.1532
7.56868, 84, 1.59157, -2.85464, 27.0923, -152.241, -94.8002, 66.8001
7.57728, 84, 1.68799, -3.40005, 27.3811, -152.265, -94.2776, 66.4553
7.58344, 84, 1.78494, -3.95766, 27.6798, -152.288, -93.7409, 66.1187
7.59578, 85, 1.93141, -4.81599, 28.1449, -152.318, -92.9101, 65.6304
7.60057, 85, 1.98048, -5.1072, 28.3045, -152.327, -92.6264, 65.472
7.60748, 85, 2.07912, -5.69782, 28.6301, -152.344, -92.05, 65.1614
7.61541, 85, 2.17834, -6.29818, 28.9647, -152.357, -91.4634, 64.8594
7.6234, 85, 2.27831, -6.90683, 29.3075, -152.368, -90.8666, 64.5666
7.63173, 86, 2.37881, -7.52383, 29.6587, -152.376, -90.2584, 64.2829
7.63941, 86, 2.47987, -8.14812, 30.0176, -152.381, -89.6397, 64.0091
7.64784, 86, 2.58187, -8.77927, 30.3839, -152.384, -89.0122, 63.7453
7.65622, 86, 2.6846, -9.41669, 30.7567, -152.385, -88.3781, 63.4922
7.66356, 86, 2.78845, -10.0594, 31.1361, -152.382, -87.7381, 63.2499
7.67189, 87, 2.89324, -10.7067, 31.5223, -152.376, -87.0917, 63.0188
7.67956, 87, 2.99843, -11.3573, 31.9138, -152.366, -86.4386, 62.7993
7.68759, 87, 3.10463, -12.0112, 32.3103, -152.353, -85.7803, 62.5919
7.69613, 87, 3.21169, -12.6676, 32.7119, -152.334, -85.118, 62.3975
7.7034, 87, 3.3193, -13.3258, 33.1182, -152.312, -84.453, 62.216
7.71146, 88, 3.4278, -13.9853, 33.5287, -152.286, -83.7848, 62.0485
7.72519, 88, 3.59169, -14.9752, 34.15, -152.24, -82.7772, 61.8243
7.72855, 88, 3.64663, -15.3049, 34.3587, -152.223, -82.4401, 61.7571
7.73583, 88, 3.75693, -15.9639, 34.7783, -152.184, -81.7651, 61.6347
7.74359, 88, 3.86741, -16.6212, 35.1999, -152.14, -81.0905, 61.5286
7.75176, 89, 3.97797, -17.276, 35.6237, -152.093, -80.416, 61.4401
7.75983, 89, 4.0889, -17.9282, 36.0489, -152.04, -79.741, 61.369
7.76842, 89, 4.20025, -18.5773, 36.4754, -151.982, -79.065, 61.3163
7.77893, 89, 4.31205, -19.2236, 36.903, -151.919, -78.3893, 61.2831
7.78473, 89, 4.42401, -19.8657, 37.3303, -151.85, -77.7167, 61.2687
7.79346, 90, 4.53601, -20.5037, 37.7578, -151.776, -77.0457, 61.275
7.80012, 90, 4.64836, -21.1379, 38.1858, -151.697, -76.3748, 61.3045
7.80797, 90, 4.76041, -21.767, 38.6132, -151.611, -75.7049, 61.3573
7.81669, 90, 4.81631, -22.3911, 39.0399, -151.52, -75.0368, 61.4333
7.82404, 90, 4.92801, -22.7012, 39.4666, -151.423, -74.3713, 61.5346
7.83233, 91, 5.03952, -23.3176, 39.8922, -151.32, -73.7073, 61.6617
7.84052, 91, 5.15099, -23.9286, 40.1046, -151.266, -73.3758, 61.7353
7.84746, 91, 5.26232, -24.5332, 40.528, -151.153, -72.7141, 61.9033
7.8554, 91, 5.37349, -25.1318, 40.9497, -151.034, -72.0542, 62.099
7.86341, 91, 5.48433, -25.7245, 41.3693, -150.908, -71.3955, 62.3238
7.87155, 91, 5.59499, -26.3106, 41.7869, -150.777, -70.7396, 62.5787
7.88161, 92, 5.76122, -27.1779, 42.4099, -150.568, -69.7591, 63.0205
7.88744, 92, 5.81689, -27.4638, 42.6165, -150.496, -69.4326, 63.1839
7.8954, 92, 5.92864, -28.0307, 43.0277, -150.346, -68.78, 63.5359
7.91186, 92, 6.15295, -29.1446, 43.8425, -150.031, -67.4764, 64.3459
7.91398, 92, 6.20951, -29.4189, 44.0444, -149.95, -67.1514, 64.5709
7.91939, 93, 6.2663, -29.6917, 44.2453, -149.867, -66.8265, 64.8055
7.92896, 93, 6.43872, -30.5002, 44.843, -149.613, -65.8518, 65.5653
7.9375, 93, 6.5557, -31.0299, 45.237, -149.441, -65.201, 66.1207
7.94342, 93, 6.6148, -31.2919, 45.4329, -149.354, -64.8754, 66.4138
7.95144, 93, 6.73458, -31.8103, 45.8209, -149.18, -64.2245, 67.0304
7.96115, 94, 6.85723, -32.3211, 46.2042, -149.005, -63.2492, 68.0339
7.96751, 94, 6.98319, -32.8242, 46.5815, -148.832, -62.924, 68.3903
7.97642, 94, 7.11274, -33.3181, 46.9533, -148.661, -62.2731, 69.1372
7.98592, 94, 7.31429, -34.0378, 47.4979, -148.413, -61.2971, 70.3383
7.99146, 94, 7.38382, -34.2719, 47.6751, -148.334, -60.9723, 70.7615
7.99939, 95, 7.52686, -34.7315, 48.0228, -148.181, -60.3256, 71.6433
8.00739, 95, 7.67521, -35.1776, 48.3603, -148.039, -59.6838, 72.5649
8.01539, 95, 7.82903, -35.6097, 48.6865, -147.91, -59.048, 73.528
8.02341, 95, 7.98865, -36.0261, 49.0004, -147.794, -58.418, 74.5306
8.03145, 95, 8.15429, -36.4245, 49.2999, -147.695, -57.7958, 75.5695
8.03943, 96, 8.32612, -36.805, 49.585, -147.613, -57.1838, 76.6453
8.04739, 96, 8.50358, -37.1663, 49.8536, -147.551, -56.5844, 77.7545
8.05539, 96, 8.68568, -37.5059, 50.1062, -147.509, -55.9988, 78.8944
8.06339, 96, 8.87227, -37.8215, 50.3418, -147.488, -55.4278, 80.0581
8.07146, 96, 9.06271, -38.1118, 50.5584, -147.485, -54.8748, 81.2368
8.0794, 96, 9.25557, -38.3778, 50.756, -147.504, -54.3439, 82.4245
8.08739, 97, 9.44954, -38.6193, 50.934, -147.544, -53.8371, 83.6173
8.09556, 97, 9.64353, -38.8364, 51.0914, -147.606, -53.3567, 84.8092
8.10339, 97, 9.83675, -39.0297, 51.2292, -147.685, -52.9036, 85.9903
8.11191, 97, 10.0283, -39.198, 51.3479, -147.782, -52.4789, 87.1576
8.1194, 97, 10.2172, -39.3397, 51.4475, -147.893, -52.0829, 88.3045
8.12742, 97, 10.4027, -39.4557, 51.5286, -148.017, -51.7158, 89.4292
8.13559, 98, 10.585, -39.5465, 51.5914, -148.152, -51.378, 90.5242
8.1434, 98, 10.7655, -39.6137, 51.6361, -148.298, -51.0694, 91.5943
8.15149, 98, 10.9446, -39.6582, 51.6627, -148.454, -50.7879, 92.6449
8.16029, 98, 11.1221, -39.68, 51.6718, -148.623, -50.5309, 93.6894
8.16749, 98, 11.2976, -39.6786, 51.6632, -148.805, -50.2961, 94.7376
8.17555, 98, 11.4722, -39.6536, 51.6369, -148.999, -50.0817, 95.799
8.18523, 98, 11.6465, -39.6055, 51.5929, -149.207, -49.8881, 96.876
8.1915, 99, 11.8196, -39.5344, 51.5308, -149.426, -49.7166, 97.9692
8.19958, 99, 11.9906, -39.4411, 51.4508, -149.656, -49.5692, 99.0713
8.20799, 99, 12.1583, -39.3259, 51.3532, -149.892, -49.4488, 100.173
8.21547, 99, 12.3221, -39.1892, 51.2385, -150.133, -49.3576, 101.263
8.22344, 99, 12.48, -39.0314, 51.1075, -150.374, -49.2954, 102.334
8.23144, 99, 12.6306, -38.8523, 50.9618, -150.613, -49.2629, 103.376
8.23959, 100, 12.7731, -38.6497, 50.8017, -150.848, -49.2595, 104.387
8.24754, 100, 12.9069, -38.4229, 50.6262, -151.077, -49.2862, 105.368
8.25579, 100, 13.0323, -38.1722, 50.434, -151.301, -49.3425, 106.319
8.26378, 100, 13.1498, -37.8974, 50.2254, -151.52, -49.4286, 107.249
8.27269, 100, 13.2597, -37.6, 49.9984, -151.733, -49.5457, 108.16
8.28046, 100, 13.3623, -37.278, 49.7509, -151.942, -49.6943, 109.056
8.28854, 101, 13.4579, -36.9312, 49.4839, -152.145, -49.8752, 109.941
8.29592, 101, 13.5468, -36.5583, 49.1964, -152.341, -50.0892, 110.811
8.3045, 101, 13.6287, -36.1591, 48.8892, -152.531, -50.3365, 111.67
8.3129, 101, 13.7029, -35.7337, 48.5623, -152.713, -50.6172, 112.51
8.31995, 101, 13.737, -35.2823, 48.2169, -152.884, -50.9314, 113.331
8.32846, 101, 13.8259, -34.8049, 47.8537, -153.044, -51.2783, 114.128
8.34175, 102, 13.8929, -34.041, 47.2782, -153.258, -51.8591, 115.27
8.34332, 102, 13.8929, -34.041, 47.2782, -153.258, -51.8591, 115.27
8.35276, 102, 13.9378, -33.2216, 46.6661, -153.441, -52.5101, 116.349
8.35943, 102, 13.948, -32.9369, 46.4546, -153.495, -52.7427, 116.694
8.36738, 102, 13.962, -32.3512, 46.0209, -153.591, -53.2305, 117.365
8.37536, 103, 13.968, -31.7438, 45.5726, -153.673, -53.7473, 118.009
8.38475, 103, 13.964, -30.7952, 44.873, -153.77, -54.5749, 118.926
8.39138, 103, 13.9594, -30.4699, 44.6332, -153.796, -54.8637, 119.219
8.40089, 103, 13.9363, -29.4685, 43.8971, -153.852, -55.7651, 120.06
8.40903, 103, 13.9135, -28.7828, 43.3954, -153.874, -56.3919, 120.588
8.41539, 103, 13.9, -28.4357, 43.1422, -153.881, -56.7113, 120.842
8.4249, 104, 13.8521, -27.3807, 42.3758, -153.886, -57.6889, 121.562
8.43301, 104, 13.8143, -26.6694, 41.8621, -153.875, -58.3554, 122.011
8.43938, 104, 13.7938, -26.3117, 41.6049, -153.866, -58.6927, 122.226
8.44744, 104, 13.7503, -25.5933, 41.0903, -153.842, -59.3743, 122.639
8.45539, 104, 13.7042, -24.8726, 40.5765, -153.809, -60.0628, 123.033
8.46439, 104, 13.6564, -24.1507, 40.0637, -153.768, -60.7551, 123.41
8.47154, 104, 13.6069, -23.4275, 39.5526, -153.72, -61.4514, 123.776
8.48046, 104, 13.5562, -22.704, 39.0431, -153.668, -62.1512, 124.134
8.48743, 104, 13.5045, -21.9805, 38.5351, -153.61, -62.8535, 124.487
8.49545, 104, 13.4522, -21.2567, 38.029, -153.548, -63.5572, 124.836
8.50338, 104, 13.3994, -20.5338, 37.5243, -153.482, -64.2608, 125.184
8.51138, 104, 13.3464, -19.8109, 37.0211, -153.411, -64.9653, 125.531
8.51944, 104, 13.2933, -19.0874, 36.52, -153.337, -65.6714, 125.875
8.52738, 104, 13.2403, -18.3635, 36.0207, -153.258, -66.3785, 126.22
8.53539, 104, 13.1876, -17.6394, 35.524, -153.176, -67.0866, 126.564
8.54344, 104, 13.1352, -16.9147, 35.0295, -153.09, -67.7944, 126.907
8.55138, 104, 13.083, -16.1901, 34.5368, -153, -68.5019, 127.249
8.55937, 104, 13.0314, -15.4656, 34.0463, -152.906, -69.2113, 127.592
8.56744, 104, 12.98, -14.7405, 33.5581, -152.808, -69.9223, 127.934
8.57539, 104, 12.9287, -14.0147, 33.0723, -152.706, -70.6331, 128.276
8.58337, 104, 12.8778, -13.2887, 32.5891, -152.601, -71.3431, 128.619
8.59144, 104, 12.8273, -12.5623, 32.1085, -152.491, -72.0542, 128.962
8.59945, 104, 12.7768, -11.8365, 31.6307, -152.379, -72.7664, 129.305
8.60738, 104, 12.7268, -11.111, 31.1552, -152.262, -73.4791, 129.65
8.61545, 104, 12.6773, -10.3853, 30.682, -152.141, -74.192, 129.994
8.62339, 104, 12.628, -9.65919, 30.2123, -152.016, -74.905, 130.34
8.63139, 104, 12.5792, -8.9333, 29.7454, -151.887, -75.6182, 130.686
8.63953, 104, 12.531, -8.20694, 29.2816, -151.754, -76.3324, 131.034
8.64754, 104, 12.4834, -7.48085, 28.8213, -151.617, -77.0475, 131.382
8.65542, 104, 12.4362, -6.75514, 28.3641, -151.476, -77.7631, 131.732
8.66366, 104, 12.3899, -6.0296, 27.9101, -151.331, -78.4775, 132.083
8.67147, 104, 12.3439, -5.30457, 27.4599, -151.181, -79.1918, 132.435
8.67954, 104, 12.2986, -4.58073, 27.0133, -151.028, -79.9072, 132.788
8.68748, 104, 12.2544, -3.85866, 26.5712, -150.87, -80.6229, 133.143
8.69598, 104, 12.2113, -3.14015, 26.1344, -150.709, -81.3364, 133.499
8.70438, 104, 12.1692, -2.42712, 25.7026, -150.543, -82.0459, 133.855
8.71139, 104, 12.1285, -1.7209, 25.2774, -150.374, -82.7517, 134.211
8.71941, 104, 12.0888, -1.02268, 24.8605, -150.203, -83.4522, 134.566
8.72834, 104, 12.05, -0.334026, 24.4524, -150.029, -84.1441, 134.917
8.73545, 104, 12.0123, 0.344466, 24.0547, -149.854, -84.8244, 135.266
8.74349, 104, 11.9755, 1.01155, 23.6688, -149.679, -85.4906, 135.609
8.75161, 104, 11.9398, 1.66548, 23.2954, -149.502, -86.1423, 135.948
8.76031, 104, 11.9055, 2.30557, 22.9347, -149.327, -86.7794, 136.28
8.76767, 104, 11.8723, 2.92955, 22.5861, -149.151, -87.4008, 136.606
8.77581, 104, 11.8402, 3.53743, 22.2507, -148.977, -88.0063, 136.925
8.78382, 104, 11.8097, 4.12853, 21.9281, -148.804, -88.5943, 137.237
8.79259, 104, 11.7802, 4.70264, 21.6181, -148.632, -89.1648, 137.543
8.79996, 104, 11.7521, 5.26007, 21.3198, -148.462, -89.7189, 137.842
8.80854, 104, 11.7253, 5.80028, 21.0332, -148.294, -90.2574, 138.133
8.81594, 104, 11.6996, 6.32364, 20.7589, -148.128, -90.7798, 138.418
8.82474, 104, 11.6751, 6.83, 20.4957, -147.964, -91.2858, 138.695
8.83194, 104, 11.6633, 7.07693, 20.3686, -147.883, -91.5323, 138.965
8.83937, 104, 11.6405, 7.55787, 20.1232, -147.723, -92.0124, 139.097
8.84742, 104, 11.6189, 8.02276, 19.8883, -147.566, -92.4758, 139.355
8.85538, 104, 11.5984, 8.471, 19.6643, -147.412, -92.9224, 139.606
8.86337, 104, 11.5791, 8.90195, 19.4517, -147.262, -93.3525, 139.849
8.87253, 104, 11.5522, 9.51597, 19.1515, -147.044, -93.9661, 140.197
8.87937, 104, 11.5438, 9.71175, 19.0567, -146.973, -94.1622, 140.309
8.88736, 104, 11.5277, 10.0898, 18.8754, -146.835, -94.5412, 140.526
8.89771, 104, 11.5057, 10.6215, 18.6229, -146.637, -95.075, 140.835
8.90343, 104, 11.4989, 10.7892, 18.5439, -146.574, -95.2434, 140.932
8.91138, 104, 11.4859, 11.11, 18.3942, -146.452, -95.5655, 141.12
8.92107, 104, 11.4685, 11.5524, 18.1899, -146.282, -96.0105, 141.38
8.92736, 104, 11.4632, 11.6897, 18.127, -146.228, -96.1483, 141.461
8.93696, 104, 11.4489, 12.069, 17.9545, -146.08, -96.5296, 141.686
8.94343, 104, 11.4445, 12.1849, 17.9023, -146.034, -96.6457, 141.754
8.95333, 104, 11.4324, 12.5014, 17.7613, -145.909, -96.9614, 141.942
8.95936, 104, 11.4288, 12.5963, 17.7195, -145.871, -97.0555, 141.998
8.9684, 104, 11.4222, 12.7699, 17.6436, -145.802, -97.2274, 142.101
8.97734, 104, 11.4136, 12.9921, 17.5484, -145.715, -97.444, 142.23
8.98337, 104, 11.411, 13.0565, 17.5215, -145.69, -97.5052, 142.267
8.99143, 104, 11.4061, 13.171, 17.4747, -145.647, -97.6124, 142.331
8.99937, 104, 11.4015, 13.2673, 17.4365, -145.611, -97.6994, 142.383
9.00737, 104, 11.3975, 13.3469, 17.4061, -145.583, -97.7688, 142.425
9.01545, 104, 11.3937, 13.412, 17.3829, -145.561, -97.8208, 142.457
9.02337, 104, 11.3904, 13.4641, 17.366, -145.545, -97.8588, 142.48
9.03147, 104, 11.3875, 13.5046, 17.354, -145.534, -97.8856, 142.496
9.03943, 104, 11.3852, 13.535, 17.3461, -145.527, -97.9036, 142.506
9.04737, 104, 11.3834, 13.5577, 17.3412, -145.522, -97.9149, 142.513
9.05537, 104, 11.3819, 13.574, 17.3383, -145.52, -97.9212, 142.516
9.06343, 104, 11.3809, 13.5851, 17.3368, -145.518, -97.9245, 142.518
9.07136, 104, 11.3801, 13.5926, 17.336, -145.518, -97.926, 142.518
9.07936, 105, 11.3796, 13.5977, 17.3357, -145.517, -97.9267, 142.519
9.08742, 105, 11.3792, 13.601, 17.3355, -145.517, -97.927, 142.519
9.09538, 105, 11.3788, 13.6034, 17.3355, -145.517, -97.9272, 142.519
9.10336, 105, 11.3786, 13.6054, 17.3354, -145.517, -97.9272, 142.519
9.11143, 105, 11.3785, 13.6071, 17.3355, -145.517, -97.9272, 142.519
9.11936, 105, 11.3783, 13.6085, 17.3355, -145.517, -97.9272, 142.519
9.12737, 105, 11.3782, 13.6098, 17.3355, -145.517, -97.9271, 142.519
9.13544, 105, 11.3782, 13.6108, 17.3356, -145.517, -97.9269, 142.519
9.14345, 105, 11.3781, 13.6116, 17.3357, -145.517, -97.9268, 142.519
9.15137, 105, 11.3781, 13.6123, 17.3358, -145.517, -97.9266, 142.519
9.15946, 105, 11.3781, 13.6127, 17.3359, -145.517, -97.9264, 142.519
9.16745, 105, 11.3781, 13.6131, 17.3361, -145.517, -97.9262, 142.519
9.17547, 105, 11.3781, 13.6132, 17.3363, -145.517, -97.9261, 142.519
9.18353, 105, 11.3781, 13.6133, 17.3364, -145.517, -97.9259, 142.519
9.19146, 105, 11.3781, 13.6133, 17.3365, -145.517, -97.9257, 142.519
