hehonglu123/Motion-Primitive-Planning/ILC/recorded_data/realrobot/wood/iteration_16/run_4.csv
timestamp, cmd_num, J1, J2, J3, J4, J5, J6
0.001219, -1, 11.3762, 13.6155, 17.3342, -145.52, -97.9262, 142.517
0.004934, -1, 11.3762, 13.6155, 17.3342, -145.52, -97.9263, 142.517
0.007762, -1, 11.3762, 13.6155, 17.3342, -145.52, -97.9263, 142.517
0.028376, -1, 11.3762, 13.6155, 17.3342, -145.52, -97.9263, 142.516
0.03106, -1, 11.3762, 13.6155, 17.3342, -145.52, -97.9262, 142.517
0.033737, -1, 11.3762, 13.6155, 17.3342, -145.52, -97.9262, 142.517
0.039692, -1, 11.3762, 13.6155, 17.3343, -145.52, -97.9262, 142.517
0.050146, -1, 11.3762, 13.6155, 17.3343, -145.52, -97.9262, 142.517
0.054695, -1, 11.376, 13.6155, 17.3342, -145.52, -97.9262, 142.517
0.063643, -1, 11.3746, 13.6154, 17.3342, -145.52, -97.9262, 142.517
0.071645, -1, 11.3701, 13.615, 17.3341, -145.52, -97.9262, 142.516
0.079716, -1, 11.3614, 13.6138, 17.3338, -145.52, -97.9262, 142.516
0.08767, -1, 11.3474, 13.6113, 17.3331, -145.521, -97.9261, 142.512
0.095647, -1, 11.3255, 13.6067, 17.3323, -145.524, -97.9258, 142.498
0.103709, -1, 11.293, 13.5992, 17.3316, -145.529, -97.9245, 142.469
0.111641, -1, 11.2486, 13.5884, 17.3313, -145.538, -97.922, 142.417
0.11964, -1, 11.1927, 13.5745, 17.3321, -145.552, -97.9176, 142.337
0.127684, -1, 11.1252, 13.5573, 17.3349, -145.573, -97.911, 142.224
0.135636, -1, 11.0459, 13.5362, 17.3401, -145.599, -97.9019, 142.076
0.143655, -1, 10.9547, 13.5115, 17.3476, -145.63, -97.8906, 141.894
0.15169, -1, 10.8524, 13.4835, 17.3572, -145.666, -97.8777, 141.681
0.15972, -1, 10.7394, 13.4522, 17.3682, -145.707, -97.8634, 141.444
0.167653, -1, 10.6155, 13.4179, 17.3796, -145.751, -97.8481, 141.189
0.175693, -1, 10.4816, 13.381, 17.3905, -145.796, -97.8325, 140.924
0.18375, -1, 10.3398, 13.3421, 17.4009, -145.843, -97.8163, 140.651
0.19167, -1, 10.1924, 13.3021, 17.411, -145.89, -97.7999, 140.375
0.199696, -1, 10.0413, 13.2612, 17.4211, -145.937, -97.7832, 140.097
0.207677, -1, 9.88763, 13.2199, 17.4311, -145.985, -97.7661, 139.819
0.21564, -1, 9.73229, 13.1785, 17.4412, -146.034, -97.7488, 139.54
0.223856, -1, 9.57683, 13.1371, 17.4513, -146.081, -97.7317, 139.26
0.231644, -1, 9.42187, 13.0959, 17.4612, -146.129, -97.7147, 138.98
0.239747, -1, 9.2672, 13.0548, 17.4711, -146.177, -97.698, 138.701
0.248632, -1, 9.11298, 13.0136, 17.4812, -146.225, -97.6813, 138.421
0.255742, -1, 8.95923, 12.9726, 17.4912, -146.273, -97.6645, 138.141
0.263796, -1, 8.80551, 12.9315, 17.5014, -146.321, -97.6475, 137.862
0.272971, -1, 8.65218, 12.8905, 17.5116, -146.369, -97.6301, 137.582
0.279751, -1, 8.4994, 12.8493, 17.5216, -146.417, -97.6126, 137.302
0.287831, -1, 8.34659, 12.8081, 17.5318, -146.465, -97.5953, 137.021
0.295644, -1, 8.19343, 12.7666, 17.542, -146.513, -97.578, 136.741
0.303671, -1, 8.03978, 12.725, 17.5522, -146.561, -97.5611, 136.461
0.311883, -1, 7.88554, 12.6833, 17.5624, -146.609, -97.5443, 136.181
0.319693, -1, 7.73081, 12.6416, 17.5725, -146.657, -97.5277, 135.901
0.3279, -1, 7.57595, 12.5999, 17.5826, -146.705, -97.511, 135.621
0.336698, -1, 7.42098, 12.5583, 17.5928, -146.753, -97.4941, 135.34
0.343916, -1, 7.26595, 12.5168, 17.603, -146.801, -97.4768, 135.06
0.352053, -1, 7.11096, 12.4752, 17.6133, -146.849, -97.4594, 134.779
0.486938, -1, 4.55293, 11.7904, 17.784, -147.643, -97.1777, 130.148
0.488851, -1, 4.55293, 11.7904, 17.784, -147.643, -97.1689, 130.007
0.490213, -1, 4.47506, 11.7697, 17.7893, -147.667, -97.1689, 130.007
0.4929, -1, 4.47506, 11.7697, 17.7944, -147.691, -97.1602, 129.867
0.494363, -1, 4.39725, 11.749, 17.7944, -147.691, -97.1602, 129.867
0.495613, -1, 4.39725, 11.749, 17.7944, -147.691, -97.1602, 129.867
0.497723, -1, 4.31951, 11.7282, 17.7996, -147.715, -97.1516, 129.726
0.50147, -1, 4.24184, 11.7075, 17.8048, -147.74, -97.143, 129.586
0.5028, -1, 4.24184, 11.7075, 17.8048, -147.74, -97.143, 129.586
0.504009, -1, 4.24184, 11.7075, 17.8048, -147.74, -97.143, 129.586
0.506782, -1, 4.16424, 11.6868, 17.8101, -147.764, -97.1345, 129.445
0.508029, -1, 4.16424, 11.6868, 17.8101, -147.764, -97.1345, 129.445
0.510133, -1, 4.08675, 11.666, 17.8153, -147.788, -97.126, 129.305
0.511413, -1, 4.08675, 11.666, 17.8153, -147.788, -97.126, 129.305
0.513247, -1, 4.00939, 11.6453, 17.8205, -147.812, -97.1176, 129.164
0.51932, -1, 3.93212, 11.6246, 17.8256, -147.836, -97.1092, 129.024
0.5212, -1, 3.85492, 11.6039, 17.8308, -147.86, -97.1007, 128.883
0.522595, -1, 3.85492, 11.6039, 17.8308, -147.86, -97.1007, 128.883
0.523882, -1, 3.85492, 11.6039, 17.8308, -147.86, -97.1007, 128.883
0.52588, -1, 3.77775, 11.5831, 17.8359, -147.885, -97.0923, 128.742
0.52717, -1, 3.77775, 11.5831, 17.8359, -147.885, -97.0923, 128.742
0.52848, -1, 3.77775, 11.5831, 17.8359, -147.885, -97.0923, 128.742
0.537845, -1, 3.54604, 11.5207, 17.8515, -147.957, -97.0669, 128.32
0.543642, -1, 3.46873, 11.4998, 17.8566, -147.981, -97.0582, 128.179
0.552634, -1, 3.31403, 11.4582, 17.8671, -148.03, -97.0407, 127.898
0.558679, -1, 3.15896, 11.4164, 17.8775, -148.078, -97.0231, 127.617
0.567636, -1, 3.00376, 11.3746, 17.8879, -148.126, -97.0057, 127.335
0.575625, -1, 2.84842, 11.3328, 17.8983, -148.174, -96.9887, 127.053
0.583623, -1, 2.69268, 11.2911, 17.9086, -148.222, -96.9718, 126.772
0.591641, -1, 2.53667, 11.2493, 17.919, -148.27, -96.955, 126.49
0.599688, -1, 2.3804, 11.2076, 17.9295, -148.319, -96.9382, 126.208
0.607634, -1, 2.22388, 11.1659, 17.9399, -148.367, -96.9212, 125.926
0.615623, -1, 2.0671, 11.1241, 17.9503, -148.415, -96.904, 125.644
0.623692, -1, 1.91042, 11.0824, 17.9606, -148.464, -96.8865, 125.363
0.631621, -1, 1.75396, 11.0407, 17.971, -148.512, -96.869, 125.081
0.639639, -1, 1.59756, 10.999, 17.9815, -148.561, -96.8518, 124.799
0.777651, -1, -1.05412, 10.2882, 18.1588, -149.385, -96.5605, 119.995
0.780582, -1, -1.13273, 10.2673, 18.164, -149.409, -96.5521, 119.853
0.78183, -1, -1.13273, 10.2673, 18.164, -149.409, -96.5521, 119.853
0.784548, -1, -1.2113, 10.2463, 18.1692, -149.433, -96.5436, 119.712
0.78574, -1, -1.2113, 10.2463, 18.1692, -149.433, -96.5436, 119.712
0.787809, -1, -1.2898, 10.2254, 18.1743, -149.458, -96.5352, 119.57
0.789016, -1, -1.2898, 10.2254, 18.1743, -149.458, -96.5352, 119.57
0.793705, -1, -1.36824, 10.2045, 18.1795, -149.482, -96.5268, 119.428
0.795793, -1, -1.44663, 10.1836, 18.1846, -149.506, -96.5184, 119.287
0.797031, -1, -1.44663, 10.1836, 18.1846, -149.506, -96.5184, 119.287
0.798368, -1, -1.44663, 10.1836, 18.1846, -149.506, -96.5184, 119.287
0.800432, -1, -1.52497, 10.1627, 18.1899, -149.53, -96.51, 119.145
0.801719, -1, -1.52497, 10.1627, 18.1899, -149.53, -96.51, 119.145
0.805063, -1, -1.60323, 10.1418, 18.1951, -149.555, -96.5016, 119.004
0.806338, -1, -1.60323, 10.1418, 18.1951, -149.555, -96.5016, 119.004
0.80945, -1, -1.68136, 10.1208, 18.2004, -149.579, -96.4931, 118.862
0.811435, -1, -1.68136, 10.1208, 18.2004, -149.579, -96.4845, 118.72
0.812786, -1, -1.75935, 10.0999, 18.2057, -149.604, -96.4845, 118.72
0.81407, -1, -1.75935, 10.0999, 18.2057, -149.604, -96.4845, 118.72
0.816036, -1, -1.83725, 10.079, 18.2109, -149.628, -96.4759, 118.579
0.817395, -1, -1.83725, 10.079, 18.2109, -149.628, -96.4759, 118.579
0.818583, -1, -1.83725, 10.079, 18.2109, -149.628, -96.4759, 118.579
0.825679, -1, -1.99283, 10.0371, 18.2214, -149.676, -96.4584, 118.295
0.832652, -1, -2.14796, 9.99519, 18.2318, -149.725, -96.4407, 118.011
0.83985, -1, -2.30307, 9.95331, 18.2421, -149.774, -96.4233, 117.728
0.847906, -1, -2.45842, 9.91133, 18.2526, -149.822, -96.4061, 117.444
0.856782, -1, -2.61406, 9.86938, 18.263, -149.871, -96.3891, 117.16
0.864038, -1, -2.7701, 9.82745, 18.2734, -149.92, -96.3723, 116.877
0.870609, -1, -2.84829, 9.80647, 18.2786, -149.944, -96.3639, 116.735
0.880982, -1, -3.08337, 9.74354, 18.2942, -150.017, -96.3385, 116.31
0.88814, -1, -3.24057, 9.7016, 18.3046, -150.066, -96.3211, 116.025
0.896319, -1, -3.39823, 9.65958, 18.3151, -150.114, -96.3035, 115.742
0.90499, -1, -3.55604, 9.6176, 18.3256, -150.163, -96.286, 115.458
0.912218, -1, -3.63495, 9.59666, 18.3308, -150.212, -96.2686, 115.174
0.920428, -1, -3.79291, 9.55477, 18.3412, -150.26, -96.2515, 114.889
0.927628, -1, -3.95092, 9.51274, 18.3516, -150.284, -96.243, 114.747
0.935621, -1, -4.10881, 9.4708, 18.362, -150.334, -96.226, 114.463
0.943666, -1, -4.26659, 9.42885, 18.3724, -150.382, -96.2091, 114.179
0.951612, -1, -4.42422, 9.38684, 18.3827, -150.431, -96.1919, 113.894
0.959723, -1, -4.58146, 9.34486, 18.393, -150.48, -96.1743, 113.609
0.967661, -1, -4.73822, 9.3028, 18.4034, -150.529, -96.1565, 113.325
0.975622, -1, -4.89461, 9.26072, 18.4139, -150.578, -96.1389, 113.04
0.983613, -1, -5.05077, 9.21865, 18.4244, -150.627, -96.1215, 112.755
0.991656, -1, -5.20661, 9.17662, 18.435, -150.675, -96.1044, 112.47
0.999653, -1, -5.36253, 9.13447, 18.4455, -150.724, -96.0875, 112.186
1.00662, -1, -5.51858, 9.09234, 18.456, -150.773, -96.0706, 111.901
1.01561, -1, -5.67489, 9.05027, 18.4664, -150.821, -96.0536, 111.616
1.02366, -1, -5.8316, 9.00812, 18.4769, -150.87, -96.0362, 111.331
1.0317, -1, -5.98875, 8.96594, 18.4873, -150.92, -96.0186, 111.047
1.03961, -1, -6.14646, 8.92381, 18.4976, -150.968, -96.001, 110.761
1.04861, -1, -6.30464, 8.88167, 18.508, -151.017, -95.9837, 110.476
1.05564, -1, -6.46301, 8.83957, 18.5183, -151.066, -95.9665, 110.191
1.06463, -1, -6.62149, 8.79749, 18.5288, -151.115, -95.9495, 109.906
1.07166, -1, -6.78013, 8.75532, 18.5394, -151.164, -95.9324, 109.62
1.07964, -1, -6.93878, 8.71323, 18.5499, -151.213, -95.9155, 109.334
1.08763, -1, -7.09732, 8.67117, 18.5604, -151.262, -95.8982, 109.049
1.09566, -1, -7.25575, 8.629, 18.5708, -151.311, -95.8806, 108.763
1.10364, -1, -7.41397, 8.58678, 18.5812, -151.36, -95.8628, 108.478
1.11162, -1, -7.57173, 8.54451, 18.5918, -151.409, -95.8451, 108.192
1.11963, -1, -7.72917, 8.50217, 18.6022, -151.458, -95.8277, 107.906
1.12764, -1, -7.88629, 8.45994, 18.6127, -151.507, -95.8106, 107.62
1.13563, -1, -8.04311, 8.41764, 18.623, -151.556, -95.7937, 107.335
1.14405, -1, -8.19964, 8.37529, 18.6335, -151.605, -95.7767, 107.049
1.15162, -1, -8.3562, 8.33297, 18.644, -151.654, -95.7596, 106.763
1.15963, -1, -8.51301, 8.29056, 18.6546, -151.703, -95.7422, 106.477
1.16845, -1, -8.6702, 8.24825, 18.6651, -151.752, -95.7246, 106.19
1.1756, -1, -8.82775, 8.20596, 18.6755, -151.802, -95.7069, 105.904
1.18364, -1, -8.98564, 8.16359, 18.6859, -151.85, -95.6895, 105.618
1.19241, -1, -9.14396, 8.12133, 18.6964, -151.9, -95.6723, 105.331
1.19965, -1, -9.30271, 8.07905, 18.7068, -151.949, -95.6552, 105.045
1.20763, -1, -9.46174, 8.0367, 18.7173, -151.998, -95.6381, 104.758
1.21648, -1, -9.62083, 7.99444, 18.7278, -152.048, -95.6209, 104.471
1.22365, -1, -9.78005, 7.95218, 18.7383, -152.097, -95.6034, 104.184
1.23162, -1, -9.93943, 7.90984, 18.7488, -152.146, -95.5857, 103.897
1.24038, -1, -10.0987, 7.86745, 18.7595, -152.195, -95.5678, 103.61
1.24767, -1, -10.2579, 7.82494, 18.7701, -152.244, -95.5501, 103.324
1.25569, -1, -10.4169, 7.78246, 18.7807, -152.294, -95.5327, 103.037
1.26449, -1, -10.5756, 7.73998, 18.7912, -152.343, -95.5156, 102.75
1.27175, -1, -10.7339, 7.69751, 18.8016, -152.392, -95.4986, 102.463
1.27984, -1, -10.8919, 7.65494, 18.8122, -152.441, -95.4815, 102.176
1.28847, -1, -11.0496, 7.61238, 18.8226, -152.491, -95.4643, 101.888
1.29574, -1, -11.2071, 7.5699, 18.833, -152.54, -95.4468, 101.601
1.30361, -1, -11.3644, 7.52746, 18.8436, -152.589, -95.429, 101.314
1.31251, -1, -11.5219, 7.48494, 18.8541, -152.639, -95.4112, 101.026
1.31971, -1, -11.6796, 7.44248, 18.8647, -152.688, -95.3937, 100.738
1.3277, -1, -11.8378, 7.40006, 18.8753, -152.737, -95.3764, 100.451
1.33672, -1, -11.9963, 7.35762, 18.8858, -152.787, -95.3592, 100.163
1.34386, -1, -12.1552, 7.31525, 18.8964, -152.836, -95.342, 99.8753
1.35197, -1, -12.3147, 7.27281, 18.9069, -152.886, -95.3247, 99.5872
1.36003, -1, -12.4744, 7.23039, 18.9174, -152.935, -95.3071, 99.2991
1.3681, -1, -12.6343, 7.18801, 18.928, -152.984, -95.2892, 99.0112
1.37609, -1, -12.7943, 7.14558, 18.9385, -153.034, -95.2712, 98.7234
1.38414, -1, -12.9545, 7.10311, 18.9491, -153.083, -95.2535, 98.4353
1.39222, -1, -13.1145, 7.06053, 18.9597, -153.133, -95.236, 98.1472
1.40021, -1, -13.2743, 7.01794, 18.9702, -153.182, -95.2188, 97.8591
1.40819, -1, -13.434, 6.97531, 18.9808, -153.232, -95.2017, 97.5708
1.41633, -1, -13.5137, 6.93253, 18.9914, -153.281, -95.1846, 97.2822
1.42416, -1, -13.673, 6.91115, 18.9967, -153.306, -95.1759, 97.1378
1.43162, -1, -13.832, 6.86847, 19.0073, -153.355, -95.1584, 96.8494
1.43971, -1, -13.9906, 6.82579, 19.0177, -153.404, -95.1406, 96.561
1.44759, -1, -14.1488, 6.7831, 19.0283, -153.454, -95.1227, 96.2721
1.45559, -1, -14.3069, 6.74046, 19.0388, -153.504, -95.1051, 95.983
1.46365, -1, -14.4651, 6.69777, 19.0493, -153.553, -95.0878, 95.6941
1.4716, -1, -14.6236, 6.65513, 19.0599, -153.602, -95.0705, 95.4051
1.47964, -1, -14.7824, 6.6126, 19.0704, -153.652, -95.0533, 95.1158
1.48906, -1, -15.0213, 6.54863, 19.0865, -153.726, -95.0273, 94.682
1.49467, -1, -15.1011, 6.52732, 19.0918, -153.751, -95.0185, 94.5375
1.5037, -1, -15.2611, 6.48473, 19.1025, -153.801, -95.0006, 94.2484
1.51161, -1, -15.4213, 6.44209, 19.1132, -153.85, -94.9826, 93.9591
1.51964, -1, -15.5819, 6.39936, 19.1238, -153.9, -94.9647, 93.6698
1.52766, -1, -15.7426, 6.35668, 19.1344, -153.95, -94.9473, 93.3806
1.53732, -1, -15.9838, 6.29241, 19.1504, -154.024, -94.9214, 92.9464
1.54362, -1, -16.0643, 6.27096, 19.1557, -154.049, -94.9128, 92.8014
1.55259, -1, -16.2251, 6.22811, 19.1663, -154.099, -94.8957, 92.5117
1.5586, -1, -16.3856, 6.18512, 19.1768, -154.148, -94.8783, 92.2224
1.56759, -1, -16.5461, 6.1421, 19.1873, -154.198, -94.8606, 91.9325
1.57565, -1, -16.7062, 6.09915, 19.1979, -154.248, -94.8427, 91.6423
1.5836, -1, -16.8659, 6.05618, 19.2086, -154.297, -94.8249, 91.352
1.5916, -1, -17.0253, 6.01323, 19.2193, -154.347, -94.8074, 91.062
1.59973, -1, -17.1845, 5.97024, 19.2298, -154.397, -94.7899, 90.7717
1.6076, -1, -17.3435, 5.92733, 19.2404, -154.446, -94.7726, 90.4811
1.61565, -1, -17.5027, 5.88452, 19.2511, -154.497, -94.7554, 90.1909
1.6236, -1, -17.662, 5.84169, 19.2618, -154.546, -94.7379, 89.9008
1.63161, -1, -17.8214, 5.7989, 19.2724, -154.596, -94.7201, 89.6104
1.6397, -1, -17.9812, 5.7561, 19.2831, -154.646, -94.702, 89.3197
1.64758, -1, -18.1415, 5.71331, 19.2937, -154.696, -94.684, 89.0294
1.6556, -1, -18.3022, 5.67053, 19.3044, -154.746, -94.6662, 88.739
1.66366, -1, -18.4634, 5.62765, 19.3151, -154.796, -94.6488, 88.448
1.67165, -1, -18.6249, 5.58467, 19.3258, -154.846, -94.6315, 88.1569
1.67966, -1, -18.7864, 5.54171, 19.3365, -154.896, -94.6142, 87.8662
1.68765, -1, -18.9481, 5.49872, 19.3471, -154.946, -94.5967, 87.5751
1.69559, -1, -19.1098, 5.45561, 19.3576, -154.995, -94.5791, 87.2839
1.70364, -1, -19.2713, 5.41245, 19.3683, -155.045, -94.5611, 86.9924
1.71167, -1, -19.4328, 5.36933, 19.3789, -155.096, -94.543, 86.7011
1.71964, -1, -19.5938, 5.32609, 19.3895, -155.145, -94.5251, 86.4094
1.7277, -1, -19.7547, 5.28288, 19.4001, -155.195, -94.5075, 86.1175
1.73559, -1, -19.9153, 5.23972, 19.4108, -155.245, -94.49, 85.8261
1.74362, -1, -20.0754, 5.19652, 19.4216, -155.295, -94.4726, 85.5346
1.7517, -1, -20.2352, 5.15346, 19.4324, -155.345, -94.4552, 85.2429
1.75972, -1, -20.3951, 5.1105, 19.4432, -155.395, -94.4375, 84.951
1.76777, -1, -20.5552, 5.06739, 19.454, -155.445, -94.4194, 84.6593
1.77568, -1, -20.7153, 5.02438, 19.4647, -155.496, -94.4013, 84.3676
1.7837, -1, -20.8758, 4.98145, 19.4754, -155.546, -94.3834, 84.0755
1.79177, -1, -21.0367, 4.93836, 19.4861, -155.596, -94.3659, 83.7832
1.79969, -1, -21.1979, 4.89533, 19.4968, -155.646, -94.3485, 83.4914
1.80761, -1, -21.3596, 4.8522, 19.5074, -155.696, -94.3313, 83.1994
1.81568, -1, -21.5217, 4.80891, 19.5181, -155.747, -94.314, 82.9069
1.82364, -1, -21.6838, 4.76569, 19.5289, -155.797, -94.2965, 82.6143
1.83171, -1, -21.8462, 4.72241, 19.5396, -155.847, -94.2787, 82.3218
1.84016, -1, -22.0087, 4.679, 19.5503, -155.897, -94.2607, 82.0293
1.84659, -1, -22.09, 4.65732, 19.5558, -155.922, -94.2517, 81.8829
1.85596, -1, -22.3337, 4.59227, 19.5717, -155.997, -94.225, 81.4436
1.86393, -1, -22.496, 4.54886, 19.5825, -156.048, -94.2075, 81.1511
1.87065, -1, -22.577, 4.52717, 19.5879, -156.073, -94.1987, 81.0047
1.88022, -1, -22.8194, 4.46198, 19.6039, -156.148, -94.1726, 80.5651
1.88824, -1, -22.9806, 4.41861, 19.6146, -156.198, -94.1548, 80.2721
1.89615, -1, -23.1417, 4.3753, 19.6253, -156.249, -94.1368, 79.9792
1.90421, -1, -23.3027, 4.33196, 19.636, -156.299, -94.1186, 79.6859
1.91218, -1, -23.3831, 4.28866, 19.6469, -156.35, -94.1004, 79.3923
1.92027, -1, -23.5439, 4.24535, 19.6577, -156.4, -94.0824, 79.099
1.92827, -1, -23.7049, 4.22371, 19.6631, -156.425, -94.0648, 78.8056
1.93558, -1, -23.8661, 4.18045, 19.6739, -156.475, -94.056, 78.6588
1.94359, -1, -24.0276, 4.13706, 19.6845, -156.526, -94.0386, 78.365
1.95163, -1, -24.1895, 4.09367, 19.6953, -156.576, -94.0212, 78.0709
1.95962, -1, -24.352, 4.05025, 19.706, -156.627, -94.0034, 77.7771
1.9676, -1, -24.5148, 4.00682, 19.7167, -156.677, -93.9855, 77.483
1.97568, -1, -24.6779, 3.96323, 19.7273, -156.727, -93.9673, 77.1886
1.9836, -1, -24.8412, 3.91964, 19.738, -156.778, -93.9493, 76.8946
1.99166, -1, -25.0046, 3.87609, 19.7488, -156.828, -93.9316, 76.6006
1.99965, -1, -25.168, 3.83247, 19.7598, -156.878, -93.914, 76.3063
2.00763, -1, -25.3311, 3.78885, 19.7706, -156.929, -93.8966, 76.0118
2.01566, -1, -25.4941, 3.7452, 19.7815, -156.98, -93.879, 75.7177
2.0236, -1, -25.6569, 3.70151, 19.7921, -157.03, -93.8612, 75.4233
2.03157, -1, -25.8195, 3.65797, 19.8029, -157.081, -93.8431, 75.1286
2.03976, -1, -25.9817, 3.61446, 19.8137, -157.131, -93.8247, 74.8337
2.04758, -1, -26.1438, 3.57087, 19.8245, -157.181, -93.8064, 74.5392
2.05558, -1, -26.3054, 3.52744, 19.8353, -157.232, -93.7885, 74.2446
2.06367, -1, -26.467, 3.48402, 19.846, -157.283, -93.7707, 73.9494
2.07263, -1, -26.6288, 3.44049, 19.8568, -157.333, -93.7531, 73.6542
2.07963, -1, -26.7909, 3.39701, 19.8677, -157.384, -93.7355, 73.3592
2.08944, -1, -26.9533, 3.35348, 19.8785, -157.434, -93.7177, 73.0639
2.09558, -1, -27.116, 3.30984, 19.8894, -157.485, -93.6996, 72.7684
2.10364, -1, -27.2789, 3.26625, 19.9002, -157.536, -93.6813, 72.4731
2.11158, -1, -27.4424, 3.2225, 19.9109, -157.586, -93.663, 72.1779
2.11965, -1, -27.6062, 3.17868, 19.9217, -157.637, -93.6451, 71.8824
2.12764, -1, -27.7701, 3.13503, 19.9325, -157.688, -93.6273, 71.5865
2.13558, -1, -27.9343, 3.09132, 19.9432, -157.738, -93.6096, 71.2911
2.14358, -1, -28.0985, 3.04757, 19.9541, -157.789, -93.5919, 70.9955
2.15164, -1, -28.2628, 3.00382, 19.9649, -157.84, -93.5741, 70.6995
2.15963, -1, -28.427, 2.9601, 19.9758, -157.89, -93.5558, 70.4034
2.16761, -1, -28.5909, 2.91635, 19.9867, -157.941, -93.5374, 70.1076
2.17569, -1, -28.7545, 2.87269, 19.9975, -157.992, -93.5189, 69.8116
2.18358, -1, -28.9178, 2.82894, 20.0083, -158.043, -93.5009, 69.5151
2.19159, -1, -29.0807, 2.78525, 20.019, -158.094, -93.4831, 69.2186
2.19969, -1, -29.2434, 2.74159, 20.0299, -158.145, -93.4654, 68.9222
2.20761, -1, -29.4061, 2.69784, 20.0407, -158.195, -93.4478, 68.6255
2.21558, -1, -29.5688, 2.65407, 20.0515, -158.247, -93.4299, 68.3285
2.22364, -1, -29.7317, 2.61025, 20.0623, -158.297, -93.4117, 68.0318
2.23157, -1, -29.8948, 2.56642, 20.0731, -158.349, -93.3933, 67.7352
2.23984, -1, -30.058, 2.52259, 20.0841, -158.4, -93.3749, 67.4384
2.24761, -1, -30.2215, 2.47861, 20.0951, -158.45, -93.3569, 67.1413
2.25564, -1, -30.3856, 2.43463, 20.1061, -158.501, -93.339, 66.8444
2.26394, -1, -30.5501, 2.39067, 20.117, -158.552, -93.3213, 66.5474
2.27167, -1, -30.715, 2.3466, 20.1277, -158.603, -93.3035, 66.25
2.27973, -1, -30.8801, 2.30266, 20.1386, -158.654, -93.2856, 65.9526
2.2882, -1, -31.0451, 2.25865, 20.1495, -158.705, -93.2674, 65.6555
2.29568, -1, -31.2103, 2.2146, 20.1604, -158.756, -93.2489, 65.3582
2.30358, -1, -31.3753, 2.17074, 20.1712, -158.807, -93.2304, 65.0606
2.31236, -1, -31.5401, 2.12678, 20.182, -158.858, -93.2122, 64.7627
2.31967, -1, -31.7046, 2.08274, 20.1929, -158.909, -93.1944, 64.465
2.32761, -1, -31.8691, 2.03879, 20.2039, -158.961, -93.1767, 64.167
2.33635, -1, -32.0332, 1.99482, 20.2148, -159.012, -93.1591, 63.8687
2.34383, -1, -32.197, 1.95078, 20.2258, -159.063, -93.1413, 63.5707
2.35188, -1, -32.3605, 1.90679, 20.2367, -159.114, -93.1233, 63.273
2.36074, -1, -32.524, 1.86269, 20.2476, -159.165, -93.1049, 62.9748
2.36795, -1, -32.6878, 1.81856, 20.2586, -159.217, -93.0866, 62.6763
2.37613, -1, -32.8517, 1.77449, 20.2695, -159.268, -93.0685, 62.3782
2.38408, -1, -33.0159, 1.73027, 20.2804, -159.319, -93.0506, 62.0799
2.39213, -1, -33.1804, 1.68604, 20.2913, -159.37, -93.0328, 61.7812
2.4002, -1, -33.3451, 1.64191, 20.3021, -159.422, -93.0149, 61.4825
2.40814, -1, -33.5104, 1.5977, 20.3131, -159.473, -92.9969, 61.184
2.41619, -1, -33.5932, 1.55344, 20.3241, -159.524, -92.9787, 60.8852
2.42431, -1, -33.7589, 1.50926, 20.335, -159.575, -92.9601, 60.5862
2.43156, -1, -33.9247, 1.48714, 20.3405, -159.601, -92.9508, 60.4365
2.43956, -1, -34.0907, 1.44294, 20.3513, -159.652, -92.9323, 60.1375
2.44761, -1, -34.2566, 1.3988, 20.3623, -159.704, -92.914, 59.8383
2.45558, -1, -34.4228, 1.35457, 20.3732, -159.755, -92.8961, 59.5385
2.46356, -1, -34.5887, 1.31037, 20.3841, -159.807, -92.8783, 59.2389
2.47162, -1, -34.7542, 1.2662, 20.3951, -159.858, -92.8605, 58.9397
2.47856, -1, -34.9193, 1.22195, 20.406, -159.909, -92.8425, 58.6402
2.48757, -1, -35.0842, 1.17769, 20.417, -159.961, -92.8241, 58.3405
2.49562, -1, -35.2488, 1.13336, 20.4281, -160.012, -92.8055, 58.0407
2.50357, -1, -35.4132, 1.08911, 20.4392, -160.063, -92.7871, 57.741
2.51161, -1, -35.5765, 1.04513, 20.4504, -160.115, -92.7688, 57.4411
2.51962, -1, -35.7376, 1.00153, 20.4618, -160.166, -92.7508, 57.1416
2.52756, -1, -35.8952, 0.958836, 20.4735, -160.217, -92.733, 56.8446
2.53559, -1, -36.0484, 0.917496, 20.4854, -160.267, -92.7155, 56.5518
2.54369, -1, -36.1954, 0.878079, 20.4973, -160.315, -92.6981, 56.2669
2.55158, -1, -36.3336, 0.841221, 20.5092, -160.362, -92.6812, 55.9952
2.55957, -1, -36.4614, 0.807423, 20.5204, -160.405, -92.6653, 55.7431
2.56945, -1, -36.5772, 0.762814, 20.5348, -160.46, -92.6446, 55.4146
2.57557, -1, -36.6794, 0.7498, 20.5388, -160.476, -92.6388, 55.3208
2.58356, -1, -36.7669, 0.726621, 20.545, -160.503, -92.6289, 55.1596
2.59163, -1, -36.84, 0.707291, 20.549, -160.525, -92.6214, 55.0334
2.59962, -1, -36.8998, 0.691578, 20.551, -160.541, -92.6159, 54.9415
2.60756, -1, -36.9466, 0.679179, 20.5518, -160.552, -92.6123, 54.8776
2.61564, -1, -36.9814, 0.669886, 20.5519, -160.559, -92.61, 54.8367
2.62356, -1, -37.0063, 0.66351, 20.5515, -160.564, -92.6087, 54.8126
2.63155, -1, -37.0225, 0.659551, 20.5511, -160.566, -92.608, 54.7997
2.63965, -1, -37.0318, 0.657342, 20.5509, -160.567, -92.6078, 54.7934
2.64756, 2, -37.0361, 0.656282, 20.5508, -160.568, -92.6076, 54.7906
2.65557, 2, -37.0368, 0.655803, 20.5508, -160.568, -92.6076, 54.7892
2.66363, 2, -37.0362, 0.655631, 20.5507, -160.568, -92.6075, 54.7887
2.67158, 2, -37.0357, 0.655578, 20.5507, -160.568, -92.6075, 54.7884
2.67962, 2, -37.0358, 0.655571, 20.5507, -160.568, -92.6075, 54.7883
2.68762, 2, -37.0365, 0.655531, 20.5507, -160.568, -92.6075, 54.7883
2.69557, 2, -37.0376, 0.655466, 20.5506, -160.568, -92.6076, 54.7883
2.70356, 2, -37.0389, 0.655282, 20.5504, -160.568, -92.6076, 54.7883
2.71166, 2, -37.0403, 0.655039, 20.5502, -160.568, -92.6076, 54.7883
2.71957, 2, -37.0416, 0.65478, 20.55, -160.568, -92.6076, 54.7884
2.72756, 2, -37.0428, 0.654538, 20.5498, -160.568, -92.6077, 54.7885
2.73564, 2, -37.0435, 0.654372, 20.5496, -160.568, -92.6077, 54.7886
2.74355, 2, -37.0437, 0.654296, 20.5494, -160.568, -92.6078, 54.7887
2.75162, 2, -37.0436, 0.654268, 20.5493, -160.568, -92.6078, 54.7888
2.7597, 2, -37.0429, 0.654309, 20.5492, -160.568, -92.6079, 54.789
2.76765, 2, -37.042, 0.654371, 20.5491, -160.568, -92.608, 54.7891
2.77566, 2, -37.0407, 0.65446, 20.5491, -160.568, -92.608, 54.7893
2.78373, 2, -37.0391, 0.654581, 20.549, -160.568, -92.608, 54.7895
2.79166, 2, -37.0378, 0.654672, 20.5489, -160.568, -92.608, 54.7896
2.79963, 2, -37.037, 0.654721, 20.5489, -160.568, -92.6081, 54.7898
2.80781, 2, -37.0365, 0.654713, 20.5488, -160.568, -92.6081, 54.7898
2.81559, 2, -37.0364, 0.654668, 20.5488, -160.568, -92.608, 54.7899
2.82359, 2, -37.0366, 0.654609, 20.5488, -160.568, -92.6081, 54.7899
2.83172, 2, -37.0368, 0.654514, 20.5488, -160.568, -92.6081, 54.7899
2.83967, 2, -37.0371, 0.654484, 20.5487, -160.568, -92.6081, 54.79
2.84779, 2, -37.0377, 0.654433, 20.5487, -160.568, -92.6081, 54.79
2.8562, 2, -37.0385, 0.654409, 20.5487, -160.568, -92.6081, 54.7901
2.86385, 2, -37.0392, 0.654409, 20.5487, -160.568, -92.6081, 54.7901
2.87193, 2, -37.0397, 0.654435, 20.5487, -160.568, -92.6081, 54.7902
2.88016, 2, -37.04, 0.654467, 20.5487, -160.568, -92.6081, 54.7902
2.88804, 2, -37.0401, 0.654497, 20.5487, -160.568, -92.6081, 54.7902
2.89608, 2, -37.0401, 0.654518, 20.5487, -160.568, -92.6081, 54.7903
2.90442, 2, -37.04, 0.654546, 20.5487, -160.568, -92.6081, 54.7904
2.91211, 2, -37.0395, 0.654559, 20.5487, -160.568, -92.6081, 54.7903
2.92012, 2, -37.0393, 0.654552, 20.5487, -160.568, -92.6081, 54.7904
2.92827, 2, -37.0391, 0.654525, 20.5487, -160.568, -92.6081, 54.7905
2.93557, 2, -37.0389, 0.654513, 20.5487, -160.568, -92.6081, 54.7905
2.94355, 2, -37.0388, 0.6545, 20.5487, -160.568, -92.6081, 54.7906
2.9516, 2, -37.0388, 0.654477, 20.5487, -160.568, -92.6081, 54.7906
2.95955, 2, -37.0388, 0.654474, 20.5486, -160.568, -92.6081, 54.7906
2.96755, 2, -37.0388, 0.65447, 20.5486, -160.568, -92.6082, 54.7907
2.97562, 2, -37.0388, 0.654463, 20.5486, -160.568, -92.6082, 54.7908
2.98355, 2, -37.0389, 0.654467, 20.5486, -160.568, -92.6082, 54.7908
2.99155, 2, -37.0391, 0.654474, 20.5486, -160.568, -92.6083, 54.7909
2.99961, 2, -37.0393, 0.654489, 20.5486, -160.568, -92.6083, 54.7909
3.00756, 2, -37.0394, 0.654497, 20.5486, -160.568, -92.6082, 54.7909
3.0156, 2, -37.0395, 0.6545, 20.5486, -160.568, -92.6083, 54.791
3.0236, 2, -37.0395, 0.654501, 20.5486, -160.568, -92.6083, 54.7911
3.03154, 2, -37.0395, 0.654502, 20.5486, -160.568, -92.6083, 54.7911
3.03956, 2, -37.0394, 0.654495, 20.5486, -160.568, -92.6083, 54.7912
3.04763, 2, -37.0394, 0.654494, 20.5485, -160.568, -92.6083, 54.7912
3.05558, 2, -37.0394, 0.654479, 20.5485, -160.568, -92.6083, 54.7913
3.06355, 2, -37.0394, 0.65448, 20.5485, -160.568, -92.6083, 54.7913
3.07161, 2, -37.0394, 0.654487, 20.5485, -160.568, -92.6083, 54.7914
3.07954, 2, -37.0394, 0.654488, 20.5485, -160.568, -92.6083, 54.7914
3.08855, 2, -37.0394, 0.654479, 20.5485, -160.568, -92.6083, 54.7914
3.09562, 2, -37.0394, 0.654492, 20.5485, -160.568, -92.6084, 54.7915
3.10355, 2, -37.0394, 0.654498, 20.5485, -160.568, -92.6084, 54.7916
3.11154, 2, -37.0394, 0.654519, 20.5485, -160.568, -92.6083, 54.7916
3.11963, 2, -37.0394, 0.65451, 20.5484, -160.568, -92.6083, 54.7917
3.12756, 2, -37.0393, 0.654506, 20.5484, -160.568, -92.6083, 54.7917
3.13556, 2, -37.0393, 0.654504, 20.5484, -160.568, -92.6084, 54.7917
3.14362, 2, -37.0393, 0.654503, 20.5484, -160.568, -92.6084, 54.7918
3.15155, 2, -37.0393, 0.654503, 20.5484, -160.568, -92.6084, 54.7918
3.15954, 2, -37.0393, 0.654503, 20.5484, -160.568, -92.6084, 54.7919
3.16762, 2, -37.0393, 0.654503, 20.5484, -160.568, -92.6084, 54.7919
3.17558, 2, -37.0392, 0.654503, 20.5484, -160.568, -92.6084, 54.7919
3.18371, 2, -37.0392, 0.654503, 20.5484, -160.568, -92.6084, 54.792
3.19162, 2, -37.0392, 0.654503, 20.5484, -160.568, -92.6084, 54.792
3.19956, 2, -37.0392, 0.654503, 20.5483, -160.568, -92.6084, 54.7921
3.20755, 2, -37.0392, 0.654503, 20.5483, -160.568, -92.6084, 54.7921
3.21567, 2, -37.0392, 0.654513, 20.5483, -160.568, -92.6084, 54.7921
3.22355, 2, -37.0391, 0.654533, 20.5483, -160.568, -92.6084, 54.7921
3.23155, 2, -37.0391, 0.654517, 20.5483, -160.568, -92.6084, 54.7921
3.23963, 2, -37.0392, 0.654509, 20.5483, -160.568, -92.6084, 54.7922
3.24756, 2, -37.0391, 0.654505, 20.5483, -160.568, -92.6085, 54.7922
3.25559, 2, -37.0391, 0.654504, 20.5483, -160.568, -92.6085, 54.7923
3.26371, 2, -37.0391, 0.654503, 20.5483, -160.568, -92.6085, 54.7924
3.27164, 2, -37.0391, 0.654503, 20.5483, -160.568, -92.6085, 54.7923
3.27966, 2, -37.0391, 0.654503, 20.5483, -160.568, -92.6084, 54.7923
3.28771, 2, -37.0391, 0.654503, 20.5483, -160.568, -92.6084, 54.7924
3.29567, 2, -37.039, 0.654503, 20.5482, -160.568, -92.6084, 54.7925
3.30361, 2, -37.039, 0.654503, 20.5482, -160.568, -92.6084, 54.7925
3.31169, 2, -37.039, 0.654513, 20.5482, -160.568, -92.6084, 54.7925
3.31958, 2, -37.039, 0.654515, 20.5482, -160.568, -92.6084, 54.7925
3.32758, 2, -37.039, 0.654527, 20.5482, -160.568, -92.6084, 54.7925
3.33573, 2, -37.039, 0.654532, 20.5482, -160.568, -92.6085, 54.7925
3.34368, 2, -37.039, 0.654534, 20.5482, -160.568, -92.6085, 54.7926
3.35179, 2, -37.039, 0.654536, 20.5482, -160.568, -92.6085, 54.7926
3.36021, 2, -37.039, 0.654518, 20.5482, -160.568, -92.6085, 54.7926
3.36784, 2, -37.039, 0.654509, 20.5482, -160.568, -92.6085, 54.7927
3.37595, 2, -37.039, 0.654506, 20.5482, -160.567, -92.6085, 54.7927
3.38444, 2, -37.0389, 0.654504, 20.5481, -160.567, -92.6085, 54.7927
3.39206, 2, -37.0389, 0.654503, 20.5482, -160.567, -92.6085, 54.7927
3.40007, 2, -37.0389, 0.654503, 20.5481, -160.567, -92.6086, 54.7928
3.40858, 2, -37.0389, 0.654503, 20.5481, -160.567, -92.6085, 54.7928
3.41609, 2, -37.0389, 0.654503, 20.5481, -160.567, -92.6085, 54.7928
3.42413, 2, -37.0389, 0.654503, 20.5481, -160.567, -92.6085, 54.7928
3.43243, 2, -37.0389, 0.654526, 20.5481, -160.567, -92.6085, 54.7928
3.43955, 2, -37.0388, 0.654529, 20.5481, -160.567, -92.6085, 54.7928
3.44754, 2, -37.0388, 0.654544, 20.5481, -160.567, -92.6085, 54.7928
3.4556, 2, -37.0388, 0.65454, 20.5481, -160.567, -92.6085, 54.7929
3.46354, 2, -37.0388, 0.654545, 20.5481, -160.567, -92.6086, 54.7928
3.47154, 2, -37.0388, 0.654541, 20.5481, -160.567, -92.6086, 54.7929
3.47959, 2, -37.0387, 0.65452, 20.5481, -160.567, -92.6085, 54.7929
3.48753, 2, -37.0387, 0.654529, 20.548, -160.567, -92.6085, 54.793
3.49563, 2, -37.0387, 0.654544, 20.548, -160.567, -92.6085, 54.793
3.50359, 2, -37.0387, 0.654529, 20.548, -160.567, -92.6085, 54.793
3.51155, 2, -37.0387, 0.654515, 20.548, -160.567, -92.6086, 54.793
3.51959, 2, -37.0387, 0.654519, 20.548, -160.567, -92.6086, 54.793
3.52758, 2, -37.0387, 0.654547, 20.548, -160.567, -92.6085, 54.793
3.53555, 2, -37.0387, 0.65456, 20.548, -160.567, -92.6086, 54.793
3.54356, 2, -37.0387, 0.654585, 20.548, -160.567, -92.6085, 54.7931
3.55164, 2, -37.0387, 0.654582, 20.548, -160.567, -92.6085, 54.7931
3.55954, 2, -37.0386, 0.654576, 20.548, -160.567, -92.6085, 54.7931
3.56754, 2, -37.0387, 0.654562, 20.548, -160.567, -92.6085, 54.7931
3.57561, 2, -37.0386, 0.654559, 20.548, -160.567, -92.6085, 54.7931
3.58354, 2, -37.0386, 0.654565, 20.548, -160.567, -92.6086, 54.7931
3.59154, 2, -37.0387, 0.65455, 20.5479, -160.567, -92.6086, 54.7931
3.59961, 2, -37.0386, 0.654543, 20.5479, -160.567, -92.6086, 54.7931
3.60753, 2, -37.0386, 0.654539, 20.5479, -160.567, -92.6086, 54.7931
3.61554, 2, -37.0386, 0.654538, 20.5479, -160.567, -92.6086, 54.7931
3.62361, 2, -37.0386, 0.654555, 20.5479, -160.567, -92.6085, 54.7932
3.63153, 2, -37.0386, 0.654545, 20.5479, -160.567, -92.6086, 54.7931
3.63953, 2, -37.0386, 0.65454, 20.5479, -160.567, -92.6086, 54.7931
3.64885, 2, -37.0386, 0.654557, 20.5479, -160.567, -92.6086, 54.7931
3.65555, 2, -37.0385, 0.654564, 20.5479, -160.567, -92.6085, 54.7932
3.6636, 2, -37.0385, 0.65458, 20.5479, -160.567, -92.6086, 54.7931
3.67153, 2, -37.0385, 0.654587, 20.5479, -160.567, -92.6087, 54.7932
3.67956, 2, -37.0385, 0.65459, 20.5479, -160.567, -92.6087, 54.7932
3.68764, 2, -37.0385, 0.65458, 20.5478, -160.567, -92.6086, 54.7932
3.69555, 2, -37.0385, 0.654575, 20.5479, -160.567, -92.6086, 54.7932
3.70354, 2, -37.0385, 0.654572, 20.5478, -160.567, -92.6086, 54.7932
3.7116, 4, -37.0385, 0.654553, 20.5478, -160.567, -92.6087, 54.7932
3.71957, 4, -37.0385, 0.654551, 20.5478, -160.567, -92.6086, 54.7932
3.72754, 4, -37.0385, 0.654574, 20.5478, -160.567, -92.6086, 54.7932
3.73562, 4, -37.0385, 0.654566, 20.5478, -160.567, -92.6087, 54.7932
3.74353, 4, -37.0385, 0.654581, 20.5478, -160.567, -92.6087, 54.7932
3.75155, 4, -37.0385, 0.6546, 20.5478, -160.567, -92.6087, 54.7932
3.75967, 4, -37.0384, 0.654589, 20.5478, -160.567, -92.6087, 54.7932
3.76762, 4, -37.0384, 0.654598, 20.5478, -160.567, -92.6087, 54.7932
3.77565, 4, -37.0384, 0.654588, 20.5478, -160.567, -92.6087, 54.7932
3.7837, 4, -37.0383, 0.654591, 20.5478, -160.567, -92.6087, 54.7932
3.79164, 4, -37.0384, 0.65458, 20.5477, -160.567, -92.6086, 54.7932
3.79964, 4, -37.0384, 0.654594, 20.5477, -160.567, -92.6086, 54.7932
3.80791, 4, -37.0384, 0.654594, 20.5477, -160.567, -92.6087, 54.7932
3.83626, 4, -37.0384, 0.654596, 20.5477, -160.567, -92.6087, 54.7932
3.83805, 4, -37.0383, 0.654596, 20.5477, -160.567, -92.6087, 54.7932
3.84072, 4, -37.0383, 0.654602, 20.5477, -160.567, -92.6087, 54.7932
3.84259, 4, -37.0383, 0.654602, 20.5477, -160.567, -92.6087, 54.7932
3.8487, 4, -37.0382, 0.654602, 20.5477, -160.567, -92.6087, 54.7932
3.85713, 4, -37.038, 0.654537, 20.5477, -160.567, -92.6087, 54.7932
3.86407, 4, -37.0365, 0.654112, 20.5477, -160.567, -92.6087, 54.7932
3.8728, 4, -37.0325, 0.652383, 20.5481, -160.567, -92.6087, 54.7932
3.87995, 4, -37.0248, 0.648128, 20.5496, -160.567, -92.6087, 54.7932
3.88843, 4, -37.0134, 0.640433, 20.5534, -160.566, -92.6087, 54.7932
3.89691, 4, -36.9976, 0.628923, 20.5608, -160.565, -92.6088, 54.7932
3.90407, 4, -36.9765, 0.612928, 20.5732, -160.563, -92.6088, 54.7932
3.91212, 5, -36.9499, 0.59246, 20.5919, -160.559, -92.6086, 54.7932
3.9211, 5, -36.9181, 0.567488, 20.6172, -160.554, -92.6083, 54.7932
3.92811, 5, -36.9006, 0.553282, 20.6494, -160.547, -92.6077, 54.7931
3.93828, 5, -36.8405, 0.504059, 20.6879, -160.539, -92.6069, 54.793
3.94352, 5, -36.8179, 0.48522, 20.7092, -160.534, -92.6063, 54.793
3.95158, 5, -36.7689, 0.444274, 20.7556, -160.523, -92.6049, 54.793
3.96094, 5, -36.7148, 0.399298, 20.8317, -160.506, -92.6025, 54.793
3.96775, 5, -36.6565, 0.351064, 20.8583, -160.5, -92.6016, 54.7929
3.97452, 5, -36.5942, 0.300463, 20.9127, -160.488, -92.5999, 54.7929
3.98352, 5, -36.5285, 0.248065, 20.9679, -160.476, -92.5981, 54.7929
3.99152, 5, -36.4612, 0.194741, 21.0232, -160.464, -92.5962, 54.793
3.99958, 5, -36.3929, 0.141063, 21.0787, -160.451, -92.5944, 54.793
4.00773, 5, -36.3242, 0.0871816, 21.1342, -160.439, -92.5925, 54.793
4.01551, 5, -36.2553, 0.0333107, 21.1896, -160.428, -92.5906, 54.793
4.02504, 5, -36.1519, -0.0471174, 21.2728, -160.409, -92.5877, 54.793
4.03306, 5, -36.1175, -0.10048, 21.3282, -160.397, -92.5857, 54.7931
4.04496, 5, -36.0145, -0.153601, 21.3834, -160.384, -92.5837, 54.7933
4.04749, 5, -35.9801, -0.180105, 21.411, -160.378, -92.5827, 54.7933
4.05563, 5, -35.9115, -0.232992, 21.4662, -160.365, -92.5807, 54.7935
4.06352, 5, -35.8429, -0.285639, 21.5212, -160.352, -92.5787, 54.7939
4.07364, 5, -35.7395, -0.364608, 21.6037, -160.333, -92.5757, 54.7948
4.08241, 5, -35.6703, -0.417243, 21.6584, -160.32, -92.5737, 54.7957
4.08771, 5, -35.6356, -0.443571, 21.6857, -160.314, -92.5727, 54.7963
4.0955, 5, -35.5659, -0.496324, 21.7401, -160.302, -92.5706, 54.7975
4.10354, 5, -35.4961, -0.549051, 21.7944, -160.289, -92.5686, 54.7988
4.11168, 5, -35.4259, -0.601821, 21.8485, -160.277, -92.5666, 54.8002
4.12186, 5, -35.3203, -0.68085, 21.9295, -160.257, -92.5635, 54.8026
4.12753, 5, -35.285, -0.707196, 21.9565, -160.251, -92.5624, 54.8035
4.13574, 5, -35.2145, -0.759728, 22.0102, -160.238, -92.5603, 54.8054
4.14606, 5, -35.1085, -0.838039, 22.0908, -160.217, -92.5571, 54.8084
4.15152, 5, -35.0731, -0.864132, 22.1175, -160.211, -92.5561, 54.8095
4.15976, 5, -35.0025, -0.916068, 22.171, -160.197, -92.5539, 54.8117
4.17006, 5, -34.9319, -0.967674, 22.2509, -160.178, -92.5507, 54.8153
4.17552, 5, -34.8614, -1.01916, 22.2775, -160.172, -92.5496, 54.8166
4.18411, 5, -34.7908, -1.07051, 22.3306, -160.159, -92.5474, 54.8193
4.19338, 5, -34.7202, -1.12196, 22.3834, -160.146, -92.5452, 54.822
4.19953, 5, -34.6494, -1.17324, 22.4362, -160.133, -92.543, 54.8248
4.2083, 5, -34.5785, -1.22454, 22.4887, -160.12, -92.5407, 54.8278
4.21558, 5, -34.5074, -1.27588, 22.541, -160.107, -92.5385, 54.8308
4.22355, 5, -34.436, -1.32716, 22.5933, -160.093, -92.5363, 54.834
4.23369, 5, -34.3646, -1.37846, 22.6454, -160.079, -92.534, 54.8373
4.2397, 5, -34.293, -1.42973, 22.6973, -160.066, -92.5317, 54.8407
4.24759, 5, -34.2212, -1.48086, 22.749, -160.052, -92.5294, 54.8442
4.25589, 5, -34.1492, -1.53177, 22.8008, -160.038, -92.5271, 54.8478
4.2639, 5, -34.0771, -1.58245, 22.8523, -160.025, -92.5248, 54.8515
4.27196, 5, -34.005, -1.633, 22.9038, -160.011, -92.5225, 54.8553
4.27962, 5, -33.9328, -1.68325, 22.9552, -159.998, -92.5202, 54.8592
4.28797, 5, -33.8606, -1.73332, 23.0063, -159.985, -92.5178, 54.8633
4.2957, 5, -33.7885, -1.78327, 23.0573, -159.971, -92.5155, 54.8675
4.30363, 5, -33.7162, -1.83319, 23.1082, -159.957, -92.5132, 54.8716
4.3118, 5, -33.6438, -1.88298, 23.1589, -159.942, -92.5109, 54.8759
4.32051, 5, -33.5712, -1.93284, 23.2094, -159.928, -92.5087, 54.8802
4.32761, 5, -33.4986, -1.98307, 23.2598, -159.914, -92.5064, 54.8843
4.33556, 5, -33.4257, -2.03356, 23.3102, -159.9, -92.5041, 54.8879
4.34366, 5, -33.3531, -2.08446, 23.3606, -159.886, -92.5018, 54.8902
4.35177, 6, -33.2807, -2.13586, 23.4112, -159.871, -92.4993, 54.8912
4.36041, 6, -33.2085, -2.18798, 23.462, -159.857, -92.4965, 54.8905
4.36878, 6, -33.1368, -2.24106, 23.5134, -159.842, -92.4931, 54.8875
4.37588, 6, -33.0655, -2.29498, 23.5655, -159.826, -92.489, 54.8801
4.38479, 7, -32.9946, -2.35004, 23.6187, -159.808, -92.4835, 54.8676
4.39214, 7, -32.9242, -2.40623, 23.6732, -159.789, -92.4765, 54.8522
4.40008, 7, -32.8544, -2.46382, 23.7288, -159.769, -92.4677, 54.835
4.40808, 7, -32.7851, -2.52287, 23.786, -159.748, -92.457, 54.8176
4.41658, 7, -32.7166, -2.5835, 23.8443, -159.726, -92.4443, 54.8005
4.42493, 8, -32.6487, -2.6457, 23.904, -159.703, -92.4297, 54.7838
4.4322, 8, -32.615, -2.70964, 23.9648, -159.678, -92.4131, 54.7669
4.44045, 8, -32.5148, -2.77526, 24.0267, -159.651, -92.3948, 54.7494
4.44748, 8, -32.4818, -2.80865, 24.058, -159.638, -92.3849, 54.7403
4.45552, 8, -32.4163, -2.87659, 24.1215, -159.61, -92.3641, 54.721
4.46351, 9, -32.3514, -2.94595, 24.1858, -159.582, -92.3421, 54.7
4.47149, 9, -32.287, -3.0166, 24.2512, -159.553, -92.3191, 54.6772
4.47957, 9, -32.2233, -3.0886, 24.3176, -159.522, -92.2949, 54.6526
4.48767, 9, -32.1601, -3.16187, 24.3849, -159.49, -92.2692, 54.6265
4.49575, 9, -32.0974, -3.23639, 24.4532, -159.458, -92.2415, 54.5994
4.50347, 10, -32.0353, -3.31224, 24.5225, -159.425, -92.2123, 54.5709
4.51152, 10, -31.9737, -3.38939, 24.5929, -159.391, -92.1822, 54.5406
4.51958, 10, -31.9129, -3.468, 24.6643, -159.355, -92.151, 54.5083
4.52755, 10, -31.8525, -3.54804, 24.7368, -159.319, -92.1181, 54.4741
4.53794, 10, -31.763, -3.67077, 24.8475, -159.264, -92.0653, 54.4205
4.54379, 11, -31.7335, -3.7124, 24.8848, -159.244, -92.0472, 54.402
4.55148, 11, -31.6748, -3.7968, 24.9603, -159.205, -92.0104, 54.3639
4.55955, 11, -31.6167, -3.88269, 25.0367, -159.165, -91.9722, 54.3238
4.57102, 11, -31.5304, -4.0142, 25.1529, -159.104, -91.9112, 54.2605
4.57553, 11, -31.5019, -4.05877, 25.1922, -159.083, -91.8905, 54.2389
4.58356, 11, -31.4454, -4.14901, 25.2716, -159.04, -91.8482, 54.1947
4.5915, 12, -31.3894, -4.24074, 25.3521, -158.997, -91.8038, 54.1487
4.59952, 12, -31.3337, -4.33385, 25.4337, -158.952, -91.7579, 54.1004
4.60762, 12, -31.2788, -4.42831, 25.5162, -158.906, -91.7116, 54.0512
4.61575, 12, -31.2242, -4.52407, 25.5999, -158.86, -91.6634, 54.0007
4.62456, 12, -31.1702, -4.62131, 25.6844, -158.812, -91.6136, 53.9482
4.6315, 13, -31.1167, -4.71995, 25.77, -158.763, -91.5631, 53.8939
4.63971, 13, -31.0637, -4.81998, 25.8564, -158.715, -91.5103, 53.839
4.64847, 13, -31.0112, -4.92151, 25.944, -158.665, -91.4565, 53.7823
4.65552, 13, -30.9593, -5.02464, 26.0326, -158.613, -91.4019, 53.7236
4.66352, 13, -30.9078, -5.12911, 26.1224, -158.562, -91.3451, 53.664
4.67157, 14, -30.8569, -5.23496, 26.2132, -158.508, -91.2879, 53.603
4.6795, 14, -30.8067, -5.34242, 26.305, -158.455, -91.2288, 53.5399
4.68875, 14, -30.7569, -5.4513, 26.3977, -158.401, -91.1683, 53.4763
4.69573, 14, -30.7076, -5.56173, 26.4912, -158.344, -91.1072, 53.411
4.7045, 14, -30.6589, -5.67363, 26.5859, -158.288, -91.0435, 53.3436
4.71228, 15, -30.6106, -5.787, 26.6817, -158.231, -90.9796, 53.2756
4.71952, 15, -30.5629, -5.90164, 26.7786, -158.172, -90.9132, 53.2057
4.72758, 15, -30.5158, -6.01755, 26.8766, -158.114, -90.8465, 53.1342
4.739, 15, -30.4458, -6.19427, 27.0255, -158.023, -90.743, 53.0249
4.74372, 15, -30.4227, -6.25387, 27.0756, -157.992, -90.7081, 52.9871
4.75151, 16, -30.377, -6.37413, 27.1763, -157.93, -90.6369, 52.9117
4.75976, 16, -30.3319, -6.49604, 27.2782, -157.867, -90.5643, 52.8342
4.7677, 16, -30.2871, -6.61928, 27.3812, -157.803, -90.4907, 52.7552
4.77583, 16, -30.2429, -6.74401, 27.4853, -157.738, -90.4156, 52.6754
4.78361, 16, -30.1991, -6.8703, 27.5906, -157.673, -90.3391, 52.5935
4.79162, 17, -30.1559, -6.99806, 27.6968, -157.606, -90.2615, 52.5111
4.80008, 17, -30.1131, -7.1275, 27.8037, -157.539, -90.1824, 52.4266
4.8076, 17, -30.0708, -7.25844, 27.9116, -157.471, -90.102, 52.3416
4.81639, 17, -30.029, -7.39071, 28.0206, -157.402, -90.02, 52.2547
4.82397, 17, -29.9878, -7.52421, 28.1308, -157.331, -89.9372, 52.1666
4.83157, 18, -29.9471, -7.65924, 28.2423, -157.261, -89.8528, 52.0772
4.84059, 18, -29.9069, -7.79563, 28.3546, -157.189, -89.7669, 51.9865
4.8476, 18, -29.8671, -7.93351, 28.4678, -157.116, -89.6803, 51.8943
4.85652, 18, -29.8278, -8.07264, 28.5818, -157.042, -89.5921, 51.8008
4.86415, 18, -29.789, -8.21297, 28.697, -156.968, -89.5028, 51.7059
4.87367, 19, -29.7506, -8.35472, 28.8134, -156.892, -89.4121, 51.6099
4.8808, 19, -29.7128, -8.49802, 28.931, -156.816, -89.3204, 51.5124
4.88942, 19, -29.6753, -8.64289, 29.0496, -156.738, -89.2272, 51.4141
4.89835, 19, -29.6383, -8.78913, 29.1687, -156.66, -89.1328, 51.3144
4.90413, 19, -29.6018, -8.93659, 29.2888, -156.581, -89.0376, 51.2142
4.91204, 19, -29.5658, -9.08547, 29.4099, -156.501, -88.941, 51.1121
4.92007, 20, -29.5304, -9.2358, 29.5323, -156.421, -88.8433, 51.0093
4.92814, 20, -29.4952, -9.38775, 29.6558, -156.339, -88.7449, 50.905
4.93839, 20, -29.4778, -9.46424, 29.7178, -156.298, -88.645, 50.7997
4.94433, 20, -29.4434, -9.6179, 29.8425, -156.215, -88.5442, 50.693
4.95235, 20, -29.4095, -9.77276, 29.9681, -156.089, -88.4424, 50.5851
4.95955, 21, -29.3762, -9.92902, 30.0947, -156.046, -88.391, 50.5308
4.9675, 21, -29.3431, -10.0868, 30.2223, -155.96, -88.2873, 50.4216
4.9755, 21, -29.3104, -10.246, 30.351, -155.874, -88.1828, 50.3111
4.9835, 21, -29.2782, -10.4062, 30.4806, -155.787, -88.0772, 50.2
4.99184, 21, -29.2464, -10.5674, 30.6111, -155.699, -87.9704, 50.0881
4.99953, 22, -29.215, -10.73, 30.7424, -155.609, -87.8627, 49.975
5.0075, 22, -29.184, -10.894, 30.8747, -155.519, -87.754, 49.8613
5.01551, 22, -29.1533, -11.0591, 31.008, -155.428, -87.6444, 49.7467
5.02357, 22, -29.1232, -11.2251, 31.1421, -155.337, -87.5336, 49.6308
5.0316, 22, -29.0933, -11.3922, 31.2771, -155.244, -87.4218, 49.5144
5.03964, 23, -29.0639, -11.5611, 31.4132, -155.15, -87.3093, 49.3969
5.04825, 23, -29.0347, -11.7314, 31.5498, -155.056, -87.1957, 49.2788
5.05556, 23, -29.006, -11.9025, 31.6874, -154.961, -87.0813, 49.1602
5.06563, 23, -28.9637, -12.1611, 31.8953, -154.817, -86.9082, 48.9814
5.07372, 23, -28.9359, -12.3353, 32.035, -154.719, -86.7915, 48.861
5.07952, 24, -28.9222, -12.423, 32.1052, -154.671, -86.7328, 48.8007
5.0875, 24, -28.8949, -12.5987, 32.2463, -154.572, -86.6146, 48.68
5.09563, 24, -28.8679, -12.7749, 32.388, -154.472, -86.4958, 48.5584
5.1065, 24, -28.8282, -13.0415, 32.602, -154.322, -86.3158, 48.3749
5.11154, 24, -28.8152, -13.1312, 32.6739, -154.271, -86.2554, 48.3135
5.1197, 25, -28.7893, -13.3112, 32.8182, -154.169, -86.1343, 48.1904
5.12751, 25, -28.7637, -13.4917, 32.9631, -154.067, -86.0121, 48.0671
5.13549, 25, -28.7383, -13.673, 33.1086, -153.963, -85.8896, 47.9437
5.14349, 25, -28.7131, -13.8559, 33.2547, -153.859, -85.7663, 47.82
5.1515, 25, -28.6881, -14.0399, 33.4018, -153.754, -85.642, 47.6961
5.1595, 25, -28.6636, -14.2243, 33.5497, -153.648, -85.5175, 47.5721
5.1677, 26, -28.6393, -14.4093, 33.698, -153.541, -85.392, 47.4479
5.17547, 26, -28.6153, -14.5958, 33.8468, -153.434, -85.2664, 47.3236
5.18349, 26, -28.5916, -14.7836, 33.9965, -153.326, -85.1398, 47.1993
5.19168, 26, -28.5679, -14.9714, 34.147, -153.217, -85.0127, 47.0749
5.19959, 26, -28.5444, -15.1596, 34.298, -153.107, -84.8852, 46.9509
5.20749, 27, -28.5212, -15.3488, 34.4493, -152.997, -84.7571, 46.8272
5.21679, 27, -28.4982, -15.5388, 34.6013, -152.886, -84.6287, 46.704
5.22547, 27, -28.4754, -15.729, 34.754, -152.774, -84.4994, 46.5808
5.2316, 27, -28.4529, -15.9198, 34.9074, -152.662, -84.37, 46.458
5.23949, 27, -28.4306, -16.1121, 35.0609, -152.549, -84.2401, 46.3354
5.2475, 28, -28.4083, -16.3055, 35.2145, -152.435, -84.1099, 46.2132
5.25556, 28, -28.3859, -16.4991, 35.3692, -152.32, -83.9791, 46.0913
5.26352, 28, -28.3638, -16.6935, 35.5245, -152.205, -83.8482, 45.9701
5.27264, 28, -28.3418, -16.8889, 35.6799, -152.09, -83.7169, 45.8498
5.2798, 28, -28.3197, -17.0848, 35.8355, -151.973, -83.5852, 45.7302
5.2876, 29, -28.2978, -17.2804, 35.9917, -151.856, -83.4534, 45.6115
5.29566, 29, -28.276, -17.4765, 36.1485, -151.738, -83.3212, 45.4938
5.3036, 29, -28.2542, -17.6737, 36.3056, -151.62, -83.1888, 45.3769
5.31159, 29, -28.2323, -17.8708, 36.4624, -151.501, -83.0559, 45.261
5.31983, 29, -28.2107, -18.068, 36.6197, -151.382, -82.9231, 45.1462
5.32857, 30, -28.1892, -18.2658, 36.7779, -151.262, -82.7899, 45.0325
5.33553, 30, -28.1675, -18.4644, 36.9362, -151.141, -82.6569, 44.9201
5.34394, 30, -28.146, -18.663, 37.0943, -151.02, -82.5234, 44.8088
5.35429, 30, -28.1245, -18.8617, 37.2524, -150.898, -82.3901, 44.6995
5.35978, 30, -28.1028, -19.0616, 37.4112, -150.776, -82.2563, 44.5916
5.36788, 31, -28.0811, -19.2622, 37.5703, -150.653, -82.1224, 44.4851
5.37589, 31, -28.0595, -19.4626, 37.7293, -150.53, -81.9886, 44.3801
5.38385, 31, -28.038, -19.6631, 37.8883, -150.406, -81.8544, 44.2767
5.39292, 31, -28.0165, -19.8642, 38.048, -150.281, -81.7205, 44.1752
5.40096, 31, -27.9948, -20.0654, 38.2082, -150.156, -81.5862, 44.0745
5.40846, 32, -27.9733, -20.2662, 38.3682, -150.03, -81.452, 43.9758
5.41685, 32, -27.9515, -20.4675, 38.5279, -149.903, -81.3176, 43.8787
5.42409, 32, -27.9296, -20.6696, 38.6879, -149.776, -81.1835, 43.7839
5.43288, 32, -27.9185, -20.7706, 38.8484, -149.648, -81.0492, 43.6909
5.44204, 32, -27.8851, -21.0729, 39.0085, -149.52, -80.9153, 43.6008
5.45036, 33, -27.8625, -21.2746, 39.168, -149.392, -80.7817, 43.5131
5.45545, 33, -27.8511, -21.3755, 39.2476, -149.328, -80.715, 43.4706
5.46348, 33, -27.828, -21.5766, 39.4071, -149.2, -80.5821, 43.3878
5.47369, 33, -27.7924, -21.8766, 39.6455, -149.007, -80.3836, 43.2698
5.48184, 33, -27.768, -22.0765, 39.803, -148.88, -80.252, 43.1951
5.48754, 33, -27.7557, -22.1762, 39.8815, -148.816, -80.1862, 43.159
5.49548, 34, -27.7306, -22.3748, 40.0385, -148.688, -80.0552, 43.0903
5.50353, 34, -27.7049, -22.5722, 40.1952, -148.56, -79.9245, 43.0243
5.51148, 34, -27.6787, -22.7693, 40.3511, -148.432, -79.7938, 42.9615
5.51963, 34, -27.6522, -22.9661, 40.5063, -148.305, -79.6631, 42.9027
5.52747, 34, -27.625, -23.162, 40.6615, -148.177, -79.5324, 42.8466
5.53567, 35, -27.5974, -23.3574, 40.8168, -148.048, -79.4018, 42.7935
5.54375, 35, -27.5697, -23.5533, 40.9716, -147.92, -79.2711, 42.7444
5.55229, 35, -27.5417, -23.749, 41.1257, -147.791, -79.1409, 42.6987
5.55948, 35, -27.5134, -23.944, 41.2798, -147.661, -79.0105, 42.6562
5.56902, 35, -27.4849, -24.1387, 41.4339, -147.531, -78.8806, 42.6167
5.57552, 36, -27.4559, -24.3334, 41.5878, -147.401, -78.7507, 42.5813
5.5845, 36, -27.4266, -24.5277, 41.7411, -147.27, -78.6213, 42.5502
5.59261, 36, -27.397, -24.721, 41.8938, -147.139, -78.4924, 42.5233
5.59963, 36, -27.3669, -24.9141, 42.0463, -147.009, -78.3635, 42.5007
5.60746, 36, -27.3361, -25.1072, 42.1982, -146.878, -78.2355, 42.4824
5.61624, 37, -27.3044, -25.2993, 42.349, -146.747, -78.1076, 42.4686
5.62349, 37, -27.2719, -25.49, 42.4986, -146.617, -77.9804, 42.4596
5.63154, 37, -27.2387, -25.6799, 42.6474, -146.487, -77.8535, 42.455
5.64297, 37, -27.1871, -25.9632, 42.8689, -146.293, -77.6641, 42.454
5.64759, 37, -27.1694, -26.0567, 42.9421, -146.229, -77.6011, 42.4561
5.65643, 38, -27.1333, -26.2425, 43.0874, -146.102, -77.4757, 42.4655
5.66356, 38, -27.0965, -26.4274, 43.2317, -145.974, -77.351, 42.4804
5.67212, 38, -27.0588, -26.6114, 43.3753, -145.847, -77.2267, 42.5006
5.68256, 38, -27.0007, -26.8846, 43.5887, -145.658, -77.0412, 42.5413
5.68746, 38, -26.981, -26.9752, 43.6594, -145.595, -76.9795, 42.5577
5.69546, 39, -26.941, -27.156, 43.7999, -145.469, -76.8568, 42.5952
5.70361, 39, -26.9003, -27.3364, 43.9397, -145.343, -76.7341, 42.6389
5.71148, 39, -26.8588, -27.5155, 44.0789, -145.217, -76.6116, 42.6878
5.7197, 39, -26.8164, -27.6935, 44.2172, -145.091, -76.4893, 42.7423
5.72852, 39, -26.7734, -27.8713, 44.3546, -144.966, -76.3668, 42.8033
5.73553, 39, -26.7296, -28.0488, 44.491, -144.84, -76.2446, 42.8705
5.7436, 40, -26.6847, -28.2247, 44.6264, -144.715, -76.1223, 42.9433
5.75149, 40, -26.6389, -28.3991, 44.7608, -144.591, -76.0005, 43.0236
5.75985, 40, -26.5923, -28.5725, 44.8939, -144.467, -75.879, 43.1091
5.76792, 40, -26.5447, -28.7449, 45.0256, -144.345, -75.7578, 43.2022
5.77658, 40, -26.4958, -28.9154, 45.1559, -144.223, -75.6374, 43.3014
5.78386, 41, -26.4458, -29.084, 45.2848, -144.102, -75.5171, 43.4078
5.79348, 41, -26.3947, -29.2511, 45.4123, -143.981, -75.3975, 43.5206
5.79958, 41, -26.3422, -29.4171, 45.5382, -143.862, -75.2784, 43.6404
5.80768, 41, -26.2884, -29.5814, 45.6626, -143.745, -75.1595, 43.7674
5.81558, 41, -26.2333, -29.7435, 45.7851, -143.628, -75.0416, 43.9016
5.82381, 42, -26.1767, -29.904, 45.9058, -143.513, -74.9237, 44.0432
5.83174, 42, -26.1187, -30.0627, 46.0247, -143.399, -74.8067, 44.1919
5.83953, 42, -26.059, -30.2196, 46.1415, -143.287, -74.6901, 44.3476
5.84846, 42, -25.9978, -30.3741, 46.2564, -143.177, -74.5738, 44.5108
5.85573, 42, -25.9351, -30.5262, 46.3693, -143.068, -74.4583, 44.681
5.86374, 43, -25.8706, -30.6762, 46.4799, -142.962, -74.343, 44.859
5.87224, 43, -25.8044, -30.8242, 46.5885, -142.857, -74.2283, 45.0449
5.87983, 43, -25.7366, -30.9699, 46.695, -142.754, -74.1139, 45.2383
5.88792, 43, -25.6672, -31.1132, 46.7995, -142.652, -73.9998, 45.4394
5.89634, 43, -25.5963, -31.2542, 46.9022, -142.553, -73.8863, 45.6481
5.90442, 44, -25.5236, -31.3931, 47.0027, -142.456, -73.7731, 45.8647
5.91211, 44, -25.4491, -31.5297, 47.1009, -142.361, -73.6605, 46.0892
5.92044, 44, -25.3726, -31.6641, 47.1966, -142.268, -73.5483, 46.3219
5.92888, 44, -25.2944, -31.7958, 47.2898, -142.177, -73.4363, 46.563
5.93616, 44, -25.2143, -31.9247, 47.3807, -142.089, -73.3254, 46.812
5.94399, 45, -25.1735, -31.9882, 47.4252, -142.047, -73.2701, 46.9396
5.95147, 45, -25.0906, -32.1131, 47.5124, -141.963, -73.1598, 47.2014
5.95952, 45, -25.0056, -32.2353, 47.597, -141.882, -73.0504, 47.4715
5.96901, 45, -24.9186, -32.3546, 47.6786, -141.804, -72.9416, 47.7498
5.97701, 45, -24.8294, -32.4708, 47.7954, -141.693, -72.7798, 48.1826
5.98343, 46, -24.7378, -32.584, 47.8329, -141.657, -72.7263, 48.3312
5.99147, 46, -24.6441, -32.6938, 47.9055, -141.59, -72.6198, 48.6348
5.99955, 46, -24.548, -32.8004, 47.9753, -141.524, -72.5143, 48.9467
6.00746, 46, -24.4494, -32.9035, 48.0419, -141.464, -72.4096, 49.2673
6.01785, 46, -24.2975, -33.0513, 48.1358, -141.379, -72.2541, 49.7644
6.02368, 47, -24.2456, -33.0987, 48.1653, -141.352, -72.203, 49.9342
6.03148, 47, -24.1402, -33.1906, 48.2218, -141.304, -72.1012, 50.2796
6.03958, 47, -24.0322, -33.2784, 48.2746, -141.258, -72.0003, 50.6339
6.04998, 47, -23.8653, -33.4024, 48.3469, -141.198, -71.8514, 51.1806
6.05546, 47, -23.8083, -33.4416, 48.369, -141.181, -71.8023, 51.3672
6.06355, 47, -23.6922, -33.517, 48.4104, -141.149, -71.7049, 51.7469
6.07164, 48, -23.5732, -33.5879, 48.4477, -141.122, -71.6093, 52.1347
6.07947, 48, -23.4517, -33.6542, 48.4807, -141.099, -71.5151, 52.5311
6.08752, 48, -23.3277, -33.7158, 48.5097, -141.081, -71.4225, 52.9366
6.09565, 48, -23.2012, -33.7725, 48.5345, -141.068, -71.3322, 53.3508
6.10344, 48, -23.0718, -33.8241, 48.5549, -141.061, -71.2438, 53.7737
6.11148, 49, -22.9396, -33.8705, 48.5709, -141.058, -71.1571, 54.2049
6.11949, 49, -22.8044, -33.9115, 48.5823, -141.06, -71.0725, 54.6433
6.12752, 49, -22.6663, -33.9469, 48.589, -141.068, -70.99, 55.09
6.13549, 49, -22.5253, -33.9767, 48.5913, -141.082, -70.9097, 55.5439
6.1436, 49, -22.3815, -34.0007, 48.589, -141.102, -70.8314, 56.0058
6.15252, 50, -22.235, -34.0186, 48.5815, -141.129, -70.7563, 56.4751
6.15947, 50, -22.0858, -34.0302, 48.569, -141.161, -70.6834, 56.9515
6.16846, 50, -21.9339, -34.0357, 48.5514, -141.199, -70.614, 57.4362
6.17547, 50, -21.7791, -34.0352, 48.5285, -141.243, -70.5472, 57.9281
6.18347, 50, -21.6211, -34.0284, 48.5, -141.294, -70.4843, 58.4274
6.19246, 51, -21.4602, -34.0149, 48.4663, -141.351, -70.4249, 58.9322
6.19964, 51, -21.2966, -33.9947, 48.4274, -141.414, -70.3683, 59.443
6.20751, 51, -21.1305, -33.9675, 48.3829, -141.483, -70.3163, 59.9592
6.22068, 51, -20.8766, -33.9136, 48.3061, -141.598, -70.2441, 60.7435
6.22361, 51, -20.7907, -33.8921, 48.2776, -141.64, -70.2221, 61.0074
6.23192, 52, -20.6169, -33.843, 48.2163, -141.728, -70.1817, 61.5396
6.2395, 52, -20.4405, -33.7862, 48.1491, -141.821, -70.146, 62.0789
6.24761, 52, -20.2613, -33.7213, 48.0757, -141.922, -70.1144, 62.6254
6.25643, 52, -20.079, -33.6481, 47.996, -142.029, -70.0878, 63.1789
6.26348, 52, -19.8942, -33.5665, 47.9098, -142.142, -70.0668, 63.7393
6.27149, 53, -19.707, -33.4762, 47.8171, -142.262, -70.0512, 64.3069
6.27993, 53, -19.5175, -33.3772, 47.7179, -142.389, -70.0414, 64.8812
6.28755, 53, -19.326, -33.2699, 47.6124, -142.522, -70.037, 65.4606
6.29611, 53, -19.1325, -33.1542, 47.5008, -142.66, -70.0376, 66.044
6.30479, 53, -18.9371, -33.0302, 47.3831, -142.804, -70.0441, 66.6318
6.31153, 54, -18.74, -32.8976, 47.2594, -142.954, -70.0569, 67.222
6.324, 54, -18.441, -32.6833, 47.0629, -143.186, -70.0884, 68.1085
6.32773, 54, -18.3404, -32.6077, 46.9947, -143.266, -70.1022, 68.4044
6.33649, 54, -18.1378, -32.4506, 46.8543, -143.428, -70.1348, 68.9969
6.3435, 54, -17.9339, -32.2852, 46.7083, -143.595, -70.1729, 69.5904
6.3523, 54, -17.7292, -32.1107, 46.5565, -143.766, -70.2183, 70.1846
6.3605, 55, -17.5237, -31.9272, 46.3988, -143.942, -70.2718, 70.7819
6.36766, 55, -17.3167, -31.7345, 46.235, -144.122, -70.332, 71.3833
6.37661, 55, -17.1082, -31.5323, 46.0644, -144.307, -70.4013, 71.9884
6.3838, 55, -16.898, -31.3196, 45.8862, -144.498, -70.4787, 72.5979
6.3919, 55, -16.6861, -31.0964, 45.701, -144.693, -70.5656, 73.2124
6.40101, 56, -16.4727, -30.8629, 45.5092, -144.892, -70.6612, 73.8315
6.41028, 56, -16.2579, -30.6184, 45.3097, -145.097, -70.766, 74.4536
6.41688, 56, -16.0428, -30.3627, 45.1024, -145.305, -70.8806, 75.0789
6.42493, 56, -15.8279, -30.0966, 44.8891, -145.516, -71.0044, 75.7073
6.43289, 56, -15.6125, -29.8194, 44.6689, -145.731, -71.1381, 76.3379
6.44088, 57, -15.396, -29.5316, 44.4409, -145.949, -71.2815, 76.9691
6.44797, 57, -15.2872, -29.3839, 44.3246, -146.059, -71.3568, 77.2855
6.45546, 57, -15.0691, -29.0805, 44.0872, -146.281, -71.5154, 77.9194
6.4635, 57, -14.8507, -28.7678, 43.8429, -146.505, -71.6836, 78.5529
6.47147, 57, -14.6327, -28.4466, 43.5934, -146.729, -71.8615, 79.1844
6.47962, 58, -14.4152, -28.1176, 43.3395, -146.954, -72.0477, 79.8138
6.48745, 58, -14.1991, -27.7813, 43.0813, -147.178, -72.2416, 80.4384
6.49551, 58, -13.9845, -27.4371, 42.8208, -147.4, -72.4427, 81.0561
6.50486, 58, -13.6656, -26.9085, 42.4244, -147.73, -72.7569, 81.9698
6.51281, 58, -13.4547, -26.5481, 42.1572, -147.946, -72.9744, 82.5707
6.51946, 59, -13.3497, -26.3653, 42.0223, -148.054, -73.0858, 82.8687
6.52926, 59, -13.0375, -25.8065, 41.6121, -148.374, -73.431, 83.754
6.53549, 59, -12.9344, -25.6169, 41.4738, -148.48, -73.5502, 84.0473
6.54352, 59, -12.729, -25.2326, 41.1939, -148.69, -73.7945, 84.6309
6.55523, 59, -12.4227, -24.6428, 40.767, -149.003, -74.1777, 85.5001
6.55948, 60, -12.3211, -24.4423, 40.6222, -149.106, -74.3099, 85.7882
6.56909, 60, -12.1188, -24.0355, 40.1823, -149.414, -74.7204, 86.6485
6.57548, 60, -11.918, -23.622, 40.0338, -149.516, -74.8616, 86.9338
6.58344, 60, -11.7185, -23.2017, 39.7345, -149.717, -75.1506, 87.5011
6.59151, 60, -11.521, -22.7761, 39.4335, -149.916, -75.4473, 88.0627
6.60122, 61, -11.3258, -22.3457, 39.1303, -150.111, -75.7508, 88.6192
6.60759, 61, -11.1329, -21.9116, 38.8266, -150.302, -76.0603, 89.1683
6.61552, 61, -10.9424, -21.4735, 38.5219, -150.488, -76.3741, 89.7085
6.62388, 61, -10.7541, -21.0322, 38.2178, -150.669, -76.6922, 90.2384
6.63384, 61, -10.4763, -20.3643, 37.7617, -150.93, -77.1764, 91.016
6.63953, 61, -10.3848, -20.1399, 37.61, -151.015, -77.3398, 91.2704
6.64822, 62, -10.2041, -19.6888, 37.3063, -151.18, -77.6698, 91.7731
6.65553, 62, -10.0263, -19.2353, 37.0022, -151.341, -78.0045, 92.2669
6.66345, 62, -9.85094, -18.7789, 36.6976, -151.497, -78.3444, 92.7537
6.67488, 62, -9.59283, -18.0906, 36.2391, -151.723, -78.8643, 93.4701
6.67959, 62, -9.50789, -17.8604, 36.0864, -151.796, -79.04, 93.7053
6.68843, 63, -9.33965, -17.3986, 35.7806, -151.938, -79.3949, 94.1692
6.69551, 63, -9.17354, -16.9351, 35.4763, -152.076, -79.7536, 94.623
6.70346, 63, -9.00996, -16.4696, 35.1728, -152.208, -80.1154, 95.0677
6.71152, 63, -8.84891, -16.0026, 34.8709, -152.334, -80.4801, 95.5018
6.71947, 63, -8.69048, -15.5335, 34.57, -152.455, -80.8469, 95.9255
6.7276, 64, -8.53458, -15.0629, 34.2714, -152.571, -81.2163, 96.3389
6.7355, 64, -8.38117, -14.5914, 33.9743, -152.682, -81.5882, 96.7412
6.74346, 64, -8.23018, -14.1192, 33.6778, -152.787, -81.9631, 97.1335
6.75209, 64, -8.08165, -13.6473, 33.3828, -152.887, -82.341, 97.5154
6.75973, 64, -7.93549, -13.1764, 33.0887, -152.982, -82.7217, 97.8859
6.76749, 65, -7.79185, -12.7065, 32.797, -153.072, -83.1044, 98.2449
6.77742, 65, -7.65092, -12.2383, 32.5076, -153.156, -83.4882, 98.5914
6.78444, 65, -7.51302, -11.7716, 32.2221, -153.234, -83.8728, 98.9241
6.7916, 65, -7.3781, -11.306, 31.9401, -153.306, -84.2568, 99.2429
6.79955, 65, -7.24614, -10.8421, 31.662, -153.372, -84.6403, 99.5478
6.80943, 66, -7.11697, -10.3808, 31.3882, -153.432, -85.0228, 99.8379
6.81555, 66, -6.98997, -9.92237, 31.1175, -153.488, -85.4043, 100.113
6.82345, 66, -6.86513, -9.46826, 30.8514, -153.536, -85.785, 100.372
6.83207, 66, -6.74244, -9.01941, 30.5891, -153.58, -86.164, 100.615
6.83948, 66, -6.622, -8.57653, 30.3306, -153.618, -86.5411, 100.842
6.84762, 67, -6.50397, -8.13914, 30.0772, -153.65, -86.915, 101.052
6.85649, 67, -6.38863, -7.70776, 29.829, -153.677, -87.2853, 101.245
6.86367, 67, -6.27621, -7.28241, 29.5875, -153.698, -87.6511, 101.42
6.87263, 67, -6.16635, -6.86246, 29.3527, -153.713, -88.0121, 101.578
6.8801, 67, -6.05912, -6.44885, 29.1236, -153.723, -88.368, 101.718
6.88789, 67, -5.95411, -6.04128, 28.9009, -153.728, -88.7195, 101.841
6.89669, 68, -5.85108, -5.64022, 28.6838, -153.73, -89.067, 101.947
6.9043, 68, -5.74982, -5.24451, 28.4705, -153.726, -89.4116, 102.035
6.91363, 68, -5.65026, -4.85471, 28.2614, -153.718, -89.7541, 102.105
6.92015, 68, -5.55238, -4.4701, 28.0561, -153.705, -90.0952, 102.157
6.92815, 68, -5.45624, -4.09061, 27.8539, -153.688, -90.4348, 102.191
6.93684, 69, -5.40881, -3.71467, 27.6558, -153.666, -90.7737, 102.207
6.94407, 69, -5.31532, -3.34267, 27.4622, -153.64, -91.1113, 102.206
6.95459, 69, -5.17822, -2.97445, 27.2719, -153.609, -91.448, 102.183
6.96029, 69, -5.13341, -2.79189, 27.0848, -153.575, -91.7837, 102.14
6.96943, 69, -5.00136, -2.24827, 26.902, -153.537, -92.1183, 102.074
6.97542, 70, -4.95807, -2.06894, 26.812, -153.517, -92.2852, 102.033
6.9834, 70, -4.87234, -1.71338, 26.6344, -153.472, -92.6183, 101.935
6.99144, 70, -4.78773, -1.36296, 26.4599, -153.425, -92.9506, 101.814
6.99944, 70, -4.70414, -1.01754, 26.2896, -153.375, -93.2814, 101.671
7.00764, 70, -4.62172, -0.677569, 26.1233, -153.32, -93.6106, 101.505
7.01545, 71, -4.54025, -0.344032, 25.9606, -153.263, -93.9369, 101.318
7.02344, 71, -4.45992, -0.0167747, 25.8024, -153.204, -94.2604, 101.109
7.03147, 71, -4.38056, 0.303757, 25.6498, -153.141, -94.5798, 100.879
7.04104, 71, -4.2631, 0.774032, 25.4307, -153.044, -95.0511, 100.497
7.0475, 71, -4.22441, 0.927398, 25.36, -153.01, -95.206, 100.36
7.05565, 72, -4.14755, 1.2291, 25.2222, -152.942, -95.5128, 100.07
7.06342, 72, -4.07102, 1.52406, 25.0886, -152.872, -95.8161, 99.7606
7.07143, 72, -3.99477, 1.81191, 24.9586, -152.801, -96.1162, 99.4302
7.07961, 72, -3.91866, 2.09363, 24.8319, -152.729, -96.4138, 99.0793
7.08772, 72, -3.84254, 2.36874, 24.7083, -152.656, -96.7088, 98.7073
7.09542, 73, -3.76651, 2.63737, 24.5878, -152.582, -97.0012, 98.3138
7.10434, 73, -3.69059, 2.90006, 24.4706, -152.509, -97.2909, 97.8987
7.11248, 73, -3.61439, 3.15606, 24.357, -152.435, -97.5775, 97.462
7.11944, 73, -3.53797, 3.40572, 24.2473, -152.362, -97.8608, 97.0039
7.12849, 73, -3.46123, 3.64917, 24.1416, -152.29, -98.1404, 96.5264
7.13839, 74, -3.34517, 3.9995, 23.9908, -152.183, -98.5524, 95.7728
7.14346, 74, -3.30613, 4.11215, 23.9424, -152.148, -98.6874, 95.5126
7.15394, 74, -3.18798, 4.43763, 23.8032, -152.045, -99.0848, 94.7077
7.16042, 74, -3.1482, 4.54146, 23.7588, -152.012, -99.2145, 94.4325
7.16755, 74, -3.06818, 4.7418, 23.6729, -151.948, -99.4692, 93.8714
7.17539, 75, -2.98736, 4.93287, 23.5913, -151.885, -99.7168, 93.2988
7.18527, 75, -2.90564, 5.11442, 23.5138, -151.826, -99.9562, 92.7157
7.1915, 75, -2.82284, 5.28546, 23.4403, -151.769, -100.187, 92.1244
7.19945, 75, -2.73911, 5.44576, 23.3706, -151.715, -100.409, 91.5252
7.20764, 75, -2.65449, 5.59559, 23.3049, -151.665, -100.622, 90.9186
7.21665, 76, -2.56891, 5.7344, 23.2434, -151.618, -100.824, 90.3051
7.22449, 76, -2.48233, 5.86172, 23.1862, -151.574, -101.018, 89.6844
7.23143, 76, -2.39491, 5.9774, 23.1335, -151.535, -101.202, 89.0548
7.23947, 76, -2.30676, 6.08094, 23.0852, -151.5, -101.377, 88.417
7.24753, 76, -2.21778, 6.17196, 23.0414, -151.467, -101.541, 87.7728
7.25563, 76, -2.12793, 6.25008, 23.0026, -151.439, -101.695, 87.1226
7.26471, 77, -2.03723, 6.31499, 22.9689, -151.415, -101.837, 86.4693
7.27242, 77, -1.94565, 6.36665, 22.9407, -151.396, -101.965, 85.8166
7.28008, 77, -1.85318, 6.40431, 22.9182, -151.38, -102.08, 85.1666
7.28843, 77, -1.75991, 6.42781, 22.9015, -151.368, -102.18, 84.5199
7.29559, 77, -1.66585, 6.43711, 22.8907, -151.36, -102.265, 83.8778
7.30453, 78, -1.57105, 6.43168, 22.8855, -151.356, -102.335, 83.2415
7.3117, 78, -1.4755, 6.41094, 22.8856, -151.353, -102.389, 82.609
7.3196, 78, -1.37952, 6.37493, 22.8915, -151.354, -102.428, 81.9813
7.33031, 78, -1.28314, 6.32305, 22.9034, -151.358, -102.451, 81.3591
7.33577, 78, -1.18649, 6.25506, 22.9217, -151.366, -102.459, 80.7424
7.34448, 79, -1.08965, 6.17092, 22.9467, -151.377, -102.45, 80.1311
7.35152, 79, -0.992595, 6.07063, 22.9789, -151.391, -102.422, 79.5264
7.35954, 79, -0.895509, 5.95411, 23.0186, -151.408, -102.378, 78.9297
7.36773, 79, -0.798485, 5.82121, 23.0658, -151.429, -102.315, 78.3408
7.37569, 79, -0.701466, 5.6716, 23.1207, -151.452, -102.235, 77.7605
7.38383, 80, -0.60442, 5.50552, 23.1833, -151.477, -102.136, 77.1898
7.39242, 80, -0.507307, 5.32281, 23.2536, -151.504, -102.019, 76.6297
7.39986, 80, -0.410243, 5.1235, 23.332, -151.533, -101.883, 76.0795
7.40892, 80, -0.313292, 4.90712, 23.4186, -151.563, -101.728, 75.5391
7.41689, 80, -0.216434, 4.67228, 23.5135, -151.596, -101.554, 75.0085
7.42405, 81, -0.119752, 4.41972, 23.6173, -151.629, -101.361, 74.4887
7.432, 81, -0.0232701, 4.15066, 23.7297, -151.664, -101.149, 73.9785
7.4407, 81, 0.0729937, 3.86465, 23.8514, -151.699, -100.918, 73.4776
7.44828, 81, 0.1691, 3.56236, 23.9826, -151.735, -100.667, 72.9866
7.45598, 81, 0.217062, 3.40486, 24.0518, -151.754, -100.535, 72.7448
7.46639, 82, 0.360632, 2.90641, 24.274, -151.809, -100.11, 72.0348
7.4714, 82, 0.408436, 2.73211, 24.3528, -151.828, -99.9586, 71.8032
7.47946, 82, 0.503784, 2.37119, 24.5171, -151.865, -99.642, 71.3471
7.48947, 82, 0.646487, 1.80034, 24.781, -151.921, -99.1333, 70.6817
7.49542, 82, 0.693964, 1.60165, 24.8738, -151.939, -98.955, 70.4649
7.50347, 82, 0.788805, 1.19197, 25.0661, -151.975, -98.5854, 70.0396
7.51158, 83, 0.883697, 0.766827, 25.2677, -152.01, -98.1992, 69.6239
7.51946, 83, 0.978488, 0.326967, 25.48, -152.045, -97.7964, 69.2179
7.52743, 83, 1.07331, -0.127614, 25.7024, -152.079, -97.3777, 68.822
7.53823, 83, 1.21568, -0.837225, 26.0527, -152.126, -96.7195, 68.2446
7.54365, 83, 1.26318, -1.08117, 26.1746, -152.141, -96.4923, 68.0568
7.55142, 84, 1.3584, -1.57947, 26.4259, -152.171, -96.0259, 67.6878
7.55943, 84, 1.45386, -2.09145, 26.6874, -152.2, -95.544, 67.3263
7.56748, 84, 1.54956, -2.61694, 26.9598, -152.227, -95.0464, 66.9724
7.57542, 84, 1.64562, -3.15617, 27.242, -152.252, -94.5331, 66.6259
7.58443, 84, 1.74203, -3.70887, 27.5349, -152.275, -94.0052, 66.2864
7.5933, 85, 1.83888, -4.2748, 27.8377, -152.297, -93.1853, 65.7915
7.60056, 85, 1.93589, -4.85257, 28.1505, -152.317, -92.9046, 65.6307
7.60749, 85, 2.0334, -5.4408, 28.4727, -152.335, -92.3335, 65.3151
7.61822, 85, 2.1804, -6.34103, 28.9728, -152.358, -91.4575, 64.857
7.62363, 85, 2.22971, -6.64496, 29.1436, -152.364, -91.1605, 64.7091
7.63142, 86, 2.32883, -7.25849, 29.4917, -152.374, -90.559, 64.4207
7.63943, 86, 2.42861, -7.87854, 29.8469, -152.381, -89.9482, 64.1423
7.64749, 86, 2.52941, -8.50446, 30.2092, -152.385, -89.3288, 63.8744
7.65542, 86, 2.63104, -9.13632, 30.577, -152.387, -88.703, 63.6178
7.66348, 86, 2.73345, -9.77266, 30.9503, -152.386, -88.0736, 63.3729
7.67163, 87, 2.83727, -10.4132, 31.3291, -152.382, -87.4389, 63.1396
7.68217, 87, 2.99431, -11.3799, 31.9067, -152.368, -86.4767, 62.812
7.68842, 87, 3.04719, -11.7036, 32.1015, -152.362, -86.1534, 62.7089
7.69558, 87, 3.15369, -12.3529, 32.4943, -152.346, -85.5033, 62.5123
7.70341, 87, 3.26078, -13.0045, 32.8922, -152.327, -84.8501, 62.3284
7.71163, 88, 3.36864, -13.6591, 33.2952, -152.303, -84.1917, 62.1572
7.72289, 88, 3.53147, -14.6455, 33.9093, -152.26, -83.1938, 61.9252
7.72756, 88, 3.58597, -14.9752, 34.1166, -152.244, -82.8586, 61.8545
7.73542, 88, 3.69527, -15.6343, 34.5347, -152.209, -82.1843, 61.7237
7.74348, 88, 3.80483, -16.2927, 34.9573, -152.168, -81.5071, 61.608
7.75144, 88, 3.91478, -16.9489, 35.3831, -152.123, -80.8288, 61.5076
7.75953, 89, 4.02491, -17.602, 35.8104, -152.073, -80.1507, 61.4252
7.76742, 89, 4.13548, -18.2519, 36.2381, -152.018, -79.4736, 61.3607
7.77994, 89, 4.30247, -19.2202, 36.8785, -151.927, -78.4609, 61.3003
7.78371, 89, 4.35836, -19.541, 37.0913, -151.893, -78.1257, 61.29
7.79243, 89, 4.4703, -20.1789, 37.5159, -151.823, -77.4593, 61.2832
7.79982, 90, 4.58282, -20.8128, 37.9395, -151.748, -76.7949, 61.2993
7.8094, 90, 4.69578, -21.4422, 38.3634, -151.666, -76.1306, 61.3387
7.81602, 90, 4.80838, -22.0676, 38.788, -151.579, -75.4657, 61.4012
7.82446, 90, 4.9205, -22.6892, 39.2132, -151.486, -74.8007, 61.4881
7.83164, 90, 5.03213, -23.3079, 39.6398, -151.387, -74.1359, 61.6015
7.84123, 91, 5.14343, -23.9239, 40.0672, -151.281, -73.4693, 61.742
7.8475, 91, 5.25437, -24.5361, 40.495, -151.167, -72.8016, 61.9114
7.85547, 91, 5.36475, -25.1439, 40.9228, -151.047, -72.1338, 62.1101
7.8636, 91, 5.47452, -25.746, 41.3492, -150.92, -71.4658, 62.3391
7.87226, 91, 5.58387, -26.3411, 41.7738, -150.787, -70.8003, 62.5988
7.88181, 92, 5.69315, -26.9281, 42.196, -150.648, -70.138, 62.89
7.88845, 92, 5.80285, -27.5059, 42.614, -150.503, -69.4794, 63.2122
7.89577, 92, 5.9133, -28.0742, 43.0268, -150.354, -68.8247, 63.5649
7.90392, 92, 6.02434, -28.6321, 43.4339, -150.2, -68.1745, 63.9488
7.91256, 92, 6.13636, -29.1784, 43.8344, -150.042, -67.5307, 64.3635
7.91996, 93, 6.24979, -29.7129, 44.2283, -149.882, -66.8937, 64.8094
7.92849, 93, 6.36486, -30.2361, 44.615, -149.72, -66.262, 65.287
7.93921, 93, 6.48217, -30.7488, 44.9957, -149.557, -65.6343, 65.7959
7.9442, 93, 6.60175, -31.2537, 45.3711, -149.393, -65.0093, 66.3388
7.95204, 93, 6.66234, -31.5041, 45.7418, -149.229, -64.3858, 66.9182
7.95997, 93, 6.78519, -32.0006, 45.9257, -149.146, -64.0744, 67.2234
7.9674, 94, 6.9101, -32.4923, 46.2915, -148.981, -63.4484, 67.867
7.97541, 94, 7.03685, -32.9792, 46.6551, -148.815, -62.8164, 68.56
7.98342, 94, 7.16521, -33.4593, 47.0175, -148.649, -62.1785, 69.3057
7.99142, 94, 7.29586, -33.9327, 47.3775, -148.485, -61.5345, 70.1025
7.99946, 94, 7.42979, -34.399, 47.7328, -148.325, -60.8861, 70.9518
8.0074, 95, 7.56789, -34.8558, 48.081, -148.173, -60.2392, 71.8522
8.01541, 95, 7.71161, -35.3025, 48.4197, -148.03, -59.5958, 72.7944
8.02478, 95, 7.93899, -35.9497, 48.9059, -147.842, -58.6423, 74.2831
8.03141, 95, 8.01822, -36.1574, 49.0608, -147.788, -58.3283, 74.7967
8.0394, 95, 8.1818, -36.5576, 49.3591, -147.691, -57.7064, 75.8503
8.04746, 96, 8.35225, -36.9374, 49.6418, -147.613, -57.0963, 76.9359
8.05703, 96, 8.62004, -37.4654, 50.0341, -147.532, -56.2081, 78.619
8.06341, 96, 8.71211, -37.6296, 50.1564, -147.516, -55.9191, 79.1919
8.07298, 96, 8.90023, -37.9389, 50.3872, -147.497, -55.0763, 80.9398
8.08193, 96, 9.09264, -38.2232, 50.5986, -147.501, -54.5386, 82.1215
8.08767, 97, 9.28797, -38.4828, 50.791, -147.525, -54.2777, 82.7171
8.09541, 97, 9.4846, -38.7166, 50.9635, -147.572, -53.7736, 83.9144
8.10341, 97, 9.68119, -38.9254, 51.1155, -147.639, -53.2943, 85.115
8.11143, 97, 9.87684, -39.1099, 51.2479, -147.725, -52.8423, 86.3072
8.11946, 97, 10.0707, -39.2691, 51.3607, -147.828, -52.4194, 87.4851
8.12747, 97, 10.2616, -39.4029, 51.454, -147.945, -52.027, 88.6397
8.13568, 97, 10.4485, -39.5114, 51.5285, -148.074, -51.6658, 89.7641
8.1434, 98, 10.6323, -39.5951, 51.5848, -148.213, -51.3356, 90.8525
8.15149, 98, 10.814, -39.6553, 51.6234, -148.361, -51.0355, 91.911
8.16022, 98, 10.994, -39.6927, 51.6444, -148.52, -50.7621, 92.9481
8.16741, 98, 11.1722, -39.7065, 51.6484, -148.69, -50.5116, 93.9815
8.17546, 98, 11.3481, -39.6968, 51.6355, -148.873, -50.2812, 95.0217
8.18497, 98, 11.5237, -39.6633, 51.605, -149.069, -50.0695, 96.0806
8.19243, 99, 11.6993, -39.606, 51.5568, -149.279, -49.8775, 97.1598
8.19947, 99, 11.8741, -39.5258, 51.4904, -149.501, -49.7072, 98.26
8.20741, 99, 12.0467, -39.4229, 51.4054, -149.734, -49.5614, 99.3704
8.2154, 99, 12.2159, -39.2975, 51.3021, -149.974, -49.4437, 100.482
8.22347, 99, 12.3809, -39.1496, 51.1809, -150.217, -49.3566, 101.583
8.23142, 99, 12.5395, -38.9797, 51.0428, -150.461, -49.3001, 102.663
8.24068, 100, 12.6902, -38.7867, 50.8892, -150.703, -49.2748, 103.714
8.24839, 100, 12.8322, -38.5692, 50.7195, -150.941, -49.2811, 104.735
8.25554, 100, 12.9652, -38.3281, 50.5328, -151.173, -49.3196, 105.728
8.2634, 100, 13.0894, -38.0646, 50.3293, -151.399, -49.3888, 106.694
8.27141, 100, 13.2053, -37.7797, 50.1091, -151.62, -49.4898, 107.637
8.27953, 100, 13.313, -37.4736, 49.8706, -151.834, -49.6216, 108.555
8.2877, 100, 13.4125, -37.1436, 49.6146, -152.041, -49.7837, 109.454
8.29549, 101, 13.504, -36.7896, 49.3419, -152.24, -49.9759, 110.329
8.30349, 101, 13.5877, -36.4101, 49.0519, -152.431, -50.1978, 111.181
8.31156, 101, 13.6634, -36.0055, 48.745, -152.611, -50.4492, 112.011
8.32017, 101, 13.7309, -35.5765, 48.4201, -152.783, -50.731, 112.816
8.32751, 101, 13.79, -35.1247, 48.078, -152.944, -51.0442, 113.601
8.34318, 102, 13.8621, -34.4053, 47.5327, -153.164, -51.7676, 115.098
8.34462, 102, 13.8814, -34.154, 47.3424, -153.231, -51.7676, 115.098
8.35145, 102, 13.913, -33.6332, 46.9497, -153.356, -52.1779, 115.813
8.35957, 102, 13.9353, -33.0893, 46.5417, -153.468, -52.6202, 116.5
8.36839, 102, 13.9489, -32.5241, 46.1201, -153.566, -53.0934, 117.162
8.37559, 102, 13.9546, -31.9378, 45.6847, -153.65, -53.5948, 117.798
8.38379, 103, 13.9531, -31.3315, 45.236, -153.72, -54.1219, 118.407
8.39266, 103, 13.9449, -30.7069, 44.7757, -153.778, -54.6724, 118.99
8.39977, 103, 13.9306, -30.0659, 44.3047, -153.822, -55.2431, 119.547
8.4079, 103, 13.9106, -29.4105, 43.8245, -153.854, -55.8316, 120.079
8.41678, 103, 13.8854, -28.7409, 43.3365, -153.875, -56.4373, 120.586
8.42392, 103, 13.8558, -28.0594, 42.8424, -153.885, -57.0571, 121.066
8.43251, 104, 13.822, -27.3679, 42.3436, -153.885, -57.6893, 121.523
8.44069, 104, 13.7842, -26.6684, 41.8411, -153.874, -58.3362, 121.959
8.44809, 104, 13.743, -25.9614, 41.335, -153.854, -58.9977, 122.375
8.45609, 104, 13.7214, -25.2496, 40.8271, -153.826, -59.6716, 122.773
8.46339, 104, 13.6768, -24.8925, 40.5727, -153.809, -60.0124, 122.966
8.47139, 104, 13.6305, -24.1762, 40.0631, -153.77, -60.6993, 123.343
8.47944, 104, 13.5825, -23.4571, 39.5538, -153.723, -61.3926, 123.709
8.48742, 104, 13.5329, -22.7358, 39.045, -153.672, -62.0916, 124.068
8.49539, 104, 13.4824, -22.0131, 38.5373, -153.615, -62.7936, 124.422
8.50541, 104, 13.4053, -20.928, 37.7786, -153.522, -63.8493, 124.948
8.5114, 104, 13.3792, -20.5666, 37.5264, -153.489, -64.2013, 125.123
8.51939, 104, 13.327, -19.8435, 37.0232, -153.419, -64.9062, 125.471
8.52977, 104, 13.2482, -18.7583, 36.2725, -153.307, -65.9664, 125.99
8.5354, 104, 13.222, -18.3966, 36.0231, -153.268, -66.3202, 126.163
8.5449, 104, 13.1436, -17.3106, 35.2791, -153.144, -67.3834, 126.68
8.55371, 104, 13.0916, -16.5858, 34.7854, -153.057, -68.0912, 127.025
8.5594, 104, 13.0658, -16.2236, 34.5393, -153.011, -68.4451, 127.197
8.56739, 104, 13.0145, -15.4992, 34.0488, -152.918, -69.1551, 127.541
8.57545, 104, 12.9634, -14.7744, 33.5605, -152.821, -69.8665, 127.884
8.5858, 104, 12.9126, -14.0491, 33.0748, -152.72, -70.5779, 128.399
8.5914, 104, 12.8624, -13.3239, 32.5918, -152.615, -71.2881, 128.571
8.60038, 104, 12.8124, -12.5984, 32.1115, -152.506, -71.9993, 128.915
8.60843, 104, 12.7627, -11.873, 31.6338, -152.394, -72.7124, 129.26
8.6154, 104, 12.7134, -11.1479, 31.1584, -152.277, -73.4254, 129.605
8.6235, 104, 12.6646, -10.4227, 30.6855, -152.157, -74.1385, 129.951
8.63139, 104, 12.6159, -9.6972, 30.216, -152.032, -74.8517, 130.297
8.63953, 104, 12.5676, -8.97165, 29.7494, -151.904, -75.5654, 130.644
8.64746, 104, 12.5199, -8.24538, 29.2857, -151.771, -76.2802, 130.992
8.6554, 104, 12.4725, -7.51932, 28.8257, -151.634, -76.9953, 131.341
8.6634, 104, 12.4258, -6.79391, 28.3688, -151.494, -77.7113, 131.692
8.67145, 104, 12.3797, -6.06872, 27.9148, -151.349, -78.4262, 132.044
8.67939, 104, 12.334, -5.34389, 27.4648, -151.2, -79.1404, 132.397
8.68738, 104, 12.289, -4.62033, 27.0187, -151.046, -79.8558, 132.751
8.69545, 104, 12.2452, -3.89827, 26.5769, -150.889, -80.572, 133.106
8.7034, 104, 12.2024, -3.17942, 26.1403, -150.728, -81.286, 133.462
8.71139, 104, 12.1606, -2.466, 25.7087, -150.562, -81.9956, 133.819
8.71946, 104, 12.1203, -1.75954, 25.2836, -150.394, -82.7019, 134.176
8.72738, 104, 12.081, -1.06083, 24.8666, -150.222, -83.4035, 134.531
8.7354, 104, 12.0427, -0.371332, 24.4583, -150.049, -84.0964, 134.884
8.74346, 104, 12.0054, 0.30791, 24.0603, -149.873, -84.7779, 135.233
8.75139, 104, 11.969, 0.975652, 23.6741, -149.698, -85.4455, 135.578
8.75941, 104, 11.9339, 1.63043, 23.3001, -149.521, -86.0987, 135.917
8.76745, 104, 11.8999, 2.27148, 22.939, -149.345, -86.7373, 136.25
8.7754, 104, 11.8669, 2.89662, 22.5901, -149.17, -87.3598, 136.577
8.78353, 104, 11.835, 3.50575, 22.2545, -148.995, -87.9663, 136.897
8.79151, 104, 11.8046, 4.09798, 21.932, -148.822, -88.5556, 137.21
8.79969, 104, 11.7752, 4.67337, 21.6219, -148.65, -89.1273, 137.517
8.8075, 104, 11.7474, 5.23229, 21.3236, -148.479, -89.6826, 137.816
8.81548, 104, 11.7208, 5.77377, 21.0369, -148.31, -90.2224, 138.108
8.82365, 104, 11.6952, 6.29815, 20.7624, -148.144, -90.7459, 138.394
8.83184, 104, 11.6708, 6.80579, 20.4991, -147.98, -91.2531, 138.672
8.83939, 104, 11.6476, 7.29648, 20.2478, -147.818, -91.7432, 138.942
8.84747, 104, 11.6256, 7.77036, 20.0078, -147.659, -92.2159, 139.205
8.85565, 104, 11.6047, 8.22777, 19.7782, -147.503, -92.6721, 139.46
8.86346, 104, 11.585, 8.66835, 19.56, -147.351, -93.1116, 139.708
8.87158, 104, 11.5665, 9.09134, 19.3523, -147.202, -93.5348, 139.948
8.87961, 104, 11.549, 9.49741, 19.1546, -147.057, -93.9406, 140.179
8.88834, 104, 11.5327, 9.88545, 18.9677, -146.916, -94.3296, 140.401
8.89577, 104, 11.5174, 10.2554, 18.7916, -146.78, -94.7005, 140.614
8.90502, 104, 11.5031, 10.606, 18.6256, -146.649, -95.0532, 140.818
8.91246, 104, 11.4898, 10.9375, 18.4701, -146.523, -95.3865, 141.012
8.91999, 104, 11.4775, 11.2491, 18.3257, -146.404, -95.6998, 141.195
8.92855, 104, 11.4663, 11.54, 18.1919, -146.291, -95.9928, 141.366
8.93596, 104, 11.4562, 11.8103, 18.0685, -146.186, -96.2646, 141.526
8.94449, 104, 11.447, 12.0591, 17.9558, -146.088, -96.515, 141.674
8.9522, 104, 11.4426, 12.2867, 17.8537, -145.998, -96.7434, 141.809
8.96031, 104, 11.4306, 12.4936, 17.7619, -145.916, -96.9497, 141.932
8.96794, 104, 11.427, 12.5891, 17.7199, -145.878, -97.0447, 141.989
8.97648, 104, 11.4174, 12.8436, 17.6094, -145.777, -97.2964, 142.139
8.98427, 104, 11.4145, 12.9182, 17.5775, -145.747, -97.437, 142.223
8.99144, 104, 11.4092, 13.0527, 17.5209, -145.695, -97.499, 142.26
8.99939, 104, 11.4043, 13.1682, 17.4736, -145.651, -97.6077, 142.325
9.00737, 104, 11.3999, 13.2654, 17.435, -145.615, -97.696, 142.378
9.01543, 104, 11.3959, 13.3458, 17.4042, -145.586, -97.7664, 142.42
9.02337, 104, 11.3921, 13.4114, 17.3808, -145.564, -97.8196, 142.453
9.03138, 104, 11.3888, 13.464, 17.3636, -145.547, -97.8586, 142.477
9.04087, 104, 11.3848, 13.5214, 17.3469, -145.531, -97.8964, 142.499
9.04737, 104, 11.3838, 13.5356, 17.3434, -145.528, -97.9048, 142.503
9.05537, 104, 11.3819, 13.5584, 17.3384, -145.523, -97.9165, 142.51
9.06349, 104, 11.3805, 13.5748, 17.3354, -145.521, -97.9231, 142.513
9.07138, 104, 11.3794, 13.586, 17.3337, -145.519, -97.9265, 142.515
9.08144, 105, 11.3782, 13.5964, 17.3327, -145.518, -97.9286, 142.516
9.08744, 105, 11.3779, 13.5986, 17.3326, -145.518, -97.9289, 142.516
9.09643, 105, 11.3776, 13.6019, 17.3324, -145.518, -97.9293, 142.516
9.10337, 105, 11.3772, 13.6043, 17.3323, -145.518, -97.9294, 142.517
9.11144, 105, 11.3769, 13.6062, 17.3323, -145.518, -97.9294, 142.517
9.1194, 105, 11.3767, 13.608, 17.3323, -145.518, -97.9295, 142.517
9.12742, 105, 11.3766, 13.6094, 17.3323, -145.518, -97.9294, 142.517
9.13544, 105, 11.3765, 13.6107, 17.3323, -145.518, -97.9293, 142.517
9.14337, 105, 11.3764, 13.6118, 17.3323, -145.518, -97.9293, 142.517
9.15138, 105, 11.3763, 13.6127, 17.3323, -145.518, -97.9292, 142.517
9.15946, 105, 11.3763, 13.6135, 17.3323, -145.518, -97.929, 142.517
9.16737, 105, 11.3763, 13.614, 17.3323, -145.518, -97.9289, 142.517
9.17537, 105, 11.3763, 13.6144, 17.3324, -145.518, -97.9288, 142.517
9.1834, 105, 11.3763, 13.6146, 17.3324, -145.518, -97.9287, 142.517
9.19139, 105, 11.3763, 13.6147, 17.3325, -145.518, -97.9285, 142.517
9.19939, 105, 11.3763, 13.6148, 17.3325, -145.518, -97.9284, 142.517
