hehonglu123/Motion-Primitive-Planning/ILC/recorded_data/realrobot/wood/iteration_16/run_2.csv
timestamp, cmd_num, J1, J2, J3, J4, J5, J6
0.000457, -1, 11.3761, 13.6156, 17.3341, -145.52, -97.9262, 142.517
0.003713, -1, 11.3761, 13.6156, 17.3341, -145.52, -97.9262, 142.517
0.007417, -1, 11.3761, 13.6156, 17.3341, -145.52, -97.9262, 142.517
0.029015, -1, 11.3762, 13.6155, 17.3341, -145.52, -97.9263, 142.517
0.030291, -1, 11.3762, 13.6155, 17.3341, -145.52, -97.9263, 142.517
0.033646, -1, 11.3761, 13.6155, 17.3341, -145.52, -97.9263, 142.517
0.039942, -1, 11.3761, 13.6156, 17.3341, -145.52, -97.9263, 142.517
0.046638, -1, 11.3761, 13.6156, 17.3341, -145.52, -97.9263, 142.517
0.056138, -1, 11.3746, 13.6154, 17.3341, -145.52, -97.9262, 142.517
0.064738, -1, 11.3701, 13.615, 17.334, -145.52, -97.9262, 142.517
0.072264, -1, 11.3614, 13.6139, 17.3337, -145.52, -97.9262, 142.516
0.080431, -1, 11.3474, 13.6113, 17.333, -145.521, -97.9261, 142.512
0.088998, -1, 11.3255, 13.6068, 17.3323, -145.524, -97.9258, 142.498
0.096304, -1, 11.293, 13.5993, 17.3315, -145.529, -97.9246, 142.468
0.104283, -1, 11.2722, 13.5943, 17.3312, -145.538, -97.922, 142.416
0.112252, -1, 11.222, 13.5819, 17.3314, -145.544, -97.9201, 142.38
0.119652, -1, 11.1603, 13.5664, 17.3331, -145.562, -97.9146, 142.284
0.127652, -1, 11.087, 13.5473, 17.3371, -145.585, -97.9068, 142.153
0.135745, -1, 11.0017, 13.5244, 17.3435, -145.614, -97.8967, 141.988
0.143636, -1, 10.9048, 13.498, 17.3521, -145.648, -97.8845, 141.79
0.151649, -1, 10.7972, 13.4683, 17.3625, -145.686, -97.8707, 141.564
0.159699, -1, 10.6787, 13.4354, 17.3738, -145.729, -97.8559, 141.318
0.16764, -1, 10.5496, 13.3997, 17.385, -145.773, -97.8404, 141.057
0.175754, -1, 10.4116, 13.3618, 17.3957, -145.819, -97.8246, 140.788
0.183691, -1, 10.2667, 13.3223, 17.4059, -145.866, -97.8083, 140.513
0.191668, -1, 10.1173, 13.2818, 17.416, -145.914, -97.7917, 140.236
0.199662, -1, 9.96483, 13.2407, 17.4261, -145.961, -97.7748, 139.958
0.207705, -1, 9.81009, 13.1993, 17.4361, -146.01, -97.7575, 139.679
0.215691, -1, 9.65453, 13.1579, 17.4462, -146.057, -97.7403, 139.4
0.223647, -1, 9.49931, 13.1166, 17.4561, -146.105, -97.7233, 139.12
0.231697, -1, 9.34456, 13.0754, 17.466, -146.154, -97.7064, 138.841
0.241282, -1, 9.19016, 13.0343, 17.4761, -146.201, -97.6897, 138.421
0.247827, -1, 9.03627, 12.9933, 17.4862, -146.249, -97.6729, 138.281
0.256689, -1, 8.8825, 12.9522, 17.4963, -146.298, -97.6561, 138.002
0.263634, -1, 8.72891, 12.9112, 17.5064, -146.345, -97.639, 137.722
0.272472, -1, 8.57585, 12.8701, 17.5165, -146.393, -97.6215, 137.442
0.279646, -1, 8.42313, 12.8288, 17.5266, -146.441, -97.604, 137.161
0.287637, -1, 8.27017, 12.7875, 17.5368, -146.489, -97.5866, 136.881
0.295771, -1, 8.11676, 12.7459, 17.547, -146.537, -97.5696, 136.601
0.30364, -1, 7.96289, 12.7043, 17.5573, -146.585, -97.5528, 136.321
0.31164, -1, 7.80835, 12.6626, 17.5674, -146.633, -97.5362, 136.041
0.320433, -1, 7.65346, 12.6208, 17.5775, -146.68, -97.5195, 135.76
0.326732, -1, 7.49851, 12.5792, 17.5877, -146.729, -97.5027, 135.48
0.335693, -1, 7.34352, 12.5377, 17.5979, -146.777, -97.4856, 135.2
0.344487, -1, 7.18853, 12.4962, 17.6081, -146.825, -97.4681, 134.919
0.351633, -1, 7.03346, 12.4547, 17.6184, -146.873, -97.4508, 134.639
0.489896, -1, 4.39724, 11.749, 17.7944, -147.691, -97.1603, 129.867
0.491956, -1, 4.31949, 11.7283, 17.7996, -147.715, -97.1517, 129.727
0.493346, -1, 4.31949, 11.7283, 17.7996, -147.715, -97.1517, 129.727
0.494626, -1, 4.31949, 11.7283, 17.7996, -147.715, -97.1517, 129.727
0.49667, -1, 4.24181, 11.7076, 17.8048, -147.74, -97.1431, 129.586
0.497943, -1, 4.24181, 11.7076, 17.8048, -147.74, -97.1431, 129.586
0.500633, -1, 4.16422, 11.6869, 17.8101, -147.764, -97.1346, 129.446
0.504744, -1, 4.08673, 11.6661, 17.8153, -147.788, -97.1262, 129.305
0.505983, -1, 4.08673, 11.6661, 17.8153, -147.788, -97.1262, 129.305
0.508037, -1, 4.00935, 11.6454, 17.8205, -147.812, -97.1177, 129.164
0.509257, -1, 4.00935, 11.6454, 17.8205, -147.812, -97.1177, 129.164
0.510549, -1, 4.00935, 11.6454, 17.8205, -147.812, -97.1177, 129.164
0.513396, -1, 3.9321, 11.6247, 17.8256, -147.836, -97.1092, 129.024
0.514651, -1, 3.9321, 11.6247, 17.8256, -147.836, -97.1092, 129.024
0.516919, -1, 3.85491, 11.6039, 17.8308, -147.86, -97.1008, 128.883
0.520193, -1, 3.77776, 11.5832, 17.836, -147.884, -97.0924, 128.743
0.521505, -1, 3.77776, 11.5832, 17.836, -147.884, -97.0924, 128.743
0.522694, -1, 3.77776, 11.5832, 17.836, -147.884, -97.0924, 128.743
0.525475, -1, 3.70058, 11.5624, 17.8411, -147.909, -97.0839, 128.602
0.52667, -1, 3.70058, 11.5624, 17.8411, -147.909, -97.0839, 128.602
0.52879, -1, 3.62334, 11.5415, 17.8463, -147.933, -97.0754, 128.461
0.530026, -1, 3.62334, 11.5415, 17.8463, -147.933, -97.0754, 128.461
0.538637, -1, 3.46885, 11.4999, 17.8566, -147.981, -97.0583, 128.18
0.543951, -1, 3.31414, 11.4582, 17.8671, -148.03, -97.0408, 127.898
0.550628, -1, 3.23662, 11.4373, 17.8723, -148.054, -97.032, 127.758
0.560095, -1, 3.00381, 11.3746, 17.8879, -148.126, -97.0058, 127.335
0.568133, -1, 2.84838, 11.3328, 17.8983, -148.174, -96.9887, 127.053
0.576371, -1, 2.6927, 11.2911, 17.9086, -148.222, -96.9718, 126.772
0.584249, -1, 2.53671, 11.2493, 17.919, -148.27, -96.955, 126.49
0.592233, -1, 2.38038, 11.2076, 17.9294, -148.319, -96.9383, 126.208
0.600321, -1, 2.22386, 11.1659, 17.9398, -148.367, -96.9213, 125.926
0.608405, -1, 2.1455, 11.145, 17.945, -148.415, -96.9041, 125.645
0.616247, -1, 1.98869, 11.1032, 17.9555, -148.44, -96.8953, 125.504
0.62368, -1, 1.83213, 11.0616, 17.9659, -148.488, -96.8779, 125.222
0.631617, -1, 1.67573, 11.0199, 17.9763, -148.536, -96.8605, 124.94
0.639641, -1, 1.51946, 10.9781, 17.9868, -148.585, -96.8434, 124.658
0.647623, -1, 1.3635, 10.9365, 17.9972, -148.634, -96.8265, 124.376
0.655733, -1, 1.20773, 10.8948, 18.0076, -148.681, -96.8096, 124.093
0.663621, -1, 1.05239, 10.853, 18.018, -148.73, -96.7927, 123.811
0.799605, -1, -1.60318, 10.1419, 18.1952, -149.555, -96.5017, 119.004
0.800883, -1, -1.60318, 10.1419, 18.1952, -149.555, -96.5017, 119.004
0.804417, -1, -1.68129, 10.121, 18.2004, -149.579, -96.4932, 118.862
0.806643, -1, -1.75929, 10.1, 18.2057, -149.604, -96.4846, 118.721
0.807866, -1, -1.75929, 10.1, 18.2057, -149.604, -96.4846, 118.721
0.809056, -1, -1.75929, 10.1, 18.2057, -149.604, -96.4846, 118.721
0.811086, -1, -1.83719, 10.0791, 18.2109, -149.628, -96.476, 118.579
0.814183, -1, -1.91504, 10.0581, 18.2161, -149.652, -96.4673, 118.437
0.815692, -1, -1.91504, 10.0581, 18.2161, -149.652, -96.4673, 118.437
0.816904, -1, -1.91504, 10.0581, 18.2161, -149.652, -96.4673, 118.437
0.819, -1, -1.99281, 10.0372, 18.2213, -149.676, -96.4585, 118.295
0.820231, -1, -1.99281, 10.0372, 18.2213, -149.676, -96.4585, 118.295
0.822094, -1, -2.07045, 10.0162, 18.2266, -149.701, -96.4496, 118.153
0.823503, -1, -2.07045, 10.0162, 18.2266, -149.701, -96.4496, 118.153
0.824779, -1, -2.07045, 10.0162, 18.2266, -149.701, -96.4496, 118.153
0.828763, -1, -2.14803, 9.99531, 18.2318, -149.725, -96.4408, 118.012
0.83086, -1, -2.2256, 9.97438, 18.2369, -149.75, -96.4321, 117.87
0.832074, -1, -2.2256, 9.97438, 18.2369, -149.75, -96.4321, 117.87
0.833253, -1, -2.2256, 9.97438, 18.2369, -149.75, -96.4321, 117.87
0.83537, -1, -2.30317, 9.95344, 18.2421, -149.774, -96.4234, 117.728
0.836655, -1, -2.30317, 9.95344, 18.2421, -149.774, -96.4234, 117.728
0.839713, -1, -2.38077, 9.93247, 18.2473, -149.798, -96.4147, 117.586
0.851008, -1, -2.53628, 9.8695, 18.263, -149.871, -96.3892, 117.161
0.855672, -1, -2.69209, 9.84854, 18.2682, -149.895, -96.3808, 117.019
0.863675, -1, -2.84821, 9.80661, 18.2786, -149.944, -96.3641, 116.735
0.871617, -1, -3.00484, 9.76466, 18.289, -149.992, -96.347, 116.452
0.879622, -1, -3.16189, 9.72272, 18.2993, -150.041, -96.3299, 116.168
0.88768, -1, -3.31933, 9.68076, 18.3098, -150.09, -96.3125, 115.884
0.89567, -1, -3.47711, 9.63872, 18.3204, -150.138, -96.2948, 115.6
0.903615, -1, -3.6349, 9.59683, 18.3308, -150.187, -96.2774, 115.316
0.911777, -1, -3.79276, 9.55494, 18.3412, -150.236, -96.2602, 115.031
0.919635, -1, -3.95082, 9.51288, 18.3515, -150.284, -96.2431, 114.747
0.927658, -1, -4.1087, 9.47095, 18.3619, -150.334, -96.2262, 114.463
0.935768, -1, -4.26649, 9.42903, 18.3723, -150.382, -96.2091, 114.179
0.943741, -1, -4.42417, 9.387, 18.3826, -150.431, -96.1919, 113.894
0.951761, -1, -4.58143, 9.345, 18.393, -150.48, -96.1744, 113.609
0.959746, -1, -4.7382, 9.30295, 18.4034, -150.529, -96.1566, 113.325
0.967715, -1, -4.89459, 9.26086, 18.4139, -150.577, -96.139, 113.04
0.975826, -1, -5.05079, 9.21879, 18.4244, -150.627, -96.1215, 112.755
0.983742, -1, -5.20668, 9.17674, 18.435, -150.675, -96.1044, 112.47
0.991621, -1, -5.36255, 9.13462, 18.4455, -150.724, -96.0875, 112.186
0.999911, -1, -5.51864, 9.09247, 18.456, -150.773, -96.0706, 111.901
1.00767, -1, -5.67493, 9.05039, 18.4664, -150.821, -96.0536, 111.616
1.01578, -1, -5.83166, 9.00821, 18.4769, -150.87, -96.0363, 111.331
1.02386, -1, -5.98882, 8.966, 18.4873, -150.919, -96.0187, 111.047
1.03179, -1, -6.14648, 8.92389, 18.4976, -150.968, -96.0011, 110.761
1.03861, -1, -6.22551, 8.90282, 18.5029, -150.992, -95.9923, 110.619
1.0481, -1, -6.463, 8.83964, 18.5184, -151.066, -95.9665, 110.191
1.05599, -1, -6.62148, 8.79754, 18.5288, -151.115, -95.9495, 109.906
1.06262, -1, -6.7008, 8.77644, 18.5341, -151.139, -95.9409, 109.763
1.07214, -1, -6.93882, 8.71321, 18.5499, -151.213, -95.9154, 109.335
1.08015, -1, -7.09735, 8.67108, 18.5604, -151.262, -95.8982, 109.049
1.08823, -1, -7.25579, 8.62892, 18.5708, -151.311, -95.8806, 108.764
1.0966, -1, -7.41402, 8.58667, 18.5812, -151.36, -95.8628, 108.478
1.1042, -1, -7.49294, 8.5655, 18.5865, -151.409, -95.8451, 108.192
1.11234, -1, -7.65058, 8.50202, 18.6022, -151.458, -95.8278, 107.906
1.11961, -1, -7.80789, 8.4809, 18.6075, -151.483, -95.8193, 107.764
1.1276, -1, -7.96485, 8.43864, 18.6179, -151.532, -95.8022, 107.478
1.13567, -1, -8.1215, 8.39627, 18.6283, -151.58, -95.7852, 107.192
1.14361, -1, -8.27799, 8.35396, 18.6387, -151.63, -95.7683, 106.906
1.15161, -1, -8.43468, 8.31158, 18.6493, -151.679, -95.7511, 106.62
1.1596, -1, -8.59166, 8.26921, 18.6598, -151.728, -95.7335, 106.334
1.16761, -1, -8.74903, 8.22693, 18.6703, -151.777, -95.7158, 106.047
1.17567, -1, -8.90673, 8.18459, 18.6807, -151.826, -95.6982, 105.761
1.18362, -1, -9.06483, 8.14225, 18.6911, -151.875, -95.6809, 105.475
1.19163, -1, -9.22339, 8.09997, 18.7016, -151.924, -95.6637, 105.188
1.19965, -1, -9.38228, 8.05763, 18.712, -151.973, -95.6467, 104.901
1.20761, -1, -9.54139, 8.01529, 18.7225, -152.023, -95.6295, 104.615
1.21561, -1, -9.7005, 7.97306, 18.733, -152.072, -95.6122, 104.328
1.22366, -1, -9.85977, 7.93081, 18.7435, -152.121, -95.5947, 104.041
1.23162, -1, -10.0192, 7.88841, 18.7542, -152.17, -95.5768, 103.754
1.23961, -1, -10.1784, 7.84597, 18.7648, -152.22, -95.559, 103.467
1.2486, -1, -10.3374, 7.80347, 18.7754, -152.269, -95.5415, 103.18
1.2556, -1, -10.4964, 7.76094, 18.7859, -152.318, -95.5242, 102.893
1.26461, -1, -10.6549, 7.71847, 18.7963, -152.368, -95.5071, 102.606
1.27168, -1, -10.813, 7.67595, 18.8069, -152.417, -95.4901, 102.319
1.27966, -1, -10.9709, 7.63337, 18.8174, -152.466, -95.473, 102.032
1.28763, -1, -11.1284, 7.59086, 18.8278, -152.515, -95.4557, 101.745
1.29563, -1, -11.2858, 7.54836, 18.8383, -152.564, -95.438, 101.457
1.3036, -1, -11.4432, 7.50587, 18.8488, -152.614, -95.4201, 101.17
1.31168, -1, -11.6008, 7.46335, 18.8593, -152.663, -95.4025, 100.882
1.3196, -1, -11.7587, 7.4209, 18.8699, -152.712, -95.3851, 100.595
1.32762, -1, -11.9171, 7.37846, 18.8805, -152.762, -95.3678, 100.307
1.33568, -1, -12.0758, 7.33607, 18.8911, -152.811, -95.3506, 100.019
1.3436, -1, -12.235, 7.29367, 18.9016, -152.861, -95.3334, 99.7313
1.35166, -1, -12.3945, 7.25123, 18.9121, -152.91, -95.316, 99.4432
1.35989, -1, -12.5544, 7.20879, 18.9226, -152.96, -95.2982, 99.1552
1.36761, -1, -12.7143, 7.16635, 18.9332, -153.009, -95.2802, 98.8674
1.3756, -1, -12.8744, 7.12387, 18.9438, -153.059, -95.2624, 98.5795
1.38444, -1, -13.0345, 7.0813, 18.9543, -153.108, -95.2448, 98.2914
1.39166, -1, -13.1944, 7.03869, 18.9648, -153.157, -95.2274, 98.0033
1.3996, -1, -13.3542, 6.99609, 18.9755, -153.207, -95.2103, 97.7152
1.4084, -1, -13.5137, 6.95335, 18.9861, -153.256, -95.1931, 97.4268
1.41561, -1, -13.6729, 6.91056, 18.9966, -153.305, -95.1759, 97.1379
1.4236, -1, -13.832, 6.86786, 19.0072, -153.355, -95.1584, 96.8494
1.43255, -1, -13.9906, 6.82515, 19.0177, -153.404, -95.1406, 96.5611
1.43964, -1, -14.1487, 6.78248, 19.0282, -153.454, -95.1228, 96.2723
1.44774, -1, -14.307, 6.73986, 19.0388, -153.504, -95.1052, 95.9832
1.45673, -1, -14.4653, 6.69715, 19.0492, -153.553, -95.0879, 95.6941
1.4637, -1, -14.6237, 6.65454, 19.0598, -153.602, -95.0706, 95.4052
1.47177, -1, -14.7825, 6.61204, 19.0704, -153.652, -95.0534, 95.1158
1.48022, -1, -14.9416, 6.56944, 19.081, -153.701, -95.0361, 94.8265
1.48761, -1, -15.1011, 6.52679, 19.0918, -153.751, -95.0185, 94.5375
1.49573, -1, -15.2612, 6.48425, 19.1025, -153.801, -95.0007, 94.2484
1.50517, -1, -15.4214, 6.44165, 19.1132, -153.85, -94.9826, 93.9591
1.51069, -1, -15.5016, 6.42029, 19.1185, -153.875, -94.9737, 93.8144
1.51977, -1, -15.7427, 6.35625, 19.1343, -153.95, -94.9473, 93.3806
1.52934, -1, -15.9034, 6.31344, 19.145, -153.999, -94.93, 93.0913
1.53581, -1, -16.0643, 6.27055, 19.1556, -154.049, -94.9128, 92.8015
1.54395, -1, -16.2251, 6.22773, 19.1662, -154.099, -94.8957, 92.5117
1.55357, -1, -16.3857, 6.18476, 19.1767, -154.148, -94.8783, 92.2222
1.5601, -1, -16.5462, 6.14178, 19.1872, -154.198, -94.8606, 91.9324
1.56813, -1, -16.7063, 6.09888, 19.1978, -154.248, -94.8427, 91.6422
1.57777, -1, -16.8659, 6.05586, 19.2085, -154.297, -94.825, 91.352
1.58419, -1, -17.0253, 6.01291, 19.2191, -154.347, -94.8074, 91.062
1.59216, -1, -17.1845, 5.96997, 19.2297, -154.397, -94.79, 90.7717
1.60099, -1, -17.3435, 5.92709, 19.2402, -154.446, -94.7728, 90.4813
1.60823, -1, -17.4231, 5.88429, 19.2509, -154.497, -94.7554, 90.1909
1.61618, -1, -17.5824, 5.86289, 19.2563, -154.521, -94.7379, 89.9009
1.62359, -1, -17.7417, 5.82007, 19.267, -154.571, -94.729, 89.7557
1.63164, -1, -17.9013, 5.7773, 19.2777, -154.621, -94.7111, 89.4652
1.63959, -1, -18.0614, 5.73451, 19.2883, -154.671, -94.693, 89.1746
1.6476, -1, -18.2219, 5.69172, 19.2989, -154.721, -94.675, 88.8843
1.65564, -1, -18.3827, 5.64896, 19.3096, -154.771, -94.6575, 88.5935
1.66359, -1, -18.5441, 5.60603, 19.3203, -154.821, -94.6401, 88.3024
1.67158, -1, -18.7057, 5.56306, 19.331, -154.871, -94.6228, 88.0116
1.67964, -1, -18.8673, 5.52008, 19.3417, -154.921, -94.6056, 87.7208
1.68761, -1, -19.029, 5.47703, 19.3522, -154.971, -94.588, 87.4297
1.69559, -1, -19.1905, 5.43386, 19.3629, -155.02, -94.5702, 87.1381
1.7036, -1, -19.352, 5.39072, 19.3735, -155.071, -94.5521, 86.8469
1.71159, -1, -19.5134, 5.34755, 19.3841, -155.12, -94.5341, 86.5553
1.71965, -1, -19.6743, 5.30432, 19.3947, -155.17, -94.5163, 86.2637
1.72666, -1, -19.8349, 5.26116, 19.4053, -155.22, -94.4988, 85.9719
1.73565, -1, -19.9954, 5.218, 19.4161, -155.27, -94.4814, 85.6803
1.7436, -1, -20.1555, 5.17482, 19.4269, -155.32, -94.4639, 85.3889
1.75259, -1, -20.3152, 5.13185, 19.4377, -155.37, -94.4464, 85.0971
1.75966, -1, -20.4752, 5.08885, 19.4486, -155.42, -94.4285, 84.8053
1.76762, -1, -20.6352, 5.04574, 19.4593, -155.47, -94.4104, 84.5135
1.77559, -1, -20.7955, 5.00282, 19.47, -155.521, -94.3924, 84.2218
1.78372, -1, -20.9562, 4.95983, 19.4808, -155.571, -94.3747, 83.9295
1.79159, -1, -21.1172, 4.91674, 19.4914, -155.621, -94.3572, 83.6373
1.79959, -1, -21.2787, 4.87365, 19.5021, -155.671, -94.3399, 83.3455
1.80765, -1, -21.4407, 4.83044, 19.5127, -155.721, -94.3227, 83.0532
1.81558, -1, -21.6028, 4.78717, 19.5234, -155.772, -94.3053, 82.7606
1.82361, -1, -21.7651, 4.74398, 19.5342, -155.822, -94.2876, 82.4681
1.83165, -1, -21.9276, 4.70061, 19.5449, -155.872, -94.2696, 82.1756
1.83959, -1, -22.0901, 4.65721, 19.5558, -155.922, -94.2516, 81.8829
1.84759, -1, -22.2526, 4.61386, 19.5665, -155.972, -94.2338, 81.59
1.85567, -1, -22.415, 4.5704, 19.5771, -156.022, -94.2163, 81.2973
1.8636, -1, -22.577, 4.52701, 19.5879, -156.073, -94.1988, 81.0047
1.87159, -1, -22.7387, 4.48358, 19.5985, -156.123, -94.1813, 80.7118
1.87965, -1, -22.9, 4.44016, 19.6093, -156.173, -94.1637, 80.4187
1.88758, -1, -23.0612, 4.39684, 19.62, -156.224, -94.1459, 80.1258
1.89567, -1, -23.2222, 4.35354, 19.6307, -156.274, -94.1277, 79.8326
1.9036, -1, -23.3831, 4.31021, 19.6416, -156.324, -94.1094, 79.5392
1.91158, -1, -23.5439, 4.26696, 19.6524, -156.375, -94.0914, 79.2457
1.91991, -1, -23.705, 4.22367, 19.6632, -156.425, -94.0736, 78.9524
1.92759, -1, -23.8662, 4.18041, 19.674, -156.475, -94.056, 78.6588
1.93563, -1, -24.0276, 4.13706, 19.6847, -156.526, -94.0387, 78.3649
1.94386, -1, -24.1896, 4.09368, 19.6954, -156.576, -94.0212, 78.0709
1.95172, -1, -24.352, 4.05025, 19.7062, -156.627, -94.0035, 77.7771
1.95974, -1, -24.5148, 4.00679, 19.7168, -156.677, -93.9855, 77.483
1.96822, -1, -24.6779, 3.96326, 19.7275, -156.727, -93.9673, 77.1886
1.97569, -1, -24.8412, 3.91972, 19.7381, -156.778, -93.9493, 76.8946
1.9837, -1, -25.0046, 3.87619, 19.749, -156.828, -93.9316, 76.6007
1.99219, -1, -25.1679, 3.83265, 19.76, -156.878, -93.9141, 76.3064
1.99965, -1, -25.3311, 3.78909, 19.7708, -156.929, -93.8966, 76.012
2.00768, -1, -25.4941, 3.74547, 19.7817, -156.98, -93.8791, 75.7178
2.01657, -1, -25.6568, 3.70182, 19.7924, -157.03, -93.8612, 75.4234
2.02368, -1, -25.8194, 3.65828, 19.8031, -157.081, -93.8431, 75.1286
2.03179, -1, -25.9818, 3.61478, 19.8139, -157.131, -93.8247, 74.8339
2.04075, -1, -26.1438, 3.57121, 19.8247, -157.181, -93.8065, 74.5393
2.04788, -1, -26.3054, 3.52781, 19.8355, -157.232, -93.7885, 74.2447
2.056, -1, -26.467, 3.48443, 19.8463, -157.283, -93.7707, 73.9497
2.0626, -1, -26.5479, 3.46267, 19.8516, -157.308, -93.7619, 73.802
2.07208, -1, -26.7909, 3.39741, 19.8679, -157.384, -93.7355, 73.3594
2.07868, -1, -26.8721, 3.37565, 19.8733, -157.409, -93.7266, 73.2117
2.08928, -1, -27.116, 3.31021, 19.8896, -157.485, -93.6996, 72.7684
2.09615, -1, -27.279, 3.26667, 19.9004, -157.536, -93.6813, 72.4731
2.10422, -1, -27.4424, 3.22297, 19.9111, -157.586, -93.6631, 72.1779
2.11316, -1, -27.5243, 3.20106, 19.9165, -157.611, -93.6452, 71.8824
2.12017, -1, -27.6882, 3.15732, 19.9273, -157.662, -93.6362, 71.5867
2.12762, -1, -27.8522, 3.11368, 19.938, -157.713, -93.6184, 71.4388
2.13559, -1, -28.0164, 3.06995, 19.9488, -157.764, -93.6008, 71.1433
2.14358, -1, -28.1806, 3.0262, 19.9596, -157.815, -93.583, 70.8474
2.15162, -1, -28.3449, 2.98245, 19.9705, -157.865, -93.565, 70.5513
2.15957, -1, -28.5089, 2.93868, 19.9814, -157.916, -93.5466, 70.2554
2.16762, -1, -28.6726, 2.89501, 19.9922, -157.967, -93.5282, 69.9596
2.17557, -1, -28.8362, 2.85125, 20.0031, -158.017, -93.5099, 69.6634
2.18357, -1, -28.9993, 2.80749, 20.0138, -158.068, -93.492, 69.3668
2.19163, -1, -29.1621, 2.76383, 20.0245, -158.119, -93.4742, 69.0704
2.19963, -1, -29.3248, 2.72014, 20.0354, -158.17, -93.4566, 68.7739
2.20757, -1, -29.4875, 2.67641, 20.0462, -158.221, -93.4389, 68.477
2.21564, -1, -29.6503, 2.63264, 20.057, -158.272, -93.4209, 68.1801
2.22357, -1, -29.8133, 2.58883, 20.0678, -158.323, -93.4026, 67.8836
2.23158, -1, -29.9764, 2.54506, 20.0787, -158.374, -93.3842, 67.5868
2.2411, -1, -30.1397, 2.50113, 20.0897, -158.425, -93.3659, 67.1412
2.24757, -1, -30.3034, 2.45716, 20.1007, -158.475, -93.348, 66.9927
2.25654, -1, -30.4677, 2.41323, 20.1116, -158.527, -93.3301, 66.6959
2.26258, -1, -30.6325, 2.36919, 20.1224, -158.577, -93.3124, 66.3987
2.27162, -1, -30.7975, 2.32519, 20.1332, -158.628, -93.2946, 66.1012
2.27957, -1, -30.9626, 2.28123, 20.1442, -158.68, -93.2765, 65.804
2.28761, -1, -31.1276, 2.23712, 20.155, -158.73, -93.2581, 65.5068
2.29558, -1, -31.2927, 2.19318, 20.1659, -158.782, -93.2397, 65.2094
2.30364, -1, -31.4577, 2.14931, 20.1767, -158.833, -93.2213, 64.9116
2.31158, -1, -31.6223, 2.10524, 20.1875, -158.884, -93.2033, 64.6139
2.31957, -1, -31.7869, 2.06124, 20.1984, -158.935, -93.1855, 64.316
2.32763, -1, -31.9512, 2.01732, 20.2094, -158.986, -93.1679, 64.0179
2.33557, -1, -32.1151, 1.97331, 20.2204, -159.037, -93.1503, 63.7197
2.34357, -1, -32.2787, 1.92931, 20.2313, -159.089, -93.1324, 63.422
2.35164, -1, -32.4422, 1.88528, 20.2421, -159.14, -93.1143, 63.1241
2.35957, -1, -32.6058, 1.84114, 20.2531, -159.191, -93.0958, 62.8258
2.36758, -1, -32.7696, 1.79705, 20.2641, -159.243, -93.0775, 62.5275
2.37564, -1, -32.9336, 1.75296, 20.275, -159.294, -93.0595, 62.2292
2.38357, -1, -33.0979, 1.7087, 20.2859, -159.344, -93.0417, 61.9307
2.39159, -1, -33.2626, 1.66451, 20.2967, -159.396, -93.0239, 61.6318
2.39964, -1, -33.4276, 1.62033, 20.3077, -159.447, -93.006, 61.3333
2.40757, -1, -33.5931, 1.57606, 20.3187, -159.498, -92.9879, 61.0347
2.41565, -1, -33.7588, 1.53184, 20.3296, -159.55, -92.9695, 60.7358
2.42359, -1, -33.9246, 1.48762, 20.3405, -159.601, -92.9508, 60.4366
2.43158, -1, -34.0906, 1.44342, 20.3514, -159.652, -92.9323, 60.1375
2.43971, -1, -34.2566, 1.39928, 20.3624, -159.704, -92.9141, 59.8384
2.44763, -1, -34.4228, 1.35503, 20.3733, -159.755, -92.8961, 59.5387
2.45578, -1, -34.5887, 1.31083, 20.3842, -159.807, -92.8784, 59.239
2.46373, -1, -34.7543, 1.26667, 20.3952, -159.858, -92.8605, 58.9397
2.4717, -1, -34.9194, 1.22243, 20.4061, -159.909, -92.8425, 58.6402
2.47967, -1, -35.0843, 1.17818, 20.4172, -159.961, -92.8241, 58.3405
2.48774, -1, -35.2488, 1.1339, 20.4283, -160.012, -92.8055, 58.0407
2.49557, -1, -35.4132, 1.08964, 20.4394, -160.063, -92.7871, 57.7411
2.5036, -1, -35.5765, 1.04564, 20.4506, -160.115, -92.7689, 57.4411
2.51168, -1, -35.7375, 1.00205, 20.4619, -160.166, -92.7509, 57.1416
2.51974, -1, -35.8952, 0.959281, 20.4736, -160.217, -92.733, 56.8445
2.52771, -1, -36.0485, 0.917924, 20.4856, -160.267, -92.7154, 56.5518
2.53613, -1, -36.1954, 0.878425, 20.4975, -160.315, -92.6981, 56.267
2.54256, -1, -36.2657, 0.859608, 20.5034, -160.339, -92.6896, 56.129
2.55191, -1, -36.4614, 0.807734, 20.5205, -160.405, -92.6653, 55.7432
2.5604, -1, -36.5772, 0.777027, 20.5305, -160.443, -92.651, 55.5165
2.56806, -1, -36.6794, 0.750033, 20.5389, -160.476, -92.6388, 55.3208
2.57608, -1, -36.7669, 0.726807, 20.5451, -160.503, -92.629, 55.1597
2.58423, -1, -36.84, 0.707424, 20.5491, -160.525, -92.6213, 55.0336
2.59233, -1, -36.8999, 0.69172, 20.5511, -160.541, -92.6158, 54.9417
2.60015, -1, -36.9466, 0.679322, 20.5519, -160.552, -92.6122, 54.8778
2.60826, -1, -36.9814, 0.670013, 20.552, -160.559, -92.61, 54.8369
2.61608, -1, -36.995, 0.666484, 20.5518, -160.562, -92.6093, 54.8232
2.62416, -1, -37.0154, 0.661412, 20.5514, -160.565, -92.6084, 54.7999
2.63162, -1, -37.0278, 0.658386, 20.551, -160.567, -92.6079, 54.7961
2.63953, 2, -37.0345, 0.656788, 20.5508, -160.568, -92.6077, 54.7917
2.64757, 2, -37.0367, 0.656057, 20.5508, -160.568, -92.6076, 54.7898
2.65561, 2, -37.0366, 0.655774, 20.5507, -160.568, -92.6076, 54.7889
2.66356, 2, -37.0359, 0.655649, 20.5507, -160.568, -92.6075, 54.7885
2.67157, 2, -37.0357, 0.655621, 20.5507, -160.568, -92.6075, 54.7883
2.67961, 2, -37.0361, 0.655567, 20.5506, -160.569, -92.6075, 54.7882
2.68756, 2, -37.0371, 0.655519, 20.5506, -160.569, -92.6076, 54.7882
2.69556, 2, -37.0382, 0.655423, 20.5504, -160.569, -92.6076, 54.7883
2.70361, 2, -37.0396, 0.655224, 20.5502, -160.568, -92.6076, 54.7883
2.71169, 2, -37.0411, 0.654945, 20.5501, -160.568, -92.6076, 54.7883
2.71955, 2, -37.0422, 0.654695, 20.5499, -160.568, -92.6077, 54.7884
2.72657, 2, -37.0431, 0.654481, 20.5497, -160.568, -92.6077, 54.7884
2.73556, 2, -37.0436, 0.654399, 20.5495, -160.568, -92.6077, 54.7886
2.74355, 2, -37.0437, 0.654369, 20.5493, -160.568, -92.6078, 54.7888
2.75163, 2, -37.0432, 0.654363, 20.5492, -160.568, -92.6079, 54.789
2.75957, 2, -37.0424, 0.654414, 20.5491, -160.568, -92.6079, 54.7892
2.76856, 2, -37.0414, 0.654473, 20.549, -160.568, -92.608, 54.7893
2.77576, 2, -37.0399, 0.654575, 20.549, -160.568, -92.6081, 54.7895
2.7846, 2, -37.0384, 0.654653, 20.5489, -160.568, -92.6081, 54.7897
2.79162, 2, -37.0373, 0.654674, 20.5488, -160.568, -92.6081, 54.7897
2.79963, 2, -37.0366, 0.654679, 20.5488, -160.568, -92.6081, 54.7898
2.80756, 2, -37.0364, 0.654663, 20.5488, -160.568, -92.6081, 54.7899
2.81556, 2, -37.0365, 0.654656, 20.5488, -160.568, -92.6081, 54.7899
2.82363, 2, -37.0368, 0.654599, 20.5487, -160.568, -92.6081, 54.7899
2.83157, 2, -37.037, 0.654547, 20.5487, -160.568, -92.6081, 54.7899
2.83956, 2, -37.0375, 0.654503, 20.5487, -160.568, -92.6081, 54.79
2.84763, 2, -37.0382, 0.65446, 20.5487, -160.568, -92.6081, 54.79
2.85556, 2, -37.0389, 0.65444, 20.5487, -160.568, -92.6082, 54.7901
2.86356, 2, -37.0395, 0.654462, 20.5487, -160.568, -92.6081, 54.7901
2.87163, 2, -37.04, 0.654479, 20.5487, -160.568, -92.6081, 54.7902
2.87956, 2, -37.0401, 0.654503, 20.5487, -160.568, -92.6081, 54.7902
2.88756, 2, -37.0401, 0.654528, 20.5487, -160.568, -92.6081, 54.7902
2.89563, 2, -37.0401, 0.654544, 20.5486, -160.568, -92.6081, 54.7903
2.90356, 2, -37.0397, 0.654558, 20.5487, -160.568, -92.6081, 54.7904
2.91157, 2, -37.0393, 0.654565, 20.5487, -160.568, -92.6081, 54.7904
2.91964, 2, -37.0391, 0.654568, 20.5486, -160.568, -92.6081, 54.7905
2.92758, 2, -37.0388, 0.65454, 20.5486, -160.568, -92.6081, 54.7905
2.93556, 2, -37.0387, 0.65452, 20.5486, -160.568, -92.6082, 54.7906
2.94369, 2, -37.0387, 0.65451, 20.5486, -160.568, -92.6082, 54.7906
2.95165, 2, -37.0387, 0.654494, 20.5486, -160.568, -92.6082, 54.7907
2.9597, 2, -37.0387, 0.654499, 20.5486, -160.568, -92.6082, 54.7907
2.96773, 2, -37.0388, 0.654501, 20.5485, -160.568, -92.6082, 54.7907
2.97566, 2, -37.0389, 0.654502, 20.5485, -160.568, -92.6082, 54.7908
2.98367, 2, -37.039, 0.654502, 20.5485, -160.568, -92.6082, 54.7909
2.99175, 2, -37.0393, 0.654521, 20.5485, -160.568, -92.6082, 54.7909
2.99957, 2, -37.0394, 0.654529, 20.5485, -160.568, -92.6082, 54.7909
3.00765, 2, -37.0394, 0.654544, 20.5485, -160.568, -92.6082, 54.791
3.01567, 2, -37.0394, 0.654547, 20.5485, -160.568, -92.6083, 54.791
3.0236, 2, -37.0394, 0.654534, 20.5485, -160.568, -92.6083, 54.7911
3.03181, 2, -37.0394, 0.654524, 20.5485, -160.568, -92.6083, 54.7912
3.04011, 2, -37.0394, 0.654513, 20.5485, -160.568, -92.6082, 54.7912
3.04779, 2, -37.0393, 0.654507, 20.5484, -160.568, -92.6083, 54.7912
3.05587, 2, -37.0393, 0.654505, 20.5484, -160.568, -92.6083, 54.7913
3.06438, 2, -37.0393, 0.654503, 20.5484, -160.568, -92.6084, 54.7913
3.07196, 2, -37.0393, 0.654503, 20.5484, -160.568, -92.6083, 54.7914
3.07859, 2, -37.0393, 0.654503, 20.5484, -160.568, -92.6083, 54.7913
3.08853, 2, -37.0393, 0.654503, 20.5484, -160.568, -92.6084, 54.7914
3.09614, 2, -37.0393, 0.654521, 20.5484, -160.568, -92.6084, 54.7915
3.10411, 2, -37.0393, 0.654522, 20.5484, -160.568, -92.6084, 54.7916
3.11244, 2, -37.0393, 0.65456, 20.5484, -160.568, -92.6084, 54.7916
3.12009, 2, -37.0393, 0.654564, 20.5484, -160.568, -92.6084, 54.7916
3.12828, 2, -37.0393, 0.654575, 20.5484, -160.568, -92.6083, 54.7917
3.13646, 2, -37.0393, 0.654552, 20.5484, -160.568, -92.6083, 54.7917
3.14354, 2, -37.0393, 0.654536, 20.5484, -160.568, -92.6083, 54.7917
3.15158, 2, -37.0392, 0.654518, 20.5483, -160.568, -92.6084, 54.7918
3.1596, 2, -37.0392, 0.65451, 20.5483, -160.568, -92.6084, 54.7918
3.16755, 2, -37.0392, 0.654506, 20.5483, -160.568, -92.6084, 54.7919
3.17555, 2, -37.0392, 0.654504, 20.5483, -160.568, -92.6084, 54.7919
3.1836, 2, -37.0392, 0.654503, 20.5483, -160.568, -92.6084, 54.7919
3.19156, 2, -37.0392, 0.654514, 20.5483, -160.568, -92.6084, 54.792
3.19954, 2, -37.0392, 0.654526, 20.5483, -160.568, -92.6084, 54.792
3.20759, 2, -37.0392, 0.65455, 20.5483, -160.568, -92.6084, 54.7921
3.21556, 2, -37.0392, 0.65455, 20.5483, -160.568, -92.6084, 54.7921
3.22355, 2, -37.0392, 0.654535, 20.5483, -160.568, -92.6084, 54.7922
3.23162, 2, -37.0392, 0.654536, 20.5483, -160.568, -92.6084, 54.7922
3.23954, 2, -37.0392, 0.654536, 20.5483, -160.568, -92.6084, 54.7922
3.24755, 2, -37.0391, 0.654544, 20.5482, -160.568, -92.6084, 54.7922
3.25568, 2, -37.0391, 0.654521, 20.5482, -160.568, -92.6084, 54.7923
3.26357, 2, -37.0391, 0.65453, 20.5482, -160.568, -92.6084, 54.7923
3.27254, 2, -37.0391, 0.654515, 20.5482, -160.568, -92.6084, 54.7923
3.2797, 2, -37.0391, 0.654508, 20.5482, -160.568, -92.6085, 54.7924
3.28755, 2, -37.0391, 0.654505, 20.5482, -160.568, -92.6084, 54.7924
3.2956, 2, -37.0391, 0.654515, 20.5482, -160.568, -92.6085, 54.7924
3.30361, 2, -37.0391, 0.654534, 20.5482, -160.568, -92.6084, 54.7925
3.31156, 2, -37.0391, 0.654553, 20.5482, -160.568, -92.6084, 54.7924
3.31955, 2, -37.0391, 0.654568, 20.5481, -160.568, -92.6084, 54.7925
3.32761, 2, -37.039, 0.654569, 20.5481, -160.568, -92.6084, 54.7926
3.33555, 2, -37.039, 0.65457, 20.5481, -160.568, -92.6084, 54.7926
3.34355, 2, -37.039, 0.65457, 20.5481, -160.568, -92.6085, 54.7926
3.35162, 2, -37.039, 0.654559, 20.5481, -160.568, -92.6084, 54.7926
3.35954, 2, -37.039, 0.654547, 20.5481, -160.567, -92.6085, 54.7927
3.36754, 2, -37.0389, 0.654523, 20.5481, -160.567, -92.6085, 54.7927
3.37561, 2, -37.0389, 0.654523, 20.5481, -160.567, -92.6085, 54.7927
3.38355, 2, -37.0389, 0.654538, 20.548, -160.567, -92.6085, 54.7927
3.39156, 2, -37.0389, 0.654537, 20.548, -160.567, -92.6085, 54.7927
3.3996, 2, -37.0389, 0.654548, 20.548, -160.567, -92.6085, 54.7928
3.40755, 2, -37.0388, 0.654549, 20.548, -160.567, -92.6085, 54.7927
3.41555, 2, -37.0388, 0.654553, 20.548, -160.567, -92.6085, 54.7928
3.42361, 2, -37.0388, 0.654562, 20.548, -160.567, -92.6085, 54.7928
3.43158, 2, -37.0388, 0.654567, 20.548, -160.567, -92.6085, 54.7929
3.43955, 2, -37.0388, 0.654569, 20.548, -160.567, -92.6085, 54.7928
3.44768, 2, -37.0388, 0.654577, 20.548, -160.567, -92.6085, 54.7929
3.45563, 2, -37.0388, 0.654567, 20.548, -160.567, -92.6085, 54.7929
3.46368, 2, -37.0387, 0.654551, 20.548, -160.567, -92.6085, 54.7929
3.47171, 2, -37.0388, 0.654554, 20.548, -160.567, -92.6085, 54.7929
3.47965, 2, -37.0388, 0.654563, 20.548, -160.567, -92.6085, 54.793
3.48765, 2, -37.0387, 0.654549, 20.548, -160.567, -92.6085, 54.7929
3.49572, 2, -37.0387, 0.65456, 20.548, -160.567, -92.6085, 54.7929
3.50355, 2, -37.0387, 0.654547, 20.5479, -160.567, -92.6085, 54.793
3.51159, 2, -37.0387, 0.65456, 20.5479, -160.567, -92.6085, 54.793
3.51964, 2, -37.0387, 0.654578, 20.5479, -160.567, -92.6085, 54.793
3.52765, 2, -37.0386, 0.654574, 20.5479, -160.567, -92.6086, 54.793
3.5358, 2, -37.0386, 0.654592, 20.5479, -160.567, -92.6086, 54.793
3.54376, 2, -37.0386, 0.654597, 20.5479, -160.567, -92.6085, 54.793
3.55188, 2, -37.0386, 0.654602, 20.5479, -160.567, -92.6086, 54.7931
3.5599, 2, -37.0386, 0.65459, 20.5479, -160.567, -92.6086, 54.7931
3.56797, 2, -37.0386, 0.654592, 20.5479, -160.567, -92.6086, 54.7931
3.57454, 2, -37.0386, 0.654585, 20.5479, -160.567, -92.6086, 54.7931
3.58407, 2, -37.0386, 0.654575, 20.5479, -160.567, -92.6086, 54.7931
3.59213, 2, -37.0385, 0.654592, 20.5479, -160.567, -92.6086, 54.7931
3.60019, 2, -37.0386, 0.654585, 20.5479, -160.567, -92.6087, 54.7931
3.60812, 2, -37.0386, 0.654577, 20.5478, -160.567, -92.6087, 54.7931
3.61619, 2, -37.0386, 0.654574, 20.5478, -160.567, -92.6087, 54.7931
3.62416, 2, -37.0386, 0.654573, 20.5478, -160.567, -92.6087, 54.7931
3.6322, 2, -37.0386, 0.654579, 20.5478, -160.567, -92.6086, 54.7931
3.64037, 2, -37.0386, 0.654599, 20.5478, -160.567, -92.6086, 54.7931
3.64752, 2, -37.0386, 0.654596, 20.5478, -160.567, -92.6086, 54.7931
3.65559, 2, -37.0386, 0.654606, 20.5478, -160.567, -92.6086, 54.7932
3.66353, 2, -37.0386, 0.654599, 20.5478, -160.567, -92.6086, 54.7932
3.67154, 2, -37.0386, 0.654608, 20.5478, -160.567, -92.6087, 54.7932
3.67958, 2, -37.0386, 0.6546, 20.5478, -160.567, -92.6087, 54.7932
3.68753, 2, -37.0385, 0.654589, 20.5478, -160.567, -92.6086, 54.7932
3.69554, 2, -37.0385, 0.654598, 20.5478, -160.567, -92.6086, 54.7931
3.70356, 2, -37.0385, 0.654595, 20.5478, -160.567, -92.6087, 54.7931
3.71162, 2, -37.0385, 0.654605, 20.5478, -160.567, -92.6086, 54.7931
3.71953, 2, -37.0385, 0.654606, 20.5477, -160.567, -92.6087, 54.7931
3.72757, 4, -37.0385, 0.654604, 20.5477, -160.567, -92.6086, 54.7932
3.73553, 4, -37.0385, 0.654586, 20.5477, -160.567, -92.6086, 54.7931
3.74353, 4, -37.0385, 0.654585, 20.5477, -160.567, -92.6087, 54.7932
3.75161, 4, -37.0384, 0.654594, 20.5477, -160.567, -92.6087, 54.7932
3.76058, 4, -37.0384, 0.654589, 20.5477, -160.567, -92.6087, 54.7932
3.76755, 4, -37.0384, 0.654596, 20.5477, -160.567, -92.6087, 54.7932
3.7756, 4, -37.0384, 0.654583, 20.5477, -160.567, -92.6087, 54.7932
3.78357, 4, -37.0384, 0.654569, 20.5477, -160.567, -92.6087, 54.7932
3.79155, 4, -37.0384, 0.65457, 20.5477, -160.567, -92.6087, 54.7932
3.79964, 4, -37.0384, 0.65459, 20.5477, -160.567, -92.6087, 54.7932
3.80753, 4, -37.0384, 0.654604, 20.5477, -160.567, -92.6087, 54.7932
3.8156, 4, -37.0384, 0.654598, 20.5476, -160.567, -92.6087, 54.7932
3.8236, 4, -37.0384, 0.654608, 20.5476, -160.567, -92.6087, 54.7932
3.85013, 4, -37.0383, 0.654615, 20.5476, -160.567, -92.6087, 54.7932
3.85215, 4, -37.0383, 0.654615, 20.5476, -160.567, -92.6087, 54.7932
3.85484, 4, -37.0383, 0.654615, 20.5476, -160.567, -92.6087, 54.7932
3.85664, 4, -37.0383, 0.654615, 20.5476, -160.567, -92.6087, 54.7932
3.87076, 4, -37.0383, 0.654615, 20.5476, -160.567, -92.6087, 54.7933
3.87272, 4, -37.0383, 0.654608, 20.5476, -160.567, -92.6087, 54.7933
3.87974, 4, -37.0376, 0.654444, 20.5476, -160.567, -92.6087, 54.7932
3.88753, 4, -37.035, 0.653485, 20.5477, -160.567, -92.6087, 54.7932
3.89674, 4, -37.0292, 0.650571, 20.5486, -160.567, -92.6087, 54.7932
3.90549, 4, -37.0197, 0.644584, 20.5511, -160.567, -92.6087, 54.7932
3.91154, 4, -37.0062, 0.634966, 20.5566, -160.566, -92.6087, 54.7932
3.91987, 4, -36.9881, 0.621238, 20.5663, -160.564, -92.6088, 54.7932
3.92753, 5, -36.9643, 0.602947, 20.5818, -160.561, -92.6087, 54.7931
3.93556, 5, -36.9351, 0.580332, 20.6037, -160.557, -92.6085, 54.7931
3.94562, 5, -36.901, 0.553114, 20.6325, -160.551, -92.6081, 54.7931
3.95176, 5, -36.8621, 0.521599, 20.668, -160.543, -92.6074, 54.7931
3.96159, 5, -36.8181, 0.485211, 20.7093, -160.534, -92.6063, 54.793
3.96767, 5, -36.7689, 0.444297, 20.7557, -160.523, -92.6049, 54.793
3.97584, 5, -36.7148, 0.399382, 20.8059, -160.512, -92.6033, 54.793
3.98363, 5, -36.6564, 0.351169, 20.8585, -160.5, -92.6016, 54.7929
3.99165, 5, -36.594, 0.300542, 20.9129, -160.488, -92.5998, 54.793
3.9997, 5, -36.5283, 0.248094, 20.968, -160.476, -92.598, 54.793
4.00753, 5, -36.461, 0.194707, 21.0234, -160.463, -92.5962, 54.7929
4.01556, 5, -36.3927, 0.140963, 21.0789, -160.451, -92.5943, 54.793
4.02393, 5, -36.3241, 0.0870377, 21.1343, -160.439, -92.5924, 54.793
4.03163, 5, -36.2553, 0.0331564, 21.1897, -160.428, -92.5905, 54.793
4.03971, 5, -36.1864, -0.0205247, 21.2451, -160.415, -92.5886, 54.7931
4.04829, 5, -36.1178, -0.0739926, 21.3005, -160.403, -92.5866, 54.7931
4.05596, 5, -36.049, -0.127194, 21.3558, -160.391, -92.5847, 54.7932
4.06398, 5, -35.9804, -0.180162, 21.411, -160.378, -92.5827, 54.7933
4.07191, 5, -35.9118, -0.232934, 21.4662, -160.365, -92.5807, 54.7935
4.07997, 5, -35.8431, -0.285514, 21.5212, -160.352, -92.5786, 54.7939
4.08816, 5, -35.7741, -0.338097, 21.5762, -160.339, -92.5766, 54.7945
4.09666, 5, -35.705, -0.39073, 21.6311, -160.327, -92.5746, 54.7953
4.10453, 5, -35.6356, -0.443336, 21.6857, -160.314, -92.5726, 54.7963
4.11214, 5, -35.566, -0.496053, 21.7401, -160.302, -92.5706, 54.7974
4.12115, 5, -35.496, -0.548792, 21.7944, -160.289, -92.5685, 54.7987
4.13118, 5, -35.4258, -0.601568, 21.8485, -160.277, -92.5664, 54.8002
4.13614, 5, -35.3907, -0.627931, 21.8755, -160.27, -92.5654, 54.801
4.14352, 5, -35.3202, -0.680635, 21.9295, -160.257, -92.5634, 54.8027
4.15433, 5, -35.2144, -0.759568, 22.0102, -160.238, -92.5602, 54.8054
4.15956, 5, -35.1791, -0.785691, 22.037, -160.231, -92.5592, 54.8064
4.16752, 5, -35.1084, -0.837849, 22.0907, -160.217, -92.5571, 54.8084
4.17567, 5, -35.0378, -0.889959, 22.1442, -160.204, -92.555, 54.8106
4.1835, 5, -34.9673, -0.941683, 22.1976, -160.191, -92.5528, 54.8129
4.19158, 5, -34.8968, -0.993248, 22.2509, -160.178, -92.5506, 54.8154
4.19967, 5, -34.8262, -1.04464, 22.3041, -160.165, -92.5485, 54.818
4.21042, 5, -34.7203, -1.12173, 22.3835, -160.146, -92.5452, 54.822
4.21557, 5, -34.6849, -1.1474, 22.4099, -160.14, -92.5441, 54.8234
4.22352, 5, -34.614, -1.19863, 22.4625, -160.127, -92.5418, 54.8264
4.23154, 5, -34.543, -1.25001, 22.5149, -160.114, -92.5396, 54.8295
4.23958, 5, -34.4718, -1.3014, 22.5673, -160.1, -92.5373, 54.8325
4.2478, 5, -34.4003, -1.35268, 22.6194, -160.086, -92.5351, 54.8357
4.25642, 5, -34.3287, -1.40403, 22.6714, -160.072, -92.5328, 54.839
4.26352, 5, -34.257, -1.45525, 22.7233, -160.059, -92.5305, 54.8424
4.27163, 5, -34.1851, -1.50628, 22.7751, -160.045, -92.5283, 54.8459
4.28169, 5, -34.0771, -1.58244, 22.8524, -160.025, -92.5248, 54.8515
4.28755, 5, -34.041, -1.60775, 22.8782, -160.018, -92.5237, 54.8534
4.29664, 5, -33.9688, -1.65812, 22.9297, -160.005, -92.5213, 54.8574
4.30372, 5, -33.8966, -1.70825, 22.981, -159.991, -92.519, 54.8615
4.31153, 5, -33.8245, -1.75824, 23.0321, -159.978, -92.5167, 54.8656
4.32308, 5, -33.7161, -1.83312, 23.1085, -159.957, -92.5132, 54.8719
4.32767, 5, -33.68, -1.85802, 23.1339, -159.95, -92.5121, 54.874
4.33652, 5, -33.6075, -1.90781, 23.1845, -159.935, -92.5098, 54.8783
4.34359, 5, -33.5348, -1.95787, 23.235, -159.921, -92.5075, 54.8825
4.35153, 5, -33.4621, -2.00821, 23.2854, -159.907, -92.5052, 54.8864
4.35952, 5, -33.3894, -2.05887, 23.3357, -159.893, -92.5029, 54.8895
4.36778, 6, -33.3169, -2.11005, 23.3862, -159.879, -92.5006, 54.8911
4.37574, 6, -33.2445, -2.16179, 23.4369, -159.864, -92.498, 54.8912
4.38455, 6, -33.1727, -2.21441, 23.4879, -159.849, -92.4949, 54.8895
4.39254, 6, -33.1011, -2.26795, 23.5397, -159.834, -92.4912, 54.8845
4.40047, 7, -33.03, -2.32241, 23.5924, -159.817, -92.4865, 54.8741
4.40753, 7, -32.9594, -2.37805, 23.6462, -159.799, -92.4803, 54.8601
4.41552, 7, -32.8893, -2.43491, 23.7012, -159.78, -92.4724, 54.8436
4.42376, 7, -32.8197, -2.49328, 23.7576, -159.759, -92.4626, 54.8262
4.43256, 7, -32.7508, -2.55309, 23.8154, -159.737, -92.4508, 54.8089
4.43951, 8, -32.6825, -2.61455, 23.8744, -159.715, -92.4371, 54.792
4.44778, 8, -32.6149, -2.67758, 23.9347, -159.69, -92.4216, 54.7752
4.4556, 8, -32.548, -2.74238, 23.996, -159.665, -92.4041, 54.7582
4.46387, 8, -32.4818, -2.80878, 24.0584, -159.638, -92.3849, 54.7402
4.47197, 8, -32.4163, -2.87672, 24.1218, -159.61, -92.3641, 54.7208
4.4807, 9, -32.3514, -2.94608, 24.1862, -159.582, -92.3421, 54.6999
4.488, 9, -32.287, -3.01675, 24.2515, -159.553, -92.3191, 54.6771
4.49775, 9, -32.2233, -3.08876, 24.3179, -159.522, -92.2949, 54.6526
4.5038, 9, -32.16, -3.16207, 24.3853, -159.49, -92.2692, 54.6266
4.51159, 9, -32.0974, -3.23663, 24.4536, -159.458, -92.2415, 54.5994
4.51954, 9, -32.0352, -3.31252, 24.5229, -159.425, -92.2124, 54.5708
4.52755, 10, -31.9737, -3.38968, 24.5932, -159.391, -92.1822, 54.5407
4.5357, 10, -31.9129, -3.4683, 24.6646, -159.355, -92.151, 54.5084
4.54368, 10, -31.8525, -3.54838, 24.7371, -159.319, -92.1181, 54.4742
4.55216, 10, -31.7927, -3.62981, 24.8106, -159.282, -92.0831, 54.4387
4.55982, 10, -31.7335, -3.71271, 24.8851, -159.245, -92.0472, 54.4022
4.56787, 11, -31.6748, -3.79711, 24.9606, -159.205, -92.0105, 54.3641
4.57605, 11, -31.6167, -3.88299, 25.0369, -159.165, -91.9722, 54.3241
4.58397, 11, -31.5591, -3.97031, 25.1142, -159.125, -91.9318, 54.2821
4.59212, 11, -31.5019, -4.0591, 25.1925, -159.083, -91.8905, 54.239
4.6041, 11, -31.4454, -4.14937, 25.312, -159.018, -91.8263, 54.1721
4.60808, 12, -31.3894, -4.2411, 25.3523, -158.997, -91.8037, 54.1488
4.61614, 12, -31.3337, -4.33422, 25.4339, -158.952, -91.758, 54.1006
4.62445, 12, -31.2787, -4.42867, 25.5164, -158.906, -91.7117, 54.0513
4.6347, 12, -31.2242, -4.52445, 25.6001, -158.86, -91.6634, 54.0008
4.6395, 12, -31.1971, -4.5729, 25.6422, -158.837, -91.6385, 53.9747
4.64752, 13, -31.1434, -4.67082, 25.7273, -158.788, -91.5885, 53.921
4.65555, 13, -31.0901, -4.77012, 25.8132, -158.739, -91.537, 53.8664
4.66352, 13, -31.0374, -4.87088, 25.9002, -158.69, -91.4834, 53.8106
4.67396, 13, -30.9592, -5.02494, 26.0327, -158.613, -91.402, 53.7233
4.67972, 13, -30.9334, -5.07699, 26.0775, -158.588, -91.3737, 53.6936
4.68747, 14, -30.8822, -5.18216, 26.1677, -158.535, -91.3166, 53.6334
4.6955, 14, -30.8317, -5.28888, 26.2591, -158.481, -91.2588, 53.5713
4.70983, 14, -30.7321, -5.50666, 26.4444, -158.373, -91.1381, 53.4436
4.71145, 14, -30.7321, -5.50666, 26.4444, -158.373, -91.1381, 53.4436
4.71955, 14, -30.6831, -5.61785, 26.5385, -158.316, -91.0755, 53.377
4.72746, 15, -30.6347, -5.73053, 26.6336, -158.26, -91.0117, 53.3093
4.7355, 15, -30.5867, -5.84457, 26.73, -158.201, -90.9467, 53.2407
4.74358, 15, -30.5391, -5.95983, 26.8275, -158.143, -90.8798, 53.1697
4.75166, 15, -30.4922, -6.07648, 26.9261, -158.083, -90.8126, 53.0981
4.75954, 15, -30.4456, -6.19465, 27.0256, -158.023, -90.743, 53.0245
4.76919, 16, -30.3997, -6.31409, 27.1259, -157.961, -90.6728, 52.9491
4.77552, 16, -30.3543, -6.43519, 27.2271, -157.898, -90.6005, 52.873
4.78358, 16, -30.3094, -6.55781, 27.3296, -157.835, -90.5278, 52.7942
4.79153, 16, -30.2649, -6.68173, 27.4332, -157.771, -90.4532, 52.715
4.79964, 16, -30.2209, -6.8072, 27.5379, -157.706, -90.3777, 52.634
4.8085, 16, -30.1775, -6.93423, 27.6437, -157.64, -90.3003, 52.5518
4.8155, 17, -30.1344, -7.06287, 27.7502, -157.573, -90.2221, 52.4685
4.82464, 17, -30.0919, -7.19309, 27.8576, -157.505, -90.1423, 52.3836
4.83502, 17, -30.0499, -7.32472, 27.966, -157.436, -90.0201, 52.2541
4.83951, 17, -30.0084, -7.45762, 28.0756, -157.367, -89.9789, 52.2101
4.84828, 17, -29.9674, -7.59187, 28.1864, -157.296, -89.8951, 52.1217
4.85549, 18, -29.927, -7.72756, 28.2984, -157.225, -89.8101, 52.0314
4.86351, 18, -29.887, -7.8647, 28.4112, -157.152, -89.7236, 51.9403
4.87504, 18, -29.8476, -8.0729, 28.5819, -157.042, -89.5922, 51.8005
4.87966, 18, -29.8085, -8.14289, 28.6393, -157.005, -89.5477, 51.7534
4.88756, 18, -29.7699, -8.28393, 28.7551, -156.93, -89.4575, 51.6575
4.89552, 19, -29.7318, -8.42636, 28.8721, -156.854, -89.3666, 51.5612
4.9035, 19, -29.6941, -8.5704, 28.9902, -156.777, -89.2739, 51.4632
4.91156, 19, -29.6569, -8.71602, 29.109, -156.7, -89.1801, 51.3643
4.91953, 19, -29.6202, -8.86287, 29.2286, -156.621, -89.0854, 51.2643
4.92864, 19, -29.584, -9.01091, 29.3491, -156.541, -88.9895, 51.1633
4.93557, 20, -29.5483, -9.16057, 29.4708, -156.461, -88.8923, 51.0608
4.94361, 20, -29.5129, -9.31171, 29.5938, -156.38, -88.7943, 50.9572
4.95176, 20, -29.478, -9.46428, 29.7176, -156.298, -88.6952, 50.8525
4.96058, 20, -29.4437, -9.61797, 29.8423, -156.215, -88.5947, 50.7464
4.96759, 20, -29.4097, -9.77282, 29.9679, -156.131, -88.4935, 50.6393
4.9757, 21, -29.3763, -9.92907, 30.0945, -156.046, -88.391, 50.5307
4.98387, 21, -29.3432, -10.0869, 30.2221, -155.96, -88.2872, 50.4215
4.9916, 21, -29.3105, -10.2461, 30.3509, -155.874, -88.1826, 50.3111
5.00027, 21, -29.2783, -10.4062, 30.4804, -155.787, -88.077, 50.1999
5.00777, 21, -29.2465, -10.5673, 30.6108, -155.699, -87.9703, 50.088
5.01571, 22, -29.2152, -10.7299, 30.7421, -155.609, -87.8627, 49.9749
5.02438, 22, -29.1841, -10.8939, 30.8744, -155.519, -87.7539, 49.8611
5.03158, 22, -29.1534, -11.059, 31.0076, -155.428, -87.6444, 49.7464
5.0404, 22, -29.1233, -11.225, 31.1417, -155.337, -87.5336, 49.6306
5.04891, 22, -29.0934, -11.3922, 31.2767, -155.244, -87.4218, 49.5144
5.05599, 23, -29.064, -11.5611, 31.4127, -155.151, -87.3094, 49.397
5.06482, 23, -29.0348, -11.7315, 31.5495, -155.056, -87.1958, 49.279
5.07186, 23, -29.006, -11.9026, 31.6869, -154.961, -87.0814, 49.1604
5.08103, 23, -28.9777, -12.0747, 31.8253, -154.865, -86.9662, 49.0412
5.08807, 23, -28.9498, -12.2481, 31.9646, -154.768, -86.8499, 48.9214
5.09608, 23, -28.9222, -12.4231, 32.1048, -154.671, -86.7328, 48.801
5.10488, 24, -28.8949, -12.5988, 32.2459, -154.572, -86.6147, 48.6803
5.11223, 24, -28.8679, -12.775, 32.3876, -154.472, -86.4959, 48.5586
5.12011, 24, -28.8413, -12.9523, 32.5299, -154.372, -86.3762, 48.4365
5.13128, 24, -28.8151, -13.1313, 32.6735, -154.271, -86.2554, 48.3137
5.13548, 24, -28.8021, -13.2212, 32.7456, -154.22, -86.195, 48.2522
5.14356, 25, -28.7764, -13.4014, 32.8902, -154.118, -86.0735, 48.1289
5.15157, 25, -28.7509, -13.5821, 33.0354, -154.015, -85.951, 48.0054
5.15952, 25, -28.7256, -13.7642, 33.1813, -153.911, -85.8282, 47.8821
5.16751, 25, -28.7005, -13.9478, 33.3279, -153.807, -85.7042, 47.7583
5.17565, 25, -28.6758, -14.132, 33.4753, -153.701, -85.5799, 47.6343
5.18347, 26, -28.6513, -14.3166, 33.6235, -153.595, -85.4549, 47.5105
5.19149, 26, -28.6271, -14.5023, 33.7721, -153.488, -85.3292, 47.3861
5.19951, 26, -28.6034, -14.6896, 33.9212, -153.38, -85.2033, 47.2618
5.20748, 26, -28.5797, -14.8775, 34.0714, -153.271, -85.0763, 47.1375
5.2155, 26, -28.556, -15.0655, 34.2222, -153.162, -84.9491, 47.0133
5.22368, 27, -28.5326, -15.2541, 34.3733, -153.052, -84.8211, 46.8894
5.23296, 27, -28.5096, -15.4438, 34.5249, -152.942, -84.6286, 46.7044
5.24103, 27, -28.4754, -15.7291, 34.7537, -152.774, -84.4993, 46.5812
5.24993, 27, -28.4529, -15.9199, 34.9071, -152.662, -84.3699, 46.4583
5.25571, 27, -28.4417, -16.0158, 34.9839, -152.605, -84.3051, 46.397
5.26349, 28, -28.4194, -16.2088, 35.1374, -152.492, -84.175, 46.2743
5.27248, 28, -28.3971, -16.4024, 35.2915, -152.378, -84.0445, 46.1523
5.28061, 28, -28.3748, -16.5963, 35.4466, -152.263, -83.9136, 46.0307
5.29147, 28, -28.3418, -16.8891, 35.6797, -152.09, -83.7168, 45.8499
5.29553, 28, -28.3307, -16.987, 35.7575, -152.032, -83.651, 45.7899
5.30345, 29, -28.3088, -17.1828, 35.9132, -151.915, -83.5194, 45.6708
5.3116, 29, -28.2869, -17.3786, 36.0698, -151.797, -83.3874, 45.5525
5.31949, 29, -28.2652, -17.5753, 36.2268, -151.679, -83.255, 45.4352
5.32763, 29, -28.2433, -17.7726, 36.3838, -151.561, -83.1223, 45.3191
5.33648, 29, -28.2215, -17.9697, 36.5408, -151.442, -82.9896, 45.2035
5.34368, 30, -28.2, -18.1671, 36.6987, -151.322, -82.8565, 45.0893
5.35151, 30, -28.1784, -18.3654, 36.857, -151.202, -82.7233, 44.9762
5.35956, 30, -28.1568, -18.564, 37.0152, -151.081, -82.5903, 44.8644
5.36749, 30, -28.1353, -18.7626, 37.1733, -150.959, -82.4567, 44.7543
5.37565, 30, -28.1138, -18.9618, 37.3317, -150.837, -82.3233, 44.6455
5.38354, 30, -28.0921, -19.1621, 37.4908, -150.715, -82.1892, 44.5385
5.3915, 31, -28.0703, -19.3627, 37.65, -150.592, -82.0556, 44.4327
5.40078, 31, -28.0488, -19.563, 37.8088, -150.468, -81.9215, 44.3287
5.40929, 31, -28.0273, -19.7638, 37.9682, -150.344, -81.7875, 44.2262
5.41555, 31, -28.0057, -19.965, 38.1282, -150.218, -81.6534, 44.1251
5.42427, 31, -27.9841, -20.1659, 38.2884, -150.093, -81.5191, 44.0255
5.43155, 32, -27.9625, -20.3668, 38.4481, -149.966, -81.3848, 43.9275
5.43956, 32, -27.9406, -20.5686, 38.608, -149.84, -81.2506, 43.8315
5.44962, 32, -27.9185, -20.7706, 38.7683, -149.712, -81.1164, 43.7374
5.45567, 32, -27.8962, -20.9722, 38.9287, -149.584, -80.9821, 43.646
5.46366, 32, -27.8738, -21.1736, 39.0885, -149.456, -80.8485, 43.5569
5.47159, 33, -27.8511, -21.3753, 39.2478, -149.328, -80.715, 43.4711
5.47963, 33, -27.828, -21.5764, 39.4073, -149.2, -80.5821, 43.3883
5.48765, 33, -27.8044, -21.7764, 39.5664, -149.071, -80.4495, 43.3087
5.4956, 33, -27.7803, -21.9761, 39.7244, -148.943, -80.3178, 43.2327
5.50373, 33, -27.7557, -22.1758, 39.8816, -148.816, -80.1862, 43.1598
5.51247, 34, -27.7306, -22.3743, 40.0385, -148.688, -80.0553, 43.0911
5.51952, 34, -27.7049, -22.5718, 40.1953, -148.56, -79.9245, 43.0251
5.52782, 34, -27.6788, -22.769, 40.3512, -148.432, -79.7937, 42.9622
5.536, 34, -27.6522, -22.9659, 40.5064, -148.305, -79.6631, 42.9032
5.54369, 34, -27.625, -23.1618, 40.6616, -148.177, -79.5324, 42.8473
5.55171, 35, -27.5974, -23.3571, 40.8168, -148.048, -79.4018, 42.794
5.55983, 35, -27.5697, -23.553, 40.9715, -147.92, -79.2711, 42.7449
5.56781, 35, -27.5418, -23.7487, 41.1257, -147.791, -79.1409, 42.6993
5.57623, 35, -27.5135, -23.9437, 41.2797, -147.661, -79.0106, 42.6566
5.58493, 35, -27.485, -24.1384, 41.4339, -147.531, -78.8807, 42.6171
5.59201, 36, -27.456, -24.3332, 41.5879, -147.401, -78.7508, 42.5817
5.60135, 36, -27.4267, -24.5275, 41.7411, -147.27, -78.6212, 42.5505
5.60904, 36, -27.3971, -24.7208, 41.8937, -147.139, -78.4924, 42.5235
5.61694, 36, -27.367, -24.9138, 42.0462, -147.008, -78.3635, 42.5007
5.62407, 36, -27.3516, -25.0104, 42.1981, -146.878, -78.2355, 42.4823
5.63209, 37, -27.3204, -25.203, 42.2736, -146.812, -78.1715, 42.4684
5.64086, 37, -27.2883, -25.3943, 42.4237, -146.682, -78.0439, 42.4633
5.64753, 37, -27.2554, -25.5845, 42.573, -146.552, -77.9169, 42.4566
5.65702, 37, -27.2217, -25.7742, 42.7214, -146.422, -77.7902, 42.4536
5.66345, 37, -27.1871, -25.9627, 42.8688, -146.294, -77.6641, 42.4536
5.67159, 37, -27.1514, -26.1492, 43.0148, -146.165, -77.5383, 42.4596
5.67951, 38, -27.1149, -26.3343, 43.1595, -146.038, -77.4133, 42.4718
5.68751, 38, -27.0778, -26.5189, 43.3034, -145.911, -77.2887, 42.4891
5.69548, 38, -27.0397, -26.7022, 43.4464, -145.784, -77.1647, 42.5121
5.7038, 38, -27.0008, -26.884, 43.5885, -145.658, -77.0412, 42.5405
5.71152, 38, -26.9611, -27.0649, 43.7295, -145.532, -76.918, 42.5747
5.71947, 39, -26.9207, -27.2457, 43.8697, -145.406, -76.7954, 42.6152
5.72764, 39, -26.8796, -27.4256, 44.0091, -145.28, -76.6727, 42.6614
5.73549, 39, -26.8376, -27.6042, 44.1479, -145.154, -76.5504, 42.713
5.74504, 39, -26.7734, -27.8709, 44.3543, -144.966, -76.3668, 42.8021
5.75148, 39, -26.7516, -27.9597, 44.4226, -144.903, -76.3057, 42.8352
5.75947, 40, -26.7073, -28.1366, 44.5585, -144.778, -76.1834, 42.9049
5.76846, 40, -26.662, -28.3117, 44.6935, -144.653, -76.0613, 42.9818
5.77554, 40, -26.6158, -28.4855, 44.8272, -144.529, -75.9398, 43.065
5.78451, 40, -26.5687, -28.6584, 44.9597, -144.406, -75.8182, 43.1542
5.79147, 40, -26.5203, -28.83, 45.0908, -144.284, -75.6976, 43.2507
5.79971, 41, -26.4709, -28.9996, 45.2204, -144.162, -75.5772, 43.3535
5.81124, 41, -26.3947, -29.2508, 45.4122, -143.981, -75.3975, 43.5206
5.81552, 41, -26.3686, -29.3339, 45.4754, -143.922, -75.3379, 43.5796
5.82591, 41, -26.2884, -29.5811, 45.6626, -143.745, -75.1595, 43.7673
5.83161, 41, -26.2611, -29.6624, 45.7241, -143.686, -75.1006, 43.8335
5.83953, 42, -26.2052, -29.8237, 45.8457, -143.57, -74.9827, 43.9714
5.84749, 42, -26.1479, -29.9832, 45.9655, -143.456, -74.8651, 44.1166
5.85547, 42, -26.0891, -30.1411, 46.0833, -143.343, -74.7484, 44.2688
5.86348, 42, -26.0286, -30.2968, 46.1992, -143.232, -74.6319, 44.4284
5.87154, 42, -25.9666, -30.4501, 46.3131, -143.122, -74.516, 44.5951
5.87962, 43, -25.903, -30.6011, 46.4248, -143.015, -74.4007, 44.769
5.88807, 43, -25.8377, -30.7501, 46.5344, -142.909, -74.2855, 44.951
5.89646, 43, -25.7707, -30.897, 46.6419, -142.805, -74.171, 45.1406
5.90369, 43, -25.7021, -31.0415, 46.7474, -142.703, -74.0566, 45.3379
5.91252, 43, -25.632, -31.1836, 46.8511, -142.603, -73.9429, 45.5428
5.91967, 44, -25.5601, -31.3236, 46.9528, -142.504, -73.8296, 45.7555
5.92756, 44, -25.4866, -31.4614, 47.0521, -142.408, -73.7167, 45.976
5.93547, 44, -25.411, -31.5969, 47.149, -142.314, -73.6043, 46.2047
5.94374, 44, -25.3337, -31.73, 47.2434, -142.222, -73.4922, 46.4413
5.95189, 44, -25.2545, -31.8603, 47.3355, -142.133, -73.3808, 46.6863
5.95975, 45, -25.1735, -31.988, 47.4251, -142.047, -73.2701, 46.9394
5.96781, 45, -25.0906, -32.1129, 47.5123, -141.963, -73.1598, 47.2012
5.9777, 45, -25.0056, -32.235, 47.5969, -141.882, -73.0504, 47.4713
5.98387, 45, -24.9185, -32.3543, 47.6785, -141.804, -72.9416, 47.7495
5.9935, 45, -24.8294, -32.4706, 47.7571, -141.73, -72.8335, 48.0358
5.99957, 45, -24.7378, -32.5838, 47.8327, -141.658, -72.7263, 48.3311
6.00768, 46, -24.6441, -32.6936, 47.9054, -141.59, -72.6198, 48.6348
6.01551, 46, -24.5479, -32.8002, 47.9751, -141.524, -72.5143, 48.9468
6.02356, 46, -24.4494, -32.9034, 48.0418, -141.464, -72.4096, 49.2673
6.032, 46, -24.3487, -33.0028, 48.1053, -141.406, -72.3056, 49.5967
6.03956, 46, -24.2456, -33.0986, 48.1652, -141.352, -72.203, 49.9342
6.04758, 47, -24.1402, -33.1905, 48.2217, -141.304, -72.1012, 50.2798
6.05576, 47, -24.0323, -33.2783, 48.2745, -141.258, -72.0003, 50.634
6.06378, 47, -23.9216, -33.3621, 48.3236, -141.217, -71.9009, 50.9965
6.07187, 47, -23.8083, -33.4417, 48.3688, -141.181, -71.8023, 51.3674
6.08041, 47, -23.6921, -33.517, 48.4101, -141.149, -71.7049, 51.7471
6.08792, 48, -23.5732, -33.5879, 48.4474, -141.122, -71.6093, 52.1349
6.09608, 48, -23.4516, -33.6542, 48.4804, -141.099, -71.5152, 52.5311
6.10408, 48, -23.3276, -33.7158, 48.5094, -141.081, -71.4226, 52.9369
6.11201, 48, -23.2011, -33.7725, 48.5342, -141.068, -71.3323, 53.351
6.12012, 48, -23.0717, -33.824, 48.5545, -141.061, -71.2438, 53.7739
6.12853, 49, -22.9396, -33.8704, 48.5705, -141.058, -71.1571, 54.2051
6.13834, 49, -22.8044, -33.9114, 48.5819, -141.06, -71.0724, 54.6435
6.14417, 49, -22.7357, -33.9298, 48.5859, -141.068, -70.99, 55.09
6.15286, 49, -22.5253, -33.9766, 48.5909, -141.082, -70.9097, 55.5441
6.16095, 49, -22.4538, -34.0005, 48.5886, -141.102, -70.8314, 56.0059
6.16744, 50, -22.3086, -34.0102, 48.5856, -141.115, -70.7933, 56.2397
6.17827, 50, -22.0859, -34.03, 48.5689, -141.161, -70.6834, 56.9515
6.18357, 50, -22.0103, -34.0335, 48.5607, -141.179, -70.6481, 57.1928
6.19145, 50, -21.8569, -34.036, 48.5406, -141.22, -70.5803, 57.6813
6.19956, 50, -21.7005, -34.0325, 48.515, -141.268, -70.5151, 58.1769
6.21056, 51, -21.4602, -34.0148, 48.4664, -141.351, -70.4248, 58.9322
6.2178, 51, -21.2966, -33.9946, 48.4275, -141.414, -70.3684, 59.4429
6.22357, 51, -21.2138, -33.9819, 48.406, -141.448, -70.3419, 59.7004
6.234, 51, -20.9617, -33.9334, 48.3333, -141.559, -70.2673, 60.4808
6.23955, 51, -20.8765, -33.9137, 48.3063, -141.598, -70.2441, 60.7435
6.24746, 51, -20.7041, -33.8686, 48.248, -141.683, -70.2013, 61.2728
6.25562, 52, -20.529, -33.8157, 48.1837, -141.774, -70.1633, 61.8086
6.26437, 52, -20.3512, -33.7549, 48.1134, -141.871, -70.1296, 62.3514
6.27152, 52, -20.1705, -33.6859, 48.0369, -141.974, -70.1003, 62.9015
6.28178, 52, -19.8942, -33.5667, 47.9101, -142.142, -70.0666, 63.7394
6.28842, 52, -19.8008, -33.5226, 47.8645, -142.202, -70.0581, 64.0224
6.29545, 53, -19.6123, -33.4279, 47.7685, -142.325, -70.0455, 64.5933
6.30433, 53, -19.4219, -33.3247, 47.6662, -142.455, -70.0385, 65.1703
6.31249, 53, -19.2294, -33.2133, 47.5576, -142.59, -70.0366, 65.7516
6.31946, 53, -19.0349, -33.0934, 47.443, -142.732, -70.04, 66.3374
6.33095, 54, -18.74, -32.8978, 47.2596, -142.954, -70.0569, 67.2219
6.3356, 54, -18.6408, -32.8284, 47.1955, -143.03, -70.0658, 67.5173
6.34605, 54, -18.3402, -32.6078, 46.9949, -143.266, -70.1022, 68.4044
6.35152, 54, -18.239, -32.5303, 46.9254, -143.346, -70.1178, 68.7005
6.35967, 54, -18.0358, -32.3691, 46.7822, -143.511, -70.1531, 69.2935
6.36849, 54, -17.8316, -32.1993, 46.6334, -143.68, -70.1945, 69.8872
6.37545, 55, -17.6265, -32.0202, 46.4786, -143.854, -70.2441, 70.4828
6.38358, 55, -17.4203, -31.8321, 46.3178, -144.031, -70.301, 71.0821
6.39152, 55, -17.2126, -31.6349, 46.1508, -144.214, -70.3654, 71.6855
6.39945, 55, -17.0033, -31.4275, 45.9764, -144.402, -70.4391, 72.2925
6.40763, 55, -16.7922, -31.2095, 45.7946, -144.595, -70.5209, 72.9047
6.41572, 56, -16.5795, -30.9812, 45.6062, -144.792, -70.6123, 73.5215
6.42351, 56, -16.3653, -30.7424, 45.4107, -144.994, -70.7124, 74.1423
6.43287, 56, -16.1503, -30.4922, 45.2071, -145.2, -70.8221, 74.7659
6.43959, 56, -15.9353, -30.2314, 44.9966, -145.41, -70.9414, 75.3929
6.44753, 56, -15.7204, -29.9599, 44.7801, -145.623, -71.0701, 76.0226
6.45549, 57, -15.5045, -29.6772, 44.5559, -145.84, -71.2086, 76.6533
6.46356, 57, -15.2874, -29.3844, 44.3246, -146.059, -71.3569, 77.2857
6.47163, 57, -15.0691, -29.0808, 44.0871, -146.281, -71.5155, 77.9194
6.47973, 57, -14.8506, -28.768, 43.8427, -146.505, -71.6836, 78.5529
6.48779, 57, -14.6326, -28.4468, 43.5933, -146.729, -71.8615, 79.1844
6.49747, 58, -14.4152, -28.1179, 43.3395, -146.954, -72.0477, 79.8136
6.50445, 58, -14.1991, -27.7816, 43.0814, -147.178, -72.2416, 80.4384
6.51162, 58, -13.9845, -27.4373, 42.8208, -147.4, -72.4428, 81.0561
6.52005, 58, -13.7716, -27.0866, 42.5572, -147.62, -72.6505, 81.6668
6.52749, 58, -13.5601, -26.7292, 42.291, -147.838, -72.8649, 82.271
6.53563, 58, -13.3497, -26.3656, 42.0222, -148.054, -73.0858, 82.8686
6.54445, 59, -13.1411, -25.9946, 41.7496, -148.268, -73.3141, 83.4601
6.55163, 59, -12.9344, -25.6173, 41.4739, -148.479, -73.5501, 84.0473
6.56074, 59, -12.729, -25.2331, 41.1941, -148.69, -73.7944, 84.6311
6.56777, 59, -12.5246, -24.8418, 40.9105, -148.899, -74.0477, 85.2116
6.57579, 59, -12.321, -24.4424, 40.6224, -149.106, -74.31, 85.7884
6.58481, 60, -12.1188, -24.0357, 40.33, -149.312, -74.5813, 86.3626
6.59196, 60, -11.9179, -23.6221, 40.034, -149.516, -74.8617, 86.934
6.60054, 60, -11.7184, -23.2019, 39.7347, -149.717, -75.1505, 87.501
6.6083, 60, -11.5209, -22.7763, 39.4337, -149.916, -75.4474, 88.0627
6.61695, 60, -11.3257, -22.3457, 39.1306, -150.111, -75.7509, 88.6193
6.62405, 61, -11.1329, -21.9115, 38.8268, -150.302, -76.0603, 89.1682
6.63336, 61, -10.9423, -21.4736, 38.5221, -150.488, -76.3742, 89.7084
6.64225, 61, -10.7541, -21.0323, 38.218, -150.669, -76.6922, 90.2383
6.64749, 61, -10.6609, -20.8106, 38.066, -150.757, -76.8528, 90.5
6.65556, 61, -10.4762, -20.3644, 37.762, -150.93, -77.1764, 91.0159
6.66458, 62, -10.2042, -19.6889, 37.3066, -151.18, -77.6698, 91.773
6.6715, 62, -10.1149, -19.4623, 37.1545, -151.261, -77.8365, 92.021
6.67945, 62, -9.93834, -19.0076, 36.8504, -151.419, -78.1738, 92.511
6.6876, 62, -9.7644, -18.5503, 36.545, -151.573, -78.5164, 92.9945
6.69543, 62, -9.59289, -18.0908, 36.2394, -151.723, -78.8643, 93.4703
6.70348, 63, -9.42356, -17.63, 35.9336, -151.868, -79.2169, 93.9385
6.71145, 63, -9.25637, -17.1673, 35.6286, -152.008, -79.5739, 94.3973
6.7195, 63, -9.09148, -16.7029, 35.3247, -152.142, -79.9341, 94.8465
6.72744, 63, -8.92911, -16.2367, 35.0218, -152.272, -80.2974, 95.2861
6.73561, 63, -8.76933, -15.7683, 34.7204, -152.395, -80.6631, 95.7148
6.74341, 64, -8.6122, -15.2985, 34.4205, -152.514, -81.0312, 96.1337
6.75306, 64, -8.45753, -14.5917, 33.9745, -152.682, -81.5881, 96.7412
6.75947, 64, -8.3054, -14.3556, 33.8261, -152.735, -81.7751, 96.9384
6.76843, 64, -8.15559, -13.8836, 33.5306, -152.838, -82.1516, 97.3259
6.77545, 64, -8.00826, -13.412, 33.2357, -152.935, -82.531, 97.7021
6.78578, 65, -7.7919, -12.7068, 32.7972, -153.072, -83.1043, 98.2449
6.79161, 65, -7.72109, -12.4726, 32.6521, -153.115, -83.2961, 98.4198
6.79942, 65, -7.58166, -12.0051, 32.3644, -153.196, -83.6804, 98.7595
6.8115, 65, -7.37819, -11.3065, 31.9403, -153.306, -84.2567, 99.2429
6.81662, 65, -7.3118, -11.0744, 31.8006, -153.34, -84.4486, 99.3972
6.82589, 66, -7.11695, -10.381, 31.3883, -153.432, -85.0228, 99.8378
6.83243, 66, -7.05321, -10.1514, 31.2525, -153.461, -85.2135, 99.977
6.84258, 66, -6.86512, -9.46863, 30.8516, -153.536, -85.785, 100.372
6.84744, 66, -6.80347, -9.24333, 30.72, -153.559, -85.9748, 100.495
6.85544, 66, -6.6819, -8.79746, 30.4592, -153.6, -86.3528, 100.731
6.86368, 67, -6.56262, -8.35707, 30.2033, -153.635, -86.7285, 100.949
6.87247, 67, -6.44587, -7.92297, 29.9526, -153.664, -87.1006, 101.151
6.87944, 67, -6.33206, -7.49451, 29.7075, -153.688, -87.4688, 101.335
6.88758, 67, -6.22093, -7.07213, 29.4695, -153.706, -87.8321, 101.501
6.89883, 67, -6.05905, -6.44926, 29.1236, -153.723, -88.3681, 101.718
6.90345, 67, -6.00626, -6.24468, 29.0115, -153.726, -88.5443, 101.782
6.91146, 68, -5.90228, -5.84062, 28.7919, -153.729, -88.8937, 101.896
6.91951, 68, -5.80018, -5.44229, 28.5768, -153.729, -89.2396, 101.993
6.92744, 68, -5.69974, -5.04958, 28.3656, -153.722, -89.583, 102.072
6.93752, 68, -5.60105, -4.66228, 28.1585, -153.712, -89.9248, 102.133
6.94358, 68, -5.50404, -4.28039, 27.9547, -153.697, -90.2652, 102.176
6.95566, 69, -5.36182, -3.71494, 27.6557, -153.666, -90.7736, 102.207
6.95949, 69, -5.3153, -3.52856, 27.5584, -153.654, -90.9426, 102.209
6.96844, 69, -5.22348, -3.15839, 27.3667, -153.625, -91.2797, 102.197
6.97555, 69, -5.13344, -2.79214, 27.1779, -153.593, -91.616, 102.164
6.98359, 69, -5.04505, -2.42876, 26.993, -153.556, -91.9511, 102.11
6.99169, 70, -4.95809, -2.06902, 26.8121, -153.517, -92.2851, 102.033
7.00153, 70, -4.87233, -1.71343, 26.6345, -153.472, -92.6183, 101.935
7.00761, 70, -4.78775, -1.36294, 26.4598, -153.425, -92.9505, 101.814
7.016, 70, -4.70416, -1.01755, 26.2896, -153.375, -93.2814, 101.671
7.02358, 70, -4.62169, -0.677593, 26.1234, -153.32, -93.6106, 101.505
7.03148, 71, -4.54025, -0.344126, 25.9606, -153.263, -93.937, 101.317
7.04047, 71, -4.45989, -0.0169429, 25.8024, -153.204, -94.2604, 101.109
7.04791, 71, -4.38052, 0.303612, 25.6498, -153.141, -94.5799, 100.879
7.05643, 71, -4.30199, 0.618724, 25.5025, -153.077, -94.8951, 100.63
7.064, 71, -4.22435, 0.927058, 25.36, -153.01, -95.2059, 100.36
7.07227, 72, -4.1475, 1.22882, 25.2221, -152.942, -95.5128, 100.07
7.08063, 72, -4.07098, 1.52384, 25.0885, -152.872, -95.816, 99.7605
7.088, 72, -3.99474, 1.81167, 24.9586, -152.801, -96.1162, 99.4301
7.09683, 72, -3.91859, 2.09349, 24.8318, -152.729, -96.4139, 99.0792
7.10394, 72, -3.84246, 2.36867, 24.7082, -152.656, -96.7088, 98.7073
7.11313, 73, -3.76644, 2.63731, 24.5877, -152.582, -97.0013, 98.3137
7.12216, 73, -3.69051, 2.89997, 24.4705, -152.509, -97.2909, 97.8987
7.12853, 73, -3.61428, 3.15596, 24.3569, -152.435, -97.5775, 97.4619
7.13933, 73, -3.57611, 3.28154, 24.3016, -152.399, -97.8607, 97.0041
7.14464, 73, -3.46117, 3.64899, 24.1416, -152.29, -98.1403, 96.5265
7.15272, 73, -3.38398, 3.88467, 24.0401, -152.218, -98.4162, 96.0285
7.15948, 74, -3.3451, 3.99935, 23.9908, -152.183, -98.5524, 95.7728
7.16748, 74, -3.26685, 4.22263, 23.895, -152.113, -98.8211, 95.2481
7.17543, 74, -3.18787, 4.43741, 23.8031, -152.045, -99.0848, 94.7076
7.18343, 74, -3.10819, 4.64256, 23.7153, -151.979, -99.3426, 94.1536
7.1916, 74, -3.02781, 4.83817, 23.6315, -151.916, -99.5939, 93.5864
7.1994, 75, -2.94655, 5.02456, 23.552, -151.855, -99.8375, 93.0082
7.20756, 75, -2.86428, 5.201, 23.4765, -151.797, -100.073, 92.421
7.21814, 75, -2.73906, 5.44541, 23.3706, -151.715, -100.409, 91.5252
7.22369, 75, -2.69686, 5.52167, 23.3372, -151.69, -100.516, 91.2228
7.23302, 75, -2.56892, 5.7341, 23.2433, -151.618, -100.824, 90.305
7.23943, 76, -2.52578, 5.79921, 23.2142, -151.595, -100.922, 89.9957
7.249, 76, -2.39493, 5.97712, 23.1334, -151.535, -101.202, 89.0547
7.25543, 76, -2.3509, 6.03045, 23.1087, -151.517, -101.291, 88.7367
7.26497, 76, -2.26231, 6.12781, 23.0625, -151.483, -101.46, 87.7728
7.27164, 76, -2.17292, 6.21247, 23.0212, -151.453, -101.62, 87.4485
7.27952, 77, -2.08266, 6.28405, 22.9849, -151.427, -101.768, 86.796
7.28842, 77, -1.99153, 6.34237, 22.9538, -151.405, -101.903, 86.1425
7.29544, 77, -1.89957, 6.38715, 22.9285, -151.388, -102.024, 85.4913
7.30342, 77, -1.80671, 6.41765, 22.9088, -151.374, -102.132, 84.8426
7.31151, 77, -1.71305, 6.43407, 22.895, -151.364, -102.224, 84.1981
7.31959, 78, -1.6186, 6.4361, 22.8871, -151.357, -102.302, 83.5589
7.32845, 78, -1.52345, 6.42303, 22.8845, -151.354, -102.364, 82.9247
7.33542, 78, -1.42763, 6.39469, 22.8875, -151.353, -102.41, 82.2945
7.34589, 78, -1.28323, 6.32293, 22.9033, -151.358, -102.451, 81.3591
7.35158, 78, -1.23492, 6.29097, 22.9116, -151.362, -102.457, 81.0502
7.36196, 79, -1.08973, 6.17088, 22.9467, -151.377, -102.45, 80.1311
7.36744, 79, -1.04124, 6.12277, 22.9619, -151.384, -102.438, 79.8279
7.37544, 79, -0.944155, 6.01439, 22.9978, -151.399, -102.402, 79.2273
7.38343, 79, -0.847105, 5.88976, 23.0413, -151.418, -102.349, 78.6345
7.39154, 79, -0.750063, 5.74849, 23.0924, -151.44, -102.277, 78.0498
7.39963, 80, -0.653046, 5.59071, 23.1511, -151.464, -102.188, 77.4742
7.40745, 80, -0.555943, 5.41634, 23.2175, -151.491, -102.08, 76.9085
7.41551, 80, -0.458821, 5.22536, 23.2918, -151.519, -101.953, 76.3535
7.42371, 80, -0.361808, 5.01768, 23.3743, -151.548, -101.808, 75.808
7.43247, 80, -0.26492, 4.79221, 23.4651, -151.579, -101.643, 75.2726
7.43942, 80, -0.16818, 4.54845, 23.5644, -151.612, -101.46, 74.7475
7.44784, 81, -0.0715963, 4.28775, 23.6724, -151.646, -101.258, 74.2326
7.45575, 81, 0.0248019, 4.0102, 23.7895, -151.681, -101.036, 73.7268
7.46367, 81, 0.12099, 3.71591, 23.9159, -151.717, -100.795, 73.231
7.47186, 81, 0.21697, 3.4054, 24.0517, -151.754, -100.535, 72.7448
7.4836, 82, 0.360618, 2.90713, 24.274, -151.809, -100.11, 72.0349
7.48852, 82, 0.408417, 2.73279, 24.3528, -151.828, -99.9586, 71.8031
7.49739, 82, 0.50378, 2.37171, 24.5171, -151.865, -99.642, 71.3469
7.5044, 82, 0.598964, 1.99538, 24.6907, -151.903, -99.3073, 70.901
7.5116, 82, 0.693971, 1.60234, 24.8739, -151.939, -98.955, 70.4649
7.51943, 82, 0.78889, 1.19271, 25.0663, -151.975, -98.5854, 70.0395
7.52783, 83, 0.883761, 0.767521, 25.2679, -152.01, -98.1992, 69.6238
7.53745, 83, 0.978593, 0.327637, 25.4801, -152.045, -97.7964, 69.2178
7.54441, 83, 1.07345, -0.12697, 25.7024, -152.079, -97.3777, 68.8218
7.55349, 83, 1.16838, -0.596479, 25.9335, -152.111, -96.9429, 68.4347
7.56063, 83, 1.26338, -1.08063, 26.1747, -152.141, -96.4924, 68.0567
7.56844, 84, 1.35855, -1.57894, 26.426, -152.171, -96.026, 67.6878
7.57577, 84, 1.45398, -2.09097, 26.6874, -152.2, -95.5441, 67.3262
7.58379, 84, 1.54963, -2.6165, 26.9598, -152.227, -95.0465, 66.9724
7.59194, 84, 1.64565, -3.15568, 27.2419, -152.252, -94.5332, 66.626
7.60521, 84, 1.79048, -3.98978, 27.6851, -152.287, -93.7356, 66.1195
7.60844, 85, 1.83893, -4.27435, 27.8378, -152.297, -93.4623, 65.9544
7.61643, 85, 1.93597, -4.85219, 28.1506, -152.317, -92.9048, 65.6308
7.62403, 85, 2.03345, -5.44024, 28.4726, -152.335, -92.3337, 65.3151
7.63361, 85, 2.13128, -6.0383, 28.8039, -152.351, -91.752, 65.0077
7.64145, 85, 2.22967, -6.64444, 29.1436, -152.364, -91.1605, 64.7094
7.6482, 86, 2.27914, -6.95033, 29.3166, -152.369, -90.861, 64.4209
7.65542, 86, 2.37856, -7.56727, 29.6684, -152.378, -90.2547, 64.2803
7.66342, 86, 2.47887, -8.1902, 30.0272, -152.383, -89.6395, 64.0071
7.67146, 86, 2.58017, -8.81922, 30.3924, -152.386, -89.0164, 63.7447
7.67942, 86, 2.68213, -9.45349, 30.763, -152.387, -88.3889, 63.494
7.68756, 86, 2.78525, -10.092, 31.139, -152.384, -87.757, 63.2549
7.69755, 87, 2.94177, -11.0566, 31.7131, -152.374, -86.7986, 62.9181
7.70342, 87, 2.99432, -11.3796, 31.9067, -152.368, -86.4767, 62.8119
7.71143, 87, 3.10038, -12.0277, 32.2973, -152.355, -85.829, 62.6089
7.71946, 87, 3.20719, -12.6779, 32.6924, -152.337, -85.1772, 62.4188
7.72904, 87, 3.36865, -13.6587, 33.2951, -152.303, -84.1917, 62.1575
7.73541, 88, 3.42284, -13.987, 33.4987, -152.289, -83.8604, 62.0768
7.74349, 88, 3.53152, -14.6454, 33.9094, -152.26, -83.1938, 61.9254
7.75141, 88, 3.64059, -15.3043, 34.325, -152.227, -82.5223, 61.7875
7.76102, 88, 3.75004, -15.963, 34.7454, -152.189, -81.5071, 61.6079
7.7706, 89, 3.91483, -16.9484, 35.3831, -152.123, -80.8286, 61.5076
7.77638, 89, 3.96986, -17.2755, 35.5967, -152.099, -80.4895, 61.4641
7.79182, 89, 4.19096, -18.575, 36.4516, -151.989, -79.1354, 61.3355
7.79522, 89, 4.24659, -18.8978, 36.6652, -151.958, -78.7976, 61.3152
7.80063, 89, 4.30241, -19.2197, 36.8786, -151.927, -78.4608, 61.2999
7.80741, 89, 4.41424, -19.86, 37.3038, -151.858, -77.7921, 61.2838
7.81547, 90, 4.52637, -20.4958, 37.7274, -151.786, -77.1272, 61.2881
7.82342, 90, 4.63924, -21.1275, 38.1512, -151.708, -76.4628, 61.3161
7.83142, 90, 4.75205, -21.7549, 38.5753, -151.624, -75.7981, 61.367
7.84329, 90, 4.92045, -22.6889, 39.2132, -151.486, -74.8006, 61.488
7.84757, 90, 4.97632, -22.9986, 39.4265, -151.437, -74.4684, 61.5415
7.85638, 91, 5.08778, -23.6161, 39.8535, -151.335, -73.8028, 61.6681
7.86341, 91, 5.19893, -24.2305, 40.2812, -151.225, -73.1354, 61.823
7.87141, 91, 5.3096, -24.8405, 40.7089, -151.108, -72.4678, 62.0069
7.87951, 91, 5.41964, -25.4457, 41.1358, -150.985, -71.7998, 62.2206
7.88741, 91, 5.52921, -26.0445, 41.5615, -150.854, -71.1324, 62.4649
7.89542, 92, 5.63848, -26.6357, 41.985, -150.718, -70.4687, 62.7404
7.90347, 92, 5.7479, -27.2182, 42.4053, -150.576, -69.8083, 63.0473
7.91141, 92, 5.858, -27.7912, 42.821, -150.429, -69.1516, 63.3847
7.91966, 92, 5.96869, -28.3544, 43.231, -150.277, -68.499, 63.7529
7.92741, 92, 6.08016, -28.9067, 43.6351, -150.122, -67.8514, 64.1525
7.93543, 92, 6.19288, -29.447, 44.0323, -149.963, -67.2115, 64.5825
7.95107, 93, 6.42318, -30.4935, 44.8062, -149.639, -65.9477, 65.5374
7.95241, 93, 6.42318, -30.4935, 44.8062, -149.639, -65.9477, 65.5374
7.95948, 93, 6.54171, -31.0022, 45.184, -149.475, -65.3214, 66.0631
7.96762, 93, 6.66229, -31.5043, 45.5571, -149.311, -64.6975, 66.6237
7.97643, 93, 6.78514, -32.0008, 45.9256, -149.146, -64.0744, 67.2236
7.98353, 94, 6.91004, -32.4925, 46.2914, -148.981, -63.4485, 67.867
7.99155, 94, 7.03685, -32.9794, 46.6552, -148.815, -62.8164, 68.56
8.00087, 94, 7.16519, -33.4596, 47.0175, -148.649, -62.1785, 69.3058
8.00751, 94, 7.29575, -33.9328, 47.3775, -148.485, -61.5347, 70.1024
8.0156, 94, 7.42969, -34.3989, 47.7328, -148.325, -60.8862, 70.9518
8.02341, 95, 7.56784, -34.8557, 48.081, -148.173, -60.2392, 71.8523
8.03144, 95, 7.71158, -35.3024, 48.4197, -148.03, -59.5958, 72.7943
8.03951, 95, 7.8615, -35.7374, 48.747, -147.901, -58.9583, 73.7777
8.04954, 95, 8.01819, -36.1574, 49.0609, -147.788, -58.3283, 74.7969
8.05641, 95, 8.18179, -36.5575, 49.3592, -147.691, -57.7063, 75.8504
8.06384, 96, 8.35221, -36.9374, 49.6419, -147.613, -57.0963, 76.936
8.07164, 96, 8.52928, -37.2952, 49.9074, -147.554, -56.5008, 78.0512
8.08035, 96, 8.71206, -37.6296, 50.1564, -147.516, -55.9191, 79.1919
8.08778, 96, 8.90018, -37.939, 50.3872, -147.498, -55.3527, 80.3537
8.09645, 96, 9.09261, -38.2233, 50.5986, -147.501, -54.8048, 81.5289
8.10548, 96, 9.2879, -38.4828, 50.7909, -147.525, -54.2777, 82.717
8.11279, 97, 9.48454, -38.7166, 50.9635, -147.572, -53.7736, 83.9145
8.11996, 97, 9.68119, -38.9253, 51.1155, -147.639, -53.2943, 85.1154
8.12862, 97, 9.87681, -39.1098, 51.2479, -147.725, -52.8423, 86.3072
8.13657, 97, 9.97405, -39.269, 51.3607, -147.828, -52.4194, 87.4853
8.14401, 97, 10.1666, -39.339, 51.4097, -147.945, -52.0269, 88.6398
8.15142, 97, 10.3555, -39.4602, 51.4935, -148.008, -51.8424, 89.2064
8.15943, 98, 10.5407, -39.5562, 51.559, -148.142, -51.4968, 90.3128
8.1674, 98, 10.7233, -39.628, 51.6063, -148.286, -51.182, 91.3852
8.17546, 98, 10.9041, -39.6768, 51.6361, -148.439, -50.8957, 92.4312
8.1834, 98, 11.0833, -39.7025, 51.6485, -148.603, -50.6342, 93.4648
8.19261, 98, 11.3481, -39.6968, 51.6356, -148.873, -50.2812, 95.0216
8.1994, 98, 11.4358, -39.683, 51.6225, -148.969, -50.173, 95.5483
8.20745, 98, 11.6115, -39.6375, 51.5831, -149.172, -49.9709, 96.6178
8.21543, 99, 11.7869, -39.5687, 51.526, -149.389, -49.7894, 97.7078
8.22336, 99, 11.9608, -39.4772, 51.4503, -149.617, -49.6309, 98.8147
8.23145, 99, 12.1317, -39.363, 51.3561, -149.853, -49.4989, 99.9267
8.2394, 99, 12.299, -39.2263, 51.2437, -150.095, -49.3962, 101.035
8.25, 99, 12.5394, -38.9796, 51.0429, -150.461, -49.3, 102.663
8.25541, 99, 12.6159, -38.8862, 50.968, -150.583, -49.2834, 103.192
8.26339, 100, 12.7623, -38.6811, 50.8065, -150.822, -49.2738, 104.228
8.27148, 100, 12.8998, -38.4515, 50.6283, -151.057, -49.2963, 105.236
8.28041, 100, 13.0284, -38.1993, 50.4331, -151.287, -49.3502, 106.213
8.28839, 100, 13.1483, -37.9249, 50.2214, -151.51, -49.4354, 107.168
8.29582, 100, 13.2601, -37.6297, 49.9922, -151.728, -49.5518, 108.099
8.30342, 100, 13.3637, -37.3117, 49.7446, -151.938, -49.6989, 109.007
8.31141, 101, 13.4591, -36.97, 49.4804, -152.142, -49.8761, 109.895
8.31949, 101, 13.5467, -36.6034, 49.199, -152.336, -50.0831, 110.758
8.32739, 101, 13.6265, -36.2112, 48.9007, -152.522, -50.3197, 111.6
8.33541, 101, 13.6982, -35.794, 48.5848, -152.698, -50.5861, 112.416
8.35535, 101, 13.8404, -34.6509, 47.7187, -153.093, -51.3896, 114.362
8.35668, 102, 13.8404, -34.6509, 47.7187, -153.093, -51.3896, 114.362
8.35935, 102, 13.8621, -34.4053, 47.5327, -153.164, -51.5746, 114.733
8.36739, 102, 13.8984, -33.8967, 47.1481, -153.295, -51.9687, 115.458
8.37552, 102, 13.9252, -33.3643, 46.7476, -153.413, -52.3949, 116.16
8.38341, 102, 13.9431, -32.8097, 46.3328, -153.518, -52.8531, 116.834
8.39139, 102, 13.9526, -32.2338, 45.9041, -153.609, -53.3408, 117.483
8.3995, 103, 13.9546, -31.6372, 45.462, -153.687, -53.8553, 118.106
8.40739, 103, 13.9498, -31.0217, 45.0076, -153.751, -54.3944, 118.701
8.41541, 103, 13.9384, -30.389, 44.5418, -153.802, -54.9554, 119.271
8.42346, 103, 13.9213, -29.7406, 44.0658, -153.84, -55.5353, 119.816
8.4314, 103, 13.8986, -29.0778, 43.5817, -153.866, -56.1326, 120.335
8.4394, 103, 13.8711, -28.402, 43.0905, -153.881, -56.7456, 120.829
8.44746, 104, 13.8393, -27.7153, 42.5937, -153.886, -57.3716, 121.298
8.45541, 104, 13.8035, -27.0195, 42.0928, -153.881, -58.011, 121.744
8.4634, 104, 13.764, -26.3161, 41.5885, -153.865, -58.6654, 122.169
8.47152, 104, 13.7214, -25.6063, 41.0814, -153.841, -59.3332, 122.576
8.47947, 104, 13.6769, -24.893, 40.573, -153.809, -60.0124, 122.966
8.48751, 104, 13.6305, -24.1766, 40.0634, -153.77, -60.6996, 123.343
8.49557, 104, 13.5825, -23.4572, 39.5539, -153.723, -61.3928, 123.709
8.50349, 104, 13.5329, -22.7357, 39.0451, -153.672, -62.0915, 124.068
8.51152, 104, 13.4824, -22.0132, 38.5374, -153.615, -62.7934, 124.422
8.51956, 104, 13.4311, -21.2898, 38.0314, -153.554, -63.4973, 124.773
8.5274, 104, 13.3792, -20.5668, 37.5267, -153.489, -64.2015, 125.123
8.53545, 104, 13.3271, -19.8438, 37.0237, -153.419, -64.9061, 125.471
8.54348, 104, 13.2746, -19.1204, 36.5226, -153.346, -65.6129, 125.817
8.55151, 104, 13.2221, -18.3968, 36.0234, -153.268, -66.3204, 126.163
8.55954, 104, 13.1697, -17.6729, 35.5266, -153.187, -67.029, 126.508
8.56774, 104, 13.1177, -16.9484, 35.0322, -153.101, -67.7373, 126.853
8.57572, 104, 13.0659, -16.224, 34.5394, -153.011, -68.4451, 127.197
8.58371, 104, 13.0146, -15.4994, 34.049, -152.918, -69.1552, 127.541
8.59185, 104, 12.9635, -14.7746, 33.5609, -152.821, -69.8664, 127.884
8.59988, 104, 12.9127, -14.0492, 33.0752, -152.72, -70.5779, 128.227
8.60849, 104, 12.8624, -13.3239, 32.592, -152.615, -71.2881, 128.571
8.61595, 104, 12.8124, -12.5981, 32.1116, -152.506, -71.9994, 128.916
8.62394, 104, 12.7628, -11.8727, 31.6339, -152.394, -72.7124, 129.26
8.63251, 104, 12.7135, -11.1478, 31.1585, -152.277, -73.4254, 129.605
8.64004, 104, 12.6891, -10.7852, 30.6855, -152.157, -74.1387, 129.951
8.64793, 104, 12.6403, -10.0595, 30.4504, -152.095, -74.4954, 130.297
8.65646, 104, 12.5677, -8.97114, 29.7494, -151.904, -75.5654, 130.644
8.66344, 104, 12.5438, -8.60825, 29.5173, -151.838, -75.9227, 130.818
8.6714, 104, 12.4962, -7.88218, 29.0555, -151.703, -76.6375, 131.167
8.67942, 104, 12.4491, -7.15655, 28.597, -151.565, -77.3534, 131.517
8.68738, 104, 12.4027, -6.43107, 28.1415, -151.422, -78.0692, 131.868
8.69541, 104, 12.3568, -5.70615, 27.6896, -151.275, -78.783, 132.22
8.70342, 104, 12.3114, -4.98205, 27.2412, -151.123, -79.4981, 132.573
8.7114, 104, 12.267, -4.25909, 26.797, -150.968, -80.2141, 132.928
8.71942, 104, 12.2237, -3.53844, 26.358, -150.809, -80.9294, 133.284
8.72886, 104, 12.1606, -2.46643, 25.7088, -150.562, -81.9956, 133.819
8.73543, 104, 12.1403, -2.11211, 25.4954, -150.478, -82.3492, 133.998
8.74338, 104, 12.1005, -1.40917, 25.0741, -150.308, -83.0538, 134.354
8.75386, 104, 12.0427, -0.371173, 24.4583, -150.049, -84.0963, 134.883
8.76114, 104, 12.0054, 0.307902, 24.0603, -149.873, -84.7777, 135.233
8.76738, 104, 11.9871, 0.643377, 23.8656, -149.785, -85.1135, 135.406
8.77545, 104, 11.9513, 1.30486, 23.4856, -149.609, -85.7739, 135.748
8.78443, 104, 11.9167, 1.95312, 23.1181, -149.433, -86.4198, 136.084
8.7914, 104, 11.8833, 2.5864, 22.7634, -149.257, -87.0504, 136.414
8.79945, 104, 11.8508, 3.20343, 22.4208, -149.082, -87.6651, 136.738
8.80739, 104, 11.8196, 3.80408, 22.0918, -148.908, -88.2632, 137.054
8.81549, 104, 11.7898, 4.38771, 21.7754, -148.736, -88.8437, 137.364
8.82345, 104, 11.7612, 4.95495, 21.4714, -148.564, -89.4069, 137.667
8.8314, 104, 11.734, 5.50517, 21.1786, -148.395, -89.9546, 137.963
8.8394, 104, 11.7079, 6.03795, 20.8981, -148.227, -90.4862, 138.252
8.84742, 104, 11.6829, 6.55406, 20.6293, -148.061, -91.0014, 138.534
8.85538, 104, 11.6592, 7.05323, 20.3721, -147.899, -91.5002, 138.808
8.8634, 104, 11.6365, 7.53545, 20.1266, -147.738, -91.9815, 139.075
8.87145, 104, 11.6151, 8.00132, 19.8916, -147.581, -92.446, 139.334
8.87938, 104, 11.5948, 8.45027, 19.6677, -147.427, -92.8939, 139.585
8.88745, 104, 11.5756, 8.88199, 19.455, -147.276, -93.3253, 139.829
8.89544, 104, 11.5576, 9.29645, 19.2523, -147.129, -93.7399, 140.064
8.90343, 104, 11.5407, 9.69363, 19.0597, -146.986, -94.1373, 140.291
8.91141, 104, 11.5249, 10.0725, 18.8783, -146.847, -94.5174, 140.509
8.91942, 104, 11.51, 10.4326, 18.7074, -146.713, -94.8792, 140.718
8.92738, 104, 11.4963, 10.7735, 18.5465, -146.585, -95.2223, 140.917
8.93545, 104, 11.4835, 11.0953, 18.3966, -146.463, -95.5458, 141.105
8.94348, 104, 11.4718, 11.3964, 18.2576, -146.347, -95.849, 141.282
8.95139, 104, 11.4611, 11.677, 18.1289, -146.238, -96.1314, 141.448
8.95945, 104, 11.4515, 11.9366, 18.0108, -146.136, -96.3925, 141.602
8.96738, 104, 11.4425, 12.1748, 17.9035, -146.042, -96.6318, 141.743
8.97545, 104, 11.4343, 12.3921, 17.8066, -145.956, -96.8494, 141.873
8.98353, 104, 11.4268, 12.5884, 17.72, -145.878, -97.0448, 141.989
8.99148, 104, 11.4203, 12.7633, 17.6438, -145.808, -97.218, 142.092
8.99948, 104, 11.4144, 12.9176, 17.5775, -145.747, -97.3695, 142.183
9.00757, 104, 11.4091, 13.0521, 17.5209, -145.695, -97.4989, 142.261
9.01548, 104, 11.4042, 13.1677, 17.4736, -145.651, -97.6077, 142.325
9.02344, 104, 11.3998, 13.265, 17.435, -145.615, -97.696, 142.378
9.03157, 104, 11.3958, 13.3453, 17.4042, -145.586, -97.7665, 142.421
9.03942, 104, 11.3921, 13.411, 17.3808, -145.564, -97.8197, 142.453
9.04741, 104, 11.3888, 13.4636, 17.3636, -145.547, -97.8586, 142.477
9.05557, 104, 11.386, 13.5046, 17.3514, -145.536, -97.8862, 142.493
9.06355, 104, 11.3838, 13.5353, 17.3433, -145.528, -97.9048, 142.504
9.07213, 104, 11.382, 13.5582, 17.3383, -145.523, -97.9164, 142.51
9.0799, 104, 11.3805, 13.5747, 17.3353, -145.521, -97.9231, 142.513
9.08768, 104, 11.3794, 13.5858, 17.3337, -145.519, -97.9265, 142.515
9.09613, 104, 11.3786, 13.5935, 17.3329, -145.519, -97.9281, 142.516
9.10444, 105, 11.3779, 13.5985, 17.3325, -145.518, -97.9289, 142.516
9.11187, 105, 11.3775, 13.6018, 17.3324, -145.518, -97.9293, 142.517
9.12048, 105, 11.3772, 13.6042, 17.3323, -145.518, -97.9294, 142.517
9.12816, 105, 11.3769, 13.6062, 17.3322, -145.518, -97.9295, 142.517
9.13595, 105, 11.3767, 13.6079, 17.3322, -145.518, -97.9295, 142.517
9.14424, 105, 11.3766, 13.6094, 17.3322, -145.518, -97.9295, 142.517
9.152, 105, 11.3765, 13.6101, 17.3322, -145.518, -97.9294, 142.517
9.16055, 105, 11.3764, 13.6118, 17.3323, -145.518, -97.9293, 142.517
9.16737, 105, 11.3764, 13.6123, 17.3323, -145.518, -97.9293, 142.517
9.17542, 105, 11.3763, 13.6131, 17.3323, -145.518, -97.9292, 142.517
9.18337, 105, 11.3763, 13.6137, 17.3323, -145.518, -97.9291, 142.517
9.19139, 105, 11.3763, 13.6142, 17.3323, -145.518, -97.9289, 142.517
9.20043, 105, 11.3763, 13.6145, 17.3324, -145.518, -97.9287, 142.517
9.20736, 105, 11.3763, 13.6147, 17.3324, -145.518, -97.9285, 142.517
9.21537, 105, 11.3763, 13.6147, 17.3325, -145.518, -97.9284, 142.517
9.22555, 105, 11.3763, 13.6148, 17.3325, -145.518, -97.9282, 142.517
