hehonglu123/Motion-Primitive-Planning/ILC/recorded_data/realrobot/wood/iteration_16/run_0.csv
timestamp, cmd_num, J1, J2, J3, J4, J5, J6
0.000377, -1, 11.3761, 13.6137, 17.3367, -145.52, -97.9259, 142.515
0.00442, -1, 11.3761, 13.6137, 17.3367, -145.52, -97.9259, 142.515
0.007844, -1, 11.3761, 13.6137, 17.3367, -145.52, -97.9259, 142.515
0.028503, -1, 11.3761, 13.6137, 17.3366, -145.52, -97.9259, 142.515
0.031174, -1, 11.3761, 13.6137, 17.3367, -145.52, -97.9259, 142.515
0.03365, -1, 11.3761, 13.6137, 17.3367, -145.52, -97.9259, 142.515
0.03969, -1, 11.3761, 13.6137, 17.3367, -145.52, -97.9259, 142.515
0.048679, -1, 11.3761, 13.6137, 17.3366, -145.52, -97.9259, 142.515
0.055698, -1, 11.3755, 13.6136, 17.3366, -145.52, -97.9259, 142.515
0.063612, -1, 11.3729, 13.6134, 17.3366, -145.52, -97.9259, 142.515
0.071644, -1, 11.3665, 13.6127, 17.3362, -145.52, -97.9259, 142.515
0.079688, -1, 11.3555, 13.6109, 17.3356, -145.52, -97.9259, 142.514
0.08766, -1, 11.338, 13.6074, 17.3347, -145.521, -97.9258, 142.506
0.095623, -1, 11.3112, 13.6015, 17.3337, -145.525, -97.9252, 142.485
0.103733, -1, 11.2729, 13.5922, 17.333, -145.532, -97.9236, 142.445
0.111622, -1, 11.2227, 13.5798, 17.333, -145.543, -97.9204, 142.38
0.119622, -1, 11.1611, 13.5643, 17.3345, -145.56, -97.9149, 142.285
0.128084, -1, 11.0878, 13.5451, 17.3384, -145.583, -97.9073, 142.153
0.135621, -1, 11.0026, 13.522, 17.3446, -145.612, -97.8971, 141.988
0.143618, -1, 10.9058, 13.4956, 17.353, -145.646, -97.885, 141.79
0.152421, -1, 10.7983, 13.4657, 17.3633, -145.685, -97.8712, 141.564
0.159654, -1, 10.6798, 13.4328, 17.3744, -145.727, -97.8564, 141.318
0.167635, -1, 10.5507, 13.397, 17.3855, -145.772, -97.8409, 141.057
0.176413, -1, 10.4126, 13.3589, 17.3962, -145.818, -97.825, 140.788
0.183616, -1, 10.2678, 13.3192, 17.4063, -145.865, -97.8088, 140.513
0.191619, -1, 10.1183, 13.2787, 17.4162, -145.912, -97.7922, 140.236
0.200434, -1, 9.96594, 13.2375, 17.4263, -145.96, -97.7752, 139.958
0.207648, -1, 9.81123, 13.196, 17.4363, -146.008, -97.7579, 139.679
0.215624, -1, 9.65569, 13.1545, 17.4463, -146.056, -97.7406, 139.399
0.224582, -1, 9.5005, 13.1131, 17.4563, -146.104, -97.7236, 139.12
0.231715, -1, 9.34575, 13.0718, 17.4661, -146.152, -97.7068, 138.84
0.239714, -1, 9.19131, 13.0306, 17.4761, -146.2, -97.6899, 138.561
0.249163, -1, 9.03735, 12.9894, 17.4861, -146.248, -97.6731, 138.281
0.255412, -1, 8.88367, 12.9483, 17.4962, -146.297, -97.6562, 138.001
0.263802, -1, 8.7301, 12.9071, 17.5064, -146.344, -97.6391, 137.721
0.272175, -1, 8.57709, 12.8659, 17.5165, -146.392, -97.6216, 137.441
0.279628, -1, 8.42429, 12.8246, 17.5266, -146.441, -97.604, 137.16
0.287702, -1, 8.27129, 12.7832, 17.5368, -146.488, -97.5867, 136.88
0.296276, -1, 8.11783, 12.7416, 17.547, -146.536, -97.5696, 136.6
0.303832, -1, 7.96391, 12.7, 17.5573, -146.585, -97.5528, 136.32
0.311773, -1, 7.80934, 12.6583, 17.5674, -146.632, -97.5361, 136.04
0.321339, -1, 7.65448, 12.6165, 17.5775, -146.68, -97.5194, 135.759
0.327865, -1, 7.49948, 12.5749, 17.5878, -146.729, -97.5026, 135.479
0.336038, -1, 7.34437, 12.5334, 17.5979, -146.776, -97.4855, 135.199
0.343985, -1, 7.18933, 12.4918, 17.6082, -146.824, -97.4681, 134.918
0.352175, -1, 7.03427, 12.4504, 17.6185, -146.873, -97.4508, 134.638
0.360426, -1, 6.87906, 12.4091, 17.6288, -146.921, -97.4337, 134.358
0.5003, -1, 4.24227, 11.7038, 17.8055, -147.74, -97.1429, 129.585
0.503026, -1, 4.16466, 11.6831, 17.8107, -147.764, -97.1344, 129.444
0.504235, -1, 4.16466, 11.6831, 17.8107, -147.764, -97.1344, 129.444
0.506292, -1, 4.08716, 11.6624, 17.8159, -147.788, -97.1259, 129.303
0.507583, -1, 4.08716, 11.6624, 17.8159, -147.788, -97.1259, 129.303
0.509444, -1, 4.00978, 11.6417, 17.8211, -147.812, -97.1175, 129.163
0.51086, -1, 4.00978, 11.6417, 17.8211, -147.812, -97.1175, 129.163
0.514604, -1, 3.93249, 11.621, 17.8263, -147.836, -97.109, 129.022
0.515845, -1, 3.93249, 11.621, 17.8263, -147.836, -97.109, 129.022
0.518114, -1, 3.85526, 11.6003, 17.8315, -147.86, -97.1006, 128.882
0.51943, -1, 3.85526, 11.6003, 17.8315, -147.86, -97.1006, 128.882
0.521222, -1, 3.85526, 11.5796, 17.8367, -147.885, -97.0922, 128.741
0.522679, -1, 3.7781, 11.5796, 17.8367, -147.885, -97.0922, 128.741
0.523954, -1, 3.7781, 11.5796, 17.8367, -147.885, -97.0922, 128.741
0.526657, -1, 3.70092, 11.5588, 17.8419, -147.909, -97.0837, 128.6
0.528442, -1, 3.70092, 11.5588, 17.8419, -147.909, -97.0837, 128.6
0.530449, -1, 3.62368, 11.538, 17.847, -147.933, -97.0752, 128.46
0.531719, -1, 3.62368, 11.538, 17.847, -147.933, -97.0752, 128.46
0.533597, -1, 3.54642, 11.5172, 17.8522, -147.957, -97.0667, 128.319
0.535024, -1, 3.54642, 11.5172, 17.8522, -147.957, -97.0667, 128.319
0.536226, -1, 3.54642, 11.5172, 17.8522, -147.957, -97.0667, 128.319
0.539259, -1, 3.46913, 11.4964, 17.8574, -147.981, -97.0581, 128.178
0.544634, -1, 3.39181, 11.4756, 17.8626, -148.005, -97.0494, 128.037
0.55161, -1, 3.23687, 11.4339, 17.8731, -148.054, -97.0318, 127.756
0.559651, -1, 3.08171, 11.3922, 17.8836, -148.102, -97.0142, 127.474
0.567646, -1, 2.92638, 11.3504, 17.894, -148.15, -96.997, 127.193
0.575612, -1, 2.77085, 11.3088, 17.9044, -148.198, -96.98, 126.911
0.583643, -1, 2.61496, 11.267, 17.9147, -148.246, -96.9632, 126.629
0.591628, -1, 2.45882, 11.2253, 17.9252, -148.295, -96.9464, 126.348
0.599609, -1, 2.3024, 11.1836, 17.9356, -148.343, -96.9296, 126.065
0.607719, -1, 2.14576, 11.1419, 17.946, -148.391, -96.9125, 125.784
0.615607, -1, 1.98896, 11.1001, 17.9565, -148.44, -96.8951, 125.502
0.62362, -1, 1.83237, 11.0585, 17.9669, -148.488, -96.8776, 125.22
0.631676, -1, 1.67599, 11.0168, 17.9773, -148.536, -96.8602, 124.938
0.639732, -1, 1.51969, 10.9751, 17.9879, -148.585, -96.8432, 124.656
0.647608, -1, 1.36371, 10.9335, 17.9983, -148.634, -96.8262, 124.375
0.6556, -1, 1.20795, 10.8918, 18.0087, -148.682, -96.8093, 124.092
0.792837, -1, -1.44667, 10.1811, 18.186, -149.507, -96.5182, 119.285
0.794137, -1, -1.44667, 10.1811, 18.186, -149.507, -96.5182, 119.285
0.796096, -1, -1.52505, 10.1602, 18.1912, -149.531, -96.5098, 119.144
0.797507, -1, -1.52505, 10.1602, 18.1912, -149.531, -96.5098, 119.144
0.798723, -1, -1.52505, 10.1602, 18.1912, -149.531, -96.5098, 119.144
0.800769, -1, -1.60326, 10.1393, 18.1965, -149.555, -96.5014, 119.002
0.802007, -1, -1.60326, 10.1393, 18.1965, -149.555, -96.5014, 119.002
0.809636, -1, -1.75941, 10.0975, 18.207, -149.604, -96.4843, 118.719
0.811621, -1, -1.83733, 10.0766, 18.2122, -149.628, -96.4757, 118.577
0.812996, -1, -1.83733, 10.0766, 18.2122, -149.628, -96.4757, 118.577
0.814212, -1, -1.83733, 10.0766, 18.2122, -149.628, -96.4757, 118.577
0.816241, -1, -1.91516, 10.0557, 18.2174, -149.652, -96.467, 118.435
0.817634, -1, -1.91516, 10.0557, 18.2174, -149.652, -96.467, 118.435
0.818877, -1, -1.91516, 10.0557, 18.2174, -149.652, -96.467, 118.435
0.820923, -1, -1.99291, 10.0348, 18.2227, -149.677, -96.4582, 118.294
0.822192, -1, -1.99291, 10.0348, 18.2227, -149.677, -96.4582, 118.294
0.824261, -1, -2.07053, 10.0138, 18.2279, -149.701, -96.4493, 118.152
0.825487, -1, -2.07053, 10.0138, 18.2279, -149.701, -96.4493, 118.152
0.826743, -1, -2.07053, 10.0138, 18.2279, -149.701, -96.4493, 118.152
0.830205, -1, -2.14809, 9.99291, 18.2331, -149.726, -96.4405, 118.01
0.832376, -1, -2.22564, 9.97199, 18.2383, -149.75, -96.4318, 117.868
0.833645, -1, -2.22564, 9.97199, 18.2383, -149.75, -96.4318, 117.868
0.841721, -1, -2.38084, 9.93011, 18.2487, -149.798, -96.4144, 117.585
0.848044, -1, -2.53641, 9.88813, 18.2592, -149.847, -96.3974, 117.301
0.854624, -1, -2.61427, 9.86717, 18.2644, -149.871, -96.389, 117.159
0.864105, -1, -2.84841, 9.80429, 18.28, -149.944, -96.3638, 116.733
0.872224, -1, -3.00507, 9.7623, 18.2903, -149.993, -96.3468, 116.45
0.880238, -1, -3.1621, 9.72038, 18.3007, -150.042, -96.3296, 116.166
0.888162, -1, -3.31944, 9.67843, 18.3112, -150.09, -96.3121, 115.882
0.896226, -1, -3.47724, 9.63639, 18.3217, -150.138, -96.2945, 115.598
0.904373, -1, -3.55616, 9.61542, 18.327, -150.163, -96.2771, 115.314
0.911589, -1, -3.71402, 9.57358, 18.3374, -150.212, -96.2685, 115.172
0.919647, -1, -3.87205, 9.5316, 18.3477, -150.26, -96.2514, 114.888
0.927639, -1, -4.03001, 9.48961, 18.3581, -150.309, -96.2344, 114.603
0.935594, -1, -4.18784, 9.44772, 18.3685, -150.358, -96.2174, 114.319
0.943691, -1, -4.34564, 9.40575, 18.3789, -150.407, -96.2003, 114.035
0.951601, -1, -4.50312, 9.36375, 18.3892, -150.456, -96.1829, 113.75
0.959606, -1, -4.66009, 9.32178, 18.3996, -150.505, -96.1652, 113.465
0.967638, -1, -4.81666, 9.27975, 18.41, -150.553, -96.1475, 113.181
0.975595, -1, -4.97295, 9.23766, 18.4206, -150.602, -96.13, 112.896
0.983584, -1, -5.12895, 9.19564, 18.4311, -150.651, -96.1128, 112.611
0.991639, -1, -5.28483, 9.15353, 18.4417, -150.699, -96.0957, 112.327
0.999698, -1, -5.44082, 9.11135, 18.4522, -150.749, -96.0789, 112.042
1.00761, -1, -5.597, 9.06927, 18.4626, -150.797, -96.0619, 111.757
1.01566, -1, -5.75345, 9.02716, 18.4731, -150.846, -96.0448, 111.472
1.02361, -1, -5.91036, 8.98498, 18.4835, -150.895, -96.0274, 111.187
1.03315, -1, -6.06779, 8.94284, 18.4938, -150.944, -96.0097, 110.76
1.0396, -1, -6.22582, 8.90072, 18.5042, -150.992, -95.9921, 110.617
1.04865, -1, -6.38411, 8.85861, 18.5146, -151.042, -95.9749, 110.332
1.0557, -1, -6.54254, 8.81656, 18.5249, -151.091, -95.9578, 110.047
1.06361, -1, -6.70115, 8.77443, 18.5355, -151.139, -95.9407, 109.761
1.0716, -1, -6.85989, 8.73231, 18.546, -151.189, -95.9238, 109.476
1.07965, -1, -7.01842, 8.69026, 18.5565, -151.238, -95.9067, 109.19
1.0876, -1, -7.17693, 8.64814, 18.567, -151.286, -95.8892, 108.905
1.09569, -1, -7.33526, 8.60598, 18.5773, -151.336, -95.8715, 108.619
1.1036, -1, -7.49329, 8.56371, 18.5879, -151.385, -95.8537, 108.333
1.11162, -1, -7.65093, 8.52141, 18.5984, -151.434, -95.8362, 108.048
1.1197, -1, -7.80827, 8.47914, 18.6088, -151.483, -95.819, 107.762
1.1276, -1, -7.96519, 8.43688, 18.6192, -151.532, -95.8019, 107.476
1.13559, -1, -8.12178, 8.39455, 18.6296, -151.581, -95.785, 107.19
1.14409, -1, -8.27833, 8.35223, 18.6401, -151.63, -95.768, 106.905
1.15069, -1, -8.435, 8.30988, 18.6507, -151.679, -95.7508, 106.619
1.15959, -1, -8.59202, 8.26752, 18.6612, -151.728, -95.7333, 106.333
1.16844, -1, -8.74937, 8.22524, 18.6717, -151.777, -95.7156, 106.046
1.17558, -1, -8.90709, 8.18293, 18.682, -151.826, -95.698, 105.76
1.18361, -1, -9.06523, 8.14063, 18.6925, -151.875, -95.6807, 105.474
1.19239, -1, -9.22376, 8.09841, 18.703, -151.925, -95.6635, 105.187
1.1996, -1, -9.38266, 8.05612, 18.7134, -151.973, -95.6464, 104.9
1.20775, -1, -9.54178, 8.0138, 18.7239, -152.023, -95.6293, 104.613
1.21643, -1, -9.70092, 7.97162, 18.7344, -152.072, -95.612, 104.326
1.2236, -1, -9.86017, 7.92937, 18.7449, -152.121, -95.5944, 104.039
1.23186, -1, -10.0196, 7.88702, 18.7555, -152.171, -95.5765, 103.752
1.24045, -1, -10.1787, 7.8446, 18.7661, -152.22, -95.5587, 103.465
1.24771, -1, -10.3378, 7.80211, 18.7767, -152.269, -95.5411, 103.179
1.25601, -1, -10.4967, 7.75962, 18.7873, -152.319, -95.5239, 102.891
1.26451, -1, -10.6553, 7.71718, 18.7977, -152.368, -95.5069, 102.604
1.27169, -1, -10.8134, 7.67467, 18.8082, -152.417, -95.4899, 102.318
1.28023, -1, -10.9712, 7.63209, 18.8187, -152.466, -95.4728, 102.03
1.2885, -1, -11.1288, 7.5896, 18.8291, -152.516, -95.4554, 101.743
1.29562, -1, -11.2862, 7.54716, 18.8396, -152.565, -95.4377, 101.455
1.30443, -1, -11.4436, 7.50471, 18.8501, -152.614, -95.4199, 101.168
1.31262, -1, -11.6013, 7.46222, 18.8606, -152.664, -95.4023, 100.881
1.31985, -1, -11.7591, 7.41981, 18.8713, -152.712, -95.3849, 100.593
1.32874, -1, -11.9175, 7.37742, 18.8818, -152.762, -95.3676, 100.305
1.33664, -1, -12.0762, 7.33505, 18.8924, -152.812, -95.3504, 100.017
1.344, -1, -12.2354, 7.29267, 18.9029, -152.861, -95.3332, 99.7296
1.35277, -1, -12.3949, 7.25025, 18.9134, -152.911, -95.3158, 99.4415
1.36005, -1, -12.5548, 7.20788, 18.9239, -152.96, -95.298, 99.1535
1.36842, -1, -12.7148, 7.16551, 18.9344, -153.009, -95.28, 98.8657
1.37615, -1, -12.875, 7.12305, 18.945, -153.059, -95.2622, 98.5778
1.38494, -1, -13.035, 7.08054, 18.9556, -153.108, -95.2446, 98.2897
1.39219, -1, -13.195, 7.03796, 18.9661, -153.158, -95.2272, 98.0017
1.40016, -1, -13.2749, 7.01667, 18.9767, -153.207, -95.2101, 97.7137
1.40894, -1, -13.4346, 6.97404, 18.982, -153.232, -95.2015, 97.4252
1.41633, -1, -13.5939, 6.93129, 18.9925, -153.281, -95.1843, 97.2808
1.42359, -1, -13.753, 6.88858, 19.0031, -153.331, -95.167, 96.9922
1.4316, -1, -13.9119, 6.8459, 19.0136, -153.38, -95.1493, 96.7039
1.43965, -1, -14.0702, 6.80321, 19.0241, -153.429, -95.1314, 96.4153
1.44767, -1, -14.2283, 6.76059, 19.0347, -153.479, -95.1138, 96.1263
1.45557, -1, -14.3865, 6.71793, 19.0451, -153.528, -95.0963, 95.8371
1.46364, -1, -14.5448, 6.67524, 19.0557, -153.578, -95.079, 95.5482
1.47157, -1, -14.7034, 6.6327, 19.0662, -153.628, -95.0618, 95.259
1.47958, -1, -14.8625, 6.59019, 19.0768, -153.677, -95.0447, 94.9696
1.48764, -1, -15.0218, 6.54753, 19.0875, -153.726, -95.0272, 94.6805
1.49557, -1, -15.1817, 6.50494, 19.0983, -153.776, -95.0095, 94.3914
1.50363, -1, -15.3418, 6.46236, 19.1089, -153.826, -94.9915, 94.1023
1.51157, -1, -15.5022, 6.41967, 19.1196, -153.875, -94.9735, 93.8128
1.51958, -1, -15.6629, 6.37701, 19.1301, -153.925, -94.9558, 93.5235
1.52766, -1, -15.8236, 6.33428, 19.1408, -153.975, -94.9385, 93.2342
1.53558, -1, -15.9844, 6.2914, 19.1514, -154.025, -94.9214, 92.9446
1.54457, -1, -16.1453, 6.24858, 19.162, -154.074, -94.9041, 92.6548
1.55164, -1, -16.306, 6.20569, 19.1725, -154.124, -94.8868, 92.3654
1.56062, -1, -16.4665, 6.16266, 19.183, -154.173, -94.8694, 92.0759
1.56758, -1, -16.6268, 6.11969, 19.1935, -154.223, -94.8515, 91.7858
1.57564, -1, -16.7867, 6.07672, 19.2042, -154.273, -94.8336, 91.4956
1.58358, -1, -16.9461, 6.03374, 19.2148, -154.323, -94.816, 91.2055
1.59157, -1, -17.1054, 5.9908, 19.2255, -154.372, -94.7985, 90.9153
1.59966, -1, -17.2645, 5.94787, 19.236, -154.422, -94.7811, 90.6249
1.60758, -1, -17.4235, 5.90504, 19.2466, -154.472, -94.7639, 90.3344
1.61561, -1, -17.5829, 5.86222, 19.2574, -154.522, -94.7466, 90.0443
1.62365, -1, -17.7422, 5.81941, 19.268, -154.571, -94.7289, 89.754
1.63158, -1, -17.9019, 5.77663, 19.2787, -154.621, -94.711, 89.4638
1.63963, -1, -18.0619, 5.73386, 19.2893, -154.671, -94.6928, 89.1732
1.64758, -1, -18.2224, 5.69111, 19.2999, -154.721, -94.6749, 88.8829
1.65557, -1, -18.3833, 5.64833, 19.3106, -154.771, -94.6573, 88.5921
1.66365, -1, -18.5447, 5.6054, 19.3214, -154.821, -94.6399, 88.3009
1.67159, -1, -18.7063, 5.56242, 19.332, -154.871, -94.6227, 88.0103
1.67957, -1, -18.8679, 5.51949, 19.3427, -154.921, -94.6054, 87.7194
1.68764, -1, -19.0296, 5.47644, 19.3532, -154.971, -94.5878, 87.4282
1.69559, -1, -19.1911, 5.43328, 19.3638, -155.02, -94.57, 87.1368
1.70358, -1, -19.3526, 5.39012, 19.3744, -155.071, -94.5519, 86.8453
1.71163, -1, -19.5139, 5.34697, 19.385, -155.12, -94.5339, 86.5539
1.71965, -1, -19.6748, 5.30373, 19.3957, -155.17, -94.5161, 86.2622
1.72766, -1, -19.8355, 5.26058, 19.4063, -155.221, -94.4986, 85.9703
1.73561, -1, -19.996, 5.21741, 19.417, -155.27, -94.4812, 85.6788
1.74366, -1, -20.156, 5.17424, 19.4278, -155.32, -94.4638, 85.3874
1.75215, -1, -20.3158, 5.1313, 19.4386, -155.371, -94.4463, 85.0956
1.75974, -1, -20.4757, 5.08828, 19.4495, -155.42, -94.4284, 84.8037
1.76769, -1, -20.6358, 5.04518, 19.4602, -155.471, -94.4103, 84.512
1.7762, -1, -20.7961, 5.00227, 19.4709, -155.521, -94.3923, 84.2201
1.78367, -1, -20.9568, 4.95925, 19.4816, -155.571, -94.3744, 83.928
1.79158, -1, -21.1178, 4.91613, 19.4922, -155.621, -94.357, 83.6358
1.8005, -1, -21.2793, 4.87305, 19.5029, -155.672, -94.3397, 83.3439
1.80761, -1, -21.4413, 4.82984, 19.5135, -155.722, -94.3225, 83.0516
1.81574, -1, -21.6035, 4.78656, 19.5242, -155.772, -94.3051, 82.7591
1.8246, -1, -21.7658, 4.74337, 19.535, -155.822, -94.2875, 82.4666
1.83177, -1, -21.9282, 4.69999, 19.5458, -155.872, -94.2695, 82.1741
1.83994, -1, -22.0907, 4.65659, 19.5566, -155.922, -94.2515, 81.8814
1.8488, -1, -22.2532, 4.61326, 19.5672, -155.973, -94.2337, 81.5884
1.85597, -1, -22.4156, 4.5698, 19.5779, -156.023, -94.2162, 81.2957
1.86413, -1, -22.5776, 4.52639, 19.5887, -156.073, -94.1986, 81.0032
1.87299, -1, -22.7393, 4.48293, 19.5993, -156.123, -94.1812, 80.7103
1.88029, -1, -22.9006, 4.4395, 19.61, -156.173, -94.1636, 80.4172
1.88819, -1, -23.0617, 4.39617, 19.6207, -156.224, -94.1458, 80.1243
1.89698, -1, -23.2228, 4.35282, 19.6314, -156.274, -94.1276, 79.8312
1.90417, -1, -23.3032, 4.33113, 19.6368, -156.324, -94.1093, 79.5377
1.9122, -1, -23.4641, 4.28784, 19.6477, -156.35, -94.0913, 79.2442
1.9211, -1, -23.6251, 4.24455, 19.6585, -156.4, -94.0823, 78.951
1.92665, -1, -23.7862, 4.20127, 19.6693, -156.45, -94.0647, 78.8043
1.9366, -1, -24.0283, 4.13628, 19.6853, -156.526, -94.0385, 78.3636
1.94357, -1, -24.1092, 4.11459, 19.6907, -156.551, -94.0298, 78.2167
1.95058, -1, -24.2713, 4.07121, 19.7015, -156.602, -94.0122, 77.9228
1.95965, -1, -24.434, 4.02777, 19.7121, -156.652, -93.9944, 77.6287
1.96757, -1, -24.597, 3.98421, 19.7228, -156.702, -93.9763, 77.3344
1.97457, -1, -24.7602, 3.94064, 19.7335, -156.753, -93.9582, 77.0402
1.98356, -1, -24.9235, 3.89709, 19.7442, -156.803, -93.9403, 76.7464
1.99157, -1, -25.0869, 3.85351, 19.7551, -156.853, -93.9227, 76.4523
1.99969, -1, -25.2502, 3.8099, 19.766, -156.904, -93.9052, 76.1578
2.0076, -1, -25.4133, 3.76627, 19.7769, -156.955, -93.8877, 75.8635
2.01557, -1, -25.5761, 3.7226, 19.7876, -157.005, -93.87, 75.5692
2.02363, -1, -25.7388, 3.67895, 19.7983, -157.055, -93.852, 75.2747
2.03158, -1, -25.9013, 3.63546, 19.8091, -157.106, -93.8338, 74.9799
2.03964, -1, -26.0634, 3.59189, 19.8199, -157.156, -93.8154, 74.6853
2.04856, -1, -26.2252, 3.5484, 19.8307, -157.207, -93.7973, 74.3908
2.05556, -1, -26.3867, 3.50502, 19.8414, -157.258, -93.7795, 74.096
2.06457, -1, -26.5485, 3.46154, 19.8521, -157.308, -93.7618, 73.8007
2.07156, -1, -26.7104, 3.41805, 19.863, -157.359, -93.7442, 73.5055
2.07963, -1, -26.8726, 3.37456, 19.8739, -157.41, -93.7265, 73.2103
2.08885, -1, -27.0352, 3.33097, 19.8847, -157.46, -93.7086, 72.9149
2.09557, -1, -27.198, 3.28738, 19.8955, -157.511, -93.6903, 72.6194
2.10364, -1, -27.3613, 3.24374, 19.9062, -157.561, -93.672, 72.3241
2.11156, -1, -27.525, 3.19991, 19.917, -157.612, -93.654, 72.0287
2.11965, -1, -27.6889, 3.15616, 19.9279, -157.663, -93.6361, 71.7331
2.12763, -1, -27.8529, 3.1125, 19.9386, -157.713, -93.6184, 71.4374
2.13557, -1, -28.0171, 3.06874, 19.9494, -157.764, -93.6007, 71.1419
2.14356, -1, -28.1813, 3.02501, 19.9601, -157.815, -93.583, 70.8462
2.15163, -1, -28.3455, 2.98127, 19.971, -157.865, -93.5649, 70.5499
2.15961, -1, -28.5095, 2.93753, 19.9819, -157.916, -93.5465, 70.2541
2.16755, -1, -28.6733, 2.89387, 19.9927, -157.967, -93.528, 69.9582
2.17567, -1, -28.8368, 2.85016, 20.0036, -158.017, -93.5098, 69.6619
2.18355, -1, -28.9999, 2.80647, 20.0143, -158.069, -93.4918, 69.3654
2.19156, -1, -29.1626, 2.76285, 20.0251, -158.12, -93.4741, 69.0691
2.19972, -1, -29.3254, 2.71917, 20.0359, -158.17, -93.4565, 68.7724
2.20757, -1, -29.4881, 2.67546, 20.0467, -158.221, -93.4388, 68.4756
2.21556, -1, -29.6509, 2.63171, 20.0575, -158.272, -93.4208, 68.1787
2.22364, -1, -29.8139, 2.58791, 20.0684, -158.323, -93.4025, 67.8822
2.23162, -1, -29.9769, 2.54416, 20.0793, -158.374, -93.3841, 67.5855
2.23966, -1, -30.1403, 2.50029, 20.0903, -158.425, -93.3659, 67.2885
2.24772, -1, -30.3041, 2.45629, 20.1012, -158.476, -93.3479, 66.9914
2.25566, -1, -30.4684, 2.41234, 20.1122, -158.527, -93.3301, 66.6945
2.26367, -1, -30.6331, 2.36832, 20.123, -158.578, -93.3123, 66.3975
2.27177, -1, -30.7981, 2.32435, 20.1338, -158.629, -93.2945, 66.1
2.27972, -1, -30.9632, 2.28041, 20.1447, -158.68, -93.2765, 65.8028
2.28772, -1, -31.1283, 2.23635, 20.1556, -158.731, -93.258, 65.5055
2.29569, -1, -31.2934, 2.19242, 20.1664, -158.782, -93.2395, 65.2081
2.3036, -1, -31.4583, 2.14857, 20.1772, -158.833, -93.2212, 64.9104
2.31164, -1, -31.6229, 2.10455, 20.188, -158.884, -93.2031, 64.6126
2.31974, -1, -31.7875, 2.06061, 20.199, -158.935, -93.1854, 64.3148
2.32771, -1, -31.9517, 2.01673, 20.2099, -158.987, -93.1678, 64.0166
2.33594, -1, -32.1157, 1.97272, 20.2209, -159.037, -93.1501, 63.7184
2.34392, -1, -32.2793, 1.92875, 20.2318, -159.089, -93.1322, 63.4208
2.35192, -1, -32.4428, 1.88474, 20.2427, -159.14, -93.1141, 63.1228
2.36012, -1, -32.6065, 1.84061, 20.2537, -159.191, -93.0957, 62.8245
2.36883, -1, -32.7703, 1.79655, 20.2646, -159.243, -93.0774, 62.5261
2.37608, -1, -32.9343, 1.75244, 20.2755, -159.294, -93.0594, 62.2279
2.38429, -1, -33.0987, 1.70821, 20.2864, -159.345, -93.0415, 61.9294
2.39302, -1, -33.2633, 1.66403, 20.2972, -159.396, -93.0238, 61.6305
2.40017, -1, -33.4283, 1.61983, 20.3082, -159.447, -93.0059, 61.3319
2.40819, -1, -33.511, 1.5756, 20.3192, -159.499, -92.9878, 61.0335
2.41555, -1, -33.6766, 1.55349, 20.3247, -159.524, -92.9786, 60.8841
2.42356, -1, -33.8424, 1.5093, 20.3356, -159.575, -92.96, 60.5849
2.43162, -1, -34.0083, 1.4651, 20.3464, -159.627, -92.9414, 60.2858
2.43962, -1, -34.1743, 1.42096, 20.3573, -159.678, -92.923, 59.9866
2.44757, -1, -34.3404, 1.3768, 20.3683, -159.73, -92.905, 59.6872
2.45564, -1, -34.5064, 1.33262, 20.3792, -159.781, -92.8872, 59.3875
2.46355, -1, -34.6721, 1.28846, 20.3901, -159.833, -92.8693, 59.0881
2.47158, -1, -34.8374, 1.24428, 20.401, -159.884, -92.8515, 58.7889
2.47966, -1, -35.0024, 1.20004, 20.412, -159.935, -92.8333, 58.4892
2.48755, -1, -35.1672, 1.15578, 20.4231, -159.987, -92.8148, 58.1895
2.49552, -1, -35.3317, 1.11151, 20.4342, -160.038, -92.7962, 57.8898
2.5036, -1, -35.4956, 1.06738, 20.4453, -160.09, -92.7779, 57.59
2.51168, -1, -35.6579, 1.02357, 20.4565, -160.141, -92.7598, 57.2901
2.51962, -1, -35.8174, 0.980364, 20.468, -160.192, -92.7419, 56.9916
2.52763, -1, -35.973, 0.938293, 20.4799, -160.242, -92.7241, 56.6963
2.53557, -1, -36.1235, 0.897832, 20.4918, -160.292, -92.7066, 56.4072
2.54355, -1, -36.2662, 0.859578, 20.5037, -160.339, -92.6895, 56.1281
2.55257, -1, -36.3993, 0.824265, 20.5152, -160.384, -92.673, 55.8654
2.55966, -1, -36.5213, 0.791985, 20.5259, -160.425, -92.6578, 55.6255
2.56755, -1, -36.6305, 0.763124, 20.5351, -160.46, -92.6446, 55.4138
2.57563, -1, -36.7253, 0.73803, 20.5424, -160.49, -92.6335, 55.2352
2.58355, -1, -36.8054, 0.716787, 20.5475, -160.515, -92.6248, 55.0919
2.59157, -1, -36.8717, 0.69931, 20.5504, -160.534, -92.6183, 54.9832
2.59966, -1, -36.9249, 0.685304, 20.5517, -160.547, -92.6138, 54.9064
2.60757, -1, -36.9655, 0.674442, 20.5521, -160.556, -92.611, 54.8544
2.61551, -1, -36.9951, 0.666656, 20.5518, -160.562, -92.6093, 54.8229
2.62365, -1, -37.0155, 0.661572, 20.5514, -160.565, -92.6084, 54.805
2.63157, -1, -37.0279, 0.658521, 20.551, -160.567, -92.6079, 54.796
2.63962, 2, -37.0346, 0.656903, 20.5508, -160.568, -92.6077, 54.7917
2.64762, 2, -37.0368, 0.656173, 20.5508, -160.568, -92.6076, 54.7898
2.65554, 2, -37.0366, 0.655869, 20.5507, -160.568, -92.6076, 54.7889
2.66355, 2, -37.0359, 0.655742, 20.5507, -160.568, -92.6076, 54.7886
2.67163, 2, -37.0357, 0.655684, 20.5507, -160.568, -92.6076, 54.7884
2.67964, 2, -37.0361, 0.655634, 20.5506, -160.568, -92.6075, 54.7883
2.68756, 2, -37.0371, 0.655596, 20.5506, -160.568, -92.6076, 54.7883
2.69561, 2, -37.0382, 0.655484, 20.5504, -160.568, -92.6076, 54.7883
2.70357, 2, -37.0397, 0.655283, 20.5502, -160.568, -92.6076, 54.7883
2.71157, 2, -37.0411, 0.65501, 20.55, -160.568, -92.6076, 54.7885
2.71968, 2, -37.0423, 0.654748, 20.5499, -160.568, -92.6076, 54.7885
2.72756, 2, -37.0432, 0.654536, 20.5497, -160.568, -92.6077, 54.7886
2.73558, 2, -37.0437, 0.654426, 20.5494, -160.568, -92.6077, 54.7887
2.74366, 2, -37.0437, 0.654356, 20.5492, -160.568, -92.6078, 54.7888
2.75166, 2, -37.0432, 0.654357, 20.5491, -160.568, -92.6079, 54.789
2.75969, 2, -37.0424, 0.654393, 20.5491, -160.568, -92.6079, 54.7892
2.76772, 2, -37.0413, 0.654451, 20.549, -160.568, -92.6079, 54.7893
2.77567, 2, -37.0398, 0.654534, 20.549, -160.568, -92.608, 54.7895
2.78365, 2, -37.0384, 0.654615, 20.5488, -160.568, -92.608, 54.7897
2.79178, 2, -37.0373, 0.654641, 20.5488, -160.568, -92.608, 54.7898
2.79968, 2, -37.0366, 0.654646, 20.5487, -160.568, -92.608, 54.7899
2.8076, 2, -37.0364, 0.654629, 20.5487, -160.568, -92.608, 54.7899
2.81568, 2, -37.0364, 0.654591, 20.5487, -160.568, -92.6081, 54.7899
2.82366, 2, -37.0367, 0.654513, 20.5487, -160.568, -92.6081, 54.79
2.83175, 2, -37.0369, 0.654446, 20.5487, -160.568, -92.6081, 54.79
2.8399, 2, -37.0374, 0.654415, 20.5486, -160.568, -92.6081, 54.7901
2.84817, 2, -37.0381, 0.654401, 20.5486, -160.568, -92.6081, 54.7901
2.85591, 2, -37.0389, 0.654395, 20.5486, -160.568, -92.6081, 54.7901
2.86406, 2, -37.0396, 0.654421, 20.5486, -160.568, -92.6081, 54.7902
2.87245, 2, -37.04, 0.654422, 20.5486, -160.568, -92.6081, 54.7902
2.8801, 2, -37.0401, 0.654453, 20.5486, -160.568, -92.6082, 54.7904
2.88814, 2, -37.0402, 0.654475, 20.5486, -160.568, -92.6081, 54.7904
2.89656, 2, -37.0401, 0.65449, 20.5486, -160.568, -92.6081, 54.7904
2.90415, 2, -37.0399, 0.654497, 20.5486, -160.568, -92.6081, 54.7905
2.91223, 2, -37.0394, 0.6545, 20.5486, -160.568, -92.6081, 54.7905
2.92046, 2, -37.039, 0.654494, 20.5485, -160.568, -92.6081, 54.7905
2.92755, 2, -37.0389, 0.654482, 20.5485, -160.568, -92.6081, 54.7905
2.93559, 2, -37.0387, 0.654469, 20.5485, -160.568, -92.6081, 54.7906
2.94444, 2, -37.0387, 0.654444, 20.5485, -160.568, -92.6082, 54.7906
2.95155, 2, -37.0386, 0.65444, 20.5485, -160.568, -92.6082, 54.7907
2.9597, 2, -37.0387, 0.654442, 20.5485, -160.568, -92.6082, 54.7908
2.96753, 2, -37.0388, 0.654421, 20.5485, -160.568, -92.6082, 54.7908
2.97554, 2, -37.0388, 0.654433, 20.5485, -160.568, -92.6082, 54.7909
2.98359, 2, -37.0389, 0.654453, 20.5484, -160.568, -92.6083, 54.7908
2.99155, 2, -37.0392, 0.654473, 20.5484, -160.568, -92.6083, 54.7909
2.9996, 2, -37.0393, 0.654472, 20.5484, -160.568, -92.6083, 54.7909
3.00759, 2, -37.0394, 0.654488, 20.5484, -160.568, -92.6083, 54.791
3.01557, 2, -37.0395, 0.654496, 20.5484, -160.568, -92.6083, 54.7911
3.02353, 2, -37.0395, 0.6545, 20.5484, -160.568, -92.6083, 54.7912
3.03162, 2, -37.0395, 0.654489, 20.5484, -160.568, -92.6083, 54.7913
3.03961, 2, -37.0394, 0.654466, 20.5484, -160.568, -92.6083, 54.7913
3.04754, 2, -37.0394, 0.654443, 20.5484, -160.568, -92.6083, 54.7914
3.0556, 2, -37.0393, 0.654443, 20.5484, -160.568, -92.6083, 54.7913
3.0655, 2, -37.0393, 0.654461, 20.5483, -160.568, -92.6083, 54.7914
3.07155, 2, -37.0393, 0.654467, 20.5483, -160.568, -92.6083, 54.7914
3.07966, 2, -37.0393, 0.654467, 20.5483, -160.568, -92.6084, 54.7915
3.08755, 2, -37.0393, 0.654474, 20.5483, -160.568, -92.6084, 54.7915
3.09553, 2, -37.0393, 0.654484, 20.5483, -160.568, -92.6083, 54.7915
3.1036, 2, -37.0393, 0.654494, 20.5483, -160.568, -92.6084, 54.7916
3.11157, 2, -37.0393, 0.654499, 20.5483, -160.568, -92.6083, 54.7916
3.11959, 2, -37.0393, 0.654501, 20.5483, -160.568, -92.6084, 54.7917
3.12763, 2, -37.0393, 0.654502, 20.5483, -160.568, -92.6083, 54.7918
3.13553, 2, -37.0393, 0.654495, 20.5483, -160.568, -92.6083, 54.7918
3.14354, 2, -37.0393, 0.654474, 20.5483, -160.568, -92.6083, 54.7918
3.15162, 2, -37.0393, 0.654472, 20.5482, -160.568, -92.6084, 54.7919
3.15959, 2, -37.0393, 0.654481, 20.5482, -160.568, -92.6084, 54.7919
3.16754, 2, -37.0392, 0.654476, 20.5482, -160.568, -92.6084, 54.792
3.1756, 2, -37.0392, 0.654471, 20.5482, -160.568, -92.6084, 54.792
3.18357, 2, -37.0392, 0.654471, 20.5482, -160.568, -92.6084, 54.792
3.19155, 2, -37.0392, 0.654476, 20.5482, -160.568, -92.6084, 54.7921
3.19967, 2, -37.0392, 0.65449, 20.5482, -160.568, -92.6084, 54.7921
3.20755, 2, -37.0392, 0.654497, 20.5482, -160.568, -92.6084, 54.7921
3.21554, 2, -37.0392, 0.6545, 20.5482, -160.568, -92.6084, 54.7921
3.22361, 2, -37.0392, 0.654501, 20.5482, -160.568, -92.6084, 54.7922
3.23157, 2, -37.0392, 0.654502, 20.5482, -160.568, -92.6084, 54.7923
3.23962, 2, -37.0392, 0.654495, 20.5482, -160.568, -92.6084, 54.7924
3.24767, 2, -37.0392, 0.654494, 20.5481, -160.568, -92.6084, 54.7924
3.25562, 2, -37.0392, 0.654499, 20.5481, -160.568, -92.6084, 54.7924
3.26363, 2, -37.0392, 0.654489, 20.5481, -160.568, -92.6084, 54.7924
3.27171, 2, -37.0391, 0.654477, 20.5481, -160.568, -92.6084, 54.7924
3.27972, 2, -37.0391, 0.654486, 20.5481, -160.568, -92.6084, 54.7925
3.28764, 2, -37.0391, 0.654495, 20.5481, -160.568, -92.6084, 54.7925
3.29573, 2, -37.0391, 0.654492, 20.5481, -160.568, -92.6084, 54.7925
3.30356, 2, -37.0391, 0.654493, 20.5481, -160.568, -92.6084, 54.7925
3.31158, 2, -37.0391, 0.654498, 20.548, -160.568, -92.6084, 54.7925
3.3197, 2, -37.0391, 0.6545, 20.548, -160.568, -92.6084, 54.7925
3.32762, 2, -37.0391, 0.654502, 20.548, -160.568, -92.6084, 54.7926
3.33583, 2, -37.0391, 0.654502, 20.548, -160.568, -92.6084, 54.7926
3.34383, 2, -37.039, 0.654502, 20.548, -160.568, -92.6084, 54.7926
3.35198, 2, -37.039, 0.654502, 20.548, -160.568, -92.6084, 54.7926
3.36003, 2, -37.039, 0.654502, 20.548, -160.568, -92.6085, 54.7926
3.36652, 2, -37.039, 0.654495, 20.548, -160.568, -92.6085, 54.7926
3.37603, 2, -37.039, 0.654485, 20.548, -160.567, -92.6085, 54.7927
3.38412, 2, -37.0389, 0.654482, 20.548, -160.567, -92.6085, 54.7928
3.3921, 2, -37.0389, 0.654493, 20.548, -160.567, -92.6084, 54.7928
3.40057, 2, -37.0389, 0.654498, 20.548, -160.567, -92.6084, 54.7928
3.40818, 2, -37.0389, 0.654501, 20.548, -160.567, -92.6084, 54.7928
3.41616, 2, -37.0389, 0.654501, 20.548, -160.567, -92.6085, 54.7928
3.42352, 2, -37.0389, 0.65449, 20.548, -160.567, -92.6085, 54.7928
3.43154, 2, -37.0389, 0.654484, 20.548, -160.567, -92.6085, 54.7928
3.43963, 2, -37.0389, 0.654494, 20.5479, -160.567, -92.6085, 54.7928
3.44754, 2, -37.0389, 0.654499, 20.5479, -160.567, -92.6085, 54.7929
3.45553, 2, -37.0388, 0.654501, 20.5479, -160.567, -92.6085, 54.7929
3.46366, 2, -37.0388, 0.654502, 20.5479, -160.567, -92.6085, 54.7929
3.47154, 2, -37.0388, 0.654502, 20.5479, -160.567, -92.6085, 54.7929
3.47959, 2, -37.0388, 0.654502, 20.5479, -160.567, -92.6085, 54.7929
3.48758, 2, -37.0388, 0.654502, 20.5479, -160.567, -92.6085, 54.7929
3.49549, 2, -37.0388, 0.654502, 20.5479, -160.567, -92.6085, 54.7929
3.50352, 2, -37.0387, 0.654503, 20.5479, -160.567, -92.6085, 54.7929
3.51159, 2, -37.0387, 0.654503, 20.5479, -160.567, -92.6086, 54.793
3.51961, 2, -37.0387, 0.654503, 20.5479, -160.567, -92.6085, 54.793
3.52754, 2, -37.0387, 0.654503, 20.5479, -160.567, -92.6086, 54.793
3.53559, 2, -37.0387, 0.654503, 20.5479, -160.567, -92.6086, 54.793
3.54354, 2, -37.0387, 0.654503, 20.5479, -160.567, -92.6086, 54.793
3.55253, 2, -37.0387, 0.654503, 20.5478, -160.567, -92.6086, 54.793
3.55964, 2, -37.0387, 0.654503, 20.5478, -160.567, -92.6085, 54.7931
3.5686, 2, -37.0387, 0.654503, 20.5478, -160.567, -92.6086, 54.7931
3.57552, 2, -37.0387, 0.654503, 20.5478, -160.567, -92.6086, 54.7931
3.58359, 2, -37.0386, 0.654503, 20.5478, -160.567, -92.6086, 54.7931
3.59164, 2, -37.0386, 0.654503, 20.5478, -160.567, -92.6086, 54.7931
3.59959, 2, -37.0386, 0.654503, 20.5478, -160.567, -92.6086, 54.7931
3.60759, 2, -37.0386, 0.654503, 20.5478, -160.567, -92.6086, 54.7931
3.61554, 2, -37.0386, 0.654503, 20.5478, -160.567, -92.6086, 54.793
3.62352, 2, -37.0386, 0.654503, 20.5478, -160.567, -92.6086, 54.7931
3.63163, 2, -37.0386, 0.654503, 20.5478, -160.567, -92.6087, 54.7931
3.63972, 2, -37.0385, 0.654503, 20.5478, -160.567, -92.6086, 54.7931
3.64851, 2, -37.0386, 0.654503, 20.5478, -160.567, -92.6086, 54.7931
3.65559, 2, -37.0386, 0.654503, 20.5478, -160.567, -92.6086, 54.7931
3.66352, 2, -37.0386, 0.654503, 20.5478, -160.567, -92.6086, 54.7931
3.67154, 2, -37.0385, 0.654503, 20.5478, -160.567, -92.6086, 54.7931
3.67963, 2, -37.0385, 0.654503, 20.5478, -160.567, -92.6086, 54.7931
3.68752, 2, -37.0385, 0.654521, 20.5477, -160.567, -92.6086, 54.7931
3.69552, 2, -37.0385, 0.654511, 20.5477, -160.567, -92.6086, 54.7931
3.70355, 4, -37.0385, 0.654506, 20.5477, -160.567, -92.6086, 54.7931
3.71156, 4, -37.0385, 0.654504, 20.5477, -160.567, -92.6087, 54.7931
3.71958, 4, -37.0385, 0.654503, 20.5477, -160.567, -92.6087, 54.7932
3.7276, 4, -37.0385, 0.654503, 20.5477, -160.567, -92.6087, 54.7932
3.73552, 4, -37.0384, 0.654503, 20.5477, -160.567, -92.6087, 54.7932
3.74355, 4, -37.0384, 0.654503, 20.5477, -160.567, -92.6086, 54.7932
3.75171, 4, -37.0384, 0.654503, 20.5477, -160.567, -92.6087, 54.7932
3.75966, 4, -37.0384, 0.654513, 20.5477, -160.567, -92.6087, 54.7932
3.76761, 4, -37.0384, 0.654515, 20.5477, -160.567, -92.6087, 54.7932
3.77568, 4, -37.0384, 0.654508, 20.5477, -160.567, -92.6087, 54.7931
3.78364, 4, -37.0384, 0.654523, 20.5477, -160.567, -92.6087, 54.7931
3.79163, 4, -37.0384, 0.654512, 20.5477, -160.567, -92.6087, 54.7931
3.79978, 4, -37.0384, 0.654525, 20.5476, -160.567, -92.6087, 54.7931
3.80782, 4, -37.0383, 0.654513, 20.5476, -160.567, -92.6087, 54.7932
3.82988, 4, -37.0383, 0.654528, 20.5476, -160.567, -92.6087, 54.7932
3.8326, 4, -37.0383, 0.65452, 20.5476, -160.567, -92.6087, 54.7932
3.83436, 4, -37.0383, 0.65452, 20.5476, -160.567, -92.6087, 54.7932
3.84009, 4, -37.0384, 0.65451, 20.5476, -160.567, -92.6087, 54.7932
3.84933, 4, -37.0383, 0.654506, 20.5476, -160.567, -92.6087, 54.7932
3.85864, 4, -37.0376, 0.654382, 20.5476, -160.567, -92.6087, 54.7932
3.86441, 4, -37.035, 0.65347, 20.5478, -160.567, -92.6087, 54.7932
3.87201, 4, -37.0292, 0.650647, 20.5486, -160.567, -92.6088, 54.7932
3.88049, 4, -37.0196, 0.644775, 20.5511, -160.567, -92.6088, 54.7932
3.88806, 4, -37.0061, 0.635275, 20.5567, -160.566, -92.6088, 54.7932
3.89649, 4, -36.9879, 0.621588, 20.5664, -160.564, -92.6087, 54.7932
3.90427, 5, -36.9641, 0.603312, 20.5819, -160.561, -92.6086, 54.7932
3.91209, 5, -36.9501, 0.592548, 20.6039, -160.557, -92.6084, 54.7931
3.92025, 5, -36.9009, 0.553404, 20.6326, -160.551, -92.6081, 54.7931
3.92837, 5, -36.8821, 0.538167, 20.6496, -160.543, -92.6074, 54.7931
3.94138, 5, -36.7944, 0.465459, 20.732, -160.529, -92.6056, 54.793
3.94352, 5, -36.7944, 0.465459, 20.732, -160.529, -92.6056, 54.793
3.95306, 5, -36.7151, 0.399496, 20.8059, -160.512, -92.6033, 54.7929
3.95955, 5, -36.6864, 0.375719, 20.832, -160.506, -92.6025, 54.7929
3.96757, 5, -36.626, 0.326243, 20.8856, -160.494, -92.6007, 54.7929
3.97551, 5, -36.5617, 0.274685, 20.9405, -160.482, -92.5989, 54.7929
3.98354, 5, -36.495, 0.221709, 20.9958, -160.469, -92.5972, 54.7929
3.99163, 5, -36.4272, 0.168145, 21.0512, -160.457, -92.5953, 54.7929
3.99973, 5, -36.3586, 0.114344, 21.1068, -160.445, -92.5934, 54.7929
4.00755, 5, -36.2899, 0.0604366, 21.1622, -160.433, -92.5915, 54.7929
4.01551, 5, -36.2209, 0.00663943, 21.2176, -160.421, -92.5896, 54.7929
4.02368, 5, -36.152, -0.0469149, 21.273, -160.409, -92.5876, 54.793
4.03236, 5, -36.0833, -0.100263, 21.3284, -160.397, -92.5857, 54.7931
4.03958, 5, -36.0146, -0.153405, 21.3836, -160.384, -92.5837, 54.7932
4.04753, 5, -35.9461, -0.206338, 21.4388, -160.371, -92.5817, 54.7934
4.05653, 5, -35.8775, -0.259126, 21.4939, -160.358, -92.5797, 54.7937
4.06351, 5, -35.8088, -0.311763, 21.5489, -160.346, -92.5777, 54.7942
4.07335, 5, -35.7398, -0.364397, 21.6038, -160.333, -92.5756, 54.7948
4.08163, 5, -35.6358, -0.44333, 21.6858, -160.314, -92.5726, 54.7963
4.08754, 5, -35.601, -0.469704, 21.7131, -160.308, -92.5716, 54.7968
4.09891, 5, -35.4962, -0.548819, 21.7946, -160.289, -92.5686, 54.7988
4.10362, 5, -35.4612, -0.575185, 21.8216, -160.283, -92.5675, 54.7994
4.11251, 5, -35.3908, -0.627953, 21.8756, -160.27, -92.5655, 54.8009
4.11967, 5, -35.3203, -0.68064, 21.9296, -160.257, -92.5634, 54.8026
4.12768, 5, -35.2497, -0.733302, 21.9835, -160.244, -92.5614, 54.8044
4.1365, 5, -35.1791, -0.785665, 22.0371, -160.231, -92.5593, 54.8063
4.14357, 5, -35.1084, -0.837853, 22.0908, -160.217, -92.5571, 54.8083
4.15169, 5, -35.0378, -0.889987, 22.1443, -160.204, -92.555, 54.8106
4.15974, 5, -34.9672, -0.941768, 22.1976, -160.191, -92.5529, 54.8129
4.1675, 5, -34.8967, -0.993348, 22.2508, -160.178, -92.5507, 54.8153
4.17572, 5, -34.8262, -1.04476, 22.304, -160.165, -92.5485, 54.8179
4.1874, 5, -34.7204, -1.12185, 22.3834, -160.146, -92.5452, 54.822
4.19151, 5, -34.685, -1.14752, 22.4098, -160.14, -92.5441, 54.8234
4.19969, 5, -34.6141, -1.19872, 22.4624, -160.127, -92.5419, 54.8263
4.20759, 5, -34.5431, -1.25004, 22.5148, -160.114, -92.5396, 54.8293
4.21553, 5, -34.4718, -1.30136, 22.5671, -160.1, -92.5374, 54.8324
4.2251, 5, -34.4004, -1.35264, 22.6193, -160.086, -92.5352, 54.8357
4.23202, 5, -34.3288, -1.40393, 22.6713, -160.073, -92.5329, 54.839
4.23957, 5, -34.2571, -1.45512, 22.7231, -160.059, -92.5306, 54.8425
4.24755, 5, -34.1853, -1.50616, 22.7749, -160.045, -92.5283, 54.8461
4.25569, 5, -34.1132, -1.55697, 22.8265, -160.032, -92.526, 54.8497
4.2636, 5, -34.0411, -1.60762, 22.878, -160.018, -92.5237, 54.8535
4.27161, 5, -33.9689, -1.65804, 22.9295, -160.005, -92.5214, 54.8575
4.27989, 5, -33.8967, -1.70819, 22.9808, -159.991, -92.519, 54.8615
4.28763, 5, -33.8246, -1.75821, 23.0319, -159.978, -92.5167, 54.8657
4.29556, 5, -33.7523, -1.80816, 23.0829, -159.964, -92.5144, 54.8698
4.30396, 5, -33.68, -1.858, 23.1336, -159.95, -92.5121, 54.8741
4.31276, 5, -33.6076, -1.90779, 23.1842, -159.935, -92.5098, 54.8784
4.31968, 5, -33.5349, -1.95781, 23.2347, -159.921, -92.5075, 54.8827
4.32767, 5, -33.4622, -2.00816, 23.2852, -159.907, -92.5052, 54.8866
4.33656, 5, -33.3895, -2.05883, 23.3355, -159.893, -92.5029, 54.8897
4.34369, 5, -33.317, -2.10995, 23.386, -159.879, -92.5005, 54.8913
4.35209, 6, -33.2446, -2.16165, 23.4367, -159.864, -92.4979, 54.8915
4.36069, 6, -33.1727, -2.21424, 23.4878, -159.85, -92.4949, 54.8897
4.36823, 6, -33.1011, -2.26775, 23.5396, -159.834, -92.4912, 54.8845
4.37598, 6, -33.03, -2.32224, 23.5922, -159.817, -92.4864, 54.8741
4.38479, 7, -32.9594, -2.37793, 23.6461, -159.799, -92.4803, 54.8601
4.39208, 7, -32.8893, -2.43483, 23.7011, -159.78, -92.4723, 54.8435
4.40104, 7, -32.8197, -2.49319, 23.7575, -159.759, -92.4626, 54.826
4.40901, 7, -32.7508, -2.55305, 23.8153, -159.737, -92.4509, 54.8085
4.41668, 7, -32.6825, -2.61451, 23.8743, -159.715, -92.4372, 54.7916
4.4249, 8, -32.6486, -2.64581, 23.9043, -159.703, -92.4216, 54.7749
4.43207, 8, -32.5814, -2.70974, 23.9652, -159.678, -92.4131, 54.7665
4.4395, 8, -32.5148, -2.77534, 24.0271, -159.651, -92.3948, 54.7491
4.44997, 8, -32.4163, -2.87666, 24.1218, -159.61, -92.364, 54.7207
4.45571, 8, -32.3838, -2.91118, 24.1539, -159.596, -92.3532, 54.7104
4.46348, 9, -32.3192, -2.98121, 24.2188, -159.568, -92.3307, 54.6886
4.47271, 9, -32.2233, -3.08873, 24.3179, -159.522, -92.2949, 54.6524
4.47962, 9, -32.1916, -3.12522, 24.3515, -159.506, -92.2822, 54.6396
4.48747, 9, -32.1287, -3.19912, 24.4193, -159.474, -92.2555, 54.613
4.49552, 9, -32.0664, -3.27436, 24.4881, -159.442, -92.227, 54.5851
4.50349, 10, -32.0045, -3.35088, 24.5579, -159.408, -92.1974, 54.5558
4.51151, 10, -31.9433, -3.42876, 24.6288, -159.373, -92.1668, 54.5245
4.51954, 10, -31.8827, -3.50813, 24.7007, -159.337, -92.1348, 54.4912
4.52767, 10, -31.8226, -3.58885, 24.7737, -159.301, -92.1008, 54.4562
4.53554, 10, -31.7631, -3.67103, 24.8477, -159.264, -92.0653, 54.4201
4.5451, 11, -31.7041, -3.75467, 24.9606, -159.205, -92.0105, 54.3635
4.55152, 11, -31.6457, -3.83984, 24.9986, -159.185, -91.9916, 54.3437
4.56056, 11, -31.5878, -3.92645, 25.0755, -159.145, -91.9522, 54.3027
4.56749, 11, -31.5304, -4.01448, 25.1533, -159.104, -91.9111, 54.26
4.57565, 11, -31.4736, -4.10399, 25.2321, -159.061, -91.8696, 54.2164
4.58369, 12, -31.4173, -4.19498, 25.312, -159.018, -91.8262, 54.1714
4.59154, 12, -31.3614, -4.28739, 25.393, -158.975, -91.781, 54.1241
4.60069, 12, -31.3061, -4.38117, 25.4751, -158.929, -91.7349, 54.0753
4.60772, 12, -31.2514, -4.47626, 25.5582, -158.883, -91.6878, 54.0255
4.61555, 12, -31.1971, -4.57279, 25.6423, -158.836, -91.6385, 53.9741
4.6243, 13, -31.1433, -4.67073, 25.7273, -158.788, -91.5884, 53.9206
4.63151, 13, -31.0901, -4.77005, 25.8133, -158.739, -91.5369, 53.8661
4.63959, 13, -31.0373, -4.87083, 25.9002, -158.69, -91.4833, 53.8104
4.65087, 13, -30.9592, -5.02491, 26.0328, -158.613, -91.4019, 53.7232
4.65563, 13, -30.9334, -5.07696, 26.0775, -158.588, -91.3736, 53.6936
4.66444, 14, -30.8822, -5.18215, 26.1678, -158.535, -91.3164, 53.6336
4.67248, 14, -30.8317, -5.28886, 26.2591, -158.481, -91.2588, 53.5715
4.67971, 14, -30.7818, -5.39702, 26.3513, -158.428, -91.1985, 53.5081
4.6875, 14, -30.7322, -5.50668, 26.4444, -158.372, -91.1381, 53.4441
4.69549, 14, -30.6833, -5.6179, 26.5385, -158.316, -91.0756, 53.3775
4.70356, 14, -30.6348, -5.73055, 26.6337, -158.26, -91.0116, 53.3098
4.7115, 15, -30.5867, -5.84458, 26.73, -158.201, -90.9467, 53.2411
4.71951, 15, -30.5392, -5.95982, 26.8275, -158.143, -90.8799, 53.1702
4.72772, 15, -30.4922, -6.07648, 26.9261, -158.083, -90.8127, 53.0985
4.73647, 15, -30.4457, -6.19464, 27.0256, -158.023, -90.743, 53.0249
4.74357, 15, -30.3997, -6.31408, 27.1259, -157.961, -90.6728, 52.9496
4.7517, 16, -30.3543, -6.43517, 27.2271, -157.898, -90.6006, 52.8736
4.75961, 16, -30.3094, -6.55777, 27.3296, -157.835, -90.5279, 52.7948
4.76765, 16, -30.2649, -6.68172, 27.4332, -157.771, -90.4532, 52.7157
4.77591, 16, -30.2209, -6.80721, 27.5379, -157.706, -90.3777, 52.6347
4.78445, 16, -30.1775, -6.93421, 27.6437, -157.64, -90.3004, 52.5525
4.79162, 17, -30.1344, -7.06283, 27.7502, -157.573, -90.2221, 52.4693
4.80181, 17, -30.0919, -7.193, 27.8576, -157.505, -90.1423, 52.3845
4.81036, 17, -30.0499, -7.32466, 27.966, -157.436, -90.0611, 52.2988
4.81552, 17, -30.0084, -7.45752, 28.0756, -157.367, -89.9788, 52.211
4.82356, 17, -29.9675, -7.59175, 28.1865, -157.296, -89.8951, 52.1227
4.83166, 18, -29.927, -7.72742, 28.2984, -157.225, -89.8101, 52.0324
4.83968, 18, -29.8871, -7.86452, 28.4112, -157.152, -89.7236, 51.9414
4.84773, 18, -29.8476, -8.00307, 28.5248, -157.079, -89.6364, 51.8483
4.8562, 18, -29.8085, -8.14272, 28.6393, -157.005, -89.5477, 51.7544
4.86388, 18, -29.7699, -8.28378, 28.7551, -156.93, -89.4574, 51.6586
4.87198, 19, -29.7318, -8.42626, 28.8721, -156.854, -89.3665, 51.5621
4.88079, 19, -29.6941, -8.57032, 28.9902, -156.777, -89.2739, 51.464
4.88901, 19, -29.6568, -8.71596, 29.1091, -156.7, -89.18, 51.3652
4.89689, 19, -29.6201, -8.86287, 29.2287, -156.621, -89.0854, 51.2652
4.90412, 19, -29.5838, -9.01095, 29.3492, -156.542, -88.9894, 51.1641
4.9121, 20, -29.5481, -9.16058, 29.4709, -156.461, -88.8922, 51.0615
4.92099, 20, -29.5304, -9.23594, 29.5323, -156.421, -88.7943, 50.9579
4.92938, 20, -29.4779, -9.46433, 29.7177, -156.298, -88.6951, 50.8532
4.93832, 20, -29.4435, -9.61798, 29.8424, -156.215, -88.5947, 50.7468
4.94354, 20, -29.4265, -9.69525, 29.9051, -156.173, -88.5442, 50.6935
4.95149, 20, -29.3929, -9.85074, 30.0311, -156.089, -88.4424, 50.5855
4.95956, 21, -29.3596, -10.0078, 30.1582, -156.003, -88.3391, 50.4766
4.96748, 21, -29.3267, -10.1664, 30.2864, -155.917, -88.2351, 50.3664
4.97551, 21, -29.2943, -10.3262, 30.4156, -155.83, -88.1301, 50.2556
4.98486, 21, -29.2623, -10.4867, 30.6109, -155.699, -87.9703, 50.0878
4.99154, 21, -29.2307, -10.6486, 30.6765, -155.654, -87.9166, 50.0313
4.99948, 22, -29.1995, -10.8119, 30.8083, -155.564, -87.8085, 49.9181
5.00749, 22, -29.1686, -10.9766, 30.941, -155.474, -87.6991, 49.8036
5.01548, 22, -29.1382, -11.142, 31.0747, -155.383, -87.5892, 49.6885
5.02359, 22, -29.1082, -11.3085, 31.2092, -155.291, -87.4778, 49.5724
5.03163, 22, -29.0785, -11.4765, 31.3449, -155.197, -87.3657, 49.4553
5.03958, 23, -29.0492, -11.6462, 31.4813, -155.103, -87.2528, 49.3378
5.04754, 23, -29.0203, -11.817, 31.6184, -155.009, -87.1386, 49.2194
5.05803, 23, -28.9917, -11.9885, 31.7563, -154.865, -86.9663, 49.0409
5.06679, 23, -28.9497, -12.248, 31.9649, -154.768, -86.85, 48.921
5.07152, 23, -28.9359, -12.3354, 32.0349, -154.719, -86.7915, 48.8608
5.0803, 24, -28.9085, -12.5108, 32.1755, -154.621, -86.674, 48.7401
5.08748, 24, -28.8814, -12.6868, 32.3169, -154.522, -86.5554, 48.6191
5.09551, 24, -28.8546, -12.8633, 32.4589, -154.422, -86.4362, 48.4971
5.10689, 24, -28.8151, -13.1311, 32.6736, -154.271, -86.2553, 48.3132
5.11163, 24, -28.8021, -13.2211, 32.7457, -154.22, -86.1949, 48.2517
5.12046, 25, -28.7763, -13.4013, 32.8904, -154.118, -86.0734, 48.1283
5.12757, 25, -28.7509, -13.5821, 33.0356, -154.015, -85.9509, 48.0049
5.13547, 25, -28.7256, -13.7641, 33.1814, -153.911, -85.8282, 47.8815
5.14359, 25, -28.7005, -13.9477, 33.328, -153.807, -85.7042, 47.7577
5.15148, 25, -28.6758, -14.132, 33.4754, -153.701, -85.5798, 47.6337
5.15963, 26, -28.6513, -14.3166, 33.6236, -153.595, -85.4549, 47.5099
5.16757, 26, -28.6272, -14.5023, 33.7721, -153.488, -85.3293, 47.3855
5.17547, 26, -28.6034, -14.6896, 33.9213, -153.38, -85.2033, 47.2612
5.18356, 26, -28.5797, -14.8774, 34.0715, -153.271, -85.0763, 47.1369
5.19147, 26, -28.5561, -15.0654, 34.2222, -153.162, -84.9491, 47.0128
5.19949, 27, -28.5327, -15.2541, 34.3734, -153.052, -84.8212, 46.8888
5.20769, 27, -28.5098, -15.4438, 34.525, -152.942, -84.6929, 46.7656
5.21651, 27, -28.4868, -15.634, 34.6773, -152.83, -84.564, 46.6422
5.22358, 27, -28.4641, -15.8244, 34.8305, -152.718, -84.4347, 46.5191
5.23191, 27, -28.4417, -16.0158, 34.9839, -152.605, -84.3051, 46.3965
5.24011, 28, -28.4195, -16.2089, 35.1374, -152.492, -84.175, 46.274
5.2477, 28, -28.3971, -16.4026, 35.2916, -152.378, -84.0445, 46.1519
5.25763, 28, -28.3749, -16.5965, 35.4466, -152.263, -83.9136, 46.0304
5.26408, 28, -28.3529, -16.7914, 35.602, -152.148, -83.7826, 45.9096
5.27348, 28, -28.3308, -16.9873, 35.7576, -152.032, -83.651, 45.7896
5.27977, 29, -28.3088, -17.1832, 35.9134, -151.915, -83.5194, 45.6705
5.28818, 29, -28.2869, -17.3789, 36.0699, -151.797, -83.3874, 45.5522
5.2956, 29, -28.2652, -17.5756, 36.2269, -151.679, -83.2551, 45.4349
5.30408, 29, -28.2433, -17.7729, 36.3839, -151.561, -83.1224, 45.3188
5.31177, 29, -28.2216, -17.9701, 36.5409, -151.442, -82.9896, 45.2033
5.32065, 30, -28.2, -18.1675, 36.6987, -151.322, -82.8566, 45.0893
5.32838, 30, -28.1785, -18.3657, 36.8571, -151.202, -82.7234, 44.9762
5.33602, 30, -28.1568, -18.5643, 37.0153, -151.081, -82.5903, 44.8645
5.34479, 30, -28.1353, -18.7629, 37.1734, -150.959, -82.4567, 44.7543
5.35175, 30, -28.1138, -18.9621, 37.3318, -150.837, -82.3233, 44.6456
5.35978, 30, -28.092, -19.1625, 37.4908, -150.715, -82.1893, 44.5387
5.36863, 31, -28.0703, -19.363, 37.6499, -150.592, -82.0556, 44.4328
5.37595, 31, -28.0487, -19.5633, 37.8088, -150.468, -81.9216, 44.3286
5.3845, 31, -28.0272, -19.7641, 37.9681, -150.344, -81.7876, 44.2261
5.39295, 31, -28.0056, -19.9652, 38.1281, -150.218, -81.6534, 44.125
5.4, 31, -27.984, -20.1662, 38.2883, -150.093, -81.5191, 44.0255
5.40804, 32, -27.9624, -20.367, 38.4481, -149.966, -81.3848, 43.9275
5.4162, 32, -27.9405, -20.5688, 38.6079, -149.84, -81.2506, 43.8316
5.42408, 32, -27.9295, -20.6699, 38.7682, -149.712, -81.1164, 43.7376
5.43404, 32, -27.8962, -20.9725, 38.9286, -149.584, -80.9822, 43.6461
5.44031, 32, -27.885, -21.0732, 39.0883, -149.456, -80.8485, 43.557
5.44743, 33, -27.8624, -21.2748, 39.168, -149.392, -80.7817, 43.5136
5.45547, 33, -27.8395, -21.4763, 39.3274, -149.264, -80.6486, 43.4294
5.46621, 33, -27.8043, -21.7767, 39.5663, -149.071, -80.4496, 43.3087
5.47146, 33, -27.7924, -21.8766, 39.6455, -149.007, -80.3836, 43.2703
5.47956, 33, -27.768, -22.0764, 39.803, -148.88, -80.252, 43.1956
5.48744, 34, -27.7431, -22.2755, 39.96, -148.752, -80.1206, 43.1247
5.49546, 34, -27.7177, -22.4734, 40.1169, -148.624, -79.9899, 43.0575
5.50355, 34, -27.6918, -22.6706, 40.2733, -148.496, -79.8591, 42.9928
5.51162, 34, -27.6655, -22.8677, 40.4288, -148.369, -79.7285, 42.932
5.51951, 34, -27.6386, -23.0641, 40.5839, -148.241, -79.5977, 42.8747
5.52742, 35, -27.6112, -23.2596, 40.7392, -148.112, -79.4671, 42.8199
5.53546, 35, -27.5835, -23.4551, 40.8942, -147.984, -79.3364, 42.7686
5.54357, 35, -27.5558, -23.6511, 41.0486, -147.855, -79.2059, 42.7213
5.55146, 35, -27.5276, -23.8465, 41.2027, -147.726, -79.0757, 42.6772
5.56131, 35, -27.4992, -24.0412, 41.3568, -147.531, -78.8807, 42.6169
5.56756, 36, -27.4704, -24.236, 41.511, -147.466, -78.8158, 42.5986
5.5765, 36, -27.4413, -24.4307, 41.6646, -147.336, -78.6859, 42.5653
5.58469, 36, -27.4119, -24.6244, 41.8174, -147.205, -78.5569, 42.5361
5.59509, 36, -27.3669, -24.914, 42.0463, -147.009, -78.3635, 42.5004
5.5995, 36, -27.3516, -25.0106, 42.1224, -146.943, -78.2994, 42.4907
5.60845, 37, -27.3204, -25.2032, 42.2737, -146.812, -78.1715, 42.4746
5.61546, 37, -27.2883, -25.3945, 42.4239, -146.682, -78.0439, 42.4631
5.6235, 37, -27.2554, -25.5847, 42.5732, -146.552, -77.917, 42.4565
5.6349, 37, -27.2045, -25.8688, 42.7954, -146.358, -77.7271, 42.4531
5.63961, 37, -27.1871, -25.9629, 42.869, -146.294, -77.6641, 42.4537
5.64756, 37, -27.1515, -26.1494, 43.015, -146.165, -77.5383, 42.4596
5.65546, 38, -27.115, -26.3346, 43.1598, -146.038, -77.4133, 42.4719
5.6645, 38, -27.0778, -26.5191, 43.3036, -145.911, -77.2888, 42.4892
5.67153, 38, -27.0397, -26.7025, 43.4468, -145.784, -77.1647, 42.5123
5.67947, 38, -27.0007, -26.8842, 43.5889, -145.658, -77.0412, 42.5408
5.68859, 38, -26.9611, -27.0651, 43.7299, -145.532, -76.918, 42.575
5.69744, 39, -26.9207, -27.2458, 43.8701, -145.406, -76.7954, 42.6155
5.7035, 39, -26.8796, -27.4257, 44.0095, -145.28, -76.6727, 42.6618
5.71169, 39, -26.8376, -27.6042, 44.1482, -145.154, -76.5504, 42.7134
5.72049, 39, -26.795, -27.782, 44.286, -145.028, -76.4281, 42.771
5.72749, 39, -26.7516, -27.9597, 44.4229, -144.903, -76.3057, 42.8356
5.73552, 40, -26.7073, -28.1366, 44.5587, -144.778, -76.1834, 42.9054
5.74351, 40, -26.662, -28.3118, 44.6937, -144.653, -76.0613, 42.9822
5.75156, 40, -26.6158, -28.4855, 44.8275, -144.529, -75.9398, 43.0654
5.7599, 40, -26.5687, -28.6584, 44.96, -144.406, -75.8182, 43.1545
5.76844, 40, -26.5203, -28.83, 45.091, -144.284, -75.6976, 43.2511
5.77557, 41, -26.4709, -28.9996, 45.2206, -144.162, -75.5772, 43.3538
5.78552, 41, -26.4204, -29.1673, 45.3487, -144.041, -75.4571, 43.4636
5.79162, 41, -26.3687, -29.3339, 45.4755, -143.922, -75.3379, 43.5799
5.80001, 41, -26.3155, -29.4992, 45.6007, -143.803, -75.2188, 43.7032
5.80952, 41, -26.2611, -29.6624, 45.7242, -143.686, -75.1006, 43.8338
5.81586, 42, -26.2052, -29.8236, 45.8458, -143.57, -74.9827, 43.9717
5.82437, 42, -26.1479, -29.9832, 45.9656, -143.456, -74.8651, 44.1168
5.8315, 42, -26.089, -30.1411, 46.0834, -143.343, -74.7484, 44.2689
5.84043, 42, -26.0285, -30.2968, 46.1992, -143.232, -74.6319, 44.4284
5.84761, 42, -25.9666, -30.4501, 46.3132, -143.122, -74.516, 44.5951
5.85604, 43, -25.9029, -30.6012, 46.4249, -143.015, -74.4007, 44.7691
5.86489, 43, -25.8376, -30.7502, 46.5345, -142.909, -74.2855, 44.9511
5.87182, 43, -25.7707, -30.8971, 46.642, -142.805, -74.171, 45.1407
5.8807, 43, -25.7021, -31.0416, 46.7476, -142.703, -74.0567, 45.338
5.88839, 43, -25.632, -31.1837, 46.8512, -142.603, -73.943, 45.5428
5.89602, 43, -25.5601, -31.3237, 46.9528, -142.504, -73.8296, 45.7555
5.90488, 44, -25.4866, -31.4614, 47.0522, -142.408, -73.7167, 45.9759
5.91239, 44, -25.4111, -31.5969, 47.1491, -142.314, -73.6044, 46.2046
5.92224, 44, -25.3338, -31.73, 47.2435, -142.222, -73.4923, 46.4414
5.92809, 44, -25.2944, -31.7956, 47.3355, -142.133, -73.3808, 46.6864
5.93621, 44, -25.2143, -31.9245, 47.3806, -142.089, -73.3254, 46.9394
5.94345, 45, -25.1324, -32.0507, 47.4689, -142.004, -73.2149, 47.0693
5.9515, 45, -25.0485, -32.1743, 47.5549, -141.922, -73.105, 47.3354
5.95963, 45, -24.9624, -32.2951, 47.638, -141.843, -72.9959, 47.6094
5.9702, 45, -24.8295, -32.4706, 47.757, -141.73, -72.8335, 48.0359
5.97546, 45, -24.7839, -32.5276, 47.7951, -141.693, -72.7798, 48.1823
5.98356, 46, -24.6913, -32.6391, 47.8692, -141.623, -72.673, 48.4817
5.99145, 46, -24.5964, -32.7473, 47.9404, -141.557, -72.5669, 48.7897
5.99944, 46, -24.499, -32.8522, 48.0086, -141.493, -72.4619, 49.1057
6.00985, 46, -24.3488, -33.0028, 48.1049, -141.406, -72.3056, 49.5967
6.01569, 46, -24.2975, -33.0511, 48.1353, -141.379, -72.2541, 49.7644
6.02501, 47, -24.1403, -33.1905, 48.2213, -141.304, -72.1012, 50.2798
6.03145, 47, -24.0867, -33.2349, 48.2482, -141.28, -72.0506, 50.4558
6.04156, 47, -23.9217, -33.362, 48.3232, -141.217, -71.9009, 50.9964
6.04745, 47, -23.8653, -33.4023, 48.3463, -141.198, -71.8514, 51.1807
6.05553, 47, -23.7506, -33.4798, 48.3896, -141.164, -71.7535, 51.556
6.06533, 48, -23.6331, -33.5529, 48.4471, -141.122, -71.6093, 52.1347
6.07141, 48, -23.5129, -33.6216, 48.4642, -141.11, -71.562, 52.3318
6.07951, 48, -23.39, -33.6856, 48.4951, -141.089, -71.4686, 52.7327
6.08745, 48, -23.2649, -33.7447, 48.5221, -141.074, -71.3771, 53.1427
6.09557, 48, -23.137, -33.7989, 48.5447, -141.064, -71.2878, 53.5613
6.10357, 49, -23.0062, -33.8478, 48.5628, -141.059, -71.2003, 53.9883
6.11162, 49, -22.8725, -33.8916, 48.5766, -141.058, -71.1144, 54.4231
6.12042, 49, -22.7358, -33.9299, 48.5857, -141.063, -71.0311, 54.8655
6.12843, 49, -22.5962, -33.9624, 48.5901, -141.074, -70.9495, 55.3158
6.13561, 49, -22.4539, -33.9894, 48.5902, -141.091, -70.8703, 55.7736
6.1444, 50, -22.3087, -34.0103, 48.5854, -141.115, -70.7934, 56.2395
6.15254, 50, -22.1608, -34.0251, 48.5756, -141.144, -70.7196, 56.712
6.16045, 50, -22.0104, -34.0336, 48.5606, -141.179, -70.6482, 57.1925
6.16851, 50, -21.857, -34.0362, 48.5405, -141.22, -70.5803, 57.6811
6.17548, 50, -21.7006, -34.0326, 48.515, -141.268, -70.5151, 58.1769
6.18444, 51, -21.5411, -34.0225, 48.4839, -141.322, -70.4543, 58.6791
6.19223, 51, -21.3788, -34.0057, 48.4477, -141.382, -70.396, 59.1868
6.19949, 51, -21.2139, -33.9821, 48.406, -141.448, -70.3418, 59.7004
6.21152, 51, -20.9619, -33.9335, 48.3333, -141.559, -70.2673, 60.4808
6.21569, 51, -20.8767, -33.9138, 48.3063, -141.598, -70.2441, 60.7436
6.22448, 51, -20.7043, -33.8687, 48.2479, -141.683, -70.2012, 61.2727
6.23252, 52, -20.5291, -33.8158, 48.1837, -141.774, -70.1633, 61.8085
6.24063, 52, -20.3513, -33.755, 48.1134, -141.871, -70.1296, 62.3512
6.24897, 52, -20.1705, -33.6861, 48.0369, -141.975, -70.1003, 62.9015
6.25752, 52, -19.987, -33.6087, 47.954, -142.085, -70.0765, 63.4581
6.26364, 52, -19.8009, -33.5229, 47.8645, -142.202, -70.0582, 64.0223
6.27157, 53, -19.6124, -33.4281, 47.7686, -142.325, -70.0455, 64.5933
6.27954, 53, -19.422, -33.3249, 47.6662, -142.455, -70.0386, 65.1704
6.28853, 53, -19.2295, -33.2136, 47.5577, -142.59, -70.0366, 65.7516
6.2957, 53, -19.0351, -33.0937, 47.4431, -142.732, -70.04, 66.3375
6.30443, 53, -18.8389, -32.9654, 47.3224, -142.878, -70.0498, 66.9267
6.31429, 54, -18.6409, -32.8287, 47.1957, -143.03, -70.0658, 67.5173
6.31981, 54, -18.4411, -32.6837, 47.0633, -143.186, -70.0884, 68.1085
6.32748, 54, -18.2392, -32.5306, 46.9255, -143.346, -70.1178, 68.7007
6.33551, 54, -18.036, -32.3694, 46.7823, -143.511, -70.1532, 69.2936
6.34458, 54, -17.8317, -32.1995, 46.6335, -143.68, -70.1947, 69.8874
6.35178, 55, -17.6266, -32.0205, 46.4787, -143.854, -70.2442, 70.4829
6.35979, 55, -17.4203, -31.8324, 46.3179, -144.031, -70.3011, 71.0822
6.36777, 55, -17.2127, -31.6351, 46.1509, -144.214, -70.3655, 71.6855
6.37589, 55, -17.0034, -31.4278, 45.9765, -144.402, -70.4391, 72.2926
6.38393, 55, -16.7923, -31.2097, 45.7946, -144.595, -70.5209, 72.9046
6.3927, 56, -16.5795, -30.9813, 45.6062, -144.792, -70.6124, 73.5214
6.40133, 56, -16.3654, -30.7425, 45.4109, -144.994, -70.7125, 74.1422
6.40798, 56, -16.1504, -30.4923, 45.2073, -145.2, -70.8221, 74.7657
6.41683, 56, -15.9354, -30.2316, 44.9968, -145.41, -70.9414, 75.3927
6.4272, 56, -15.7204, -29.96, 44.7802, -145.623, -71.07, 76.0225
6.43199, 57, -15.6126, -29.82, 44.6692, -145.731, -71.1381, 76.6533
6.43944, 57, -15.3961, -29.5323, 44.4412, -145.949, -71.2816, 76.9692
6.44745, 57, -15.1784, -29.2342, 44.2069, -146.17, -71.435, 77.6023
6.45548, 57, -14.96, -28.9259, 43.966, -146.393, -71.5983, 78.2364
6.46343, 57, -14.7416, -28.609, 43.7187, -146.617, -71.7715, 78.8689
6.47159, 58, -14.5238, -28.2837, 43.4672, -146.842, -71.9536, 79.4996
6.48154, 58, -14.1992, -27.782, 43.0816, -147.178, -72.2415, 80.4385
6.48752, 58, -14.0917, -27.6107, 42.9516, -147.289, -72.3413, 80.7484
6.49543, 58, -13.878, -27.2633, 42.6896, -147.511, -72.5458, 81.3623
6.50353, 58, -13.6658, -26.9091, 42.4245, -147.73, -72.7569, 81.9699
6.51145, 58, -13.4548, -26.5488, 42.1574, -147.946, -72.9744, 82.5707
6.51943, 59, -13.2452, -26.1813, 41.8866, -148.161, -73.199, 83.1651
6.5275, 59, -13.0375, -25.8072, 41.6124, -148.374, -73.431, 83.7541
6.53783, 59, -12.729, -25.2336, 41.1943, -148.69, -73.7944, 84.6309
6.54357, 59, -12.6267, -25.0391, 41.053, -148.795, -73.9198, 84.9218
6.55168, 59, -12.4227, -24.6437, 40.7673, -149.003, -74.1777, 85.5004
6.5595, 60, -12.2197, -24.2407, 40.4767, -149.209, -74.4445, 86.076
6.56843, 60, -12.0182, -23.8301, 40.1826, -149.414, -74.7203, 86.6486
6.57543, 60, -11.818, -23.4134, 39.8847, -149.617, -75.0049, 87.2182
6.58343, 60, -11.6194, -22.9903, 39.5846, -149.817, -75.2979, 87.7826
6.59243, 60, -11.4231, -22.562, 39.2824, -150.014, -75.5982, 88.3418
6.60176, 61, -11.133, -21.9122, 38.8271, -150.302, -76.0602, 89.1683
6.60745, 61, -11.0374, -21.6936, 38.6749, -150.395, -76.2167, 89.4397
6.61824, 61, -10.7541, -21.033, 38.2183, -150.669, -76.6921, 90.2384
6.62364, 61, -10.6609, -20.8111, 38.0662, -150.757, -76.8526, 90.5001
6.63249, 61, -10.4763, -20.3648, 37.762, -150.93, -77.1764, 91.0159
6.64039, 62, -10.2941, -19.9154, 37.4586, -151.098, -77.5041, 91.5228
6.64744, 62, -10.1149, -19.4629, 37.1547, -151.261, -77.8365, 92.0211
6.6555, 62, -9.93828, -19.0081, 36.8505, -151.419, -78.1737, 92.5111
6.66343, 62, -9.76436, -18.5507, 36.5452, -151.573, -78.5163, 92.9944
6.67169, 62, -9.5929, -18.0914, 36.2397, -151.723, -78.8642, 93.4703
6.68048, 63, -9.42354, -17.6305, 35.9338, -151.868, -79.2168, 93.9386
6.68842, 63, -9.25635, -17.1677, 35.6285, -152.008, -79.5738, 94.3973
6.69642, 63, -9.09146, -16.7033, 35.3247, -152.142, -79.9341, 94.8465
6.70442, 63, -8.92909, -16.2372, 35.0219, -152.272, -80.2974, 95.2862
6.71143, 63, -8.7693, -15.7688, 34.7206, -152.395, -80.6631, 95.7148
6.71965, 63, -8.61213, -15.299, 34.4207, -152.514, -81.0312, 96.1338
6.72776, 64, -8.4575, -14.828, 34.1232, -152.627, -81.4018, 96.5416
6.73544, 64, -8.30533, -14.356, 33.8262, -152.735, -81.7751, 96.9387
6.74739, 64, -8.08157, -13.6479, 33.3832, -152.887, -82.341, 97.5155
6.7516, 64, -8.00818, -13.4123, 33.2358, -152.936, -82.531, 97.7022
6.76061, 65, -7.86329, -12.9417, 32.9428, -153.028, -82.9128, 98.0669
6.76783, 65, -7.72103, -12.473, 32.6522, -153.114, -83.2961, 98.4199
6.77558, 65, -7.58153, -12.0054, 32.3645, -153.196, -83.6805, 98.7596
6.78384, 65, -7.44528, -11.5395, 32.0811, -153.271, -84.0647, 99.0854
6.79152, 65, -7.3118, -11.0748, 31.8008, -153.34, -84.4486, 99.3973
6.79972, 65, -7.1813, -10.6118, 31.525, -153.403, -84.8318, 99.6948
6.80859, 66, -7.05325, -10.1518, 31.2525, -153.461, -85.2136, 99.9772
6.81641, 66, -6.92731, -9.69526, 30.984, -153.513, -85.5947, 100.244
6.82347, 66, -6.80349, -9.24363, 30.72, -153.559, -85.9748, 100.495
6.83154, 66, -6.68192, -8.79787, 30.4593, -153.599, -86.3528, 100.731
6.83952, 66, -6.56264, -8.35748, 30.2035, -153.635, -86.7284, 100.949
6.84818, 67, -6.44585, -7.92319, 29.9527, -153.664, -87.1006, 101.151
6.85664, 67, -6.33203, -7.49469, 29.7076, -153.688, -87.4688, 101.334
6.86372, 67, -6.22088, -7.07208, 29.4695, -153.706, -87.8322, 101.501
6.87458, 67, -6.11236, -6.655, 29.2374, -153.719, -88.1906, 101.65
6.88026, 67, -6.00623, -6.24441, 29.0115, -153.726, -88.5443, 101.782
6.88794, 68, -5.90228, -5.84036, 28.7919, -153.729, -88.8937, 101.896
6.89604, 68, -5.80019, -5.44192, 28.5767, -153.728, -89.2397, 101.993
6.90616, 68, -5.69977, -5.04916, 28.3655, -153.722, -89.583, 102.072
6.91253, 68, -5.60114, -4.66182, 28.1585, -153.712, -89.9248, 102.133
6.92003, 68, -5.5041, -4.28007, 27.9547, -153.697, -90.2651, 102.176
6.92808, 69, -5.45625, -4.09076, 27.7542, -153.678, -90.6043, 102.201
6.93597, 69, -5.36187, -3.71477, 27.6557, -153.666, -90.7736, 102.207
6.94399, 69, -5.26918, -3.34276, 27.4622, -153.64, -91.1114, 102.206
6.95225, 69, -5.17823, -2.97452, 27.2719, -153.609, -91.448, 102.183
6.96087, 69, -5.08902, -2.42885, 26.993, -153.556, -91.9512, 102.11
6.96744, 70, -5.00138, -2.24846, 26.902, -153.537, -92.1183, 102.074
6.97545, 70, -4.91503, -1.89079, 26.7228, -153.495, -92.4519, 101.987
6.98348, 70, -4.82989, -1.53761, 26.5466, -153.449, -92.7846, 101.877
6.99142, 70, -4.74579, -1.18988, 26.3741, -153.4, -93.1162, 101.745
6.99961, 70, -4.66274, -0.846875, 26.206, -153.348, -93.4463, 101.59
7.00746, 71, -4.58081, -0.510193, 26.0415, -153.292, -93.7741, 101.414
7.01542, 71, -4.4999, -0.17969, 25.8808, -153.234, -94.0991, 101.216
7.0249, 71, -4.38048, 0.303657, 25.6497, -153.141, -94.5799, 100.879
7.03373, 71, -4.30197, 0.618737, 25.5025, -153.077, -94.895, 100.63
7.03942, 71, -4.26304, 0.773842, 25.4306, -153.044, -95.051, 100.497
7.04922, 72, -4.14755, 1.22886, 25.2221, -152.942, -95.5128, 100.07
7.0582, 72, -4.07098, 1.52378, 25.0885, -152.872, -95.816, 99.7606
7.06441, 72, -4.03281, 1.66851, 25.0231, -152.836, -95.9665, 99.598
7.07549, 72, -3.91857, 2.0934, 24.8318, -152.729, -96.4138, 99.0791
7.07956, 72, -3.8805, 2.23183, 24.7696, -152.692, -96.5616, 98.8959
7.08741, 72, -3.80438, 2.5035, 24.6475, -152.619, -96.8554, 98.5132
7.09548, 73, -3.72845, 2.76917, 24.5286, -152.546, -97.1465, 98.1088
7.10343, 73, -3.65239, 3.02859, 24.4132, -152.472, -97.4345, 97.6831
7.11148, 73, -3.57611, 3.2813, 24.3016, -152.399, -97.7196, 97.2354
7.11951, 73, -3.49957, 3.52797, 24.1939, -152.326, -98.0011, 96.7678
7.12756, 73, -3.42263, 3.76778, 24.0903, -152.254, -98.2788, 96.2799
7.13638, 74, -3.34505, 3.99927, 23.9907, -152.183, -98.5524, 95.7728
7.14343, 74, -3.2668, 4.22266, 23.8949, -152.114, -98.8212, 95.2482
7.15148, 74, -3.18786, 4.4375, 23.8031, -152.046, -99.0848, 94.7077
7.15943, 74, -3.10818, 4.64269, 23.7153, -151.979, -99.3427, 94.1537
7.16742, 74, -3.02782, 4.83831, 23.6315, -151.916, -99.5939, 93.5865
7.17568, 75, -2.94656, 5.02474, 23.552, -151.855, -99.8375, 93.0083
7.18448, 75, -2.86428, 5.20125, 23.4765, -151.797, -100.073, 92.4212
7.1924, 75, -2.78104, 5.36687, 23.4049, -151.742, -100.299, 91.826
7.20055, 75, -2.69686, 5.522, 23.3372, -151.69, -100.516, 91.2229
7.2083, 75, -2.61179, 5.66646, 23.2736, -151.641, -100.724, 90.6128
7.21541, 76, -2.52573, 5.79957, 23.2141, -151.595, -100.922, 89.9958
7.22652, 76, -2.39492, 5.97749, 23.1334, -151.535, -101.202, 89.0548
7.2315, 76, -2.35092, 6.03083, 23.1086, -151.517, -101.291, 88.7367
7.23945, 76, -2.26232, 6.12816, 23.0625, -151.483, -101.46, 88.0955
7.24741, 76, -2.17291, 6.21282, 23.0212, -151.453, -101.62, 87.4485
7.25558, 77, -2.08264, 6.28441, 22.9849, -151.427, -101.768, 86.7961
7.26368, 77, -1.99153, 6.34276, 22.9539, -151.405, -101.903, 86.1425
7.2715, 77, -1.8995, 6.38753, 22.9285, -151.388, -102.024, 85.4913
7.27979, 77, -1.80666, 6.41806, 22.9089, -151.374, -102.132, 84.8428
7.2875, 77, -1.713, 6.43449, 22.8951, -151.364, -102.224, 84.1982
7.29548, 78, -1.61855, 6.43648, 22.8871, -151.358, -102.302, 83.5591
7.30427, 78, -1.52337, 6.42337, 22.8846, -151.354, -102.364, 82.9249
7.31147, 78, -1.42756, 6.39503, 22.8875, -151.353, -102.41, 82.2947
7.32019, 78, -1.33137, 6.35116, 22.8965, -151.356, -102.441, 81.6695
7.32776, 78, -1.23483, 6.29119, 22.9116, -151.362, -102.457, 81.0502
7.33586, 79, -1.13809, 6.21517, 22.9332, -151.371, -102.456, 80.4361
7.34439, 79, -1.04122, 6.12292, 22.9617, -151.384, -102.438, 79.8279
7.35304, 79, -0.944145, 6.01452, 22.9977, -151.399, -102.402, 79.2271
7.36041, 79, -0.847084, 5.88986, 23.0411, -151.418, -102.349, 78.6344
7.36787, 79, -0.750015, 5.74859, 23.0922, -151.44, -102.277, 78.0496
7.37649, 79, -0.652969, 5.59084, 23.1509, -151.464, -102.188, 77.4739
7.38457, 80, -0.555892, 5.41643, 23.2173, -151.491, -102.08, 76.9084
7.39201, 80, -0.458769, 5.22542, 23.2916, -151.519, -101.953, 76.3534
7.40467, 80, -0.313305, 4.90736, 23.4185, -151.563, -101.728, 75.539
7.40877, 80, -0.264876, 4.79233, 23.4649, -151.579, -101.644, 75.2726
7.4162, 80, -0.168112, 4.54848, 23.5642, -151.612, -101.46, 74.7473
7.42479, 81, -0.119815, 4.42016, 23.6722, -151.646, -101.258, 74.2327
7.43227, 81, 0.0248968, 4.01033, 23.7893, -151.681, -101.036, 73.7268
7.43938, 81, 0.0730139, 3.86521, 23.8513, -151.699, -100.918, 73.4777
7.44745, 81, 0.169134, 3.56302, 23.9824, -151.735, -100.667, 72.9867
7.45657, 81, 0.312898, 3.07753, 24.1974, -151.791, -100.256, 72.2692
7.46622, 82, 0.408543, 2.7331, 24.3526, -151.828, -99.9587, 71.8031
7.47146, 82, 0.456273, 2.55461, 24.4337, -151.846, -99.8027, 71.5738
7.47944, 82, 0.551479, 2.18598, 24.6025, -151.884, -99.4769, 71.1228
7.48741, 82, 0.646608, 1.80126, 24.7809, -151.921, -99.1334, 70.6816
7.49541, 82, 0.741578, 1.39986, 24.9688, -151.957, -98.7724, 70.2507
7.50494, 83, 0.883913, 0.767851, 25.2677, -152.01, -98.1993, 69.6237
7.51159, 83, 0.931319, 0.54985, 25.3724, -152.028, -98, 69.4194
7.5194, 83, 1.02604, 0.102663, 25.5899, -152.062, -97.5891, 69.0185
7.53432, 83, 1.21584, -0.836134, 26.0525, -152.126, -96.7196, 68.2444
7.53694, 83, 1.21584, -0.836134, 26.1744, -152.141, -96.4924, 68.0566
7.5441, 84, 1.31091, -1.32754, 26.2989, -152.156, -96.2612, 67.8711
7.55147, 84, 1.40628, -1.83289, 26.5552, -152.186, -95.7869, 67.506
7.56116, 84, 1.50184, -2.35139, 26.9596, -152.227, -95.0466, 66.9723
7.56741, 84, 1.59769, -2.88374, 27.0993, -152.24, -94.7918, 66.7982
7.57548, 84, 1.69387, -3.42981, 27.3867, -152.264, -94.271, 66.4554
7.5861, 85, 1.83895, -4.27383, 27.8374, -152.297, -93.4625, 65.9545
7.59161, 85, 1.8874, -4.56132, 27.9925, -152.308, -93.1855, 65.7916
7.60046, 85, 1.98469, -5.14428, 28.3102, -152.327, -92.6207, 65.472
7.6074, 85, 2.08237, -5.73751, 28.6368, -152.344, -92.0443, 65.1603
7.61557, 85, 2.18042, -6.33986, 28.9725, -152.358, -91.4577, 64.8575
7.62338, 85, 2.27922, -6.94978, 29.3164, -152.369, -90.8609, 64.564
7.63147, 86, 2.37861, -7.56677, 29.6682, -152.378, -90.2548, 64.2804
7.6394, 86, 2.47886, -8.18956, 30.0269, -152.383, -89.6398, 64.0072
7.64742, 86, 2.58018, -8.81856, 30.3921, -152.386, -89.0165, 63.7447
7.65541, 86, 2.68215, -9.45306, 30.7628, -152.387, -88.3888, 63.494
7.66588, 86, 2.7853, -10.0917, 31.1388, -152.385, -87.4391, 63.1397
7.67155, 87, 2.88945, -10.7339, 31.5203, -152.378, -87.1197, 63.0274
7.68042, 87, 2.99436, -11.3791, 31.9063, -152.368, -86.4767, 62.8119
7.69151, 87, 3.15374, -12.352, 32.4939, -152.346, -85.5035, 62.5122
7.69541, 87, 3.2072, -12.6775, 32.6922, -152.337, -85.1773, 62.4187
7.70348, 87, 3.31464, -13.3306, 33.0926, -152.315, -84.5217, 62.2411
7.71145, 88, 3.4228, -13.9863, 33.4983, -152.29, -83.8605, 62.0765
7.71955, 88, 3.53143, -14.6446, 33.909, -152.26, -83.1938, 61.9251
7.72916, 88, 3.64051, -15.3037, 34.3248, -152.227, -82.5222, 61.7871
7.73547, 88, 3.74999, -15.9626, 34.7453, -152.189, -81.8459, 61.6636
7.74341, 88, 3.85975, -16.6202, 35.1694, -152.146, -81.1681, 61.5552
7.7514, 89, 3.96974, -17.2748, 35.5962, -152.099, -80.4899, 61.4635
7.75949, 89, 4.08015, -17.9265, 36.0238, -152.046, -79.812, 61.3899
7.77516, 89, 4.30239, -19.2193, 36.8782, -151.927, -78.4611, 61.2993
7.7771, 89, 4.30239, -19.2193, 36.8782, -151.927, -78.4611, 61.2993
7.78474, 89, 4.41419, -19.8595, 37.3034, -151.858, -77.7922, 61.2834
7.7916, 90, 4.52644, -20.4954, 37.7273, -151.786, -77.127, 61.288
7.7995, 90, 4.63932, -21.1274, 38.1513, -151.708, -76.4627, 61.3162
7.80751, 90, 4.75208, -21.7548, 38.5752, -151.624, -75.7983, 61.3674
7.81559, 90, 4.86441, -22.3781, 39.0001, -151.534, -75.1332, 61.4417
7.82518, 90, 4.97631, -22.9983, 39.4263, -151.437, -74.4684, 61.542
7.83263, 91, 5.08773, -23.6158, 39.8532, -151.334, -73.8028, 61.6683
7.84039, 91, 5.19888, -24.2302, 40.2808, -151.225, -73.1355, 61.8232
7.84756, 91, 5.30957, -24.8402, 40.7087, -151.108, -72.4678, 62.0071
7.85644, 91, 5.41962, -25.4453, 41.1357, -150.985, -71.7998, 62.2209
7.86369, 91, 5.52918, -26.044, 41.5613, -150.854, -71.1326, 62.4651
7.8718, 91, 5.63846, -26.6351, 41.9848, -150.718, -70.4688, 62.7405
7.87981, 92, 5.74787, -27.2177, 42.405, -150.576, -69.8083, 63.0474
7.88782, 92, 5.858, -27.7908, 42.8207, -150.429, -69.1516, 63.3849
7.89681, 92, 5.9687, -28.3539, 43.2307, -150.277, -68.499, 63.7533
7.90464, 92, 6.08021, -28.9061, 43.6349, -150.122, -67.8514, 64.1527
7.91202, 92, 6.19293, -29.4466, 44.0321, -149.963, -67.2114, 64.5827
7.92001, 93, 6.30706, -29.9755, 44.4221, -149.802, -66.5774, 65.0447
7.93293, 93, 6.48215, -30.7485, 44.9955, -149.557, -65.6342, 65.7961
7.93657, 93, 6.54169, -31.0018, 45.1837, -149.475, -65.3214, 66.0632
7.94339, 93, 6.60172, -31.2535, 45.3709, -149.393, -65.0092, 66.339
7.95205, 93, 6.72345, -31.7529, 45.7415, -149.229, -64.0744, 67.2236
7.95935, 94, 6.84735, -32.247, 46.1087, -149.064, -63.7621, 67.5396
7.96848, 94, 7.03678, -32.9791, 46.6551, -148.815, -62.8164, 68.56
7.97539, 94, 7.10076, -33.2201, 46.8365, -148.731, -62.4982, 68.9262
7.98459, 94, 7.29579, -33.9325, 47.3773, -148.485, -61.5345, 70.1027
7.99145, 94, 7.36228, -34.1666, 47.5559, -148.404, -61.2104, 70.5204
7.99935, 95, 7.49816, -34.6285, 47.9078, -148.248, -60.5623, 71.3961
8.00885, 95, 7.71157, -35.3023, 48.4196, -148.03, -59.5959, 72.7944
8.01542, 95, 7.78575, -35.5214, 48.5848, -147.964, -59.2762, 73.2809
8.02344, 95, 7.93895, -35.9494, 48.9058, -147.842, -58.6424, 74.283
8.03146, 95, 8.09915, -36.3599, 49.2118, -147.737, -58.0162, 75.3193
8.03937, 96, 8.26615, -36.7501, 49.5026, -147.649, -57.3995, 76.3899
8.04897, 96, 8.52922, -37.2951, 49.9073, -147.554, -56.501, 78.051
8.05542, 96, 8.61993, -37.4653, 50.0339, -147.532, -56.2082, 78.6188
8.06344, 96, 8.80543, -37.7874, 50.2742, -147.505, -55.6336, 79.7706
8.07241, 96, 8.99586, -38.0841, 50.4952, -147.497, -55.0763, 80.9398
8.07983, 96, 9.18995, -38.3562, 50.697, -147.51, -54.5384, 82.1214
8.08739, 97, 9.38614, -38.6029, 50.8798, -147.546, -54.0225, 83.315
8.09639, 97, 9.58297, -38.8241, 51.0421, -147.603, -53.5307, 84.5153
8.10413, 97, 9.77916, -39.0207, 51.1842, -147.68, -53.0647, 85.7125
8.11143, 97, 9.97406, -39.1928, 51.3068, -147.775, -52.627, 86.8987
8.11939, 97, 10.1665, -39.3392, 51.4097, -147.885, -52.2193, 88.0655
8.12862, 97, 10.3554, -39.4604, 51.4936, -148.008, -51.8425, 89.2062
8.13636, 98, 10.5406, -39.5564, 51.559, -148.142, -51.4968, 90.3129
8.14339, 98, 10.7232, -39.6282, 51.6064, -148.286, -51.182, 91.3854
8.15146, 98, 10.904, -39.677, 51.6362, -148.439, -50.8957, 92.4312
8.16039, 98, 11.0832, -39.7027, 51.6486, -148.603, -50.6343, 93.4648
8.16739, 98, 11.2602, -39.7048, 51.6442, -148.78, -50.3941, 94.5001
8.17538, 98, 11.4358, -39.6832, 51.6225, -148.969, -50.173, 95.5483
8.18439, 98, 11.6115, -39.6377, 51.5832, -149.172, -49.971, 96.6177
8.19244, 99, 11.787, -39.5689, 51.526, -149.389, -49.7894, 97.7077
8.20138, 99, 11.9607, -39.4774, 51.4504, -149.617, -49.6309, 98.8146
8.20746, 99, 12.1317, -39.3632, 51.3562, -149.853, -49.4989, 99.9267
8.21538, 99, 12.299, -39.2265, 51.2438, -150.095, -49.3961, 101.035
8.22342, 99, 12.461, -39.0677, 51.114, -150.34, -49.3244, 102.125
8.23156, 99, 12.6159, -38.8865, 50.9681, -150.583, -49.2834, 103.193
8.23944, 100, 12.7623, -38.6814, 50.8065, -150.822, -49.2738, 104.228
8.24739, 100, 12.8998, -38.4518, 50.6285, -151.057, -49.2963, 105.235
8.25648, 100, 13.0284, -38.1996, 50.4333, -151.287, -49.3502, 106.213
8.26342, 100, 13.1483, -37.9252, 50.2217, -151.51, -49.4353, 107.168
8.27186, 100, 13.2601, -37.63, 49.9925, -151.728, -49.5517, 108.099
8.27948, 100, 13.3637, -37.3121, 49.7448, -151.939, -49.6988, 109.008
8.28757, 101, 13.4592, -36.9703, 49.4806, -152.142, -49.876, 109.895
8.29548, 101, 13.5467, -36.6037, 49.1992, -152.337, -50.083, 110.758
8.30348, 101, 13.6265, -36.2117, 48.9011, -152.522, -50.3196, 111.6
8.31163, 101, 13.6981, -35.7946, 48.5853, -152.698, -50.5861, 112.416
8.31947, 101, 13.7615, -35.3542, 48.2519, -152.865, -50.8836, 113.211
8.33553, 102, 13.8621, -34.406, 47.5332, -153.164, -51.5745, 114.733
8.33693, 102, 13.8621, -34.406, 47.5332, -153.164, -51.5745, 114.733
8.34349, 102, 13.8984, -33.8974, 47.1485, -153.295, -51.9687, 115.459
8.35245, 102, 13.9252, -33.365, 46.748, -153.413, -52.3949, 116.16
8.35957, 102, 13.943, -32.8104, 46.3332, -153.518, -52.8531, 116.834
8.36771, 102, 13.9526, -32.2346, 45.9046, -153.61, -53.3407, 117.483
8.37565, 102, 13.9546, -31.6381, 45.4625, -153.687, -53.8551, 118.106
8.3844, 103, 13.9498, -31.0225, 45.0079, -153.751, -54.3943, 118.702
8.39196, 103, 13.9384, -30.3897, 44.5421, -153.802, -54.9552, 119.271
8.40052, 103, 13.9213, -29.7413, 44.0661, -153.84, -55.5353, 119.816
8.4079, 103, 13.8986, -29.0783, 43.5818, -153.866, -56.1327, 120.336
8.41649, 103, 13.8711, -28.4026, 43.0908, -153.881, -56.7454, 120.829
8.42391, 104, 13.8557, -27.716, 42.5941, -153.886, -57.3714, 121.298
8.43214, 104, 13.8219, -27.3692, 42.0932, -153.88, -58.0108, 121.744
8.44006, 104, 13.7842, -26.6695, 41.5888, -153.865, -58.6653, 122.169
8.44738, 104, 13.743, -25.9624, 41.3355, -153.854, -58.9976, 122.375
8.45537, 104, 13.6994, -25.2507, 40.8278, -153.826, -59.6714, 122.773
8.46343, 104, 13.6539, -24.5361, 40.3187, -153.79, -60.3549, 123.156
8.47137, 104, 13.6068, -23.8182, 39.8089, -153.747, -61.0452, 123.527
8.47941, 104, 13.5579, -23.0977, 39.2996, -153.698, -61.7415, 123.889
8.48744, 104, 13.5078, -22.3756, 38.7913, -153.645, -62.4422, 124.246
8.49537, 104, 13.4569, -21.6523, 38.2844, -153.585, -63.1452, 124.598
8.50337, 104, 13.4053, -20.9291, 37.7791, -153.522, -63.8492, 124.948
8.51142, 104, 13.3532, -20.2062, 37.275, -153.454, -64.5533, 125.297
8.51947, 104, 13.3009, -19.4829, 36.773, -153.383, -65.2592, 125.644
8.52739, 104, 13.2483, -18.7591, 36.273, -153.307, -65.9664, 125.99
8.53544, 104, 13.1959, -18.0353, 35.7749, -153.228, -66.6744, 126.336
8.54495, 104, 13.1178, -16.9487, 35.0323, -153.101, -67.7373, 126.853
8.5532, 104, 13.066, -16.2246, 34.5396, -153.011, -68.4448, 127.197
8.55944, 104, 13.0403, -15.8625, 34.2942, -152.965, -68.7995, 127.369
8.56895, 104, 12.9891, -15.1379, 33.8048, -152.87, -69.8665, 127.884
8.57636, 104, 12.9381, -14.4125, 33.3177, -152.771, -70.2223, 128.056
8.58344, 104, 12.8875, -13.6872, 32.8334, -152.668, -70.933, 128.4
8.59249, 104, 12.8374, -12.9618, 32.3517, -152.561, -71.6434, 128.744
8.59937, 104, 12.7876, -12.2362, 31.8724, -152.45, -72.3559, 129.088
8.60745, 104, 12.7381, -11.5112, 31.3959, -152.336, -73.0688, 129.432
8.61539, 104, 12.6892, -10.786, 30.9219, -152.217, -73.7819, 129.778
8.62337, 104, 12.6404, -10.0605, 30.4506, -152.095, -74.4952, 130.124
8.63144, 104, 12.5918, -9.33473, 29.9824, -151.968, -75.2086, 130.47
8.63937, 104, 12.5438, -8.60889, 29.5174, -151.838, -75.9227, 130.818
8.64738, 104, 12.4963, -7.88281, 29.0556, -151.703, -76.6374, 131.167
8.65548, 104, 12.4492, -7.15713, 28.5969, -151.565, -77.3533, 131.517
8.6634, 104, 12.4028, -6.43169, 28.1415, -151.422, -78.0691, 131.868
8.67138, 104, 12.3569, -5.70677, 27.6897, -151.275, -78.783, 132.22
8.67943, 104, 12.3115, -4.98262, 27.2415, -151.123, -79.498, 132.573
8.68741, 104, 12.2671, -4.25965, 26.7973, -150.968, -80.214, 132.928
8.69538, 104, 12.2238, -3.53873, 26.3581, -150.809, -80.9295, 133.284
8.70343, 104, 12.1814, -2.82247, 25.9238, -150.645, -81.6413, 133.641
8.71136, 104, 12.1403, -2.11244, 25.4955, -150.478, -82.3491, 133.998
8.71937, 104, 12.1006, -1.40963, 25.0743, -150.308, -83.0537, 134.354
8.72744, 104, 12.0618, -0.715279, 24.6615, -150.136, -83.7511, 134.707
8.73542, 104, 12.024, -0.0306782, 24.2583, -149.961, -84.4388, 135.059
8.7434, 104, 11.9871, 0.643109, 23.8657, -149.786, -85.1136, 135.406
8.75141, 104, 11.9514, 1.30443, 23.4857, -149.609, -85.7738, 135.748
8.75937, 104, 11.9168, 1.95264, 23.1181, -149.433, -86.42, 136.084
8.76746, 104, 11.8834, 2.58587, 22.7634, -149.257, -87.0506, 136.415
8.77549, 104, 11.8509, 3.20278, 22.421, -149.082, -87.6649, 136.738
8.78346, 104, 11.8198, 3.80351, 22.0921, -148.908, -88.2633, 137.054
8.79151, 104, 11.7899, 4.38729, 21.7756, -148.736, -88.8439, 137.364
8.79949, 104, 11.7612, 4.95446, 21.4716, -148.564, -89.4068, 137.667
8.80786, 104, 11.7341, 5.50434, 21.1788, -148.395, -89.9544, 137.963
8.81636, 104, 11.7079, 6.03691, 20.8983, -148.227, -90.4863, 138.252
8.82347, 104, 11.6829, 6.55313, 20.6295, -148.061, -91.0016, 138.534
8.8314, 104, 11.6592, 7.0523, 20.3722, -147.899, -91.5003, 138.808
8.83945, 104, 11.6365, 7.53444, 20.1267, -147.738, -91.9816, 139.075
8.8482, 104, 11.6151, 8.00022, 19.8917, -147.581, -92.446, 139.334
8.85556, 104, 11.5948, 8.44926, 19.6677, -147.427, -92.894, 139.586
8.86429, 104, 11.5757, 8.88113, 19.4549, -147.276, -93.3254, 139.829
8.87168, 104, 11.5576, 9.29568, 19.2523, -147.129, -93.7399, 140.064
8.87968, 104, 11.5407, 9.69298, 19.0598, -146.986, -94.1374, 140.291
8.88783, 104, 11.5249, 10.0722, 18.8784, -146.847, -94.5174, 140.509
8.89582, 104, 11.5101, 10.4324, 18.7074, -146.713, -94.8792, 140.718
8.90446, 104, 11.4963, 10.7734, 18.5465, -146.585, -95.2222, 140.917
8.91199, 104, 11.4836, 11.0954, 18.3966, -146.463, -95.5458, 141.105
8.91994, 104, 11.4718, 11.3966, 18.2576, -146.347, -95.849, 141.282
8.9285, 104, 11.4611, 11.6773, 18.1289, -146.238, -96.1315, 141.448
8.93615, 104, 11.4515, 11.9368, 18.0108, -146.136, -96.3926, 141.601
8.94399, 104, 11.447, 12.0585, 17.9558, -146.088, -96.6318, 141.743
8.9525, 104, 11.4344, 12.3922, 17.8065, -145.956, -96.8494, 141.872
8.95938, 104, 11.4306, 12.493, 17.7619, -145.916, -96.9498, 141.932
8.96741, 104, 11.4236, 12.6785, 17.6806, -145.842, -97.1343, 142.042
8.97645, 104, 11.4145, 12.9175, 17.5774, -145.747, -97.3695, 142.183
8.98337, 104, 11.4118, 12.9871, 17.548, -145.72, -97.437, 142.223
8.99139, 104, 11.4067, 13.1121, 17.496, -145.672, -97.5559, 142.294
8.99948, 104, 11.4021, 13.2184, 17.4532, -145.632, -97.6543, 142.353
9.00744, 104, 11.3979, 13.307, 17.4186, -145.6, -97.7335, 142.4
9.01538, 104, 11.394, 13.3799, 17.3915, -145.574, -97.795, 142.438
9.02528, 104, 11.389, 13.4636, 17.3635, -145.547, -97.8587, 142.477
9.03135, 104, 11.3875, 13.4856, 17.3568, -145.541, -97.8738, 142.486
9.03937, 104, 11.385, 13.5212, 17.3469, -145.531, -97.8965, 142.499
9.04895, 104, 11.3821, 13.5583, 17.3383, -145.523, -97.9165, 142.51
9.0571, 104, 11.3806, 13.5748, 17.3353, -145.521, -97.9231, 142.513
9.06338, 104, 11.3801, 13.581, 17.3344, -145.52, -97.9252, 142.514
9.07301, 104, 11.3791, 13.5902, 17.3329, -145.519, -97.9282, 142.516
9.07931, 105, 11.3784, 13.5964, 17.3327, -145.518, -97.9287, 142.516
9.08739, 105, 11.3779, 13.6004, 17.3324, -145.518, -97.9292, 142.516
9.09541, 105, 11.3775, 13.6031, 17.3323, -145.518, -97.9294, 142.517
9.10334, 105, 11.3772, 13.6053, 17.3322, -145.518, -97.9295, 142.517
9.11137, 105, 11.3769, 13.6071, 17.3322, -145.518, -97.9295, 142.517
9.1194, 105, 11.3768, 13.6087, 17.3322, -145.518, -97.9295, 142.517
9.12738, 105, 11.3767, 13.6102, 17.3322, -145.518, -97.9295, 142.517
9.13537, 105, 11.3765, 13.6114, 17.3322, -145.518, -97.9293, 142.517
9.14341, 105, 11.3764, 13.6123, 17.3322, -145.518, -97.9292, 142.517
9.15137, 105, 11.3764, 13.6132, 17.3323, -145.518, -97.9291, 142.517
9.15938, 105, 11.3763, 13.6139, 17.3323, -145.518, -97.929, 142.517
9.16743, 105, 11.3763, 13.6143, 17.3323, -145.518, -97.9288, 142.517
9.17536, 105, 11.3763, 13.6146, 17.3324, -145.518, -97.9287, 142.517
9.18337, 105, 11.3763, 13.6148, 17.3324, -145.518, -97.9286, 142.517
9.19145, 105, 11.3763, 13.6148, 17.3325, -145.518, -97.9285, 142.517
9.19938, 105, 11.3763, 13.6149, 17.3325, -145.518, -97.9284, 142.517
