hehonglu123/Motion-Primitive-Planning/ILC/recorded_data/realrobot/from_NX/iteration_1/run_0.csv
timestamp, cmd_num, J1, J2, J3, J4, J5, J6
0.000401, -1, 39.6312, 32.4445, 11.8317, 12.547, 113.714, -48.8708
0.00601, -1, 39.6311, 32.4445, 11.8317, 12.547, 113.714, -48.8708
0.008021, -1, 39.6311, 32.4445, 11.8317, 12.547, 113.714, -48.8708
0.03139, -1, 39.6311, 32.4445, 11.8317, 12.5471, 113.714, -48.8708
0.034679, -1, 39.6311, 32.4445, 11.8317, 12.5471, 113.714, -48.8708
0.035915, -1, 39.6311, 32.4445, 11.8317, 12.5471, 113.714, -48.8708
0.039665, -1, 39.6311, 32.4445, 11.8317, 12.5471, 113.714, -48.8708
0.047602, -1, 39.6311, 32.4445, 11.8317, 12.5471, 113.714, -48.8708
0.055703, -1, 39.6307, 32.4445, 11.8317, 12.547, 113.714, -48.8709
0.063605, -1, 39.6286, 32.4441, 11.8316, 12.547, 113.714, -48.8709
0.203948, -1, 38.1659, 31.695, 12.1209, 12.5617, 112.943, -50.8391
0.205147, -1, 38.1659, 31.695, 12.1209, 12.5617, 112.943, -50.8391
0.207069, -1, 38.1659, 31.695, 12.1209, 12.5629, 112.892, -50.9662
0.208537, -1, 38.076, 31.6481, 12.1404, 12.5629, 112.892, -50.9662
0.209729, -1, 38.076, 31.6481, 12.1404, 12.5629, 112.892, -50.9662
0.212444, -1, 37.9848, 31.6006, 12.1598, 12.5641, 112.842, -51.0942
0.213814, -1, 37.9848, 31.6006, 12.1598, 12.5641, 112.842, -51.0942
0.219239, -1, 37.7991, 31.5043, 12.1986, 12.5665, 112.74, -51.352
0.220686, -1, 37.7991, 31.5043, 12.1986, 12.5665, 112.74, -51.352
0.221887, -1, 37.7991, 31.5043, 12.1986, 12.5665, 112.74, -51.352
0.225334, -1, 37.705, 31.4557, 12.218, 12.5678, 112.689, -51.4814
0.227144, -1, 37.705, 31.4557, 12.218, 12.5678, 112.689, -51.611
0.228656, -1, 37.6101, 31.4069, 12.2373, 12.569, 112.638, -51.611
0.229854, -1, 37.6101, 31.4069, 12.2373, 12.569, 112.638, -51.611
0.231921, -1, 37.5148, 31.358, 12.2567, 12.5702, 112.586, -51.7409
0.234365, -1, 37.5148, 31.358, 12.2567, 12.5702, 112.586, -51.7409
0.237125, -1, 37.4191, 31.3089, 12.276, 12.5714, 112.535, -51.8708
0.238452, -1, 37.4191, 31.3089, 12.276, 12.5714, 112.535, -51.8708
0.240564, -1, 37.3232, 31.2599, 12.2954, 12.5727, 112.483, -52.0006
0.241765, -1, 37.3232, 31.2599, 12.2954, 12.5727, 112.483, -52.0006
0.243964, -1, 37.2272, 31.2109, 12.3148, 12.5739, 112.432, -52.1305
0.245199, -1, 37.2272, 31.2109, 12.3148, 12.5739, 112.432, -52.1305
0.249497, -1, 37.1311, 31.162, 12.3343, 12.5751, 112.381, -52.2604
0.255752, -1, 36.939, 31.0642, 12.373, 12.5777, 112.278, -52.5204
0.26387, -1, 36.747, 30.9664, 12.4117, 12.5802, 112.174, -52.7808
0.271762, -1, 36.5554, 30.8686, 12.4506, 12.5827, 112.072, -53.0411
0.279853, -1, 36.3639, 30.7709, 12.4895, 12.5853, 111.969, -53.3015
0.288048, -1, 36.1724, 30.6731, 12.5283, 12.5878, 111.866, -53.562
0.294602, -1, 36.0767, 30.6241, 12.5478, 12.589, 111.815, -53.6923
0.304036, -1, 35.7895, 30.4771, 12.6062, 12.5929, 111.66, -54.0833
0.310648, -1, 35.6936, 30.4281, 12.6257, 12.5941, 111.608, -54.2134
0.320185, -1, 35.4057, 30.2808, 12.684, 12.5979, 111.454, -54.6039
0.326642, -1, 35.3096, 30.2316, 12.7034, 12.5992, 111.402, -54.7341
0.336218, -1, 35.0209, 30.0841, 12.7618, 12.603, 111.248, -55.1254
0.344211, -1, 34.9247, 29.9856, 12.8007, 12.6056, 111.144, -55.3859
0.352252, -1, 34.7324, 29.9364, 12.8201, 12.6081, 111.041, -55.6467
0.360179, -1, 34.54, 29.8379, 12.859, 12.6093, 110.99, -55.7771
0.367593, -1, 34.3478, 29.7395, 12.8981, 12.6119, 110.887, -56.038
0.375612, -1, 34.1557, 29.6412, 12.937, 12.6144, 110.784, -56.299
0.383633, -1, 33.9638, 29.5429, 12.976, 12.617, 110.681, -56.5597
0.39159, -1, 33.7721, 29.4446, 13.0151, 12.6197, 110.578, -56.8205
0.398641, -1, 33.5803, 29.3462, 13.0539, 12.6223, 110.474, -57.0815
0.407609, -1, 33.3881, 29.2479, 13.093, 12.6249, 110.372, -57.3427
0.415624, -1, 33.1955, 29.1493, 13.132, 12.6274, 110.268, -57.6035
0.423628, -1, 33.0027, 29.0507, 13.1708, 12.6301, 110.165, -57.8646
0.431597, -1, 32.8097, 28.9521, 13.2098, 12.6327, 110.063, -58.1257
0.439674, -1, 32.6164, 28.8535, 13.2488, 12.6354, 109.959, -58.3871
0.44759, -1, 32.4229, 28.7548, 13.2877, 12.638, 109.856, -58.6482
0.455592, -1, 32.229, 28.6561, 13.3267, 12.6407, 109.753, -58.9091
0.463677, -1, 32.0349, 28.5574, 13.3656, 12.6434, 109.65, -59.1701
0.471602, -1, 31.8409, 28.4586, 13.4046, 12.6461, 109.547, -59.4316
0.47959, -1, 31.6473, 28.3599, 13.4437, 12.6487, 109.444, -59.693
0.488616, -1, 31.4539, 28.2613, 13.4828, 12.6516, 109.341, -59.9541
0.494609, -1, 31.2608, 28.1628, 13.5218, 12.6543, 109.238, -60.2154
0.503599, -1, 31.0682, 28.0644, 13.5609, 12.6571, 109.135, -60.4768
0.511668, -1, 30.876, 27.9658, 13.5999, 12.6599, 109.032, -60.7384
0.519594, -1, 30.6839, 27.8672, 13.6389, 12.6627, 108.928, -60.9997
0.659613, -1, 27.3035, 26.1384, 14.3218, 12.7071, 107.121, -65.5783
0.661701, -1, 27.3035, 26.1384, 14.3218, 12.7071, 107.121, -65.5783
0.66378, -1, 27.2074, 26.0889, 14.3413, 12.7082, 107.069, -65.7091
0.664979, -1, 27.2074, 26.0889, 14.3413, 12.7082, 107.069, -65.7091
0.666853, -1, 27.2074, 26.0395, 14.3608, 12.7094, 107.017, -65.84
0.668283, -1, 27.1112, 26.0395, 14.3608, 12.7094, 107.017, -65.84
0.669545, -1, 27.1112, 26.0395, 14.3608, 12.7094, 107.017, -65.84
0.672721, -1, 27.0149, 25.99, 14.3802, 12.7106, 106.965, -65.9709
0.673955, -1, 27.0149, 25.99, 14.3802, 12.7106, 106.965, -65.9709
0.676749, -1, 26.9186, 25.9406, 14.3997, 12.7117, 106.914, -66.1019
0.678033, -1, 26.9186, 25.9406, 14.3997, 12.7117, 106.914, -66.1019
0.680237, -1, 26.8222, 25.8912, 14.4192, 12.7129, 106.862, -66.2329
0.681517, -1, 26.8222, 25.8912, 14.4192, 12.7129, 106.862, -66.2329
0.683502, -1, 26.7258, 25.8418, 14.4387, 12.714, 106.811, -66.3636
0.685617, -1, 26.7258, 25.8418, 14.4387, 12.714, 106.811, -66.3636
0.688203, -1, 26.6292, 25.7924, 14.4582, 12.7151, 106.759, -66.4945
0.6895, -1, 26.6292, 25.7924, 14.4582, 12.7151, 106.759, -66.4945
0.691549, -1, 26.5325, 25.743, 14.4777, 12.7162, 106.707, -66.6254
0.692793, -1, 26.5325, 25.743, 14.4777, 12.7162, 106.707, -66.6254
0.694073, -1, 26.5325, 25.743, 14.4777, 12.7162, 106.707, -66.6254
0.696039, -1, 26.4356, 25.6936, 14.4971, 12.7173, 106.656, -66.7562
0.697465, -1, 26.4356, 25.6936, 14.4971, 12.7173, 106.656, -66.7562
0.705674, -1, 26.2416, 25.5948, 14.5361, 12.7195, 106.553, -67.0181
0.711763, -1, 26.0474, 25.4959, 14.5751, 12.7218, 106.45, -67.28
0.719703, -1, 25.853, 25.397, 14.614, 12.7241, 106.346, -67.5417
0.727656, -1, 25.6588, 25.2982, 14.6531, 12.7264, 106.243, -67.8033
0.73577, -1, 25.4648, 25.1995, 14.6921, 12.7287, 106.14, -68.0648
0.743621, -1, 25.2711, 25.1009, 14.731, 12.731, 106.037, -68.3267
0.751692, -1, 25.0776, 25.0021, 14.7701, 12.7333, 105.933, -68.5885
0.759722, -1, 24.8844, 24.9033, 14.8092, 12.7357, 105.83, -68.8499
0.767721, -1, 24.6916, 24.8045, 14.848, 12.7381, 105.727, -69.1116
0.776091, -1, 24.4992, 24.7056, 14.8871, 12.7405, 105.624, -69.3734
0.783865, -1, 24.3069, 24.6067, 14.9262, 12.7429, 105.52, -69.6351
0.791886, -1, 24.1144, 24.5078, 14.9651, 12.7452, 105.417, -69.8967
0.800066, -1, 23.9217, 24.409, 15.0041, 12.7475, 105.314, -70.1581
0.806601, -1, 23.8253, 24.3596, 15.0236, 12.7488, 105.262, -70.2889
0.816091, -1, 23.5357, 24.2114, 15.082, 12.7524, 105.107, -70.6817
0.824542, -1, 23.3421, 24.1125, 15.121, 12.7548, 105.004, -70.9433
0.832162, -1, 23.1483, 24.0137, 15.1598, 12.7572, 104.9, -71.205
0.840218, -1, 22.9543, 23.9148, 15.1987, 12.7596, 104.797, -71.4668
0.848243, -1, 22.7602, 23.816, 15.2377, 12.7621, 104.693, -71.7287
0.85614, -1, 22.6631, 23.7666, 15.2572, 12.7634, 104.642, -71.9903
0.863586, -1, 22.4693, 23.668, 15.2962, 12.7659, 104.538, -72.1211
0.871626, -1, 22.2759, 23.5694, 15.3352, 12.7684, 104.435, -72.3824
0.879576, -1, 22.0827, 23.4706, 15.3741, 12.771, 104.331, -72.644
0.887564, -1, 21.8897, 23.3719, 15.4131, 12.7736, 104.228, -72.9056
0.895627, -1, 21.6972, 23.2732, 15.4521, 12.7762, 104.125, -73.1668
0.903589, -1, 21.505, 23.1743, 15.491, 12.7789, 104.022, -73.4283
0.911573, -1, 21.3127, 23.0756, 15.53, 12.7816, 103.919, -73.6897
0.919671, -1, 21.1205, 22.977, 15.569, 12.7843, 103.816, -73.9514
0.927588, -1, 20.9281, 22.8784, 15.6079, 12.787, 103.713, -74.2127
0.935619, -1, 20.7356, 22.7797, 15.6469, 12.7897, 103.609, -74.4737
0.943585, -1, 20.543, 22.6812, 15.6858, 12.7925, 103.506, -74.7349
0.951585, -1, 20.3498, 22.5825, 15.7246, 12.7952, 103.403, -74.9963
0.959641, -1, 20.1561, 22.4838, 15.7636, 12.7978, 103.3, -75.2577
0.967574, -1, 19.9624, 22.3851, 15.8025, 12.8006, 103.197, -75.5188
0.975582, -1, 19.7687, 22.2864, 15.8412, 12.8034, 103.094, -75.78
0.985094, -1, 19.5751, 22.1879, 15.8801, 12.8061, 102.991, -76.0411
0.99162, -1, 19.3817, 22.0893, 15.9191, 12.8088, 102.888, -76.3025
1.00058, -1, 19.1887, 21.9906, 15.9579, 12.8115, 102.785, -76.5633
1.00764, -1, 18.9958, 21.892, 15.9968, 12.8143, 102.682, -76.8241
1.01557, -1, 18.8034, 21.7934, 16.0357, 12.8169, 102.579, -77.0851
1.0236, -1, 18.6113, 21.6946, 16.0744, 12.8196, 102.476, -77.3462
1.03157, -1, 18.4196, 21.596, 16.1134, 12.8223, 102.373, -77.6068
1.03957, -1, 18.2277, 21.4975, 16.1523, 12.8249, 102.271, -77.8676
1.04765, -1, 18.0359, 21.399, 16.191, 12.8275, 102.168, -78.1283
1.05557, -1, 17.8441, 21.3007, 16.23, 12.83, 102.065, -78.3891
1.06358, -1, 17.652, 21.2024, 16.2689, 12.8325, 101.962, -78.6497
1.07165, -1, 17.4595, 21.1041, 16.3077, 12.835, 101.859, -78.9099
1.07957, -1, 17.2667, 21.0058, 16.3466, 12.8374, 101.756, -79.1704
1.08762, -1, 17.0736, 20.9075, 16.3853, 12.8397, 101.653, -79.4312
1.09565, -1, 16.8805, 20.8093, 16.4242, 12.8421, 101.55, -79.6917
1.10358, -1, 16.6873, 20.7112, 16.463, 12.8444, 101.447, -79.9523
1.11157, -1, 16.4942, 20.613, 16.5016, 12.8467, 101.345, -80.2128
1.11965, -1, 16.3014, 20.5147, 16.5404, 12.849, 101.242, -80.4735
1.12757, -1, 16.1092, 20.4164, 16.5792, 12.8513, 101.139, -80.734
1.13557, -1, 15.9173, 20.318, 16.6179, 12.8536, 101.037, -80.9941
1.14366, -1, 15.7256, 20.2194, 16.6567, 12.8559, 100.934, -81.2541
1.15157, -1, 15.5344, 20.121, 16.6953, 12.8583, 100.831, -81.5142
1.15962, -1, 15.3432, 20.0227, 16.7339, 12.8606, 100.729, -81.7743
1.16777, -1, 15.1521, 19.9245, 16.7727, 12.8628, 100.626, -82.0342
1.17557, -1, 14.9609, 19.8263, 16.8114, 12.8651, 100.524, -82.2941
1.18369, -1, 14.7696, 19.7282, 16.8501, 12.8674, 100.421, -82.5539
1.19254, -1, 14.5781, 19.6301, 16.8888, 12.8696, 100.319, -82.8141
1.19966, -1, 14.3862, 19.532, 16.9275, 12.8719, 100.216, -83.0739
1.20774, -1, 14.1939, 19.4339, 16.9662, 12.8742, 100.114, -83.3334
1.21649, -1, 14.0016, 19.336, 17.0049, 12.8765, 100.011, -83.593
1.2237, -1, 13.8091, 19.2381, 17.0434, 12.8788, 99.9084, -83.8528
1.23174, -1, 13.6165, 19.1403, 17.0821, 12.8811, 99.806, -84.1122
1.24047, -1, 13.4242, 19.0425, 17.1208, 12.8834, 99.7034, -84.3714
1.2476, -1, 13.2322, 18.9446, 17.1593, 12.8857, 99.6013, -84.6308
1.25571, -1, 13.0406, 18.8467, 17.1979, 12.8881, 99.4989, -84.8901
1.26457, -1, 12.8493, 18.7487, 17.2365, 12.8904, 99.3963, -85.1495
1.27176, -1, 12.6584, 18.6508, 17.275, 12.8928, 99.2942, -85.4085
1.27985, -1, 12.4678, 18.553, 17.3136, 12.8953, 99.1918, -85.6674
1.28923, -1, 12.2777, 18.4552, 17.3522, 12.8977, 99.0896, -85.9262
1.296, -1, 12.0875, 18.3575, 17.3906, 12.9001, 98.9877, -86.1852
1.30258, -1, 11.9924, 18.3087, 17.4099, 12.9013, 98.9366, -86.3147
1.31203, -1, 11.7067, 18.1622, 17.4679, 12.9049, 98.7835, -86.7025
1.32019, -1, 11.516, 18.0646, 17.5063, 12.9074, 98.6818, -86.9612
1.32901, -1, 11.3249, 17.967, 17.5449, 12.9098, 98.5798, -87.2198
1.33616, -1, 11.1335, 17.8695, 17.5835, 12.9122, 98.4778, -87.4783
1.34469, -1, 10.942, 17.772, 17.622, 12.9147, 98.376, -87.7365
1.35304, -1, 10.8462, 17.7233, 17.6412, 12.9172, 98.2739, -87.9948
1.36012, -1, 10.6545, 17.6258, 17.6797, 12.9185, 98.2229, -88.2532
1.36821, -1, 10.463, 17.5283, 17.7181, 12.9211, 98.1213, -88.5115
1.37555, -1, 10.2717, 17.4308, 17.7565, 12.9235, 98.0193, -88.6404
1.38264, -1, 10.0809, 17.3332, 17.7949, 12.9262, 97.9174, -88.8984
1.39161, -1, 9.89056, 17.2357, 17.8332, 12.9289, 97.8157, -89.1565
1.39957, -1, 9.70048, 17.1382, 17.8716, 12.9314, 97.7136, -89.4147
1.40761, -1, 9.51087, 17.0408, 17.91, 12.9342, 97.6116, -89.6728
1.41556, -1, 9.32163, 16.9435, 17.9483, 12.9369, 97.5099, -89.9303
1.42363, -1, 9.13236, 16.8462, 17.9867, 12.9395, 97.4079, -90.1878
1.43161, -1, 8.94302, 16.749, 18.025, 12.9422, 97.3061, -90.4453
1.43956, -1, 8.75349, 16.6518, 18.0633, 12.9448, 97.2045, -90.7029
1.44756, -1, 8.56394, 16.5546, 18.1018, 12.9475, 97.1027, -90.9599
1.45563, -1, 8.3741, 16.4575, 18.1401, 12.9502, 97.0013, -91.2172
1.46516, -1, 8.08855, 16.3121, 18.1975, 12.9542, 96.8489, -91.603
1.47155, -1, 7.99326, 16.2637, 18.2167, 12.9555, 96.7981, -91.7317
1.47963, -1, 7.80269, 16.1667, 18.255, 12.9582, 96.6968, -91.9885
1.48766, -1, 7.612, 16.0698, 18.2932, 12.9607, 96.5952, -92.2453
1.49562, -1, 7.42155, 15.9729, 18.3316, 12.9633, 96.4938, -92.502
1.50457, -1, 7.23139, 15.8759, 18.3697, 12.9658, 96.3926, -92.759
1.51058, -1, 7.04159, 15.7789, 18.4079, 12.9684, 96.2912, -93.0155
1.51956, -1, 6.85225, 15.682, 18.4462, 12.971, 96.1899, -93.2719
1.52763, -1, 6.66334, 15.5851, 18.4843, 12.9735, 96.0893, -93.5283
1.53557, -1, 6.47486, 15.4883, 18.5223, 12.976, 95.9882, -93.7846
1.54356, -1, 6.28667, 15.3916, 18.5605, 12.9785, 95.8872, -94.0411
1.55157, -1, 6.09866, 15.2949, 18.5987, 12.9809, 95.7864, -94.2969
1.55956, -1, 5.91036, 15.1982, 18.6368, 12.9832, 95.6853, -94.5529
1.56762, -1, 5.72194, 15.1015, 18.675, 12.9855, 95.5843, -94.8088
1.57555, -1, 5.53346, 15.0049, 18.713, 12.9879, 95.4838, -95.0648
1.58356, -1, 5.3447, 14.9083, 18.7511, 12.9902, 95.3828, -95.3204
1.59167, -1, 5.15556, 14.8119, 18.7893, 12.9923, 95.2821, -95.5758
1.59955, -1, 4.96608, 14.7156, 18.8273, 12.9947, 95.1816, -95.8313
1.60756, -1, 4.77663, 14.6192, 18.8654, 12.9969, 95.0808, -96.0869
1.61563, -1, 4.58712, 14.5228, 18.9035, 12.9991, 94.98, -96.342
1.62355, -1, 4.39787, 14.4265, 18.9415, 13.0013, 94.8793, -96.597
1.63156, -1, 4.2089, 14.3301, 18.9795, 13.0035, 94.7785, -96.8519
1.63962, -1, 4.02032, 14.2337, 19.0175, 13.0058, 94.6776, -97.107
1.64755, -1, 3.83236, 14.1375, 19.0554, 13.008, 94.5768, -97.362
1.65556, -1, 3.64484, 14.0414, 19.0934, 13.0103, 94.4761, -97.6168
1.66369, -1, 3.45764, 13.9452, 19.1313, 13.0126, 94.3755, -97.8716
1.67159, -1, 3.27076, 13.8492, 19.1691, 13.015, 94.2748, -98.1263
1.67956, -1, 3.08379, 13.7532, 19.207, 13.0172, 94.1741, -98.3811
1.68782, -1, 2.89679, 13.6572, 19.245, 13.0194, 94.0735, -98.6355
1.69564, -1, 2.70975, 13.5612, 19.2828, 13.0217, 93.9729, -98.8897
1.70364, -1, 2.52248, 13.4652, 19.3207, 13.024, 93.8724, -99.1437
1.71198, -1, 2.335, 13.3693, 19.3585, 13.0262, 93.7721, -99.3979
1.71966, -1, 2.14718, 13.2735, 19.3963, 13.0285, 93.6717, -99.6519
1.72769, -1, 1.95897, 13.1777, 19.4342, 13.0306, 93.5715, -99.9055
1.73631, -1, 1.77076, 13.0818, 19.472, 13.033, 93.4717, -100.159
1.74358, -1, 1.58249, 12.9861, 19.5097, 13.0352, 93.3715, -100.413
1.75159, -1, 1.39437, 12.8903, 19.5476, 13.0375, 93.2714, -100.666
1.7604, -1, 1.20651, 12.7944, 19.5853, 13.0398, 93.1716, -100.92
1.76762, -1, 1.01915, 12.6987, 19.6229, 13.0422, 93.0715, -101.173
1.77577, -1, 0.832457, 12.6032, 19.6607, 13.0446, 92.9715, -101.426
1.78458, -1, 0.646152, 12.5076, 19.6983, 13.047, 92.8719, -101.679
1.79196, -1, 0.460247, 12.4122, 19.7359, 13.0494, 92.772, -101.932
1.79858, -1, 0.367423, 12.3645, 19.7548, 13.0506, 92.7221, -102.058
1.80877, -1, 0.089219, 12.2214, 19.8112, 13.0543, 92.5731, -102.437
1.81606, -1, -0.0961311, 12.1261, 19.8488, 13.0568, 92.4734, -102.689
1.82416, -1, -0.281742, 12.0309, 19.8865, 13.0592, 92.3738, -102.942
1.83291, -1, -0.467731, 11.9357, 19.924, 13.0617, 92.2746, -103.194
1.84034, -1, -0.653914, 11.8407, 19.9615, 13.0642, 92.175, -103.446
1.84819, -1, -0.840363, 11.7457, 19.9991, 13.0666, 92.0755, -103.698
1.85697, -1, -0.933708, 11.6982, 20.0178, 13.0691, 91.9763, -103.95
1.86408, -1, -1.12053, 11.6031, 20.0552, 13.0704, 91.9266, -104.076
1.8716, -1, -1.30756, 11.5081, 20.0928, 13.0729, 91.8272, -104.328
1.87954, -1, -1.49438, 11.413, 20.1303, 13.0754, 91.7281, -104.579
1.88754, -1, -1.68099, 11.3179, 20.1676, 13.078, 91.6289, -104.831
1.89561, -1, -1.86718, 11.2228, 20.2051, 13.0806, 91.5296, -105.082
1.90355, -1, -2.05282, 11.1279, 20.2425, 13.0833, 91.4306, -105.333
1.91155, -1, -2.23792, 11.033, 20.2799, 13.0859, 91.3313, -105.584
1.91955, -1, -2.42277, 10.9381, 20.3173, 13.0885, 91.2321, -105.835
1.92758, -1, -2.60712, 10.8434, 20.3546, 13.0912, 91.1332, -106.086
1.93559, -1, -2.791, 10.7486, 20.3919, 13.0939, 91.034, -106.337
1.94355, -1, -2.97489, 10.6539, 20.4293, 13.0965, 90.9349, -106.588
1.95154, -1, -3.15897, 10.5592, 20.4666, 13.0991, 90.8362, -106.839
1.9596, -1, -3.34329, 10.4647, 20.5038, 13.1017, 90.7372, -107.089
1.96755, -1, -3.52793, 10.3702, 20.5411, 13.1042, 90.6383, -107.34
1.97554, -1, -3.71272, 10.2759, 20.5784, 13.1067, 90.5396, -107.59
1.98529, -1, -3.89783, 10.1815, 20.6156, 13.1103, 90.3914, -107.965
1.99155, -1, -4.0832, 10.0871, 20.6529, 13.1116, 90.342, -108.09
1.99966, -1, -4.2687, 9.99288, 20.69, 13.114, 90.2435, -108.34
2.0086, -1, -4.45438, 9.89851, 20.7272, 13.1163, 90.1447, -108.59
2.01587, -1, -4.63971, 9.80416, 20.7645, 13.1187, 90.0462, -108.839
2.02354, -1, -4.82463, 9.70997, 20.8016, 13.1209, 89.9479, -109.088
2.03154, -1, -5.00915, 9.6159, 20.8387, 13.1234, 89.8493, -109.338
2.04035, -1, -5.19285, 9.52185, 20.8758, 13.1257, 89.7509, -109.587
2.04754, -1, -5.37613, 9.42782, 20.9129, 13.128, 89.6527, -109.836
2.05556, -1, -5.55903, 9.33392, 20.9499, 13.1303, 89.5542, -110.085
2.06433, -1, -5.74153, 9.24, 20.9871, 13.1326, 89.456, -110.334
2.07153, -1, -5.92384, 9.14609, 21.024, 13.1349, 89.358, -110.583
2.07954, -1, -6.10633, 9.05223, 21.061, 13.1371, 89.2598, -110.831
2.08835, -1, -6.28913, 8.95843, 21.0981, 13.1394, 89.1618, -111.08
2.09558, -1, -6.47205, 8.86482, 21.135, 13.1415, 89.0641, -111.328
2.10354, -1, -6.65519, 8.77118, 21.1717, 13.1437, 88.966, -111.576
2.11236, -1, -6.83881, 8.67754, 21.2087, 13.1458, 88.868, -111.825
2.11954, -1, -7.02273, 8.58395, 21.2456, 13.1479, 88.7703, -112.072
2.12754, -1, -7.2069, 8.49039, 21.2825, 13.1501, 88.6724, -112.32
2.13634, -1, -7.39113, 8.39674, 21.3195, 13.1522, 88.5746, -112.567
2.14359, -1, -7.57495, 8.30311, 21.3563, 13.1543, 88.4771, -112.815
2.15154, -1, -7.75851, 8.20969, 21.393, 13.1565, 88.3795, -113.063
2.16034, -1, -7.94157, 8.1163, 21.4299, 13.1588, 88.2821, -113.31
2.16759, -1, -8.12403, 8.02293, 21.4667, 13.161, 88.1849, -113.557
2.17557, -1, -8.30581, 7.92967, 21.5034, 13.1632, 88.0873, -113.804
2.18435, -1, -8.4872, 7.83643, 21.5403, 13.1655, 87.9899, -114.051
2.19162, -1, -8.66815, 7.74325, 21.5771, 13.1677, 87.8927, -114.298
2.19963, -1, -8.84891, 7.65008, 21.6138, 13.17, 87.7952, -114.544
2.20843, -1, -9.02972, 7.55697, 21.6506, 13.1722, 87.6977, -114.79
2.21564, -1, -9.2108, 7.46397, 21.6873, 13.1745, 87.6006, -115.037
2.22365, -1, -9.39206, 7.37118, 21.7239, 13.1767, 87.5034, -115.283
2.23243, -1, -9.57368, 7.27833, 21.7606, 13.1789, 87.4063, -115.529
2.23954, -1, -9.75571, 7.1855, 21.7973, 13.1811, 87.3093, -115.775
2.24754, -1, -9.93807, 7.0928, 21.8338, 13.1833, 87.212, -116.022
2.25649, -1, -10.1206, 7.00006, 21.8703, 13.1856, 87.1148, -116.268
2.2636, -1, -10.3033, 6.90729, 21.907, 13.1878, 87.0177, -116.513
2.27171, -1, -10.4859, 6.81451, 21.9435, 13.19, 86.9205, -116.759
2.28062, -1, -10.6681, 6.7218, 21.9801, 13.1923, 86.8234, -117.004
2.28777, -1, -10.8499, 6.62922, 22.0165, 13.1947, 86.7266, -117.249
2.29596, -1, -11.0311, 6.53661, 22.0529, 13.1972, 86.6296, -117.495
2.30475, -1, -11.2115, 6.44407, 22.0895, 13.1995, 86.533, -117.74
2.31193, -1, -11.3914, 6.3516, 22.126, 13.202, 86.4364, -117.984
2.32016, -1, -11.571, 6.25916, 22.1624, 13.2044, 86.3396, -118.229
2.32809, -1, -11.7503, 6.16673, 22.1989, 13.2068, 86.243, -118.474
2.33613, -1, -11.9296, 6.07441, 22.2353, 13.2093, 86.1464, -118.719
2.34423, -1, -12.1089, 5.98216, 22.2717, 13.2118, 86.0498, -118.963
2.3521, -1, -12.1986, 5.89011, 22.3081, 13.2142, 85.9534, -119.207
2.36013, -1, -12.3782, 5.84412, 22.3264, 13.2155, 85.8572, -119.451
2.36829, -1, -12.5584, 5.75207, 22.3626, 13.218, 85.7608, -119.695
2.37552, -1, -12.7388, 5.66009, 22.3988, 13.2204, 85.7126, -119.817
2.38353, -1, -12.9197, 5.5682, 22.4352, 13.2229, 85.6168, -120.061
2.39158, -1, -13.1008, 5.47625, 22.4715, 13.2254, 85.5208, -120.304
2.39953, -1, -13.2821, 5.38423, 22.5076, 13.2277, 85.4248, -120.548
2.40755, -1, -13.4631, 5.29232, 22.544, 13.2302, 85.3291, -120.792
2.41553, -1, -13.6437, 5.20041, 22.5802, 13.2327, 85.2332, -121.035
2.4236, -1, -13.824, 5.10855, 22.6163, 13.2353, 85.1374, -121.277
2.43156, -1, -14.0035, 5.01675, 22.6525, 13.2379, 85.0418, -121.521
2.43952, -1, -14.1821, 4.92506, 22.6886, 13.2404, 84.9462, -121.764
2.44759, -1, -14.3604, 4.83335, 22.7247, 13.243, 84.8506, -122.006
2.45554, -1, -14.5384, 4.74173, 22.761, 13.2455, 84.7551, -122.248
2.46352, -1, -14.7161, 4.65014, 22.7972, 13.2481, 84.6594, -122.491
2.47159, -1, -14.8936, 4.55868, 22.8332, 13.2505, 84.5637, -122.733
2.47953, -1, -15.0713, 4.46727, 22.8694, 13.253, 84.468, -122.976
2.48753, -1, -15.2493, 4.37598, 22.9055, 13.2554, 84.3724, -123.218
2.49654, -1, -15.4278, 4.28466, 22.9415, 13.2578, 84.2767, -123.46
2.50356, -1, -15.6067, 4.19341, 22.9776, 13.2601, 84.1812, -123.701
2.51254, -1, -15.7859, 4.10219, 23.0136, 13.2624, 84.0856, -123.943
2.51959, -1, -15.9652, 4.01093, 23.0495, 13.2646, 83.9902, -124.185
2.52754, -1, -16.1448, 3.91968, 23.0855, 13.2667, 83.8948, -124.426
2.53553, -1, -16.3246, 3.82844, 23.1215, 13.2689, 83.7994, -124.667
2.54359, -1, -16.5039, 3.73724, 23.1573, 13.271, 83.704, -124.909
2.55153, -1, -16.6829, 3.64615, 23.1931, 13.2733, 83.6086, -125.15
2.55959, -1, -16.8614, 3.55508, 23.229, 13.2756, 83.5132, -125.391
2.56759, -1, -17.0389, 3.46407, 23.2648, 13.2777, 83.4178, -125.632
2.57553, -1, -17.2157, 3.37315, 23.3006, 13.2799, 83.3225, -125.873
2.58359, -1, -17.3923, 3.28228, 23.3365, 13.2822, 83.2275, -126.113
2.59152, -1, -17.5686, 3.19145, 23.3723, 13.2843, 83.1323, -126.354
2.59956, -1, -17.7446, 3.10084, 23.4081, 13.2864, 83.0375, -126.594
2.60761, -1, -17.9206, 3.01023, 23.444, 13.2885, 82.9428, -126.834
2.61552, -1, -18.0969, 2.91977, 23.4797, 13.2906, 82.8479, -127.074
2.62353, -1, -18.2734, 2.82941, 23.5154, 13.2927, 82.7532, -127.315
2.63158, -1, -18.4504, 2.73901, 23.5512, 13.2948, 82.6587, -127.554
2.63952, -1, -18.6278, 2.64859, 23.5868, 13.2968, 82.5639, -127.794
2.64754, -1, -18.8055, 2.55826, 23.6225, 13.2988, 82.4693, -128.034
2.65559, -1, -18.9836, 2.46781, 23.6583, 13.3008, 82.3751, -128.273
2.66352, -1, -19.1619, 2.37733, 23.6938, 13.3028, 82.2805, -128.512
2.67152, -1, -19.34, 2.28697, 23.7294, 13.3048, 82.1861, -128.752
2.67962, -1, -19.5176, 2.19661, 23.765, 13.307, 82.0923, -128.991
2.68756, -1, -19.6947, 2.10623, 23.8005, 13.3091, 81.998, -129.23
2.69558, -1, -19.8712, 2.01597, 23.8359, 13.3113, 81.9038, -129.469
2.70368, -1, -20.0469, 1.92577, 23.8715, 13.3135, 81.8099, -129.708
2.71162, -1, -20.2222, 1.83554, 23.9071, 13.3158, 81.7157, -129.946
2.7197, -1, -20.3971, 1.74544, 23.9425, 13.3179, 81.6217, -130.184
2.72764, -1, -20.5716, 1.6554, 23.9781, 13.3202, 81.528, -130.423
2.73568, -1, -20.746, 1.56543, 24.0136, 13.3223, 81.4339, -130.661
2.74371, -1, -20.9208, 1.47556, 24.049, 13.3246, 81.3402, -130.899
2.75154, -1, -21.0958, 1.38586, 24.0845, 13.3267, 81.2466, -131.137
2.7596, -1, -21.2712, 1.29607, 24.1201, 13.3289, 81.1526, -131.375
2.76772, -1, -21.4469, 1.20638, 24.1554, 13.3311, 81.0587, -131.613
2.7756, -1, -21.6229, 1.11676, 24.1908, 13.3332, 80.965, -131.85
2.78449, -1, -21.7991, 1.02709, 24.2263, 13.3353, 80.8712, -132.088
2.7918, -1, -21.9755, 0.937496, 24.2616, 13.3376, 80.7774, -132.325
2.79981, -1, -22.1521, 0.847929, 24.297, 13.3397, 80.6838, -132.562
2.80884, -1, -22.3286, 0.758393, 24.3325, 13.3419, 80.5902, -132.799
2.81595, -1, -22.5046, 0.668949, 24.3677, 13.3442, 80.4965, -133.036
2.82413, -1, -22.6802, 0.579444, 24.4029, 13.3465, 80.4029, -133.273
2.83286, -1, -22.8551, 0.490024, 24.4382, 13.3489, 80.3093, -133.51
2.84008, -1, -23.0291, 0.400613, 24.4734, 13.3513, 80.2157, -133.747
2.84814, -1, -23.2027, 0.311277, 24.5085, 13.3538, 80.1222, -133.983
2.85706, -1, -23.2894, 0.221942, 24.5438, 13.3561, 80.0288, -134.22
2.86414, -1, -23.4626, 0.177322, 24.5614, 13.3574, 79.9354, -134.456
2.87211, -1, -23.6358, 0.0881385, 24.5966, 13.3598, 79.8888, -134.692
2.87951, -1, -23.8091, -0.00100144, 24.6318, 13.3622, 79.7956, -134.811
2.88756, -1, -23.9826, -0.0899723, 24.667, 13.3647, 79.7024, -135.047
2.89556, -1, -24.1563, -0.178974, 24.702, 13.3671, 79.6094, -135.282
2.90355, -1, -24.3302, -0.267984, 24.7371, 13.3695, 79.5163, -135.518
2.9116, -1, -24.5045, -0.356843, 24.7723, 13.372, 79.4233, -135.753
2.91952, -1, -24.6791, -0.445746, 24.8074, 13.3744, 79.3302, -135.989
2.92751, -1, -24.8541, -0.534658, 24.8424, 13.3768, 79.2371, -136.225
2.93561, -1, -25.0292, -0.623501, 24.8776, 13.3791, 79.1442, -136.46
2.94351, -1, -25.204, -0.712296, 24.9126, 13.3816, 79.0512, -136.695
2.95157, -1, -25.3785, -0.801022, 24.9476, 13.3839, 78.9585, -136.93
2.95959, -1, -25.5527, -0.889852, 24.9827, 13.3864, 78.8659, -137.165
2.96751, -1, -25.7262, -0.978565, 25.0176, 13.3889, 78.773, -137.4
2.97551, -1, -25.899, -1.06726, 25.0524, 13.3912, 78.6805, -137.635
2.98358, -1, -26.0715, -1.15599, 25.0875, 13.3937, 78.5883, -137.869
2.99151, -1, -26.2436, -1.24466, 25.1224, 13.3961, 78.4956, -138.104
3.00052, -1, -26.4154, -1.33317, 25.1572, 13.3984, 78.4029, -138.338
3.00769, -1, -26.5872, -1.42162, 25.1922, 13.4007, 78.3108, -138.573
3.01553, -1, -26.7593, -1.51, 25.2272, 13.4029, 78.2181, -138.807
3.02351, -1, -26.9316, -1.59818, 25.2621, 13.4051, 78.1257, -139.041
3.03158, -1, -27.1041, -1.68637, 25.2969, 13.4074, 78.0336, -139.275
3.03952, -1, -27.2766, -1.7746, 25.3319, 13.4095, 77.9413, -139.509
3.04751, -1, -27.4495, -1.86268, 25.3666, 13.4117, 77.8493, -139.742
3.05554, -1, -27.6227, -1.95078, 25.4014, 13.4138, 77.7574, -139.976
3.06351, -1, -27.796, -2.039, 25.4364, 13.4159, 77.6653, -140.209
3.07162, -1, -27.9693, -2.12701, 25.4711, 13.4179, 77.5733, -140.442
3.07952, -1, -28.1425, -2.21501, 25.5058, 13.42, 77.4813, -140.676
3.08752, -1, -28.3157, -2.30306, 25.5406, 13.422, 77.3892, -140.909
3.09559, -1, -28.4884, -2.39112, 25.5754, 13.4241, 77.2971, -141.142
3.10355, -1, -28.6607, -2.47908, 25.61, 13.4263, 77.205, -141.375
3.11151, -1, -28.8324, -2.56707, 25.6447, 13.4284, 77.1131, -141.608
3.11957, -1, -29.0034, -2.65504, 25.6794, 13.4306, 77.0211, -141.841
3.12752, -1, -29.174, -2.74295, 25.7139, 13.4327, 76.9292, -142.073
3.13551, -1, -29.3446, -2.83077, 25.7486, 13.4348, 76.8375, -142.305
3.14358, -1, -29.5153, -2.91847, 25.7833, 13.4368, 76.7455, -142.538
3.15153, -1, -29.6863, -3.00604, 25.8178, 13.4388, 76.6537, -142.77
3.15954, -1, -29.8573, -3.09356, 25.8524, 13.4409, 76.5621, -143.003
3.16752, -1, -30.0283, -3.18104, 25.887, 13.443, 76.4702, -143.235
3.17637, -1, -30.1992, -3.26853, 25.9216, 13.445, 76.3785, -143.467
3.18353, -1, -30.3704, -3.35593, 25.9561, 13.4471, 76.287, -143.699
3.19158, -1, -30.5419, -3.44338, 25.9907, 13.4491, 76.1953, -143.93
3.20094, -1, -30.7137, -3.53091, 26.0251, 13.4512, 76.1039, -144.162
3.2076, -1, -30.8856, -3.61826, 26.0596, 13.4533, 76.0126, -144.393
3.21567, -1, -31.0574, -3.70567, 26.0942, 13.4552, 75.9211, -144.625
3.22391, -1, -31.229, -3.79298, 26.1286, 13.4574, 75.8298, -144.856
3.23162, -1, -31.4003, -3.8803, 26.1629, 13.4594, 75.7385, -145.088
3.23974, -1, -31.5711, -3.96762, 26.1974, 13.4615, 75.6472, -145.319
3.24812, -1, -31.7415, -4.05488, 26.2318, 13.4637, 75.5559, -145.55
3.25554, -1, -31.9115, -4.14213, 26.2661, 13.4658, 75.4648, -145.78
3.26361, -1, -32.0812, -4.22938, 26.3005, 13.468, 75.3739, -146.011
3.27312, -1, -32.2506, -4.31649, 26.335, 13.4703, 75.2827, -146.242
3.27961, -1, -32.4201, -4.40356, 26.3691, 13.4724, 75.1916, -146.473
3.28778, -1, -32.5898, -4.49051, 26.4035, 13.4745, 75.1012, -146.703
3.29737, -1, -32.7595, -4.5774, 26.4379, 13.4766, 75.01, -146.933
3.30382, -1, -32.9292, -4.66432, 26.4722, 13.4789, 74.9193, -147.164
3.31197, -1, -33.0989, -4.75121, 26.5063, 13.481, 74.8289, -147.394
3.32146, -1, -33.2687, -4.83805, 26.5407, 13.4832, 74.7381, -147.624
3.32802, -1, -33.4388, -4.92493, 26.5749, 13.4855, 74.6474, -147.854
3.33611, -1, -33.6091, -5.01187, 26.6091, 13.4876, 74.5568, -148.084
3.34625, -1, -33.7794, -5.09865, 26.6434, 13.4899, 74.4663, -148.314
3.35226, -1, -33.9496, -5.18541, 26.6776, 13.4921, 74.3757, -148.544
3.36012, -1, -34.0348, -5.22875, 26.7117, 13.4944, 74.2853, -148.773
3.36886, -1, -34.2049, -5.31549, 26.7288, 13.4955, 74.2402, -149.002
3.37607, -1, -34.3749, -5.40214, 26.7631, 13.4977, 74.1494, -149.117
3.3835, -1, -34.5446, -5.48874, 26.7973, 13.5001, 74.0589, -149.346
3.39151, -1, -34.7138, -5.57541, 26.8313, 13.5025, 73.9684, -149.576
3.39955, -1, -34.8825, -5.66199, 26.8655, 13.5049, 73.8778, -149.805
3.40754, -1, -35.0509, -5.74848, 26.8996, 13.5074, 73.7873, -150.034
3.41551, -1, -35.2192, -5.83493, 26.9337, 13.5098, 73.697, -150.263
3.42351, -1, -35.3876, -5.92124, 26.9678, 13.5122, 73.6067, -150.492
3.43151, -1, -35.5562, -6.00744, 27.0019, 13.5145, 73.5163, -150.721
3.43958, -1, -35.7247, -6.09366, 27.0358, 13.5169, 73.426, -150.949
3.44749, -1, -35.8932, -6.17978, 27.0699, 13.5192, 73.3358, -151.178
3.4555, -1, -36.0618, -6.26592, 27.104, 13.5217, 73.2453, -151.406
3.46354, -1, -36.2303, -6.35202, 27.138, 13.5241, 73.1548, -151.635
3.47151, -1, -36.399, -6.43822, 27.1719, 13.5264, 73.0647, -151.864
3.47949, -1, -36.5679, -6.52442, 27.2059, 13.5288, 72.9741, -152.092
3.48988, -1, -36.7368, -6.61058, 27.2398, 13.5322, 72.8388, -152.434
3.49552, -1, -36.9057, -6.69672, 27.2737, 13.5334, 72.7939, -152.548
3.5035, -1, -37.0746, -6.78288, 27.3076, 13.5357, 72.7037, -152.776
3.51157, -1, -37.2433, -6.86898, 27.3415, 13.5379, 72.6138, -153.004
3.52056, -1, -37.4118, -6.95497, 27.3753, 13.5402, 72.524, -153.232
3.52749, -1, -37.5799, -7.04102, 27.4093, 13.5425, 72.4341, -153.459
3.53556, -1, -37.7477, -7.12703, 27.4432, 13.5447, 72.3442, -153.687
3.5435, -1, -37.9153, -7.21299, 27.477, 13.5469, 72.2544, -153.914
3.5515, -1, -38.0828, -7.2989, 27.5109, 13.5491, 72.1647, -154.142
3.55956, -1, -38.2503, -7.38478, 27.5448, 13.5513, 72.0749, -154.369
3.5675, -1, -38.4177, -7.47052, 27.5786, 13.5534, 71.9852, -154.596
3.57555, -1, -38.5849, -7.55624, 27.6124, 13.5555, 71.8958, -154.823
3.58356, -1, -38.7522, -7.64196, 27.6463, 13.5576, 71.8059, -155.051
3.59149, -1, -38.9196, -7.72766, 27.68, 13.5597, 71.7165, -155.278
3.5995, -1, -39.0869, -7.81323, 27.7137, 13.5617, 71.6275, -155.505
3.60761, -1, -39.2543, -7.89889, 27.7475, 13.5637, 71.5379, -155.731
3.61549, -1, -39.4218, -7.98457, 27.7813, 13.5657, 71.4486, -155.958
3.6235, -1, -39.5894, -8.07011, 27.8149, 13.5677, 71.3593, -156.185
3.63156, -1, -39.7571, -8.15563, 27.8485, 13.5696, 71.27, -156.411
3.63949, -1, -39.9247, -8.24112, 27.8823, 13.5716, 71.1807, -156.638
3.64751, -1, -40.0923, -8.32657, 27.916, 13.5735, 71.0912, -156.864
3.65556, -1, -40.2598, -8.41196, 27.9496, 13.5755, 71.0022, -157.09
3.66349, -1, -40.4268, -8.49732, 27.9833, 13.5774, 70.9127, -157.316
3.67159, -1, -40.5938, -8.58271, 28.0169, 13.5794, 70.8234, -157.542
3.67949, -1, -40.7607, -8.66812, 28.0504, 13.5813, 70.7345, -157.768
3.68752, -1, -40.9273, -8.75346, 28.0841, 13.5834, 70.6452, -157.994
3.69574, -1, -41.0938, -8.83878, 28.1178, 13.5854, 70.5561, -158.22
3.70357, -1, -41.2601, -8.92404, 28.1513, 13.5874, 70.4672, -158.446
3.71162, -1, -41.4263, -9.0092, 28.1849, 13.5894, 70.3779, -158.671
3.71991, -1, -41.5926, -9.09433, 28.2186, 13.5914, 70.2887, -158.897
3.7276, -1, -41.7588, -9.1794, 28.2521, 13.5934, 70.1996, -159.122
3.7356, -1, -41.9252, -9.26445, 28.2856, 13.5954, 70.1105, -159.348
3.74426, -1, -42.0916, -9.34947, 28.3193, 13.5975, 70.0216, -159.573
3.7515, -1, -42.2579, -9.43456, 28.3528, 13.5995, 69.9325, -159.799
3.75958, -1, -42.4242, -9.51959, 28.3863, 13.6015, 69.8438, -160.024
3.76831, -1, -42.5905, -9.60453, 28.4199, 13.6035, 69.7547, -160.249
3.77573, -1, -42.7569, -9.6895, 28.4534, 13.6055, 69.6658, -160.474
3.7836, -1, -42.9233, -9.77447, 28.4868, 13.6076, 69.5772, -160.699
3.79175, -1, -43.0896, -9.85933, 28.5203, 13.6096, 69.4882, -160.924
3.80056, -1, -43.2557, -9.94425, 28.5538, 13.6117, 69.3996, -161.149
3.80782, -1, -43.4219, -10.0292, 28.5873, 13.6137, 69.311, -161.374
3.81592, -1, -43.5879, -10.1141, 28.6208, 13.6158, 69.2223, -161.599
3.82488, -1, -43.7539, -10.1991, 28.6543, 13.6178, 69.1338, -161.824
3.83201, -1, -43.9197, -10.2839, 28.6876, 13.6201, 69.0453, -162.048
3.8401, -1, -44.0853, -10.3687, 28.721, 13.6223, 68.9569, -162.272
3.84874, -1, -44.2507, -10.4534, 28.7545, 13.6244, 68.8682, -162.497
3.85608, -1, -44.4158, -10.5379, 28.7879, 13.6266, 68.7796, -162.721
3.86411, -1, -44.581, -10.6225, 28.8213, 13.6288, 68.6911, -162.945
3.87283, -1, -44.6636, -10.6647, 28.8379, 13.6299, 68.6467, -163.057
3.87948, -1, -44.8288, -10.7492, 28.8715, 13.6321, 68.5581, -163.281
3.88755, -1, -44.9942, -10.8337, 28.9049, 13.6342, 68.4697, -163.505
3.89549, -1, -45.1595, -10.9183, 28.9383, 13.6364, 68.3814, -163.729
3.90349, -1, -45.3248, -11.0028, 28.9717, 13.6387, 68.2928, -163.954
3.91158, -1, -45.49, -11.0873, 29.0051, 13.641, 68.2045, -164.177
3.91948, -1, -45.6553, -11.1717, 29.0382, 13.6432, 68.1166, -164.401
3.9275, -1, -45.8206, -11.2562, 29.0715, 13.6455, 68.0279, -164.625
3.93553, -1, -45.9849, -11.3401, 29.105, 13.6477, 67.9396, -164.848
3.94347, -1, -46.1464, -11.4225, 29.1384, 13.6501, 67.8516, -165.072
3.95148, -1, -46.3034, -11.5019, 29.172, 13.6525, 67.7641, -165.293
3.95964, -1, -46.4537, -11.577, 29.2055, 13.6548, 67.6789, -165.508
3.96747, -1, -46.595, -11.647, 29.2378, 13.6571, 67.5973, -165.714
3.97548, -1, -46.7247, -11.7104, 29.2677, 13.6593, 67.5226, -165.904
3.98356, -1, -46.8398, -11.7665, 29.2942, 13.6614, 67.4556, -166.073
3.99148, -1, -46.9388, -11.8158, 29.3164, 13.6631, 67.3996, -166.215
3.99948, -1, -47.0215, -11.8587, 29.3331, 13.6643, 67.3547, -166.329
4.00758, -1, -47.0888, -11.8955, 29.3444, 13.6651, 67.321, -166.414
4.01735, -1, -47.1413, -11.925, 29.3516, 13.6655, 67.2976, -166.473
4.02352, -1, -47.1804, -11.9472, 29.3556, 13.6657, 67.2825, -166.511
4.03154, -1, -47.2081, -11.9628, 29.3574, 13.6658, 67.2736, -166.533
4.03948, -1, -47.2264, -11.9728, 29.3583, 13.6659, 67.2689, -166.545
4.04749, -1, -47.2375, -11.9787, 29.3587, 13.6659, 67.2665, -166.551
4.05555, 2, -47.2431, -11.9817, 29.3589, 13.666, 67.2654, -166.554
4.06349, 2, -47.2452, -11.983, 29.3591, 13.666, 67.2649, -166.555
4.07148, 2, -47.2453, -11.9836, 29.3592, 13.666, 67.2646, -166.556
4.07959, 2, -47.245, -11.9838, 29.3592, 13.6661, 67.2645, -166.556
4.08748, 2, -47.245, -11.9839, 29.3593, 13.6661, 67.2645, -166.556
4.09549, 2, -47.2454, -11.984, 29.3593, 13.666, 67.2645, -166.556
4.10355, 2, -47.2463, -11.9842, 29.3593, 13.666, 67.2644, -166.556
4.11148, 2, -47.2476, -11.9847, 29.3593, 13.6661, 67.2644, -166.556
4.11948, 2, -47.2494, -11.9855, 29.3593, 13.666, 67.2644, -166.556
4.12755, 2, -47.251, -11.9863, 29.3593, 13.666, 67.2645, -166.556
4.13548, 2, -47.2524, -11.9872, 29.3593, 13.666, 67.2645, -166.556
4.14352, 2, -47.2534, -11.9878, 29.3593, 13.666, 67.2645, -166.556
4.15155, 2, -47.2539, -11.9882, 29.3593, 13.6661, 67.2645, -166.556
4.15948, 2, -47.254, -11.9884, 29.3593, 13.6661, 67.2645, -166.556
4.16748, 2, -47.2541, -11.9885, 29.3593, 13.6661, 67.2645, -166.556
4.17558, 2, -47.2538, -11.9885, 29.3593, 13.666, 67.2645, -166.556
4.18349, 2, -47.2534, -11.9885, 29.3593, 13.6661, 67.2645, -166.556
4.19152, 2, -47.2529, -11.9884, 29.3594, 13.6661, 67.2645, -166.556
4.19958, 2, -47.2525, -11.9884, 29.3594, 13.6661, 67.2645, -166.556
4.20757, 2, -47.2523, -11.9884, 29.3594, 13.666, 67.2645, -166.556
4.21558, 2, -47.2523, -11.9885, 29.3594, 13.666, 67.2645, -166.556
4.2237, 2, -47.2524, -11.9886, 29.3594, 13.666, 67.2644, -166.556
4.23158, 2, -47.2526, -11.9889, 29.3594, 13.6661, 67.2645, -166.556
4.23958, 2, -47.2532, -11.9893, 29.3594, 13.6661, 67.2645, -166.556
4.2477, 2, -47.2537, -11.9896, 29.3594, 13.666, 67.2645, -166.556
4.25548, 2, -47.254, -11.9898, 29.3594, 13.6661, 67.2645, -166.556
4.26352, 2, -47.2542, -11.9898, 29.3594, 13.6661, 67.2645, -166.556
4.27157, 2, -47.2542, -11.9898, 29.3594, 13.6661, 67.2645, -166.556
4.27956, 2, -47.2541, -11.9898, 29.3594, 13.6661, 67.2645, -166.556
4.28768, 2, -47.254, -11.9898, 29.3594, 13.666, 67.2645, -166.556
4.29576, 2, -47.2534, -11.9897, 29.3594, 13.6661, 67.2645, -166.556
4.30378, 2, -47.2531, -11.9897, 29.3594, 13.6661, 67.2645, -166.556
4.31187, 2, -47.2528, -11.9897, 29.3594, 13.6661, 67.2645, -166.556
4.31992, 2, -47.2526, -11.9897, 29.3594, 13.6661, 67.2645, -166.556
4.32794, 2, -47.2525, -11.9897, 29.3594, 13.6661, 67.2645, -166.556
4.33607, 2, -47.2524, -11.9898, 29.3594, 13.666, 67.2646, -166.556
4.34409, 2, -47.2524, -11.9898, 29.3594, 13.666, 67.2646, -166.556
4.35207, 2, -47.2524, -11.9899, 29.3594, 13.666, 67.2645, -166.556
4.36012, 2, -47.2524, -11.9899, 29.3594, 13.666, 67.2645, -166.556
4.36811, 2, -47.2525, -11.9899, 29.3594, 13.666, 67.2646, -166.556
4.37604, 2, -47.2525, -11.9899, 29.3594, 13.666, 67.2646, -166.556
4.38348, 2, -47.2525, -11.9899, 29.3594, 13.666, 67.2646, -166.556
4.39151, 2, -47.2524, -11.9898, 29.3594, 13.666, 67.2645, -166.556
4.39946, 2, -47.2524, -11.9897, 29.3594, 13.666, 67.2645, -166.556
4.40747, 2, -47.2522, -11.9897, 29.3594, 13.666, 67.2646, -166.556
4.41557, 2, -47.2522, -11.9896, 29.3594, 13.666, 67.2645, -166.556
4.42349, 2, -47.252, -11.9896, 29.3594, 13.666, 67.2645, -166.556
4.43147, 2, -47.2519, -11.9896, 29.3594, 13.666, 67.2645, -166.556
4.43952, 2, -47.2518, -11.9896, 29.3594, 13.666, 67.2645, -166.556
4.44746, 2, -47.2517, -11.9896, 29.3594, 13.666, 67.2646, -166.556
4.45547, 2, -47.2517, -11.9896, 29.3594, 13.666, 67.2646, -166.556
4.46352, 2, -47.2516, -11.9896, 29.3594, 13.666, 67.2646, -166.556
4.47146, 2, -47.2516, -11.9896, 29.3594, 13.666, 67.2645, -166.556
4.47947, 2, -47.2515, -11.9896, 29.3594, 13.666, 67.2645, -166.556
4.48908, 2, -47.2514, -11.9896, 29.3594, 13.666, 67.2646, -166.555
4.49546, 2, -47.2514, -11.9896, 29.3594, 13.666, 67.2645, -166.555
4.50446, 2, -47.2513, -11.9895, 29.3594, 13.666, 67.2645, -166.555
4.51157, 2, -47.2512, -11.9894, 29.3594, 13.6659, 67.2646, -166.555
4.52058, 2, -47.251, -11.9894, 29.3594, 13.6659, 67.2646, -166.555
4.52748, 2, -47.251, -11.9893, 29.3594, 13.666, 67.2645, -166.555
4.53554, 2, -47.2509, -11.9893, 29.3594, 13.666, 67.2646, -166.555
4.54347, 2, -47.2508, -11.9893, 29.3594, 13.666, 67.2646, -166.555
4.55147, 2, -47.2507, -11.9893, 29.3594, 13.666, 67.2646, -166.555
4.55953, 2, -47.2506, -11.9893, 29.3594, 13.666, 67.2646, -166.555
4.56752, 2, -47.2505, -11.9893, 29.3594, 13.666, 67.2646, -166.555
4.57548, 2, -47.2504, -11.9893, 29.3594, 13.6659, 67.2647, -166.555
4.58359, 2, -47.2503, -11.9893, 29.3594, 13.6659, 67.2647, -166.555
4.59146, 2, -47.2501, -11.9893, 29.3594, 13.6659, 67.2646, -166.555
4.59946, 2, -47.25, -11.9893, 29.3594, 13.666, 67.2647, -166.555
4.60758, 2, -47.2499, -11.9892, 29.3594, 13.666, 67.2646, -166.555
4.61547, 2, -47.2498, -11.9891, 29.3594, 13.6659, 67.2646, -166.555
4.62348, 2, -47.2497, -11.989, 29.3594, 13.666, 67.2646, -166.555
4.63153, 2, -47.2497, -11.989, 29.3594, 13.6659, 67.2647, -166.555
4.63946, 2, -47.2496, -11.9889, 29.3594, 13.6659, 67.2647, -166.555
4.64746, 2, -47.2495, -11.9889, 29.3594, 13.6659, 67.2647, -166.555
4.65553, 2, -47.2494, -11.9889, 29.3594, 13.6658, 67.2647, -166.555
4.66347, 2, -47.2494, -11.9889, 29.3594, 13.6659, 67.2647, -166.555
4.67147, 2, -47.2493, -11.9889, 29.3594, 13.6659, 67.2647, -166.555
4.67957, 2, -47.2493, -11.9889, 29.3594, 13.6659, 67.2647, -166.555
4.68747, 2, -47.2492, -11.9889, 29.3594, 13.6659, 67.2647, -166.555
4.6955, 2, -47.2492, -11.9889, 29.3594, 13.6659, 67.2647, -166.555
4.70358, 2, -47.2491, -11.9889, 29.3594, 13.6659, 67.2647, -166.555
4.71155, 2, -47.249, -11.9888, 29.3594, 13.6659, 67.2647, -166.555
4.71956, 2, -47.249, -11.9887, 29.3594, 13.6659, 67.2647, -166.555
4.72762, 2, -47.2489, -11.9886, 29.3594, 13.6659, 67.2647, -166.555
4.73557, 2, -47.2488, -11.9886, 29.3594, 13.6659, 67.2648, -166.555
4.74358, 2, -47.2487, -11.9886, 29.3594, 13.6659, 67.2648, -166.555
4.75169, 2, -47.2487, -11.9886, 29.3594, 13.6658, 67.2647, -166.555
4.75947, 2, -47.2486, -11.9886, 29.3594, 13.6658, 67.2647, -166.555
4.7675, 2, -47.2486, -11.9885, 29.3594, 13.6658, 67.2647, -166.555
4.77557, 2, -47.2486, -11.9885, 29.3594, 13.6658, 67.2647, -166.555
4.78353, 2, -47.2486, -11.9885, 29.3593, 13.6658, 67.2647, -166.555
4.79177, 2, -47.2485, -11.9885, 29.3594, 13.6658, 67.2647, -166.554
4.79974, 2, -47.2485, -11.9885, 29.3594, 13.6658, 67.2648, -166.554
4.80782, 2, -47.2484, -11.9884, 29.3594, 13.6658, 67.2648, -166.554
4.81647, 2, -47.2484, -11.9883, 29.3594, 13.6657, 67.2648, -166.554
4.82392, 2, -47.2483, -11.9883, 29.3594, 13.6657, 67.2648, -166.554
4.83191, 2, -47.2482, -11.9882, 29.3594, 13.6657, 67.2648, -166.554
4.84058, 2, -47.2481, -11.9882, 29.3594, 13.6658, 67.2648, -166.554
4.84806, 2, -47.248, -11.9881, 29.3594, 13.6658, 67.2648, -166.554
4.85601, 2, -47.248, -11.9881, 29.3593, 13.6657, 67.2648, -166.554
4.86427, 2, -47.2479, -11.9881, 29.3594, 13.6657, 67.2648, -166.554
4.87208, 2, -47.2479, -11.9881, 29.3594, 13.6657, 67.2648, -166.554
4.87945, 2, -47.2479, -11.9881, 29.3594, 13.6657, 67.2648, -166.554
4.88843, 2, -47.2478, -11.9881, 29.3594, 13.6656, 67.2648, -166.554
4.8955, 2, -47.2478, -11.9881, 29.3594, 13.6656, 67.2648, -166.554
4.90346, 2, -47.2478, -11.9881, 29.3594, 13.6656, 67.2648, -166.554
4.91167, 2, -47.2478, -11.988, 29.3593, 13.6656, 67.2648, -166.554
4.91955, 2, -47.2477, -11.988, 29.3593, 13.6656, 67.2648, -166.554
4.92744, 2, -47.2477, -11.9879, 29.3593, 13.6656, 67.2648, -166.554
4.93545, 2, -47.2476, -11.9878, 29.3593, 13.6656, 67.2648, -166.554
4.94351, 2, -47.2475, -11.9878, 29.3593, 13.6655, 67.2648, -166.554
4.95145, 2, -47.2474, -11.9877, 29.3594, 13.6655, 67.2648, -166.554
4.95945, 2, -47.2473, -11.9877, 29.3594, 13.6656, 67.2649, -166.554
4.9675, 2, -47.2472, -11.9877, 29.3593, 13.6655, 67.265, -166.554
4.97545, 2, -47.2472, -11.9877, 29.3593, 13.6655, 67.265, -166.554
4.98346, 2, -47.2472, -11.9877, 29.3594, 13.6655, 67.2649, -166.554
4.99152, 2, -47.2471, -11.9877, 29.3593, 13.6655, 67.265, -166.554
5.00109, 2, -47.2471, -11.9877, 29.3593, 13.6655, 67.265, -166.554
5.00745, 2, -47.2471, -11.9877, 29.3593, 13.6655, 67.265, -166.554
5.01556, 2, -47.2471, -11.9876, 29.3593, 13.6655, 67.265, -166.554
5.02456, 2, -47.247, -11.9875, 29.3594, 13.6655, 67.2651, -166.554
5.03147, 2, -47.247, -11.9875, 29.3594, 13.6655, 67.2651, -166.554
5.04045, 2, -47.2469, -11.9874, 29.3593, 13.6654, 67.2651, -166.554
5.04745, 2, -47.2468, -11.9874, 29.3594, 13.6654, 67.2651, -166.554
5.0564, 2, -47.2467, -11.9873, 29.3594, 13.6654, 67.2651, -166.554
5.06385, 2, -47.2466, -11.9873, 29.3594, 13.6654, 67.265, -166.554
5.07145, 2, -47.2466, -11.9873, 29.3593, 13.6654, 67.2651, -166.554
5.07945, 2, -47.2465, -11.9873, 29.3594, 13.6654, 67.2651, -166.554
5.08757, 2, -47.2465, -11.9873, 29.3594, 13.6654, 67.2651, -166.554
5.09545, 2, -47.2464, -11.9873, 29.3593, 13.6654, 67.2651, -166.554
5.10346, 2, -47.2464, -11.9873, 29.3594, 13.6654, 67.2651, -166.554
5.11152, 2, -47.2464, -11.9872, 29.3594, 13.6654, 67.2651, -166.554
5.11944, 4, -47.2464, -11.9872, 29.3593, 13.6654, 67.2652, -166.554
5.12744, 4, -47.2464, -11.9871, 29.3594, 13.6653, 67.2652, -166.554
5.13552, 4, -47.2463, -11.9871, 29.3594, 13.6653, 67.2652, -166.554
5.14346, 4, -47.2462, -11.987, 29.3594, 13.6653, 67.2652, -166.553
5.15144, 4, -47.2461, -11.987, 29.3594, 13.6653, 67.2652, -166.553
5.15951, 4, -47.246, -11.987, 29.3594, 13.6653, 67.2653, -166.553
5.16745, 4, -47.246, -11.987, 29.3594, 13.6653, 67.2652, -166.554
5.17545, 4, -47.2459, -11.987, 29.3593, 13.6652, 67.2652, -166.554
5.18356, 4, -47.2459, -11.987, 29.3593, 13.6652, 67.2652, -166.553
5.19147, 4, -47.2459, -11.9869, 29.3593, 13.6652, 67.2653, -166.553
5.19949, 4, -47.2458, -11.9869, 29.3593, 13.6652, 67.2653, -166.553
5.20758, 4, -47.2458, -11.9869, 29.3593, 13.6652, 67.2652, -166.553
5.21571, 4, -47.2458, -11.9869, 29.3593, 13.6652, 67.2652, -166.553
5.23111, 4, -47.2457, -11.9868, 29.3593, 13.6651, 67.2653, -166.553
5.23315, 4, -47.2457, -11.9868, 29.3593, 13.6651, 67.2653, -166.553
5.24606, 4, -47.2456, -11.9867, 29.3593, 13.6651, 67.2653, -166.553
5.24879, 4, -47.2456, -11.9867, 29.3593, 13.6651, 67.2652, -166.553
5.25661, 4, -47.2455, -11.9867, 29.3593, 13.6651, 67.2652, -166.553
5.26376, 4, -47.2455, -11.9867, 29.3593, 13.6651, 67.2653, -166.553
5.27649, 4, -47.2454, -11.9866, 29.3593, 13.6651, 67.2652, -166.553
5.2809, 4, -47.2454, -11.9866, 29.3593, 13.6651, 67.2652, -166.553
5.28794, 4, -47.2453, -11.9866, 29.3593, 13.6651, 67.2653, -166.553
5.3001, 4, -47.2453, -11.9866, 29.3593, 13.6651, 67.2652, -166.553
5.3075, 4, -47.2453, -11.9866, 29.3593, 13.6651, 67.2653, -166.553
5.31262, 4, -47.2453, -11.9866, 29.3593, 13.665, 67.2653, -166.553
5.32048, 4, -47.2452, -11.9865, 29.3593, 13.665, 67.2653, -166.553
5.3296, 4, -47.2452, -11.9865, 29.3593, 13.665, 67.2653, -166.553
5.33633, 4, -47.2452, -11.9865, 29.3593, 13.665, 67.2653, -166.553
5.3491, 4, -47.2451, -11.9864, 29.3593, 13.665, 67.2652, -166.553
5.3524, 4, -47.2451, -11.9864, 29.3593, 13.665, 67.2653, -166.553
5.3629, 4, -47.245, -11.9864, 29.3593, 13.665, 67.2653, -166.553
5.36934, 4, -47.245, -11.9864, 29.3593, 13.6649, 67.2653, -166.553
5.37703, 4, -47.2451, -11.9864, 29.3594, 13.6649, 67.2653, -166.553
5.38495, 4, -47.2454, -11.9866, 29.3595, 13.6651, 67.2654, -166.553
5.39343, 4, -47.2469, -11.9887, 29.3616, 13.6667, 67.2659, -166.553
5.4024, 4, -47.2524, -11.9933, 29.3672, 13.6764, 67.2683, -166.551
5.40763, 5, -47.2555, -11.9972, 29.3723, 13.6865, 67.2708, -166.55
5.41765, 5, -47.2711, -12.0176, 29.4044, 13.7502, 67.2883, -166.536
5.4266, 5, -47.2892, -12.042, 29.4471, 13.8378, 67.3127, -166.517
5.43347, 5, -47.3161, -12.0775, 29.514, 13.9776, 67.3523, -166.485
5.44362, 5, -47.3534, -12.1259, 29.6114, 14.1845, 67.4092, -166.437
5.44756, 5, -47.3766, -12.1555, 29.6731, 14.3167, 67.4458, -166.406
5.45963, 5, -47.4652, -12.2664, 29.9135, 14.8385, 67.5878, -166.287
5.46573, 5, -47.54, -12.3593, 30.1221, 15.2906, 67.7094, -166.183
5.47397, 5, -47.6268, -12.4669, 30.3674, 15.8182, 67.8494, -166.063
5.48257, 5, -47.7243, -12.5876, 30.6449, 16.4077, 68.0043, -165.93
5.48764, 5, -47.7766, -12.6524, 30.7945, 16.7212, 68.0857, -165.86
5.49865, 5, -47.9444, -12.8615, 31.2761, 17.7152, 68.3392, -165.641
5.50798, 5, -48.0031, -13.0099, 31.6171, 18.4026, 68.5108, -165.491
5.51163, 5, -48.1231, -13.0859, 31.7911, 18.7497, 68.5962, -165.417
5.51968, 5, -48.2438, -13.2392, 32.1437, 19.4451, 68.765, -165.269
5.52759, 5, -48.3624, -13.3915, 32.4983, 20.1319, 68.93, -165.121
5.5385, 5, -48.5276, -13.6123, 33.025, 21.1254, 69.1709, -164.886
5.54457, 6, -48.5772, -13.6821, 33.1959, 21.4407, 69.2502, -164.799
5.55369, 6, -48.7015, -13.8758, 33.6866, 22.3221, 69.4885, -164.486
5.56059, 7, -48.7334, -13.9356, 33.8408, 22.5922, 69.5693, -164.36
5.56791, 7, -48.7806, -14.0486, 34.1345, 23.0942, 69.7347, -164.063
5.58008, 7, -48.811, -14.2016, 34.5364, 23.7613, 69.9977, -163.491
5.58361, 8, -48.811, -14.2475, 34.6611, 23.9653, 70.0907, -163.265
5.59263, 8, -48.797, -14.3324, 34.8997, 24.353, 70.2859, -162.764
5.60425, 9, -48.7468, -14.4477, 35.2373, 24.9045, 70.6024, -161.905
5.61149, 10, -48.6988, -14.5186, 35.456, 25.2661, 70.8278, -161.28
5.6156, 10, -48.6714, -14.5524, 35.565, 25.4474, 70.9443, -160.958
5.62628, 10, -48.6107, -14.6171, 35.8925, 25.9981, 71.3051, -159.963
5.63163, 11, -48.543, -14.6795, 36.0023, 26.1844, 71.4281, -159.627
5.63971, 11, -48.4697, -14.742, 36.2235, 26.5617, 71.6759, -158.956
5.65162, 12, -48.3533, -14.8359, 36.5532, 27.1397, 72.0505, -157.951
5.656, 12, -48.3136, -14.8672, 36.6619, 27.3353, 72.1758, -157.616
5.66891, 13, -48.1919, -14.9598, 36.9841, 27.9291, 72.5518, -156.618
5.6724, 13, -48.1502, -14.9904, 37.0896, 28.1289, 72.677, -156.287
5.6806, 14, -48.0649, -15.0514, 37.2977, 28.5301, 72.9266, -155.625
5.68783, 14, -47.9767, -15.1124, 37.5033, 28.9324, 73.1749, -154.967
5.69889, 15, -47.8379, -15.2025, 37.8063, 29.5357, 73.5432, -153.987
5.70385, 15, -47.7895, -15.2321, 37.9059, 29.7361, 73.6646, -153.662
5.71209, 16, -47.6886, -15.2913, 38.1038, 30.1356, 73.9053, -153.016
5.71998, 16, -47.5819, -15.3513, 38.2995, 30.5334, 74.1429, -152.374
5.72963, 17, -47.4696, -15.4122, 38.4919, 30.9295, 74.3775, -151.737
5.7357, 17, -47.3525, -15.4742, 38.6812, 31.3238, 74.6082, -151.104
5.74459, 18, -47.2302, -15.537, 38.8687, 31.7163, 74.8355, -150.477
5.75593, 19, -47.0374, -15.634, 39.145, 32.3013, 75.1683, -149.548
5.75988, 19, -46.9708, -15.6673, 39.2359, 32.4955, 75.277, -149.242
5.76783, 19, -46.834, -15.7354, 39.4169, 32.8827, 75.4904, -148.634
5.77577, 20, -46.6922, -15.8055, 39.5966, 33.2677, 75.6986, -148.035
5.78742, 21, -46.5454, -15.878, 39.7738, 33.841, 76.0006, -147.15
5.7919, 21, -46.3939, -15.9532, 39.9486, 34.0308, 76.0985, -146.859
5.80261, 22, -46.2378, -16.0311, 40.1221, 34.4086, 76.2897, -146.283
5.80858, 22, -46.0762, -16.1115, 40.2937, 34.7831, 76.4749, -145.714
5.81601, 22, -45.909, -16.194, 40.4622, 35.1541, 76.6547, -145.153
5.82415, 23, -45.7356, -16.2787, 40.6281, 35.5209, 76.8286, -144.597
5.83346, 23, -45.5556, -16.3654, 40.7915, 35.8833, 76.9971, -144.047
5.84033, 24, -45.3688, -16.4537, 40.9511, 36.2409, 77.1601, -143.502
5.84842, 24, -45.1751, -16.5434, 41.1062, 36.5927, 77.318, -142.962
5.85879, 25, -44.9748, -16.6341, 41.2571, 36.9381, 77.471, -142.426
5.86427, 25, -44.768, -16.7257, 41.4035, 37.2769, 77.6194, -141.892
5.87287, 26, -44.5545, -16.8178, 41.545, 37.6087, 77.7633, -141.362
5.88169, 27, -44.334, -16.9101, 41.6809, 37.933, 77.9032, -140.834
5.89296, 27, -44.1067, -17.0019, 41.8109, 38.2497, 78.105, -140.045
5.89624, 27, -43.9907, -17.0475, 41.8737, 38.4049, 78.105, -139.782
5.90515, 28, -43.6326, -17.1831, 42.0527, 38.8584, 78.2987, -139.258
5.91158, 28, -43.5098, -17.2277, 42.109, 39.0053, 78.3613, -138.997
5.91963, 29, -43.2592, -17.3159, 42.2165, 39.2928, 78.4845, -138.474
5.93095, 30, -42.8708, -17.4451, 42.3647, 39.7084, 78.663, -137.691
5.93709, 30, -42.6024, -17.5289, 42.4544, 39.9749, 78.7783, -137.169
5.94596, 30, -42.3251, -17.6104, 42.5369, 40.2328, 78.8907, -136.648
5.95163, 31, -42.1832, -17.6503, 42.5755, 40.3586, 78.9457, -136.388
5.96318, 31, -41.8936, -17.7281, 42.6473, 40.6037, 79.1071, -135.608
5.96941, 32, -41.4457, -17.8405, 42.7424, 40.9555, 79.2112, -135.088
5.9786, 33, -41.1389, -17.9123, 42.7971, 41.1796, 79.3129, -134.57
5.98519, 33, -40.8257, -17.9809, 42.8446, 41.3959, 79.4123, -134.053
5.9916, 33, -40.6666, -18.0139, 42.8658, 41.5009, 79.4608, -133.795
6.00322, 34, -40.1812, -18.1091, 42.918, 41.8037, 79.6026, -133.021
6.00938, 34, -39.8519, -18.1691, 42.9437, 41.9954, 79.6941, -132.506
6.01643, 35, -39.6853, -18.198, 42.954, 42.0886, 79.7389, -132.25
6.02361, 35, -39.3472, -18.2529, 42.9691, 42.2692, 79.8264, -131.738
6.03158, 36, -39.002, -18.3046, 42.9773, 42.442, 79.912, -131.226
6.04059, 36, -38.6493, -18.3528, 42.9787, 42.6072, 79.9955, -130.716
6.05045, 37, -38.1083, -18.419, 42.9682, 42.8408, 80.1164, -129.954
6.05564, 37, -37.9251, -18.4391, 42.9612, 42.9149, 80.156, -129.7
6.06612, 38, -37.3678, -18.4945, 42.9304, 43.1264, 80.2709, -128.943
6.07156, 38, -37.1798, -18.5112, 42.9167, 43.193, 80.3084, -128.691
6.08059, 39, -36.8004, -18.5422, 42.8844, 43.3208, 80.3808, -128.189
6.08873, 39, -36.4165, -18.5696, 42.8453, 43.4414, 80.452, -127.689
6.09562, 40, -36.027, -18.5931, 42.7997, 43.5546, 80.5209, -127.191
6.1036, 40, -35.6316, -18.6128, 42.7476, 43.6608, 80.5885, -126.694
6.11471, 41, -35.0279, -18.6349, 42.6571, 43.8061, 80.685, -125.953
6.12491, 42, -34.6194, -18.6452, 42.5888, 43.8945, 80.7479, -125.462
6.1286, 42, -34.4138, -18.6491, 42.5522, 43.9358, 80.7781, -125.217
6.13889, 43, -33.7923, -18.6562, 42.433, 44.0494, 80.8664, -124.486
6.14356, 43, -33.5834, -18.6569, 42.3902, 44.0835, 80.8953, -124.244
6.15264, 43, -33.1617, -18.6556, 42.3003, 44.1469, 80.9507, -123.76
6.15963, 44, -32.734, -18.6506, 42.2046, 44.2029, 81.0052, -123.28
6.16857, 44, -32.2997, -18.6419, 42.1033, 44.2514, 81.0581, -122.802
6.17967, 45, -31.6377, -18.6217, 41.94, 44.3113, 81.1337, -122.089
6.18458, 45, -31.415, -18.6133, 41.8826, 44.3274, 81.1584, -121.852
6.19323, 46, -30.9682, -18.5939, 41.7632, 44.3538, 81.2061, -121.38
6.20158, 47, -30.5196, -18.5709, 41.638, 44.3723, 81.2514, -120.912
6.20927, 47, -30.0673, -18.5438, 41.507, 44.3834, 81.2964, -120.445
6.21598, 47, -29.6095, -18.5121, 41.3702, 44.3879, 81.3402, -119.98
6.22373, 48, -29.1449, -18.4761, 41.2271, 44.3846, 81.3823, -119.517
6.23267, 48, -28.6742, -18.4358, 41.078, 44.3723, 81.424, -119.056
6.24161, 49, -28.1988, -18.3911, 40.9231, 44.3516, 81.4658, -118.597
6.24783, 49, -27.7213, -18.3419, 40.7622, 44.3212, 81.5067, -118.138
6.25585, 50, -27.2412, -18.2882, 40.5947, 44.281, 81.5473, -117.681
6.26385, 50, -26.7564, -18.2289, 40.4206, 44.2323, 81.5892, -117.224
6.27366, 51, -26.2643, -18.164, 40.2402, 44.1736, 81.6316, -116.769
6.27981, 51, -25.7645, -18.0936, 40.0529, 44.1051, 81.674, -116.315
6.28786, 52, -25.2591, -18.0178, 39.858, 44.0267, 81.7173, -115.861
6.29594, 52, -24.7511, -17.9368, 39.6565, 43.9376, 81.7622, -115.408
6.30397, 53, -24.2411, -17.8502, 39.449, 43.8386, 81.8068, -114.956
6.31404, 54, -23.7268, -17.7577, 39.2337, 43.7295, 81.8525, -114.504
6.32057, 54, -23.2056, -17.6588, 39.0111, 43.6098, 81.9009, -114.052
6.32866, 54, -22.6758, -17.5538, 38.7819, 43.4793, 81.9504, -113.6
6.33621, 55, -22.1396, -17.4426, 38.545, 43.3373, 82.0021, -113.149
6.34841, 56, -21.3293, -17.2645, 38.177, 43.1021, 82.0845, -112.471
6.35233, 56, -21.0579, -17.2022, 38.0511, 43.018, 82.1123, -112.245
6.36264, 57, -20.5112, -17.0736, 37.7934, 42.841, 82.1702, -111.794
6.36838, 57, -19.956, -16.9396, 37.5296, 42.6527, 82.2299, -111.344
6.38032, 58, -19.1069, -16.7281, 37.1212, 42.3474, 82.3223, -110.668
6.38612, 58, -18.8211, -16.6547, 36.982, 42.2394, 82.3542, -110.443
6.39355, 59, -18.2481, -16.5036, 36.6994, 42.0146, 82.4184, -109.994
6.40051, 59, -17.6725, -16.3472, 36.4101, 41.7779, 82.4854, -109.545
6.41235, 59, -17.0904, -16.1862, 36.1152, 41.5286, 82.5538, -108.872
6.41554, 60, -16.7956, -16.1039, 35.9654, 41.3993, 82.589, -108.872
6.42757, 61, -15.8973, -15.8487, 35.5078, 40.9914, 82.6977, -108.199
6.43396, 61, -15.2919, -15.6723, 35.1951, 40.7021, 82.7729, -107.751
6.43957, 61, -14.9882, -15.5824, 35.0364, 40.5527, 82.8115, -107.527
6.44913, 62, -14.0689, -15.3059, 34.5515, 40.084, 82.9314, -106.854
6.45556, 62, -13.758, -15.211, 34.3872, 39.9209, 82.9727, -106.629
6.46359, 63, -13.1281, -15.0158, 34.0549, 39.5838, 83.0577, -106.18
6.47156, 63, -12.4902, -14.8142, 33.717, 39.2315, 83.1458, -105.729
6.47956, 64, -11.8479, -14.6076, 33.3737, 38.8646, 83.2378, -105.279
6.48947, 65, -10.8748, -14.2859, 32.8474, 38.2869, 83.3831, -104.6
6.49573, 65, -10.5454, -14.175, 32.6688, 38.0869, 83.4339, -104.372
6.50736, 66, -9.54249, -13.8329, 32.1257, 37.4627, 83.5936, -103.688
6.51161, 66, -9.2041, -13.7161, 31.9424, 37.2468, 83.6495, -103.46
6.52196, 67, -8.18144, -13.3552, 31.3851, 36.576, 83.8252, -102.77
6.53044, 67, -7.49066, -13.1056, 31.0062, 36.1097, 83.9492, -102.308
6.53605, 67, -7.1413, -12.9778, 30.8148, 35.8707, 84.0137, -102.076
6.54355, 68, -6.43571, -12.7164, 30.4291, 35.3809, 84.1472, -101.611
6.55201, 68, -5.72283, -12.4491, 30.04, 34.876, 84.2877, -101.143
6.55957, 69, -5.00385, -12.1748, 29.646, 34.3555, 84.435, -100.673
6.56852, 70, -4.27746, -11.8925, 29.2476, 33.8205, 84.5892, -100.2
6.57918, 70, -3.17175, -11.456, 28.6464, 32.9905, 84.8335, -99.4864
6.58483, 71, -2.79935, -11.3067, 28.4452, 32.7065, 84.9184, -99.2473
6.59154, 71, -2.04945, -11.003, 28.0411, 32.1282, 85.0931, -98.7682
6.59972, 71, -1.29233, -10.6925, 27.6354, 31.5371, 85.2754, -98.2864
6.6107, 72, -0.528235, -10.3748, 27.0252, 30.6243, 85.5627, -97.5593
6.6185, 73, 0.629432, -9.88551, 26.6181, 30.0005, 85.7636, -97.0712
6.62504, 73, 1.01822, -9.71844, 26.4146, 29.6844, 85.8669, -96.8264
6.63162, 73, 1.80035, -9.37937, 26.0077, 29.0439, 86.0793, -96.3357
6.64063, 74, 2.58753, -9.03345, 25.6017, 28.3936, 86.2997, -95.8421
6.64755, 74, 3.379, -8.6819, 25.1974, 27.7339, 86.5279, -95.3459
6.66159, 75, 4.57349, -8.1415, 24.5962, 26.7288, 86.8848, -94.5978
6.66444, 75, 4.97336, -7.95816, 24.3972, 26.3914, 87.0077, -94.3476
6.67543, 76, 6.17481, -7.3978, 23.8054, 25.3711, 87.3885, -93.5929
6.67965, 76, 6.57549, -7.20764, 23.6106, 25.0295, 87.5195, -93.3401
6.69623, 77, 8.18197, -6.42417, 22.8407, 23.6591, 88.0648, -92.3231
6.6987, 78, 8.18197, -6.42417, 22.8407, 23.3152, 88.2072, -92.0676
6.71143, 78, 9.78959, -5.60801, 22.0887, 22.2808, 88.6499, -91.2955
6.71278, 78, 9.78959, -5.60801, 22.0887, 22.2808, 88.6499, -91.2955
6.7195, 79, 10.5927, -5.1858, 21.7196, 21.5901, 88.9584, -90.7764
6.72759, 79, 11.395, -4.75392, 21.3544, 20.9008, 89.2781, -90.2535
6.7355, 80, 12.1938, -4.31322, 20.9941, 20.2115, 89.6087, -89.727
6.74393, 80, 12.9873, -3.86311, 20.6389, 19.5263, 89.9507, -89.195
6.75157, 81, 13.7765, -3.4029, 20.2888, 18.8483, 90.3028, -88.6584
6.75998, 81, 14.5594, -2.93348, 19.944, 18.1797, 90.6648, -88.1167
6.76745, 82, 15.333, -2.4553, 19.6063, 17.5212, 91.0357, -87.5716
6.77568, 82, 16.0962, -1.96948, 19.2761, 16.8744, 91.4162, -87.0218
6.78343, 83, 16.849, -1.4763, 18.9535, 16.2425, 91.8048, -86.4687
6.7915, 83, 17.5891, -0.976663, 18.6389, 15.628, 92.2012, -85.9136
6.79964, 84, 18.3121, -0.472983, 18.333, 15.0314, 92.6038, -85.3584
6.8076, 84, 19.0171, 0.0350269, 18.0365, 14.4575, 93.0126, -84.8027
6.81577, 85, 19.7056, 0.549314, 17.7488, 13.9072, 93.426, -84.2484
6.82387, 85, 20.3779, 1.06963, 17.4701, 13.3816, 93.8443, -83.6961
6.83242, 86, 21.034, 1.59399, 17.1988, 12.8805, 94.2652, -83.1465
6.83987, 86, 21.6743, 2.12232, 16.9356, 12.4025, 94.6899, -82.5971
6.84849, 87, 22.3014, 2.6576, 16.6797, 11.9476, 95.1195, -82.0465
6.85597, 87, 22.9166, 3.20184, 16.4291, 11.5138, 95.5549, -81.493
6.864, 87, 23.5206, 3.75457, 16.1833, 11.0987, 95.9965, -80.9353
6.87228, 88, 24.1129, 4.31443, 15.941, 10.7005, 96.4443, -80.3696
6.88, 88, 24.4046, 4.59746, 15.8215, 10.3183, 96.8983, -79.795
6.88795, 89, 24.9785, 5.17143, 15.5872, 10.1329, 97.1279, -79.5037
6.89643, 89, 25.8194, 6.05156, 15.2442, 9.60043, 97.8262, -78.614
6.90339, 90, 26.0962, 6.34964, 15.1313, 9.43038, 98.062, -78.3111
6.91139, 90, 26.6442, 6.95184, 14.9088, 9.1019, 98.5386, -77.6957
6.91944, 91, 27.1812, 7.56252, 14.6914, 8.79102, 99.0217, -77.0676
6.92739, 91, 27.7046, 8.18293, 14.4789, 8.4987, 99.5105, -76.4289
6.93545, 92, 28.2169, 8.81398, 14.2708, 8.22711, 100.004, -75.7787
6.94341, 92, 28.7208, 9.45548, 14.0676, 7.978, 100.501, -75.1192
6.95139, 93, 29.2162, 10.1051, 13.8699, 7.75161, 101, -74.4531
6.96089, 93, 29.9356, 11.0903, 13.5873, 7.45618, 101.749, -73.4404
6.96904, 94, 30.397, 11.7516, 13.4091, 7.28891, 102.247, -72.7575
6.97538, 94, 30.6221, 12.0834, 13.3225, 7.21411, 102.495, -72.4145
6.98496, 95, 31.2765, 13.0812, 13.0737, 7.02556, 103.233, -71.3778
6.99151, 95, 31.4877, 13.4146, 12.9948, 6.97464, 103.477, -71.0291
6.9994, 96, 31.8997, 14.0823, 12.8425, 6.88997, 103.963, -70.328
7.00894, 96, 32.297, 14.7508, 12.6964, 6.82999, 104.446, -69.2669
7.01545, 97, 32.6782, 15.4198, 12.557, 6.79248, 104.924, -68.9101
7.02445, 97, 33.0429, 16.0876, 12.425, 6.77585, 105.396, -68.1928
7.03239, 98, 33.3917, 16.7536, 12.3013, 6.78149, 105.862, -67.4733
7.03946, 98, 33.7264, 17.4163, 12.1863, 6.80867, 106.319, -66.7497
7.04739, 99, 34.0473, 18.0737, 12.0806, 6.85538, 106.767, -66.0247
7.05539, 99, 34.3557, 18.7247, 11.9841, 6.92243, 107.204, -65.3015
7.06347, 100, 34.6527, 19.3675, 11.8965, 7.00674, 107.628, -64.5791
7.07139, 100, 34.9384, 20.0019, 11.8174, 7.10899, 108.04, -63.8594
7.0794, 101, 35.212, 20.6257, 11.7466, 7.22706, 108.437, -63.1466
7.08746, 101, 35.474, 21.2388, 11.6841, 7.36012, 108.82, -62.4391
7.09539, 102, 35.7248, 21.84, 11.6302, 7.50619, 109.187, -61.7401
7.10338, 102, 35.9631, 22.4284, 11.5849, 7.66396, 109.536, -61.0524
7.11144, 103, 36.1897, 23.003, 11.5482, 7.83162, 109.868, -60.3757
7.11945, 103, 36.4078, 23.5619, 11.5202, 8.00837, 110.182, -59.7106
7.1274, 103, 36.6188, 24.1048, 11.5013, 8.19404, 110.477, -59.0587
7.13545, 104, 36.8222, 24.6317, 11.4913, 8.38885, 110.753, -58.42
7.14338, 104, 37.0184, 25.1422, 11.4887, 8.5927, 111.008, -57.793
7.15138, 104, 37.2083, 25.6363, 11.4928, 8.80469, 111.243, -57.179
7.15947, 104, 37.3909, 26.114, 11.5028, 9.02312, 111.458, -56.579
7.16743, 104, 37.5642, 26.575, 11.5168, 9.24606, 111.655, -55.9941
7.17538, 104, 37.7287, 27.0197, 11.5337, 9.47124, 111.836, -55.4258
7.18346, 104, 37.8872, 27.449, 11.5533, 9.69593, 112.004, -54.8772
7.19141, 104, 38.0409, 27.8621, 11.5742, 9.91775, 112.16, -54.3511
7.19944, 104, 38.1893, 28.2584, 11.5953, 10.1353, 112.308, -53.8474
7.20747, 104, 38.3313, 28.6381, 11.6158, 10.3474, 112.447, -53.3672
7.21545, 104, 38.4665, 29.0007, 11.635, 10.5527, 112.579, -52.9115
7.22348, 104, 38.5941, 29.3452, 11.6532, 10.7505, 112.703, -52.48
7.23202, 104, 38.7135, 29.6711, 11.6703, 10.94, 112.819, -52.0741
7.24044, 104, 38.8246, 29.9776, 11.6861, 11.1206, 112.928, -51.6926
7.24749, 104, 38.9276, 30.2658, 11.7008, 11.2916, 113.028, -51.3362
7.25556, 104, 39.0228, 30.5347, 11.7145, 11.4525, 113.122, -51.0056
7.26339, 104, 39.1102, 30.7837, 11.727, 11.6029, 113.208, -50.7004
7.27139, 104, 39.1898, 31.0133, 11.7382, 11.7424, 113.286, -50.4201
7.27952, 104, 39.2615, 31.223, 11.7484, 11.8704, 113.358, -50.1652
7.28745, 104, 39.3255, 31.4127, 11.758, 11.9868, 113.422, -49.9354
7.2955, 104, 39.3819, 31.5831, 11.7665, 12.0915, 113.479, -49.7307
7.30414, 104, 39.4313, 31.734, 11.7739, 12.1839, 113.529, -49.5511
7.3116, 104, 39.4744, 31.8661, 11.7807, 12.2643, 113.572, -49.3962
7.31972, 104, 39.5119, 31.9805, 11.7868, 12.3325, 113.608, -49.2652
7.32817, 104, 39.5432, 32.0781, 11.7923, 12.3896, 113.638, -49.1573
7.33585, 104, 39.569, 32.1596, 11.7971, 12.4346, 113.661, -49.0705
7.34447, 104, 39.59, 32.2269, 11.8015, 12.4697, 113.679, -49.0036
7.352, 104, 39.6064, 32.2816, 11.8055, 12.4962, 113.693, -48.954
7.36055, 104, 39.619, 32.3251, 11.809, 12.5155, 113.702, -48.9188
7.36809, 104, 39.6286, 32.3584, 11.8123, 12.5287, 113.708, -48.895
7.37605, 104, 39.6356, 32.3832, 11.8151, 12.5374, 113.711, -48.8801
7.38392, 104, 39.6382, 32.3932, 11.8164, 12.5404, 113.713, -48.8715
7.39138, 104, 39.642, 32.4091, 11.8187, 12.5443, 113.714, -48.869
7.40065, 105, 39.6448, 32.4237, 11.8212, 12.547, 113.715, -48.8654
7.40737, 105, 39.6452, 32.4267, 11.8218, 12.5474, 113.715, -48.8649
7.41537, 105, 39.6451, 32.431, 11.8228, 12.5478, 113.715, -48.8644
7.4246, 105, 39.6437, 32.435, 11.8241, 12.5481, 113.715, -48.8645
7.43138, 105, 39.6431, 32.4359, 11.8245, 12.5482, 113.715, -48.8646
7.43944, 105, 39.642, 32.4375, 11.8252, 12.5483, 113.715, -48.8649
7.44745, 105, 39.6409, 32.4388, 11.8258, 12.5483, 113.715, -48.8653
7.45537, 105, 39.6398, 32.44, 11.8263, 12.5483, 113.715, -48.8656
7.46337, 105, 39.6391, 32.4411, 11.8269, 12.5483, 113.715, -48.8659
7.47299, 105, 39.6385, 32.4427, 11.8278, 12.5483, 113.715, -48.8665
7.48096, 105, 39.6382, 32.4437, 11.8283, 12.5483, 113.715, -48.8667
7.48893, 105, 39.6379, 32.4446, 11.8288, 12.5483, 113.715, -48.867
7.49543, 105, 39.6378, 32.4449, 11.829, 12.5483, 113.715, -48.8672
7.50342, 105, 39.6374, 32.4455, 11.8293, 12.5483, 113.715, -48.8675
7.51137, 105, 39.6371, 32.4459, 11.8296, 12.5484, 113.715, -48.8678
7.51946, 105, 39.6368, 32.4461, 11.8299, 12.5483, 113.715, -48.868
