hehonglu123/Motion-Primitive-Planning/ILC/recorded_data/realrobot/from_NX/iteration_1/run_3.csv
timestamp, cmd_num, J1, J2, J3, J4, J5, J6
0.001391, -1, 39.632, 32.4461, 11.8315, 12.5469, 113.714, -48.871
0.007702, -1, 39.632, 32.4461, 11.8315, 12.5469, 113.714, -48.871
0.010352, -1, 39.632, 32.4461, 11.8315, 12.5469, 113.714, -48.8709
0.034104, -1, 39.632, 32.4461, 11.8315, 12.5469, 113.714, -48.8709
0.035347, -1, 39.632, 32.4461, 11.8315, 12.5469, 113.714, -48.8709
0.037839, -1, 39.632, 32.4461, 11.8315, 12.5469, 113.714, -48.8709
0.039426, -1, 39.632, 32.4461, 11.8315, 12.5469, 113.714, -48.8709
0.047422, -1, 39.632, 32.4461, 11.8315, 12.5469, 113.714, -48.8709
0.055424, -1, 39.6319, 32.4461, 11.8315, 12.5469, 113.714, -48.8709
0.196187, -1, 38.4263, 31.8331, 12.0655, 12.5562, 113.09, -50.4654
0.197464, -1, 38.4263, 31.8331, 12.0655, 12.5562, 113.09, -50.4654
0.199604, -1, 38.341, 31.7884, 12.0848, 12.5574, 113.041, -50.5886
0.200954, -1, 38.341, 31.7884, 12.0848, 12.5574, 113.041, -50.5886
0.202836, -1, 38.341, 31.7884, 12.1043, 12.5586, 112.992, -50.7136
0.20502, -1, 38.254, 31.7428, 12.1043, 12.5586, 112.992, -50.7136
0.206934, -1, 38.254, 31.6966, 12.1238, 12.5597, 112.942, -50.8398
0.209587, -1, 38.1655, 31.6966, 12.1238, 12.5597, 112.942, -50.8398
0.211763, -1, 38.0756, 31.6497, 12.1433, 12.561, 112.892, -50.967
0.213249, -1, 38.0756, 31.6497, 12.1433, 12.561, 112.892, -50.967
0.21594, -1, 37.9845, 31.6022, 12.1628, 12.5622, 112.841, -51.095
0.21723, -1, 37.9845, 31.6022, 12.1628, 12.5622, 112.841, -51.095
0.21913, -1, 37.8921, 31.5543, 12.1822, 12.5635, 112.79, -51.2236
0.220481, -1, 37.8921, 31.5543, 12.1822, 12.5635, 112.79, -51.2236
0.221907, -1, 37.8921, 31.5543, 12.1822, 12.5635, 112.79, -51.2236
0.226122, -1, 37.7988, 31.506, 12.2016, 12.5646, 112.739, -51.3526
0.229399, -1, 37.7046, 31.4575, 12.221, 12.5658, 112.688, -51.482
0.231377, -1, 37.6098, 31.4087, 12.2404, 12.567, 112.637, -51.6117
0.232747, -1, 37.6098, 31.4087, 12.2404, 12.567, 112.637, -51.6117
0.233992, -1, 37.6098, 31.4087, 12.2404, 12.567, 112.637, -51.6117
0.236035, -1, 37.5144, 31.3598, 12.2597, 12.5682, 112.586, -51.7415
0.237339, -1, 37.5144, 31.3598, 12.2597, 12.5682, 112.586, -51.7415
0.241436, -1, 37.4187, 31.3108, 12.2791, 12.5695, 112.535, -51.8713
0.248401, -1, 37.2269, 31.2129, 12.318, 12.572, 112.432, -52.1308
0.255575, -1, 37.0347, 31.1152, 12.3567, 12.5745, 112.329, -52.3906
0.264403, -1, 36.8426, 31.0175, 12.3955, 12.5771, 112.226, -52.6507
0.27161, -1, 36.6509, 30.9197, 12.4343, 12.5796, 112.123, -52.9112
0.27976, -1, 36.4593, 30.8221, 12.4732, 12.5822, 112.02, -53.1714
0.2884, -1, 36.2678, 30.7244, 12.512, 12.5848, 111.917, -53.4318
0.295822, -1, 36.0763, 30.6265, 12.5509, 12.5874, 111.815, -53.6924
0.303925, -1, 35.8848, 30.5286, 12.5898, 12.59, 111.711, -53.9531
0.312754, -1, 35.6933, 30.4306, 12.6287, 12.5925, 111.608, -54.2134
0.319936, -1, 35.5013, 30.3325, 12.6676, 12.5951, 111.505, -54.4738
0.328837, -1, 35.3092, 30.2342, 12.7063, 12.5978, 111.402, -54.7342
0.335992, -1, 35.1168, 30.1359, 12.7452, 12.6004, 111.299, -54.995
0.344005, -1, 35.0205, 30.0375, 12.7841, 12.603, 111.196, -55.2558
0.352874, -1, 34.8282, 29.9882, 12.823, 12.6056, 111.093, -55.5163
0.360529, -1, 34.5398, 29.8405, 12.8618, 12.6081, 110.99, -55.777
0.368013, -1, 34.4436, 29.7912, 12.8813, 12.6094, 110.939, -55.9074
0.375449, -1, 34.2515, 29.6928, 12.9203, 12.6121, 110.835, -56.1685
0.383404, -1, 34.0595, 29.5946, 12.9591, 12.6147, 110.732, -56.4293
0.391395, -1, 33.8678, 29.4963, 12.9981, 12.6174, 110.63, -56.69
0.3994, -1, 33.6761, 29.398, 13.037, 12.62, 110.526, -56.9509
0.408655, -1, 33.3879, 29.2505, 13.0953, 12.624, 110.372, -57.3426
0.415411, -1, 33.2917, 29.2013, 13.1149, 12.6253, 110.32, -57.4731
0.423406, -1, 33.0991, 29.1026, 13.1537, 12.6279, 110.217, -57.734
0.431503, -1, 32.9063, 29.004, 13.1925, 12.6306, 110.114, -57.995
0.439395, -1, 32.7131, 28.9055, 13.2315, 12.6332, 110.011, -58.2562
0.447415, -1, 32.5197, 28.8068, 13.2703, 12.636, 109.908, -58.5175
0.455448, -1, 32.326, 28.7081, 13.3092, 12.6386, 109.805, -58.7785
0.465053, -1, 32.0349, 28.56, 13.3676, 12.6427, 109.65, -59.17
0.471386, -1, 31.9379, 28.5107, 13.387, 12.644, 109.599, -59.3008
0.480983, -1, 31.7442, 28.4118, 13.426, 12.6467, 109.444, -59.6929
0.487404, -1, 31.5506, 28.3131, 13.465, 12.6495, 109.393, -59.8234
0.496435, -1, 31.3574, 28.2145, 13.5039, 12.6523, 109.289, -60.0846
0.503491, -1, 31.1646, 28.116, 13.543, 12.6552, 109.187, -60.346
0.511394, -1, 30.9722, 28.0175, 13.582, 12.658, 109.083, -60.6077
0.519402, -1, 30.78, 27.919, 13.621, 12.6608, 108.98, -60.869
0.527443, -1, 30.5881, 27.8204, 13.66, 12.6636, 108.877, -61.1303
0.535392, -1, 30.396, 27.7217, 13.699, 12.6664, 108.774, -61.3917
0.543474, -1, 30.204, 27.623, 13.7379, 12.6691, 108.67, -61.6533
0.551394, -1, 30.0116, 27.5243, 13.777, 12.6718, 108.567, -61.9151
0.559396, -1, 29.8188, 27.4256, 13.8159, 12.6745, 108.464, -62.1765
0.567497, -1, 29.6255, 27.3268, 13.8547, 12.6772, 108.361, -62.4382
0.575396, -1, 29.4316, 27.228, 13.8937, 12.6798, 108.258, -62.7
0.5834, -1, 29.2376, 27.1292, 13.9327, 12.6823, 108.154, -62.9618
0.591763, -1, 29.0432, 27.0303, 13.9717, 12.6849, 108.051, -63.2233
0.599443, -1, 28.8488, 26.9314, 14.0106, 12.6874, 107.947, -63.4848
0.607415, -1, 28.6547, 26.8325, 14.0496, 12.6899, 107.844, -63.7465
0.616935, -1, 28.4606, 26.7337, 14.0886, 12.6923, 107.741, -64.0083
0.6234, -1, 28.2669, 26.635, 14.1277, 12.6948, 107.637, -64.2699
0.63147, -1, 28.0738, 26.5362, 14.1666, 12.6972, 107.534, -64.5315
0.639414, -1, 27.8809, 26.4374, 14.2057, 12.6997, 107.431, -64.7932
0.647406, -1, 27.6883, 26.3385, 14.2446, 12.7021, 107.328, -65.0552
0.783508, -1, 24.4997, 24.6581, 14.9071, 12.7415, 105.572, -69.5043
0.785753, -1, 24.4036, 24.6581, 14.9071, 12.7415, 105.572, -69.5043
0.787631, -1, 24.3075, 24.6086, 14.9266, 12.7427, 105.52, -69.635
0.7891, -1, 24.3075, 24.6086, 14.9266, 12.7427, 105.52, -69.635
0.790343, -1, 24.3075, 24.6086, 14.9266, 12.7427, 105.52, -69.635
0.792468, -1, 24.2113, 24.5592, 14.9461, 12.7439, 105.469, -69.7658
0.793761, -1, 24.2113, 24.5592, 14.9461, 12.7439, 105.469, -69.7658
0.796524, -1, 24.115, 24.5098, 14.9656, 12.745, 105.417, -69.8965
0.797835, -1, 24.115, 24.5098, 14.9656, 12.745, 105.417, -69.8965
0.800527, -1, 24.0186, 24.4604, 14.9851, 12.7461, 105.366, -70.0272
0.801804, -1, 24.0186, 24.4604, 14.9851, 12.7461, 105.366, -70.0272
0.803778, -1, 23.9222, 24.4109, 15.0046, 12.7473, 105.314, -70.1579
0.805173, -1, 23.9222, 24.4109, 15.0046, 12.7473, 105.314, -70.1579
0.806442, -1, 23.9222, 24.4109, 15.0046, 12.7473, 105.314, -70.1579
0.809312, -1, 23.8258, 24.3615, 15.024, 12.7486, 105.262, -70.2888
0.811736, -1, 23.8258, 24.3615, 15.0435, 12.7498, 105.21, -70.4196
0.813273, -1, 23.7294, 24.3121, 15.0435, 12.7498, 105.21, -70.4196
0.814587, -1, 23.7294, 24.3121, 15.0435, 12.7498, 105.21, -70.4196
0.816649, -1, 23.6329, 24.2627, 15.0629, 12.751, 105.159, -70.5506
0.818206, -1, 23.6329, 24.2627, 15.0629, 12.751, 105.159, -70.5506
0.820318, -1, 23.5363, 24.2132, 15.0824, 12.7522, 105.107, -70.6816
0.825077, -1, 23.4397, 24.1638, 15.1019, 12.7534, 105.055, -70.8124
0.833468, -1, 23.2459, 24.0649, 15.1408, 12.7558, 104.952, -71.074
0.840221, -1, 23.052, 23.9661, 15.1797, 12.7582, 104.849, -71.3358
0.84881, -1, 22.955, 23.9167, 15.2186, 12.7607, 104.745, -71.5977
0.855954, -1, 22.7609, 23.8179, 15.2381, 12.7619, 104.694, -71.8595
0.864122, -1, 22.567, 23.7191, 15.2771, 12.7656, 104.539, -72.121
0.871375, -1, 22.3733, 23.6205, 15.3161, 12.7669, 104.487, -72.2516
0.8794, -1, 22.18, 23.5218, 15.355, 12.7695, 104.383, -72.513
0.887434, -1, 21.9869, 23.4231, 15.3939, 12.7721, 104.28, -72.7747
0.895384, -1, 21.7941, 23.3244, 15.4329, 12.7747, 104.177, -73.0361
0.905484, -1, 21.5058, 23.1762, 15.4913, 12.7787, 104.022, -73.4281
0.911391, -1, 21.4096, 23.1268, 15.5108, 12.7801, 103.971, -73.5588
0.91939, -1, 21.2174, 23.0281, 15.5498, 12.7827, 103.868, -73.8204
0.927423, -1, 21.025, 22.9295, 15.5887, 12.7855, 103.764, -74.082
0.937455, -1, 20.7363, 22.7815, 15.6471, 12.7895, 103.61, -74.4735
0.943384, -1, 20.64, 22.7322, 15.6666, 12.7909, 103.558, -74.6041
0.95143, -1, 20.4472, 22.6336, 15.7054, 12.7936, 103.455, -74.8654
0.961013, -1, 20.1569, 22.4856, 15.7639, 12.7976, 103.301, -75.2575
0.967375, -1, 20.06, 22.4362, 15.7833, 12.799, 103.249, -75.388
0.977004, -1, 19.8664, 22.3375, 15.8221, 12.8031, 103.095, -75.7797
0.985211, -1, 19.6728, 22.2389, 15.8609, 12.8044, 102.992, -76.0409
0.991377, -1, 19.4792, 22.1403, 15.8999, 12.8072, 102.94, -76.1716
0.999442, -1, 19.286, 22.0417, 15.9387, 12.8099, 102.837, -76.4327
1.0074, -1, 19.0931, 21.943, 15.9776, 12.8126, 102.734, -76.6935
1.01539, -1, 18.9005, 21.8444, 16.0165, 12.8154, 102.631, -76.9543
1.02344, -1, 18.7081, 21.7456, 16.0553, 12.8181, 102.528, -77.2154
1.03141, -1, 18.5163, 21.6469, 16.0941, 12.8208, 102.425, -77.4763
1.03945, -1, 18.3244, 21.5484, 16.133, 12.8234, 102.322, -77.7369
1.04738, -1, 18.1325, 21.4499, 16.1718, 12.8259, 102.22, -77.9976
1.0554, -1, 17.9407, 21.3514, 16.2107, 12.8285, 102.117, -78.2585
1.06347, -1, 17.7488, 21.2531, 16.2496, 12.831, 102.014, -78.5192
1.07147, -1, 17.5565, 21.1548, 16.2884, 12.8335, 101.911, -78.7796
1.07939, -1, 17.3639, 21.0565, 16.3273, 12.8359, 101.808, -79.0398
1.08744, -1, 17.1709, 20.9582, 16.366, 12.8383, 101.705, -79.3005
1.09539, -1, 16.9778, 20.86, 16.4048, 12.8407, 101.602, -79.5612
1.10343, -1, 16.7848, 20.7618, 16.4436, 12.8431, 101.499, -79.8216
1.11144, -1, 16.5917, 20.6636, 16.4824, 12.8454, 101.396, -80.0821
1.11938, -1, 16.3987, 20.5654, 16.5211, 12.8477, 101.294, -80.3426
1.12739, -1, 16.2062, 20.4671, 16.5598, 12.8499, 101.191, -80.6032
1.13546, -1, 16.0141, 20.3687, 16.5986, 12.8523, 101.088, -80.8636
1.14337, -1, 15.8222, 20.2702, 16.6373, 12.8545, 100.986, -81.1237
1.15142, -1, 15.6307, 20.1717, 16.6759, 12.8569, 100.883, -81.3838
1.15943, -1, 15.4396, 20.0733, 16.7145, 12.8593, 100.78, -81.644
1.16739, -1, 15.2484, 19.9751, 16.7532, 12.8616, 100.678, -81.9041
1.17565, -1, 15.0573, 19.8768, 16.792, 12.8638, 100.575, -82.1639
1.18341, -1, 14.866, 19.7786, 16.8306, 12.8661, 100.473, -82.4237
1.19146, -1, 14.6746, 19.6805, 16.8693, 12.8684, 100.37, -82.6837
1.19984, -1, 14.4829, 19.5824, 16.908, 12.8707, 100.267, -82.9437
1.20747, -1, 14.2908, 19.4843, 16.9467, 12.873, 100.165, -83.2033
1.2155, -1, 14.0986, 19.3864, 16.9854, 12.8752, 100.062, -83.4627
1.22398, -1, 13.9062, 19.2884, 17.024, 12.8775, 99.9597, -83.7225
1.23244, -1, 13.7136, 19.1906, 17.0626, 12.8798, 99.8575, -83.9822
1.23938, -1, 13.5212, 19.0928, 17.1013, 12.8822, 99.7549, -84.2415
1.2482, -1, 13.329, 18.9949, 17.1399, 12.8845, 99.6524, -84.5007
1.25542, -1, 13.1373, 18.897, 17.1784, 12.8868, 99.5504, -84.76
1.26343, -1, 12.946, 18.799, 17.2171, 12.8892, 99.4478, -85.0195
1.27225, -1, 12.7549, 18.701, 17.2556, 12.8915, 99.3455, -85.2787
1.27961, -1, 12.5641, 18.6031, 17.2941, 12.894, 99.2433, -85.5376
1.28762, -1, 12.3737, 18.5053, 17.3327, 12.8964, 99.1409, -85.7964
1.2966, -1, 12.1836, 18.4076, 17.3712, 12.8988, 99.0388, -86.0553
1.30377, -1, 11.9934, 18.3099, 17.4097, 12.9011, 98.9368, -86.3143
1.31193, -1, 11.8029, 18.2123, 17.4484, 12.9036, 98.8347, -86.5727
1.32053, -1, 11.6123, 18.1147, 17.4869, 12.9061, 98.7329, -86.8313
1.32791, -1, 11.4213, 18.017, 17.5254, 12.9085, 98.6309, -87.0899
1.33656, -1, 11.2302, 17.9195, 17.564, 12.911, 98.529, -87.3485
1.344, -1, 11.0388, 17.822, 17.6025, 12.9134, 98.4272, -87.6068
1.35195, -1, 10.943, 17.7733, 17.641, 12.9159, 98.3252, -87.865
1.36036, -1, 10.6553, 17.6271, 17.6794, 12.9183, 98.2232, -88.1233
1.36814, -1, 10.5595, 17.5784, 17.6986, 12.9196, 98.1723, -88.2525
1.37537, -1, 10.3683, 17.4809, 17.737, 12.9222, 98.0706, -88.5109
1.38342, -1, 10.1772, 17.3834, 17.7755, 12.9247, 97.9686, -88.7688
1.39138, -1, 9.98663, 17.2857, 17.8138, 12.9274, 97.8669, -89.0269
1.39936, -1, 9.79638, 17.1882, 17.8521, 12.93, 97.7649, -89.285
1.40865, -1, 9.51178, 17.042, 17.9097, 12.9341, 97.6119, -89.6723
1.41537, -1, 9.41717, 16.9934, 17.9288, 12.9355, 97.5611, -89.801
1.42338, -1, 9.22793, 16.896, 17.9672, 12.9382, 97.4591, -90.0587
1.43289, -1, 8.94392, 16.7502, 18.0247, 12.9422, 97.3064, -90.445
1.44091, -1, 8.75447, 16.653, 18.0631, 12.9448, 97.2048, -90.7026
1.44889, -1, 8.56492, 16.5558, 18.1016, 12.9474, 97.1031, -90.9598
1.457, -1, 8.37509, 16.4588, 18.1399, 12.9502, 97.0017, -91.217
1.46336, -1, 8.27999, 16.4103, 18.1591, 12.9515, 96.951, -91.3455
1.47295, -1, 7.99415, 16.2649, 18.2166, 12.9553, 96.7984, -91.7314
1.48114, -1, 7.89886, 16.168, 18.2549, 12.9581, 96.697, -91.9883
1.48737, -1, 7.70828, 16.1196, 18.274, 12.9594, 96.6463, -92.1167
1.49637, -1, 7.51775, 16.0227, 18.3123, 12.9619, 96.5447, -92.3734
1.50336, -1, 7.32744, 15.9257, 18.3505, 12.9645, 96.4434, -92.6302
1.51236, -1, 7.13739, 15.8287, 18.3886, 12.967, 96.3423, -92.8872
1.51943, -1, 6.94776, 15.7317, 18.427, 12.9695, 96.2409, -93.1435
1.52737, -1, 6.75858, 15.6348, 18.4652, 12.972, 96.1399, -93.3999
1.5354, -1, 6.56996, 15.538, 18.5031, 12.9745, 96.0391, -93.6561
1.54343, -1, 6.38165, 15.4412, 18.5413, 12.9771, 95.938, -93.9126
1.55139, -1, 6.19359, 15.3446, 18.5795, 12.9796, 95.8371, -94.1688
1.55943, -1, 6.00551, 15.2479, 18.6176, 12.982, 95.7362, -94.4247
1.56736, -1, 5.81716, 15.1512, 18.6558, 12.9843, 95.6352, -94.6805
1.57537, -1, 5.62873, 15.0545, 18.6939, 12.9866, 95.5344, -94.9366
1.58345, -1, 5.44009, 14.958, 18.732, 12.9889, 95.4336, -95.1924
1.59137, -1, 5.2511, 14.8615, 18.7702, 12.9912, 95.3328, -95.4478
1.59937, -1, 5.06177, 14.7652, 18.8083, 12.9934, 95.2323, -95.7032
1.60749, -1, 4.87233, 14.6688, 18.8462, 12.9957, 95.1314, -95.9588
1.61536, -1, 4.68295, 14.5724, 18.8844, 12.9978, 95.0306, -96.2143
1.62337, -1, 4.49356, 14.4761, 18.9224, 13, 94.93, -96.4692
1.6317, -1, 4.30446, 14.3797, 18.9604, 13.0023, 94.8292, -96.7241
1.63936, -1, 4.11557, 14.2833, 18.9984, 13.0044, 94.7282, -96.9792
1.64737, -1, 3.92717, 14.187, 19.0363, 13.0068, 94.6276, -97.2343
1.65617, -1, 3.73947, 14.0909, 19.0742, 13.009, 94.5266, -97.4891
1.66336, -1, 3.55214, 13.9947, 19.1122, 13.0113, 94.4259, -97.7438
1.67137, -1, 3.36517, 13.8986, 19.15, 13.0136, 94.3256, -97.9984
1.68019, -1, 3.17825, 13.8026, 19.1878, 13.0159, 94.2248, -98.2532
1.6874, -1, 2.99131, 13.7066, 19.2258, 13.0182, 94.124, -98.5079
1.69544, -1, 2.80437, 13.6105, 19.2637, 13.0204, 94.0236, -98.762
1.70428, -1, 2.61712, 13.5146, 19.3016, 13.0227, 93.9229, -99.0162
1.71146, -1, 2.42973, 13.4186, 19.3394, 13.025, 93.8224, -99.2703
1.71946, -1, 2.24216, 13.3228, 19.3772, 13.0273, 93.7222, -99.5245
1.72827, -1, 2.05409, 13.227, 19.4151, 13.0294, 93.6219, -99.7783
1.73542, -1, 1.86594, 13.1312, 19.4529, 13.0318, 93.5218, -100.032
1.74337, -1, 1.67773, 13.0353, 19.4906, 13.034, 93.422, -100.285
1.7523, -1, 1.48949, 12.9395, 19.5283, 13.0362, 93.3218, -100.539
1.75948, -1, 1.3015, 12.8437, 19.5662, 13.0385, 93.2218, -100.792
1.76749, -1, 1.11388, 12.7478, 19.6038, 13.0409, 93.1218, -101.046
1.77656, -1, 0.926838, 12.6522, 19.6416, 13.0433, 93.0217, -101.299
1.78361, -1, 0.740385, 12.5567, 19.6793, 13.0457, 92.922, -101.552
1.79173, -1, 0.554212, 12.4611, 19.7168, 13.0481, 92.8222, -101.805
1.79969, -1, 0.368452, 12.3657, 19.7545, 13.0505, 92.7224, -102.058
1.80788, -1, 0.182937, 12.2704, 19.7922, 13.053, 92.623, -102.31
1.81641, -1, -0.00244959, 12.175, 19.8297, 13.0555, 92.5235, -102.563
1.82389, -1, -0.188016, 12.0797, 19.8673, 13.0579, 92.4239, -102.816
1.83189, -1, -0.373782, 11.9845, 19.905, 13.0604, 92.3246, -103.068
1.84046, -1, -0.559827, 11.8894, 19.9425, 13.0628, 92.225, -103.32
1.84794, -1, -0.746147, 11.7944, 19.98, 13.0653, 92.1255, -103.572
1.8561, -1, -0.839386, 11.7469, 19.9988, 13.0678, 92.0262, -103.824
1.86406, -1, -1.02605, 11.6519, 20.0362, 13.0704, 91.9268, -104.076
1.87137, -1, -1.21297, 11.5568, 20.0737, 13.0716, 91.8771, -104.202
1.87935, -1, -1.39996, 11.4618, 20.1112, 13.0741, 91.7779, -104.453
1.8874, -1, -1.58671, 11.3667, 20.1487, 13.0767, 91.6789, -104.705
1.89535, -1, -1.77309, 11.2716, 20.186, 13.0792, 91.5795, -104.956
1.90336, -1, -1.95907, 11.1766, 20.2235, 13.0818, 91.4804, -105.208
1.91137, -1, -2.14445, 11.0817, 20.2609, 13.0845, 91.3813, -105.459
1.91935, -1, -2.32938, 10.9868, 20.2982, 13.0871, 91.2821, -105.709
1.9274, -1, -2.51403, 10.892, 20.3356, 13.0898, 91.183, -105.96
1.93536, -1, -2.69815, 10.7973, 20.3729, 13.0925, 91.0839, -106.212
1.94483, -1, -2.97391, 10.6552, 20.4289, 13.0964, 90.9353, -106.588
1.9514, -1, -3.06595, 10.6078, 20.4476, 13.0977, 90.8859, -106.713
1.95935, -1, -3.2501, 10.5132, 20.4848, 13.1003, 90.787, -106.963
1.96893, -1, -3.5269, 10.3715, 20.5406, 13.1041, 90.6386, -107.339
1.97541, -1, -3.6193, 10.3243, 20.5593, 13.1054, 90.5892, -107.465
1.98336, -1, -3.80422, 10.2299, 20.5965, 13.1079, 90.4905, -107.714
1.99135, -1, -3.98953, 10.1355, 20.6338, 13.1103, 90.3917, -107.964
1.99935, -1, -4.17497, 10.0412, 20.671, 13.1128, 90.2931, -108.214
2.00836, -1, -4.3607, 9.94693, 20.7081, 13.1151, 90.1945, -108.464
2.01543, -1, -4.54612, 9.85251, 20.7454, 13.1174, 90.0959, -108.714
2.02336, -1, -4.7312, 9.75826, 20.7826, 13.1197, 89.9975, -108.963
2.03142, -1, -4.9159, 9.66409, 20.8197, 13.1221, 89.8989, -109.213
2.03938, -1, -5.10007, 9.57004, 20.8567, 13.1244, 89.8004, -109.462
2.04735, -1, -5.28358, 9.47598, 20.894, 13.1268, 89.7022, -109.711
2.05542, -1, -5.46675, 9.38207, 20.931, 13.1291, 89.6037, -109.96
2.06337, -1, -5.64942, 9.28816, 20.9681, 13.1314, 89.5054, -110.209
2.07135, -1, -5.83179, 9.19425, 21.0052, 13.1337, 89.4074, -110.458
2.07958, -1, -6.01413, 9.10037, 21.0422, 13.136, 89.3092, -110.707
2.08734, -1, -6.19667, 9.00651, 21.0792, 13.1382, 89.211, -110.955
2.09534, -1, -6.37942, 8.91282, 21.1162, 13.1405, 89.1133, -111.203
2.10345, -1, -6.56249, 8.81913, 21.1531, 13.1426, 89.0153, -111.452
2.11139, -1, -6.74587, 8.72544, 21.1899, 13.1447, 88.9173, -111.7
2.11936, -1, -6.92977, 8.63183, 21.2268, 13.1468, 88.8195, -111.948
2.12742, -1, -7.11375, 8.53824, 21.2637, 13.149, 88.7216, -112.195
2.13534, -1, -7.29808, 8.44465, 21.3006, 13.1511, 88.6238, -112.443
2.14334, -1, -7.4821, 8.35097, 21.3375, 13.1532, 88.5262, -112.691
2.15143, -1, -7.66582, 8.25747, 21.3742, 13.1553, 88.4286, -112.938
2.15936, -1, -7.84915, 8.16405, 21.411, 13.1576, 88.331, -113.186
2.16735, -1, -8.03198, 8.07067, 21.4479, 13.1599, 88.2338, -113.433
2.17554, -1, -8.21414, 7.9774, 21.4846, 13.162, 88.1364, -113.68
2.18339, -1, -8.39573, 7.88412, 21.5214, 13.1643, 88.0389, -113.927
2.1914, -1, -8.57685, 7.79088, 21.5583, 13.1665, 87.9417, -114.174
2.19968, -1, -8.75764, 7.69769, 21.595, 13.1688, 87.8442, -114.42
2.20746, -1, -8.93833, 7.60451, 21.6318, 13.171, 87.7467, -114.666
2.21545, -1, -9.11927, 7.51141, 21.6686, 13.1733, 87.6496, -114.913
2.22384, -1, -9.30037, 7.41849, 21.7052, 13.1756, 87.5523, -115.16
2.23145, -1, -9.48191, 7.32565, 21.7419, 13.1778, 87.4551, -115.406
2.23936, -1, -9.6637, 7.23282, 21.7786, 13.18, 87.3582, -115.652
2.2481, -1, -9.84589, 7.14005, 21.8152, 13.1822, 87.2608, -115.898
2.25641, -1, -10.0284, 7.0473, 21.8517, 13.1844, 87.1637, -116.144
2.26341, -1, -10.211, 6.95455, 21.8884, 13.1867, 87.0667, -116.39
2.27227, -1, -10.3936, 6.86178, 21.925, 13.1888, 86.9693, -116.635
2.27956, -1, -10.576, 6.76907, 21.9616, 13.191, 86.8722, -116.88
2.28775, -1, -10.7581, 6.67643, 21.9982, 13.1934, 86.7754, -117.126
2.29647, -1, -10.9397, 6.58383, 22.0346, 13.1958, 86.6783, -117.371
2.30373, -1, -11.1205, 6.49128, 22.0711, 13.1982, 86.5816, -117.616
2.31188, -1, -11.3006, 6.39881, 22.1077, 13.2006, 86.4851, -117.861
2.32061, -1, -11.4803, 6.30632, 22.1442, 13.2031, 86.3883, -118.106
2.32788, -1, -11.6598, 6.21387, 22.1806, 13.2055, 86.2916, -118.351
2.33645, -1, -11.839, 6.12146, 22.2172, 13.208, 86.1951, -118.596
2.3447, -1, -12.0182, 6.02919, 22.2536, 13.2104, 86.0984, -118.84
2.35195, -1, -12.1976, 5.93701, 22.29, 13.2129, 86.0018, -119.084
2.36045, -1, -12.3773, 5.84499, 22.3265, 13.2154, 85.9056, -119.328
2.36734, -1, -12.4672, 5.79898, 22.3446, 13.2167, 85.8575, -119.45
2.37535, -1, -12.6475, 5.70696, 22.3808, 13.2191, 85.761, -119.694
2.38442, -1, -12.9187, 5.56909, 22.4354, 13.2228, 85.6171, -120.06
2.39134, -1, -13.0092, 5.52314, 22.4536, 13.224, 85.5691, -120.182
2.39934, -1, -13.1904, 5.43113, 22.4898, 13.2265, 85.4731, -120.425
2.40859, -1, -13.4621, 5.29319, 22.5442, 13.2301, 85.3294, -120.791
2.41538, -1, -13.5525, 5.24724, 22.5623, 13.2314, 85.2816, -120.912
2.42469, -1, -13.823, 5.10945, 22.6165, 13.2353, 85.1378, -121.277
2.43136, -1, -13.913, 5.06353, 22.6346, 13.2365, 85.0899, -121.398
2.4394, -1, -14.092, 4.97178, 22.6708, 13.2391, 84.9945, -121.641
2.44892, -1, -14.3595, 4.83427, 22.7249, 13.2429, 84.851, -122.005
2.45695, -1, -14.5374, 4.74264, 22.7611, 13.2454, 84.7554, -122.248
2.46339, -1, -14.6262, 4.69682, 22.7792, 13.2467, 84.7077, -122.369
2.47293, -1, -14.8926, 4.55955, 22.8333, 13.2505, 84.564, -122.733
2.48114, -1, -15.0703, 4.46809, 22.8695, 13.2529, 84.4685, -122.975
2.4874, -1, -15.1593, 4.42245, 22.8876, 13.2541, 84.4207, -123.096
2.49695, -1, -15.3375, 4.33117, 22.9237, 13.2565, 84.3249, -123.459
2.50434, -1, -15.5162, 4.23985, 22.9596, 13.2588, 84.2293, -123.58
2.5114, -1, -15.6954, 4.14859, 22.9957, 13.2611, 84.1339, -123.821
2.51935, -1, -15.8746, 4.0574, 23.0316, 13.2634, 84.0383, -124.063
2.52734, -1, -16.0539, 3.96615, 23.0675, 13.2655, 83.9427, -124.305
2.5354, -1, -16.2338, 3.87487, 23.1036, 13.2677, 83.8475, -124.546
2.54335, -1, -16.4134, 3.78368, 23.1395, 13.2698, 83.7519, -124.787
2.55196, -1, -16.5926, 3.6925, 23.1752, 13.272, 83.6565, -125.029
2.55933, -1, -16.7713, 3.60138, 23.2111, 13.2743, 83.5613, -125.27
2.56733, -1, -16.9493, 3.51032, 23.2469, 13.2766, 83.4658, -125.511
2.57613, -1, -17.1264, 3.41935, 23.2827, 13.2788, 83.3705, -125.752
2.58333, -1, -17.303, 3.32842, 23.3185, 13.281, 83.2754, -125.992
2.59134, -1, -17.4794, 3.23755, 23.3543, 13.2831, 83.1802, -126.233
2.60011, -1, -17.6556, 3.14681, 23.39, 13.2853, 83.0853, -126.473
2.60839, -1, -17.8316, 3.05621, 23.4259, 13.2874, 82.9906, -126.713
2.61634, -1, -18.0077, 2.96565, 23.4617, 13.2895, 82.8957, -126.954
2.62436, -1, -18.1841, 2.87524, 23.4974, 13.2916, 82.8009, -127.194
2.63239, -1, -18.3608, 2.78482, 23.5332, 13.2937, 82.7063, -127.434
2.63933, -1, -18.5381, 2.69443, 23.5688, 13.2957, 82.6115, -127.674
2.64815, -1, -18.7158, 2.60405, 23.6044, 13.2978, 82.5169, -127.913
2.65533, -1, -18.8936, 2.51369, 23.6402, 13.2998, 82.4226, -128.152
2.66333, -1, -19.0718, 2.42317, 23.6758, 13.3018, 82.328, -128.392
2.67218, -1, -19.25, 2.33275, 23.7113, 13.3038, 82.2336, -128.631
2.67933, -1, -19.428, 2.24235, 23.747, 13.3058, 82.1396, -128.87
2.68738, -1, -19.6053, 2.15196, 23.7826, 13.308, 82.0455, -129.109
2.69636, -1, -19.7821, 2.0616, 23.8179, 13.3102, 81.9513, -129.348
2.70342, -1, -19.9583, 1.97133, 23.8534, 13.3123, 81.8572, -129.588
2.71149, -1, -20.1337, 1.8811, 23.889, 13.3145, 81.7632, -129.826
2.72053, -1, -20.3087, 1.79096, 23.9245, 13.3168, 81.6692, -130.064
2.72744, -1, -20.4834, 1.70086, 23.9599, 13.3189, 81.5751, -130.303
2.7355, -1, -20.6578, 1.61084, 23.9956, 13.3211, 81.4814, -130.541
2.74383, -1, -20.8324, 1.5209, 24.031, 13.3233, 81.3874, -130.779
2.75155, -1, -21.0073, 1.43112, 24.0664, 13.3255, 81.2937, -131.017
2.75943, -1, -21.1825, 1.34139, 24.102, 13.3277, 81.2, -131.255
2.76888, -1, -21.3581, 1.25162, 24.1374, 13.3299, 81.1061, -131.493
2.77558, -1, -21.5339, 1.16199, 24.1727, 13.332, 81.0122, -131.731
2.78361, -1, -21.71, 1.07238, 24.2082, 13.3342, 80.9185, -131.968
2.79163, -1, -21.8863, 0.9827, 24.2436, 13.3364, 80.8246, -132.205
2.80032, -1, -22.0629, 0.893101, 24.279, 13.3385, 80.7309, -132.443
2.80768, -1, -22.2394, 0.803568, 24.3144, 13.3407, 80.6374, -132.68
2.81599, -1, -22.4157, 0.714083, 24.3496, 13.3429, 80.5437, -132.917
2.82448, -1, -22.5914, 0.624545, 24.3848, 13.3453, 80.4501, -133.154
2.83185, -1, -22.7668, 0.535115, 24.4201, 13.3477, 80.3567, -133.391
2.84042, -1, -22.9412, 0.445712, 24.4553, 13.35, 80.2629, -133.627
2.8479, -1, -23.1149, 0.356349, 24.4904, 13.3525, 80.1694, -133.864
2.85643, -1, -23.2884, 0.267002, 24.5256, 13.3549, 80.076, -134.101
2.86399, -1, -23.375, 0.222322, 24.5608, 13.3573, 79.9825, -134.337
2.87132, -1, -23.5481, 0.133118, 24.5784, 13.3585, 79.9359, -134.456
2.87935, -1, -23.7214, 0.0440194, 24.6136, 13.3609, 79.8425, -134.692
2.88842, -1, -23.9816, -0.0895256, 24.6664, 13.3646, 79.7028, -135.046
2.89532, -1, -24.0684, -0.133996, 24.6839, 13.3658, 79.6562, -135.164
2.90332, -1, -24.2423, -0.222966, 24.7189, 13.3683, 79.5631, -135.399
2.91259, -1, -24.5035, -0.35634, 24.7716, 13.3719, 79.4236, -135.753
2.91932, -1, -24.5908, -0.400778, 24.7892, 13.3731, 79.377, -135.871
2.92733, -1, -24.7656, -0.489687, 24.8242, 13.3755, 79.284, -136.106
2.93681, -1, -25.0282, -0.622959, 24.8768, 13.3791, 79.1446, -136.459
2.94333, -1, -25.1157, -0.667367, 24.8944, 13.3803, 79.098, -136.577
2.95285, -1, -25.3776, -0.800495, 24.9468, 13.3839, 78.9588, -136.929
2.96097, -1, -25.5518, -0.889334, 24.9819, 13.3863, 78.8663, -137.164
2.96732, -1, -25.6386, -0.933699, 24.9994, 13.3875, 78.8197, -137.282
2.97689, -1, -25.8981, -1.06668, 25.0516, 13.3912, 78.6809, -137.634
2.98498, -1, -26.0705, -1.15542, 25.0867, 13.3937, 78.5887, -137.868
2.99131, -1, -26.1566, -1.19976, 25.1042, 13.3949, 78.5423, -137.986
2.99948, -1, -26.3285, -1.28832, 25.1391, 13.3972, 78.4498, -138.22
3.00838, -1, -26.5002, -1.37679, 25.1739, 13.3995, 78.3572, -138.455
3.01532, -1, -26.6723, -1.46518, 25.209, 13.4017, 78.2648, -138.689
3.02341, -1, -26.8444, -1.55347, 25.2439, 13.404, 78.1724, -138.923
3.03132, -1, -27.0168, -1.6416, 25.2787, 13.4062, 78.08, -139.157
3.03932, -1, -27.1893, -1.72983, 25.3136, 13.4084, 77.9879, -139.391
3.0474, -1, -27.362, -1.818, 25.3485, 13.4106, 77.8957, -139.625
3.05532, -1, -27.5351, -1.90605, 25.3832, 13.4127, 77.8037, -139.858
3.0634, -1, -27.7083, -1.99428, 25.4181, 13.4148, 77.7118, -140.091
3.07132, -1, -27.8816, -2.08237, 25.453, 13.4169, 77.6196, -140.325
3.07934, -1, -28.0549, -2.17036, 25.4877, 13.4189, 77.5275, -140.558
3.08739, -1, -28.2281, -2.25839, 25.5225, 13.4209, 77.4357, -140.792
3.09549, -1, -28.401, -2.34644, 25.5574, 13.423, 77.3435, -141.025
3.10332, -1, -28.5736, -2.43441, 25.5921, 13.4252, 77.2514, -141.257
3.11138, -1, -28.7456, -2.52236, 25.6267, 13.4273, 77.1595, -141.49
3.11937, -1, -28.917, -2.61039, 25.6615, 13.4294, 77.0674, -141.723
3.12733, -1, -29.0877, -2.69828, 25.6961, 13.4316, 76.9756, -141.956
3.13538, -1, -29.2583, -2.78612, 25.7307, 13.4337, 76.8839, -142.188
3.14331, -1, -29.4289, -2.8739, 25.7655, 13.4358, 76.7919, -142.421
3.15132, -1, -29.5998, -2.96153, 25.8001, 13.4378, 76.7001, -142.653
3.1594, -1, -29.7708, -3.04908, 25.8346, 13.4398, 76.6083, -142.886
3.16732, -1, -29.9418, -3.13657, 25.8692, 13.4419, 76.5165, -143.118
3.17534, -1, -30.1127, -3.22403, 25.9038, 13.444, 76.4248, -143.35
3.18339, -1, -30.2837, -3.3115, 25.9383, 13.4461, 76.333, -143.582
3.19137, -1, -30.4551, -3.39889, 25.9729, 13.4481, 76.2416, -143.814
3.19939, -1, -30.6268, -3.48639, 26.0075, 13.4501, 76.15, -144.045
3.20747, -1, -30.7986, -3.57382, 26.0419, 13.4522, 76.0586, -144.277
3.21543, -1, -30.9705, -3.66117, 26.0765, 13.4541, 75.9673, -144.508
3.22346, -1, -31.1422, -3.74852, 26.111, 13.4562, 75.8758, -144.739
3.23148, -1, -31.3137, -3.83584, 26.1454, 13.4583, 75.7844, -144.971
3.23943, -1, -31.4848, -3.92314, 26.1798, 13.4604, 75.6934, -145.202
3.24732, -1, -31.6554, -4.01038, 26.2143, 13.4626, 75.6019, -145.433
3.25547, -1, -31.8256, -4.09765, 26.2487, 13.4647, 75.5107, -145.664
3.2634, -1, -31.9955, -4.18488, 26.2831, 13.4669, 75.4198, -145.895
3.27137, -1, -32.165, -4.27203, 26.3175, 13.4691, 75.3286, -146.126
3.27978, -1, -32.3344, -4.35912, 26.3518, 13.4713, 75.2375, -146.356
3.28782, -1, -32.504, -4.44615, 26.386, 13.4734, 75.1468, -146.587
3.29559, -1, -32.6737, -4.5331, 26.4205, 13.4755, 75.0559, -146.817
3.3038, -1, -32.8434, -4.62002, 26.4548, 13.4777, 74.9651, -147.048
3.31168, -1, -33.0131, -4.70693, 26.489, 13.4799, 74.8744, -147.278
3.31974, -1, -33.1828, -4.7938, 26.5232, 13.4821, 74.784, -147.508
3.32787, -1, -33.3527, -4.88063, 26.5576, 13.4843, 74.6932, -147.738
3.3364, -1, -33.5229, -4.96759, 26.5918, 13.4865, 74.6025, -147.968
3.3439, -1, -33.6933, -5.05446, 26.626, 13.4887, 74.5122, -148.198
3.35248, -1, -33.8634, -5.14119, 26.6603, 13.4909, 74.4215, -148.428
3.35992, -1, -33.9485, -5.22789, 26.6944, 13.4932, 74.331, -148.657
3.36832, -1, -34.2039, -5.31463, 26.7285, 13.4955, 74.2406, -148.887
3.37533, -1, -34.2889, -5.35797, 26.7457, 13.4966, 74.1953, -149.001
3.3833, -1, -34.4587, -5.44455, 26.78, 13.4989, 74.1046, -149.231
3.39135, -1, -34.6283, -5.53119, 26.814, 13.5013, 74.014, -149.46
3.3993, -1, -34.7973, -5.61784, 26.8481, 13.5036, 73.9235, -149.689
3.4073, -1, -34.9659, -5.70441, 26.8823, 13.5061, 73.8329, -149.918
3.41653, -1, -35.2183, -5.83414, 26.9334, 13.5097, 73.6974, -150.262
3.42332, -1, -35.3025, -5.87735, 26.9505, 13.5109, 73.6524, -150.376
3.43136, -1, -35.471, -5.9636, 26.9846, 13.5134, 73.5618, -150.605
3.44075, -1, -35.7238, -6.09297, 27.0356, 13.5168, 73.4264, -150.948
3.44733, -1, -35.8081, -6.13605, 27.0526, 13.518, 73.3815, -151.063
3.45685, -1, -36.0609, -6.26524, 27.1038, 13.5217, 73.2458, -151.405
3.46491, -1, -36.2294, -6.35135, 27.1377, 13.5241, 73.1553, -151.634
3.47133, -1, -36.3137, -6.39444, 27.1547, 13.5253, 73.1102, -151.748
3.48093, -1, -36.5669, -6.52379, 27.2056, 13.5288, 72.9746, -152.091
3.48894, -1, -36.6513, -6.60997, 27.2396, 13.5311, 72.8844, -152.319
3.49749, -1, -36.9047, -6.69615, 27.2735, 13.5334, 72.7944, -152.547
3.50335, -1, -36.9892, -6.7392, 27.2904, 13.5345, 72.7493, -152.661
3.51134, -1, -37.1581, -6.82537, 27.3244, 13.5368, 72.6591, -152.889
3.52037, -1, -37.3267, -6.91145, 27.3582, 13.539, 72.5692, -153.117
3.52737, -1, -37.4951, -6.99749, 27.3921, 13.5413, 72.4796, -153.344
3.53532, -1, -37.663, -7.08356, 27.4262, 13.5435, 72.3895, -153.572
3.5433, -1, -37.8307, -7.16958, 27.46, 13.5457, 72.2997, -153.799
3.55136, -1, -37.9982, -7.2555, 27.4938, 13.5479, 72.2101, -154.027
3.55947, -1, -38.1657, -7.34143, 27.5277, 13.5502, 72.1202, -154.254
3.56731, -1, -38.3331, -7.42724, 27.5616, 13.5524, 72.0305, -154.481
3.57536, -1, -38.5003, -7.5129, 27.5954, 13.5545, 71.941, -154.708
3.5833, -1, -38.6677, -7.59863, 27.6292, 13.5565, 71.8513, -154.936
3.59131, -1, -38.8349, -7.68433, 27.6631, 13.5586, 71.7617, -155.163
3.59936, -1, -39.0022, -7.76995, 27.6967, 13.5607, 71.6724, -155.39
3.6073, -1, -39.1697, -7.85557, 27.7304, 13.5627, 71.5832, -155.617
3.61532, -1, -39.3372, -7.94129, 27.7643, 13.5646, 71.4937, -155.843
3.62341, -1, -39.5047, -8.02693, 27.798, 13.5666, 71.4043, -156.07
3.63131, -1, -39.6724, -8.11247, 27.8316, 13.5686, 71.3153, -156.297
3.6393, -1, -39.8401, -8.19795, 27.8654, 13.5705, 71.2257, -156.523
3.64737, -1, -40.0077, -8.28344, 27.8991, 13.5725, 71.1363, -156.75
3.6553, -1, -40.1752, -8.36881, 27.9327, 13.5744, 71.0472, -156.976
3.6633, -1, -40.3425, -8.45415, 27.9665, 13.5764, 70.9578, -157.202
3.67138, -1, -40.5096, -8.53955, 28.0002, 13.5784, 70.8685, -157.428
3.67932, -1, -40.6765, -8.62492, 28.0338, 13.5804, 70.7794, -157.654
3.68737, -1, -40.8432, -8.71029, 28.0674, 13.5824, 70.6904, -157.88
3.69533, -1, -41.0097, -8.79566, 28.1011, 13.5844, 70.6012, -158.106
3.70338, -1, -41.176, -8.88094, 28.1347, 13.5864, 70.5121, -158.332
3.71146, -1, -41.3423, -8.96616, 28.1683, 13.5884, 70.423, -158.558
3.7194, -1, -41.5085, -9.05133, 28.2019, 13.5904, 70.3337, -158.783
3.7274, -1, -41.6747, -9.13643, 28.2355, 13.5924, 70.2445, -159.009
3.73547, -1, -41.841, -9.22151, 28.269, 13.5943, 70.1557, -159.234
3.74336, -1, -42.0076, -9.30653, 28.3027, 13.5964, 70.0665, -159.46
3.75132, -1, -42.1739, -9.39158, 28.3363, 13.5984, 69.9775, -159.685
3.75942, -1, -42.3401, -9.47664, 28.3698, 13.6004, 69.8887, -159.91
3.76733, -1, -42.5065, -9.56158, 28.4033, 13.6025, 69.7996, -160.135
3.7754, -1, -42.6729, -9.64659, 28.4368, 13.6044, 69.7108, -160.361
3.78349, -1, -42.8393, -9.73155, 28.4702, 13.6066, 69.622, -160.586
3.79174, -1, -43.0057, -9.8165, 28.5036, 13.6086, 69.5332, -160.811
3.79957, -1, -43.1719, -9.90143, 28.5372, 13.6106, 69.4444, -161.036
3.8077, -1, -43.338, -9.98638, 28.5706, 13.6128, 69.3557, -161.26
3.81568, -1, -43.504, -10.0713, 28.6041, 13.6148, 69.2673, -161.485
3.82373, -1, -43.67, -10.1563, 28.6376, 13.6169, 69.1785, -161.71
3.83192, -1, -43.8359, -10.2411, 28.6711, 13.619, 69.09, -161.935
3.84046, -1, -44.0016, -10.3259, 28.7044, 13.6211, 69.0017, -162.159
3.84785, -1, -44.1671, -10.4107, 28.7379, 13.6233, 68.913, -162.383
3.8564, -1, -44.3323, -10.4953, 28.7714, 13.6255, 68.8243, -162.608
3.86386, -1, -44.4149, -10.5376, 28.7881, 13.6276, 68.7358, -162.832
3.8723, -1, -44.6627, -10.6644, 28.8381, 13.6298, 68.6471, -163.056
3.87991, -1, -44.7453, -10.7066, 28.8549, 13.6309, 68.6028, -163.168
3.88729, -1, -44.9106, -10.791, 28.8884, 13.6332, 68.5143, -163.392
3.89639, -1, -45.1586, -10.9178, 28.9384, 13.6364, 68.3818, -163.728
3.90337, -1, -45.2413, -10.9601, 28.9551, 13.6375, 68.3375, -163.84
3.9113, -1, -45.4065, -11.0445, 28.9886, 13.6398, 68.2492, -164.064
3.91932, -1, -45.5718, -11.1289, 29.0218, 13.642, 68.161, -164.288
3.92733, -1, -45.737, -11.2134, 29.055, 13.6443, 68.0727, -164.512
3.93529, -1, -45.902, -11.2977, 29.0884, 13.6466, 67.9843, -164.735
3.94333, -1, -46.065, -11.381, 29.1218, 13.6489, 67.8959, -164.959
3.95315, -1, -46.3024, -11.5013, 29.1721, 13.6524, 67.7645, -165.291
3.95934, -1, -46.3786, -11.5395, 29.1889, 13.6536, 67.7215, -165.4
3.96884, -1, -46.5941, -11.6464, 29.2379, 13.6571, 67.5977, -165.713
3.9769, -1, -46.7239, -11.7098, 29.2678, 13.6593, 67.523, -165.903
3.98511, -1, -46.8391, -11.766, 29.2942, 13.6613, 67.4559, -166.072
3.99133, -1, -46.8907, -11.7915, 29.3059, 13.6623, 67.4265, -166.147
4.00094, -1, -46.9816, -11.8375, 29.3255, 13.6637, 67.3549, -166.328
4.0074, -1, -47.0565, -11.8776, 29.3393, 13.6647, 67.3367, -166.374
4.01633, -1, -47.1165, -11.9109, 29.3485, 13.6653, 67.3083, -166.446
4.02331, -1, -47.1621, -11.9367, 29.354, 13.6656, 67.2893, -166.494
4.0313, -1, -47.1952, -11.9555, 29.3567, 13.6657, 67.2775, -166.523
4.03932, -1, -47.218, -11.9681, 29.358, 13.6658, 67.2709, -166.54
4.04731, -1, -47.2323, -11.976, 29.3585, 13.6659, 67.2675, -166.549
4.0553, -1, -47.2404, -11.9803, 29.3588, 13.666, 67.2659, -166.553
4.06334, 2, -47.2442, -11.9823, 29.359, 13.666, 67.2651, -166.554
4.07133, 2, -47.2451, -11.9832, 29.3591, 13.666, 67.2648, -166.555
4.0793, 2, -47.245, -11.9835, 29.3592, 13.666, 67.2646, -166.556
4.08732, 2, -47.2449, -11.9836, 29.3592, 13.666, 67.2645, -166.556
4.09533, 2, -47.245, -11.9837, 29.3593, 13.6661, 67.2644, -166.556
4.10329, 2, -47.2457, -11.9839, 29.3593, 13.6662, 67.2644, -166.556
4.11133, 2, -47.2467, -11.9843, 29.3593, 13.6661, 67.2644, -166.556
4.11934, 2, -47.2484, -11.9849, 29.3593, 13.6661, 67.2644, -166.556
4.12742, 2, -47.2501, -11.9858, 29.3593, 13.6661, 67.2644, -166.556
4.13532, 2, -47.2516, -11.9866, 29.3593, 13.6661, 67.2644, -166.556
4.14332, 2, -47.2529, -11.9874, 29.3593, 13.6661, 67.2644, -166.556
4.1513, 2, -47.2535, -11.9879, 29.3593, 13.6661, 67.2644, -166.556
4.15932, 2, -47.2538, -11.9882, 29.3593, 13.6661, 67.2644, -166.556
4.16733, 2, -47.2539, -11.9883, 29.3593, 13.6662, 67.2644, -166.556
4.17528, 2, -47.2538, -11.9884, 29.3593, 13.6662, 67.2644, -166.556
4.18334, 2, -47.2534, -11.9884, 29.3594, 13.6661, 67.2644, -166.556
4.19134, 2, -47.2529, -11.9883, 29.3594, 13.6661, 67.2644, -166.556
4.19932, 2, -47.2525, -11.9883, 29.3594, 13.6661, 67.2644, -166.556
4.2074, 2, -47.2523, -11.9883, 29.3594, 13.6661, 67.2644, -166.556
4.21545, 2, -47.2522, -11.9884, 29.3594, 13.6661, 67.2644, -166.556
4.22338, 2, -47.2523, -11.9884, 29.3594, 13.6661, 67.2644, -166.556
4.23144, 2, -47.2524, -11.9887, 29.3594, 13.6661, 67.2644, -166.556
4.23943, 2, -47.2528, -11.989, 29.3594, 13.6661, 67.2644, -166.556
4.24734, 2, -47.2534, -11.9893, 29.3594, 13.666, 67.2644, -166.556
4.25532, 2, -47.2538, -11.9896, 29.3594, 13.6661, 67.2644, -166.556
4.26337, 2, -47.254, -11.9897, 29.3594, 13.6661, 67.2644, -166.556
4.27136, 2, -47.2541, -11.9898, 29.3594, 13.6661, 67.2645, -166.556
4.27939, 2, -47.254, -11.9898, 29.3594, 13.6661, 67.2644, -166.556
4.2878, 2, -47.254, -11.9897, 29.3594, 13.666, 67.2644, -166.556
4.29559, 2, -47.2536, -11.9897, 29.3594, 13.6661, 67.2644, -166.556
4.3036, 2, -47.2531, -11.9896, 29.3594, 13.6661, 67.2644, -166.556
4.31204, 2, -47.2528, -11.9896, 29.3594, 13.6661, 67.2644, -166.556
4.32035, 2, -47.2526, -11.9896, 29.3594, 13.666, 67.2644, -166.556
4.3278, 2, -47.2524, -11.9897, 29.3594, 13.6661, 67.2644, -166.556
4.33642, 2, -47.2524, -11.9897, 29.3594, 13.666, 67.2644, -166.556
4.34387, 2, -47.2523, -11.9898, 29.3594, 13.666, 67.2644, -166.556
4.35238, 2, -47.2523, -11.9898, 29.3594, 13.6661, 67.2644, -166.556
4.36015, 2, -47.2524, -11.9899, 29.3594, 13.6661, 67.2644, -166.556
4.36789, 2, -47.2524, -11.9899, 29.3594, 13.666, 67.2645, -166.556
4.37584, 2, -47.2524, -11.9899, 29.3594, 13.666, 67.2645, -166.556
4.38434, 2, -47.2524, -11.9899, 29.3594, 13.666, 67.2645, -166.556
4.39129, 2, -47.2523, -11.9899, 29.3594, 13.666, 67.2645, -166.556
4.3993, 2, -47.2523, -11.9898, 29.3594, 13.666, 67.2645, -166.556
4.4082, 2, -47.2522, -11.9897, 29.3594, 13.666, 67.2645, -166.556
4.41527, 2, -47.2521, -11.9897, 29.3594, 13.666, 67.2645, -166.556
4.4233, 2, -47.2519, -11.9896, 29.3594, 13.666, 67.2645, -166.556
4.43292, 2, -47.2518, -11.9896, 29.3594, 13.666, 67.2645, -166.556
4.44067, 2, -47.2517, -11.9896, 29.3593, 13.6661, 67.2645, -166.556
4.4473, 2, -47.2517, -11.9896, 29.3593, 13.6661, 67.2645, -166.556
4.45718, 2, -47.2516, -11.9897, 29.3594, 13.6661, 67.2645, -166.556
4.46332, 2, -47.2516, -11.9897, 29.3594, 13.6661, 67.2645, -166.556
4.47283, 2, -47.2515, -11.9897, 29.3594, 13.666, 67.2645, -166.556
4.48111, 2, -47.2514, -11.9897, 29.3594, 13.666, 67.2646, -166.556
4.48727, 2, -47.2514, -11.9897, 29.3594, 13.666, 67.2646, -166.556
4.49683, 2, -47.2513, -11.9897, 29.3594, 13.666, 67.2646, -166.556
4.5052, 2, -47.2512, -11.9896, 29.3594, 13.666, 67.2646, -166.555
4.51128, 2, -47.2512, -11.9895, 29.3594, 13.666, 67.2646, -166.555
4.51932, 2, -47.2511, -11.9895, 29.3594, 13.666, 67.2646, -166.555
4.52734, 2, -47.251, -11.9894, 29.3594, 13.666, 67.2646, -166.556
4.53527, 2, -47.2509, -11.9894, 29.3594, 13.666, 67.2646, -166.555
4.5433, 2, -47.2508, -11.9894, 29.3594, 13.666, 67.2646, -166.555
4.5513, 2, -47.2507, -11.9894, 29.3594, 13.666, 67.2647, -166.555
4.55927, 2, -47.2506, -11.9894, 29.3594, 13.666, 67.2646, -166.555
4.5673, 2, -47.2505, -11.9894, 29.3594, 13.666, 67.2646, -166.555
4.57529, 2, -47.2504, -11.9894, 29.3594, 13.666, 67.2646, -166.555
4.58327, 2, -47.2503, -11.9894, 29.3594, 13.666, 67.2646, -166.555
4.5914, 2, -47.2502, -11.9894, 29.3594, 13.666, 67.2646, -166.555
4.59933, 2, -47.2501, -11.9894, 29.3594, 13.666, 67.2646, -166.555
4.60727, 2, -47.25, -11.9893, 29.3594, 13.666, 67.2646, -166.555
4.6153, 2, -47.2499, -11.9892, 29.3594, 13.6659, 67.2646, -166.555
4.62332, 2, -47.2498, -11.9891, 29.3594, 13.6659, 67.2646, -166.555
4.63132, 2, -47.2496, -11.9891, 29.3594, 13.6659, 67.2646, -166.555
4.63931, 2, -47.2495, -11.9891, 29.3594, 13.6659, 67.2647, -166.555
4.6473, 2, -47.2495, -11.9891, 29.3594, 13.6659, 67.2647, -166.555
4.65526, 2, -47.2494, -11.9891, 29.3593, 13.6659, 67.2647, -166.555
4.66331, 2, -47.2493, -11.989, 29.3593, 13.6659, 67.2647, -166.555
4.67133, 2, -47.2493, -11.9891, 29.3593, 13.666, 67.2647, -166.555
4.67928, 2, -47.2492, -11.989, 29.3594, 13.666, 67.2647, -166.555
4.68732, 2, -47.2491, -11.9891, 29.3593, 13.6659, 67.2647, -166.555
4.69532, 2, -47.249, -11.9891, 29.3594, 13.6659, 67.2647, -166.555
4.70331, 2, -47.249, -11.989, 29.3594, 13.6659, 67.2647, -166.555
4.71146, 2, -47.2489, -11.989, 29.3594, 13.6659, 67.2647, -166.555
4.7194, 2, -47.2489, -11.9889, 29.3594, 13.6659, 67.2647, -166.555
4.72739, 2, -47.2488, -11.9888, 29.3594, 13.6658, 67.2647, -166.555
4.73541, 2, -47.2487, -11.9887, 29.3594, 13.6658, 67.2647, -166.555
4.74341, 2, -47.2486, -11.9887, 29.3594, 13.6658, 67.2647, -166.555
4.75128, 2, -47.2486, -11.9887, 29.3594, 13.6658, 67.2647, -166.555
4.75934, 2, -47.2486, -11.9887, 29.3594, 13.6658, 67.2647, -166.555
4.76735, 2, -47.2485, -11.9887, 29.3594, 13.6658, 67.2647, -166.555
4.77534, 2, -47.2485, -11.9887, 29.3594, 13.6658, 67.2647, -166.555
4.78338, 2, -47.2485, -11.9887, 29.3594, 13.6658, 67.2647, -166.555
4.7915, 2, -47.2485, -11.9887, 29.3594, 13.6658, 67.2647, -166.555
4.79961, 2, -47.2484, -11.9886, 29.3594, 13.6657, 67.2647, -166.554
4.8078, 2, -47.2484, -11.9886, 29.3594, 13.6657, 67.2647, -166.554
4.81565, 2, -47.2484, -11.9885, 29.3594, 13.6657, 67.2648, -166.554
4.82373, 2, -47.2483, -11.9885, 29.3594, 13.6657, 67.2648, -166.554
4.83234, 2, -47.2482, -11.9884, 29.3594, 13.6658, 67.2648, -166.554
4.83981, 2, -47.2481, -11.9883, 29.3594, 13.6658, 67.2648, -166.554
4.84839, 2, -47.248, -11.9883, 29.3594, 13.6658, 67.2648, -166.554
4.85602, 2, -47.2479, -11.9883, 29.3594, 13.6657, 67.2648, -166.554
4.86385, 2, -47.2479, -11.9883, 29.3593, 13.6657, 67.2648, -166.554
4.87243, 2, -47.2479, -11.9883, 29.3594, 13.6657, 67.2648, -166.554
4.87982, 2, -47.2478, -11.9883, 29.3594, 13.6656, 67.2648, -166.554
4.88833, 2, -47.2478, -11.9882, 29.3594, 13.6657, 67.2648, -166.554
4.89526, 2, -47.2478, -11.9882, 29.3594, 13.6657, 67.2648, -166.554
4.90329, 2, -47.2479, -11.9882, 29.3594, 13.6656, 67.2648, -166.554
4.9113, 2, -47.2478, -11.9882, 29.3594, 13.6656, 67.2648, -166.554
4.91927, 2, -47.2477, -11.9881, 29.3594, 13.6656, 67.2648, -166.554
4.92728, 2, -47.2477, -11.9881, 29.3593, 13.6656, 67.2649, -166.554
4.93659, 2, -47.2476, -11.988, 29.3594, 13.6655, 67.2649, -166.554
4.94326, 2, -47.2475, -11.9879, 29.3593, 13.6655, 67.265, -166.554
4.9513, 2, -47.2475, -11.9879, 29.3593, 13.6655, 67.2649, -166.554
4.9593, 2, -47.2474, -11.9879, 29.3593, 13.6655, 67.265, -166.554
4.96888, 2, -47.2473, -11.9878, 29.3593, 13.6655, 67.265, -166.554
4.97684, 2, -47.2473, -11.9878, 29.3594, 13.6655, 67.2649, -166.554
4.98484, 2, -47.2473, -11.9878, 29.3593, 13.6656, 67.2649, -166.554
4.99291, 2, -47.2472, -11.9878, 29.3594, 13.6655, 67.265, -166.554
5.00105, 2, -47.2472, -11.9878, 29.3593, 13.6655, 67.265, -166.554
5.00728, 2, -47.2472, -11.9878, 29.3594, 13.6655, 67.265, -166.554
5.01629, 2, -47.2472, -11.9878, 29.3594, 13.6655, 67.265, -166.554
5.02425, 2, -47.2471, -11.9877, 29.3594, 13.6654, 67.265, -166.554
5.03228, 2, -47.2471, -11.9877, 29.3594, 13.6654, 67.2651, -166.554
5.03933, 2, -47.247, -11.9876, 29.3594, 13.6654, 67.265, -166.554
5.04729, 2, -47.2469, -11.9875, 29.3594, 13.6654, 67.2651, -166.554
5.05528, 2, -47.2468, -11.9875, 29.3593, 13.6654, 67.2651, -166.554
5.06375, 2, -47.2467, -11.9875, 29.3593, 13.6654, 67.2651, -166.554
5.07367, 2, -47.2466, -11.9875, 29.3593, 13.6654, 67.2651, -166.554
5.07929, 2, -47.2466, -11.9875, 29.3593, 13.6654, 67.2652, -166.554
5.08729, 2, -47.2466, -11.9874, 29.3593, 13.6654, 67.2652, -166.554
5.09525, 2, -47.2466, -11.9874, 29.3593, 13.6654, 67.2651, -166.554
5.1033, 2, -47.2466, -11.9874, 29.3593, 13.6654, 67.2652, -166.554
5.1114, 2, -47.2466, -11.9874, 29.3594, 13.6653, 67.2652, -166.554
5.11926, 2, -47.2465, -11.9874, 29.3594, 13.6653, 67.2651, -166.554
5.1273, 2, -47.2465, -11.9873, 29.3593, 13.6652, 67.2652, -166.554
5.13534, 2, -47.2464, -11.9873, 29.3593, 13.6652, 67.2652, -166.554
5.14326, 2, -47.2463, -11.9872, 29.3593, 13.6652, 67.2652, -166.554
5.15129, 4, -47.2463, -11.9872, 29.3593, 13.6652, 67.2653, -166.554
5.15929, 4, -47.2462, -11.9871, 29.3593, 13.6652, 67.2652, -166.554
5.16726, 4, -47.2461, -11.9871, 29.3593, 13.6652, 67.2653, -166.554
5.17529, 4, -47.246, -11.9871, 29.3593, 13.6652, 67.2652, -166.554
5.18329, 4, -47.246, -11.9871, 29.3593, 13.6652, 67.2653, -166.553
5.19129, 4, -47.246, -11.9871, 29.3593, 13.6652, 67.2653, -166.553
5.19932, 4, -47.246, -11.987, 29.3593, 13.6652, 67.2653, -166.554
5.20735, 4, -47.2459, -11.987, 29.3593, 13.6651, 67.2652, -166.554
5.21535, 4, -47.2459, -11.987, 29.3593, 13.6652, 67.2653, -166.553
5.22338, 4, -47.2459, -11.987, 29.3593, 13.6651, 67.2653, -166.553
5.2314, 4, -47.2459, -11.9869, 29.3593, 13.6651, 67.2653, -166.553
5.23937, 4, -47.2458, -11.9869, 29.3593, 13.6651, 67.2653, -166.553
5.24749, 4, -47.2457, -11.9869, 29.3593, 13.6651, 67.2653, -166.553
5.26327, 4, -47.2456, -11.9868, 29.3593, 13.6651, 67.2653, -166.553
5.26527, 4, -47.2456, -11.9868, 29.3593, 13.6651, 67.2653, -166.553
5.27166, 4, -47.2455, -11.9868, 29.3593, 13.6651, 67.2653, -166.553
5.28043, 4, -47.2455, -11.9868, 29.3593, 13.6651, 67.2653, -166.553
5.28769, 4, -47.2454, -11.9867, 29.3593, 13.665, 67.2653, -166.553
5.29663, 4, -47.2454, -11.9867, 29.3593, 13.665, 67.2653, -166.553
5.30445, 4, -47.2454, -11.9867, 29.3594, 13.665, 67.2654, -166.553
5.31337, 4, -47.2454, -11.9867, 29.3593, 13.665, 67.2653, -166.553
5.32041, 4, -47.2454, -11.9867, 29.3594, 13.665, 67.2653, -166.553
5.33001, 4, -47.2453, -11.9866, 29.3594, 13.6649, 67.2653, -166.553
5.33658, 4, -47.2453, -11.9866, 29.3594, 13.665, 67.2653, -166.553
5.34451, 4, -47.2453, -11.9865, 29.3593, 13.6649, 67.2653, -166.553
5.35564, 4, -47.2453, -11.9865, 29.3593, 13.6649, 67.2653, -166.553
5.36012, 4, -47.2452, -11.9865, 29.3593, 13.6649, 67.2653, -166.553
5.36888, 4, -47.2451, -11.9865, 29.3593, 13.665, 67.2653, -166.553
5.3764, 4, -47.2451, -11.9865, 29.3593, 13.665, 67.2654, -166.553
5.38493, 4, -47.245, -11.9864, 29.3593, 13.6649, 67.2654, -166.553
5.39213, 4, -47.245, -11.9864, 29.3593, 13.6649, 67.2653, -166.553
5.40012, 4, -47.245, -11.9864, 29.3593, 13.6648, 67.2653, -166.553
5.40739, 4, -47.245, -11.9864, 29.3593, 13.6648, 67.2654, -166.553
5.4154, 4, -47.2451, -11.9865, 29.3594, 13.6648, 67.2654, -166.553
5.42544, 4, -47.2469, -11.9875, 29.3604, 13.6654, 67.2656, -166.553
5.43663, 4, -47.2501, -11.9904, 29.3638, 13.67, 67.2668, -166.552
5.44142, 4, -47.2555, -11.997, 29.3723, 13.6864, 67.2708, -166.55
5.45107, 4, -47.2595, -12.0021, 29.3798, 13.7218, 67.2804, -166.542
5.45569, 4, -47.271, -12.0173, 29.4044, 13.7501, 67.2883, -166.536
5.46518, 5, -47.3011, -12.0579, 29.4771, 13.9002, 67.3305, -166.502
5.4754, 5, -47.3329, -12.0996, 29.5585, 14.0718, 67.3783, -166.463
5.48317, 5, -47.3762, -12.155, 29.6731, 14.3167, 67.4458, -166.406
5.48738, 5, -47.4026, -12.1882, 29.7438, 14.4695, 67.488, -166.371
5.49614, 5, -47.4649, -12.266, 29.9135, 14.8384, 67.5878, -166.286
5.50339, 5, -47.5398, -12.3589, 30.122, 15.2905, 67.7094, -166.183
5.51351, 5, -47.6742, -12.5253, 30.5023, 16.1061, 67.9253, -165.998
5.52256, 5, -47.7765, -12.652, 30.7945, 16.7213, 68.0859, -165.859
5.52739, 5, -47.8308, -12.7194, 30.9502, 17.045, 68.169, -165.788
5.5402, 5, -48.0032, -12.9345, 31.4454, 18.0572, 68.4251, -165.566
5.54346, 5, -48.0629, -13.0095, 31.6173, 18.4024, 68.5108, -165.491
5.55467, 5, -48.2439, -13.2387, 32.1439, 19.4451, 68.7651, -165.269
5.56044, 5, -48.3036, -13.3152, 32.3212, 19.7902, 68.8481, -165.195
5.56771, 5, -48.4197, -13.4661, 32.6756, 20.4694, 69.0111, -165.046
5.57648, 5, -48.5275, -13.6118, 33.0253, 21.1255, 69.1709, -164.886
5.58661, 6, -48.6645, -13.8134, 33.5278, 22.0397, 69.4086, -164.6
5.59528, 6, -48.7333, -13.9352, 33.8412, 22.5922, 69.5693, -164.359
5.59938, 7, -48.7597, -13.9928, 33.9906, 22.8494, 69.6512, -164.218
5.60857, 7, -48.796, -14.1016, 34.274, 23.3269, 69.82, -163.889
5.61548, 7, -48.811, -14.2012, 34.5367, 23.7613, 69.9977, -163.49
5.62694, 8, -48.7971, -14.3321, 34.9001, 24.3528, 70.2859, -162.763
5.63148, 8, -48.7839, -14.3719, 35.0148, 24.5393, 70.3882, -162.49
5.64045, 9, -48.7469, -14.4475, 35.2377, 24.9045, 70.6024, -161.905
5.64745, 9, -48.6989, -14.5184, 35.4564, 25.2661, 70.8277, -161.28
5.65538, 10, -48.6421, -14.5849, 35.6745, 25.6297, 71.0629, -160.629
5.66627, 11, -48.5776, -14.6482, 35.8929, 25.9981, 71.3051, -159.963
5.67141, 11, -48.5069, -14.7105, 36.1132, 26.3723, 71.5518, -159.291
5.68037, 12, -48.4314, -14.7731, 36.3345, 26.7529, 71.8005, -158.62
5.68739, 12, -48.3531, -14.8358, 36.5537, 27.1397, 72.0505, -157.95
5.69897, 13, -48.2327, -14.929, 36.8779, 27.7303, 72.4265, -156.95
5.70371, 13, -48.1917, -14.9597, 36.9844, 27.9292, 72.5517, -156.618
5.71475, 14, -48.0648, -15.0513, 37.298, 28.5301, 72.9265, -155.625
5.72102, 14, -48.0211, -15.0818, 37.4011, 28.7312, 73.0509, -155.295
5.72914, 15, -47.9313, -15.1426, 37.6056, 29.1337, 73.2983, -154.639
5.73549, 15, -47.8378, -15.2024, 37.8067, 29.5356, 73.5431, -153.987
5.74445, 16, -47.7396, -15.2616, 38.0054, 29.9361, 73.7853, -153.338
5.75404, 16, -47.6358, -15.3211, 38.2023, 30.3347, 74.0245, -152.694
5.76037, 17, -47.5262, -15.3815, 38.3964, 30.7317, 74.2606, -152.055
5.77006, 17, -47.4114, -15.443, 38.5872, 31.1269, 74.4932, -151.42
5.77639, 18, -47.2917, -15.5054, 38.7757, 31.5202, 74.7224, -150.789
5.78767, 18, -47.1026, -15.6012, 39.0541, 32.1066, 75.0586, -149.856
5.79247, 19, -47.0372, -15.634, 39.1454, 32.3012, 75.1683, -149.548
5.80134, 19, -46.9027, -15.7012, 39.3268, 32.6893, 75.3844, -148.937
5.80838, 20, -46.7635, -15.7702, 39.5073, 33.0755, 75.5952, -148.333
5.81659, 20, -46.6192, -15.8415, 39.6859, 33.4593, 75.8007, -147.738
5.82441, 21, -46.47, -15.9153, 39.8618, 33.841, 76.0007, -147.15
5.83272, 21, -46.3163, -15.9919, 40.0359, 34.22, 76.195, -146.57
5.84166, 22, -46.1575, -16.0711, 40.2087, 34.5962, 76.3831, -145.997
5.84939, 22, -45.9931, -16.1525, 40.3788, 34.9691, 76.5655, -145.432
5.85603, 23, -45.8229, -16.236, 40.5458, 35.338, 76.7424, -144.874
5.86487, 23, -45.6462, -16.3218, 40.7104, 35.7026, 76.9135, -144.321
5.87331, 24, -45.4628, -16.4093, 40.872, 36.0627, 77.0793, -143.773
5.88076, 24, -45.2725, -16.4984, 41.0294, 36.4175, 77.2397, -143.231
5.88814, 25, -45.0754, -16.5886, 41.1823, 36.7662, 77.3951, -142.693
5.89901, 25, -44.8719, -16.6798, 41.331, 37.1083, 77.5458, -142.159
5.90412, 26, -44.7676, -16.7257, 41.4037, 37.2769, 77.6195, -141.892
5.91318, 26, -44.4447, -16.864, 41.6137, 37.7718, 77.8337, -141.098
5.92664, 27, -44.1064, -17.0019, 41.811, 38.2497, 78.0388, -140.308
5.93242, 27, -43.9904, -17.0475, 41.8737, 38.558, 78.1705, -139.782
5.93677, 28, -43.7534, -17.1381, 41.9946, 38.7092, 78.2351, -139.52
5.94558, 28, -43.5097, -17.2277, 42.1089, 39.0053, 78.3613, -138.997
5.95297, 29, -43.2591, -17.3159, 42.2164, 39.2928, 78.4846, -138.474
5.99207, 31, -42.0386, -17.6895, 42.612, 40.4822, 79, -136.128
5.99533, 31, -41.8928, -17.7281, 42.6471, 40.6037, 79.0539, -135.868
5.99806, 32, -41.7452, -17.7662, 42.6804, 40.7231, 79.1071, -135.608
6.00134, 33, -41.5959, -17.8037, 42.7121, 40.8403, 79.1595, -135.348
6.02383, 33, -40.8251, -17.9809, 42.8444, 41.3959, 79.4123, -134.053
6.02724, 33, -40.666, -18.014, 42.8655, 41.5009, 79.4608, -133.795
6.03322, 33, -40.5053, -18.0463, 42.8848, 41.7047, 79.556, -133.279
6.03633, 34, -40.3434, -18.078, 42.9022, 41.7047, 79.556, -133.279
6.03909, 34, -40.1805, -18.1091, 42.9177, 41.8036, 79.6026, -133.021
6.04229, 34, -40.0165, -18.1395, 42.9315, 41.9005, 79.6486, -132.764
6.0441, 34, -40.0165, -18.1395, 42.9315, 41.9005, 79.6486, -132.764
6.04973, 35, -39.6845, -18.198, 42.9537, 42.0886, 79.7389, -132.25
6.05583, 35, -39.5162, -18.2259, 42.9622, 42.1799, 79.7828, -131.994
6.06342, 36, -39.1747, -18.2792, 42.9738, 42.3566, 79.8695, -131.482
6.07267, 36, -38.8257, -18.3291, 42.9785, 42.5256, 79.9539, -130.971
6.07935, 37, -38.4695, -18.3758, 42.9768, 42.687, 80.0364, -130.461
6.08843, 37, -38.1074, -18.419, 42.9681, 42.8408, 80.1164, -129.954
6.09533, 38, -37.7395, -18.4585, 42.9525, 42.9872, 80.1949, -129.447
6.10436, 38, -37.3668, -18.4945, 42.9303, 43.1263, 80.2709, -128.943
6.11488, 39, -36.7993, -18.5422, 42.8845, 43.3207, 80.3809, -128.189
6.11936, 39, -36.608, -18.5564, 42.8658, 43.382, 80.4165, -127.938
6.12882, 40, -36.2217, -18.5818, 42.8234, 43.4989, 80.4868, -127.44
6.13877, 40, -35.8293, -18.6035, 42.7477, 43.6608, 80.5885, -126.694
6.14669, 41, -35.2297, -18.6284, 42.689, 43.7595, 80.6534, -126.199
6.15244, 41, -35.0271, -18.6349, 42.6572, 43.8061, 80.6851, -125.953
6.16012, 42, -34.6185, -18.6452, 42.5889, 43.8945, 80.7479, -125.462
6.17296, 42, -33.9994, -18.6546, 42.4743, 44.0133, 80.837, -124.729
6.17576, 43, -33.7914, -18.6562, 42.4331, 44.0493, 80.8664, -124.486
6.18351, 43, -33.3724, -18.6568, 42.3461, 44.1159, 80.9233, -124.002
6.19545, 44, -32.7332, -18.6506, 42.2048, 44.2029, 81.0053, -123.28
6.20259, 44, -32.2991, -18.6419, 42.1034, 44.2514, 81.0582, -122.802
6.20847, 45, -32.0796, -18.6361, 42.0505, 44.2733, 81.0836, -122.563
6.21698, 45, -31.637, -18.6217, 41.9401, 44.3114, 81.1337, -122.089
6.22439, 46, -31.1912, -18.604, 41.8238, 44.3416, 81.1826, -121.616
6.23299, 46, -30.7437, -18.5828, 41.7014, 44.364, 81.2289, -121.146
6.24369, 47, -30.0667, -18.5437, 41.5071, 44.3834, 81.2964, -120.445
6.2485, 47, -29.8386, -18.5284, 41.4394, 44.3864, 81.3186, -120.212
6.25955, 48, -29.1441, -18.476, 41.2271, 44.3846, 81.3823, -119.517
6.26445, 48, -28.9095, -18.4564, 41.1534, 44.3794, 81.4031, -119.286
6.2735, 49, -28.4362, -18.4139, 41.0013, 44.3629, 81.445, -118.826
6.28038, 49, -27.9598, -18.367, 40.8435, 44.3376, 81.4864, -118.367
6.28776, 50, -27.481, -18.3157, 40.6793, 44.3022, 81.5269, -117.91
6.29642, 50, -26.9989, -18.2591, 40.5084, 44.2576, 81.5679, -117.453
6.30407, 51, -26.5106, -18.197, 40.3312, 44.2043, 81.6104, -116.997
6.31254, 51, -26.0145, -18.1294, 40.1475, 44.1404, 81.6527, -116.542
6.32054, 52, -25.5115, -18.0563, 39.9563, 44.0673, 81.6954, -116.088
6.32877, 52, -25.0046, -17.9779, 39.7579, 43.9834, 81.7397, -115.635
6.33607, 53, -24.4956, -17.8942, 39.5535, 43.8893, 81.7845, -115.182
6.34584, 53, -23.9838, -17.8047, 39.3423, 43.7854, 81.8293, -114.729
6.35252, 54, -23.4664, -17.709, 39.1231, 43.671, 81.8764, -114.278
6.361, 54, -22.941, -17.607, 38.8973, 43.546, 81.9256, -113.826
6.36832, 54, -22.4076, -17.499, 38.6644, 43.4098, 81.9758, -113.374
6.38235, 55, -21.5992, -17.3253, 38.3011, 43.1835, 82.0568, -112.696
6.38512, 56, -21.3285, -17.2645, 38.1769, 43.1022, 82.0844, -112.471
6.39371, 56, -20.7845, -17.1386, 37.923, 42.931, 82.1409, -112.02
6.40012, 57, -20.5104, -17.0736, 37.6622, 42.7483, 82.2, -111.569
6.40929, 57, -19.6741, -16.8707, 37.3951, 42.554, 82.2599, -111.119
6.41536, 58, -19.3909, -16.8002, 37.2588, 42.4522, 82.2906, -110.894
6.42335, 58, -18.8205, -16.655, 36.982, 42.2394, 82.3542, -110.444
6.43477, 59, -17.9603, -16.4264, 36.5555, 41.8978, 82.4515, -109.77
6.44159, 59, -17.3821, -16.2677, 36.2633, 41.6549, 82.5195, -109.321
6.45104, 60, -16.7951, -16.1045, 35.9652, 41.3994, 82.589, -108.872
6.45771, 60, -16.1978, -15.9357, 35.6614, 41.1309, 82.6613, -108.423
6.46684, 61, -15.5942, -15.7617, 35.3521, 40.8485, 82.7349, -107.975
6.47136, 61, -15.2911, -15.6729, 35.195, 40.7022, 82.773, -107.751
6.48163, 62, -14.3766, -15.4, 34.7146, 40.2437, 82.8907, -107.078
6.48982, 62, -13.7574, -15.2117, 34.387, 39.9209, 82.9727, -106.629
6.49537, 63, -13.4436, -15.115, 34.2215, 39.7542, 83.0148, -106.404
6.50701, 63, -12.4897, -14.8148, 33.7166, 39.2315, 83.1459, -105.729
6.51309, 64, -11.8475, -14.6083, 33.3733, 38.8645, 83.2379, -105.278
6.51968, 64, -11.525, -14.5029, 33.1991, 38.6757, 83.2851, -105.053
6.52913, 65, -10.8744, -14.2864, 32.6681, 38.0869, 83.4339, -104.372
6.53595, 65, -10.2129, -14.0627, 32.4882, 37.883, 83.486, -104.145
6.54566, 66, -9.20332, -13.7163, 31.9418, 37.2468, 83.6495, -103.46
6.55414, 66, -8.8636, -13.5978, 31.5719, 36.8036, 83.7654, -103.001
6.55936, 67, -8.18082, -13.3553, 31.3846, 36.576, 83.8252, -102.77
6.56822, 67, -7.48993, -13.1055, 31.0057, 36.1097, 83.9492, -102.308
6.57534, 68, -6.78894, -12.8477, 30.622, 35.6277, 84.0796, -101.844
6.58441, 68, -6.07935, -12.5832, 30.2347, 35.1303, 84.2164, -101.377
6.59486, 69, -5.00292, -12.1745, 29.6455, 34.3556, 84.4349, -100.672
6.60218, 69, -4.64077, -12.0343, 29.4468, 33.8204, 84.5892, -100.2
6.6107, 70, -3.54138, -11.6032, 28.8471, 33.2712, 84.7502, -99.7249
6.61642, 70, -3.17079, -11.4558, 28.6463, 32.9907, 84.8334, -99.4863
6.62408, 71, -2.42464, -11.1555, 28.2435, 32.419, 85.0048, -99.0079
6.6314, 71, -1.67166, -10.8487, 27.8383, 31.8343, 85.1832, -98.5277
6.64039, 72, -0.911076, -10.5345, 27.432, 31.2366, 85.3691, -98.0447
6.64919, 72, -0.143655, -10.2136, 27.025, 30.6241, 85.5625, -97.5594
6.6563, 73, 0.629892, -9.88546, 26.6178, 30.0004, 85.7636, -97.0713
6.66643, 73, 1.80085, -9.37944, 26.0075, 29.0439, 86.0793, -96.3355
6.67436, 74, 2.58808, -9.0335, 25.6015, 28.3936, 86.2997, -95.8419
6.68034, 74, 2.98328, -8.85847, 25.399, 28.065, 86.4128, -95.5943
6.68841, 75, 3.7767, -8.50361, 24.9963, 27.4006, 86.645, -95.0968
6.69642, 75, 4.5743, -8.14132, 24.596, 26.7286, 86.8847, -94.5977
6.71135, 76, 5.77478, -7.58592, 24.0015, 25.7127, 87.3886, -93.5927
6.71308, 76, 6.17551, -7.39751, 23.8053, 25.3711, 87.3886, -93.5927
6.72509, 77, 7.37878, -6.81975, 23.2236, 24.3455, 87.7874, -92.8326
6.72783, 77, 7.78074, -6.62276, 23.0317, 24.0027, 87.9249, -92.578
6.73628, 78, 8.58488, -6.22264, 22.6507, 23.3153, 88.2072, -92.0674
6.74393, 78, 9.38844, -5.81495, 22.275, 22.6258, 88.4996, -91.5535
6.75224, 79, 10.1918, -5.39774, 21.9036, 21.9353, 88.8029, -91.0362
6.7598, 79, 10.9948, -4.97072, 21.5365, 21.2452, 89.1169, -90.5153
6.76825, 80, 11.7953, -4.53446, 21.1735, 20.5563, 89.4421, -89.9909
6.7753, 80, 12.5916, -4.08929, 20.816, 19.868, 89.7784, -89.4616
6.78329, 81, 13.3831, -3.63412, 20.4631, 19.1862, 90.1255, -88.9274
6.79143, 81, 14.1698, -3.16892, 20.1158, 18.5129, 90.4827, -88.3881
6.79952, 82, 14.9482, -2.69528, 19.7743, 17.8493, 90.849, -87.8448
6.80745, 82, 15.7167, -2.21316, 19.4404, 17.1962, 91.2249, -87.2971
6.8163, 83, 16.4748, -1.72336, 19.1138, 16.5562, 91.6095, -86.7457
6.82365, 83, 17.2217, -1.22697, 18.7955, 15.9334, 92.0021, -86.1913
6.83262, 84, 17.9536, -0.725149, 18.485, 15.327, 92.4017, -85.636
6.83979, 84, 18.6674, -0.219289, 18.1839, 14.7417, 92.8076, -85.0804
6.84883, 85, 19.3642, 0.291664, 17.8917, 14.1793, 93.2187, -84.5252
6.8563, 85, 20.0447, 0.809203, 17.6084, 13.6415, 93.6348, -83.9719
6.86462, 85, 20.7087, 1.33157, 17.3336, 13.128, 94.0543, -83.4212
6.87178, 86, 21.3565, 1.85765, 17.0663, 12.6386, 94.4771, -82.8718
6.8807, 86, 21.9898, 2.38909, 16.8072, 12.1723, 94.904, -82.322
6.88802, 87, 22.3017, 2.6578, 16.68, 11.9477, 95.1195, -82.0466
6.89519, 87, 22.9166, 3.20187, 16.4295, 11.5137, 95.555, -81.4931
6.90318, 88, 23.5205, 3.75459, 16.1835, 11.0986, 95.9967, -80.9352
6.91304, 88, 24.4048, 4.59758, 15.8216, 10.5074, 96.6704, -80.0836
6.92037, 89, 24.9787, 5.17139, 15.5874, 10.133, 97.1279, -79.5037
6.9272, 89, 25.2612, 5.46227, 15.4724, 9.95139, 97.3592, -79.2098
6.93522, 90, 25.8194, 6.05153, 15.2444, 9.60043, 97.8263, -78.6138
6.94533, 90, 26.6443, 6.95222, 14.9088, 9.10189, 98.5386, -77.6956
6.95149, 91, 26.9142, 7.25627, 14.7995, 8.94424, 98.7793, -77.3831
6.9592, 91, 27.444, 7.87154, 14.5847, 8.64251, 99.2654, -76.7496
6.96746, 92, 27.9614, 8.49727, 14.3744, 8.36022, 99.7568, -76.105
6.97521, 92, 28.4693, 9.13377, 14.1688, 8.09982, 100.252, -75.4499
6.98346, 93, 28.9694, 9.77976, 13.9682, 7.86188, 100.751, -74.7868
6.9912, 93, 29.4589, 10.4326, 13.7738, 7.64716, 101.25, -74.1173
6.99939, 94, 29.9351, 11.0907, 13.5875, 7.45634, 101.749, -73.4403
7.00956, 94, 30.3964, 11.752, 13.3226, 7.2141, 102.494, -72.4144
7.01541, 95, 30.843, 12.4157, 13.2378, 7.14528, 102.741, -72.0704
7.0232, 95, 31.2756, 13.0812, 13.0739, 7.02559, 103.233, -71.3776
7.03146, 96, 31.6947, 13.7485, 12.9179, 6.92934, 103.721, -70.679
7.03921, 96, 32.0995, 14.4168, 12.7688, 6.85692, 104.205, -69.9759
7.04722, 97, 32.4889, 15.0855, 12.6259, 6.8086, 104.685, -69.2667
7.05526, 97, 32.8618, 15.7541, 12.4901, 6.78159, 105.16, -68.5518
7.06325, 98, 33.2183, 16.421, 12.3622, 6.77585, 105.63, -67.8335
7.07126, 98, 33.5598, 17.0856, 12.2428, 6.79258, 106.091, -67.1121
7.07916, 99, 33.8874, 17.7457, 12.1324, 6.82949, 106.544, -66.3871
7.08726, 99, 34.2018, 18.4002, 12.0313, 6.88644, 106.987, -65.663
7.09515, 100, 34.5044, 19.0473, 11.9393, 6.96246, 107.417, -64.9401
7.10321, 100, 34.7959, 19.6863, 11.8559, 7.0557, 107.836, -64.2185
7.11148, 101, 35.0756, 20.3155, 11.7812, 7.16616, 108.24, -63.5024
7.11921, 101, 35.3432, 20.9336, 11.7145, 7.29177, 108.631, -62.7923
7.1273, 101, 35.5996, 21.5409, 11.6563, 7.43156, 109.006, -62.0884
7.13526, 102, 35.8443, 22.136, 11.6066, 7.5837, 109.364, -61.3948
7.14323, 102, 36.0765, 22.718, 11.5655, 7.74657, 109.705, -60.7128
7.15119, 103, 36.2985, 23.2845, 11.5332, 7.91889, 110.028, -60.0417
7.15926, 103, 36.513, 23.8352, 11.5098, 8.10005, 110.332, -59.3828
7.16718, 104, 36.7204, 24.3704, 11.4955, 8.29029, 110.618, -58.738
7.17519, 104, 36.92, 24.8893, 11.4893, 8.48973, 110.883, -58.105
7.18328, 104, 37.1131, 25.3915, 11.49, 8.69777, 111.128, -57.4843
7.1912, 104, 37.2999, 25.8778, 11.4973, 8.91323, 111.353, -56.8772
7.19919, 104, 37.478, 26.3473, 11.5096, 9.13417, 111.559, -56.2846
7.20729, 104, 37.6466, 26.8, 11.525, 9.35855, 111.747, -55.7077
7.21529, 104, 37.8079, 27.2371, 11.5433, 9.5838, 111.921, -55.1489
7.22328, 104, 37.964, 27.6582, 11.5638, 9.80733, 112.083, -54.6112
7.23143, 104, 38.1152, 28.0632, 11.5849, 10.0272, 112.235, -54.0965
7.2393, 104, 38.2605, 28.451, 11.6058, 10.2421, 112.379, -53.6043
7.24729, 104, 38.3992, 28.8224, 11.6257, 10.4508, 112.514, -53.1366
7.25536, 104, 38.5307, 29.1757, 11.6443, 10.6525, 112.642, -52.6927
7.2632, 104, 38.6542, 29.5111, 11.662, 10.8462, 112.762, -52.2739
7.2712, 104, 38.7696, 29.8271, 11.6784, 11.0315, 112.874, -51.8803
7.2793, 104, 38.8765, 30.1244, 11.6936, 11.2073, 112.979, -51.5113
7.28728, 104, 38.9756, 30.4033, 11.7079, 11.3734, 113.076, -51.1678
7.29533, 104, 39.0669, 30.6621, 11.721, 11.529, 113.166, -50.8499
7.30343, 104, 39.1504, 30.9014, 11.7328, 11.674, 113.248, -50.557
7.31158, 104, 39.2261, 31.1212, 11.7434, 11.8077, 113.323, -50.2895
7.31957, 104, 39.2939, 31.3208, 11.7533, 11.9301, 113.391, -50.0471
7.32765, 104, 39.3541, 31.5009, 11.7624, 12.0406, 113.451, -49.83
7.33629, 104, 39.4069, 31.6615, 11.7703, 12.1392, 113.505, -49.6379
7.34376, 104, 39.4531, 31.8029, 11.7774, 12.2256, 113.551, -49.4705
7.35227, 104, 39.4934, 31.9259, 11.7839, 12.2997, 113.59, -49.3277
7.35975, 104, 39.5279, 32.0318, 11.7897, 12.3625, 113.624, -49.2083
7.36834, 104, 39.5564, 32.1211, 11.7948, 12.4135, 113.65, -49.1113
7.37587, 104, 39.5797, 32.1953, 11.7994, 12.4532, 113.671, -49.0345
7.38438, 104, 39.5984, 32.2561, 11.8036, 12.4839, 113.687, -48.9767
7.3921, 104, 39.6127, 32.305, 11.8073, 12.5066, 113.698, -48.9347
7.39979, 104, 39.6186, 32.3254, 11.8091, 12.5154, 113.702, -48.9187
7.40833, 104, 39.632, 32.3719, 11.8138, 12.5335, 113.71, -48.8866
7.41617, 104, 39.6352, 32.3834, 11.8151, 12.5374, 113.711, -48.8751
7.42323, 104, 39.64, 32.402, 11.8176, 12.5426, 113.713, -48.8714
7.43251, 104, 39.6439, 32.42, 11.8205, 12.5463, 113.715, -48.8659
7.43925, 104, 39.6445, 32.4238, 11.8212, 12.5469, 113.715, -48.8652
7.44723, 105, 39.645, 32.4291, 11.8223, 12.5476, 113.715, -48.8644
7.45661, 105, 39.6439, 32.4339, 11.8238, 12.548, 113.715, -48.8642
7.46319, 105, 39.6434, 32.435, 11.8241, 12.5481, 113.715, -48.8643
7.47267, 105, 39.6418, 32.4375, 11.8252, 12.5483, 113.715, -48.8647
7.48076, 105, 39.6407, 32.4388, 11.8258, 12.5483, 113.715, -48.8651
7.48912, 105, 39.6397, 32.4401, 11.8263, 12.5483, 113.715, -48.8655
7.49534, 105, 39.6393, 32.4406, 11.8266, 12.5483, 113.715, -48.8657
7.5048, 105, 39.6385, 32.4422, 11.8275, 12.5483, 113.715, -48.8662
7.51275, 105, 39.6383, 32.4427, 11.8277, 12.5483, 113.715, -48.8665
7.52018, 105, 39.6381, 32.4437, 11.8283, 12.5483, 113.715, -48.8666
7.52914, 105, 39.6377, 32.445, 11.829, 12.5483, 113.715, -48.8671
7.53518, 105, 39.6375, 32.4453, 11.8292, 12.5483, 113.715, -48.8672
7.54323, 105, 39.6372, 32.4458, 11.8295, 12.5484, 113.715, -48.8675
7.55123, 105, 39.6369, 32.446, 11.8297, 12.5483, 113.715, -48.8678
7.55919, 105, 39.6366, 32.4462, 11.83, 12.5483, 113.715, -48.868
